Fujifilm Eterna 500T (8573) - Look.cube
# Created by Benjamin (IWLTBAP) : http://luts.iwltbap.com
# Copyright: (C) Copyright 2010-2017 Triune Films and IWLTBAP SAS
# Cannot be resold, shared or otherwise redistributed
TITLE "Film Print Emulation LUTs Pack (Rec.709, sRGB, DCI-P3)"
LUT_3D_SIZE 9
0.000244 0.000000 0.001984
0.063873 0.007172 0.000000
0.150604 0.012085 0.000000
0.248871 0.000000 0.000000
0.331238 0.000000 0.000000
0.410675 0.000000 0.000000
0.491760 0.000000 0.000000
0.582764 0.000000 0.000000
0.681519 0.000000 0.013489
0.000000 0.057587 0.042450
0.066437 0.079041 0.033936
0.193817 0.086517 0.007111
0.300720 0.088470 0.000000
0.407471 0.078339 0.000000
0.505310 0.060394 0.000000
0.596130 0.038025 0.000000
0.688293 0.015778 0.000000
0.790375 0.033112 0.000000
0.000000 0.132416 0.090759
0.089600 0.158234 0.084015
0.189423 0.172180 0.061096
0.298065 0.192993 0.026459
0.415680 0.198395 0.000000
0.527954 0.196198 0.000000
0.625671 0.194885 0.000000
0.723297 0.195435 0.000000
0.836090 0.218201 0.000000
0.000000 0.211945 0.111145
0.107422 0.247131 0.103333
0.219116 0.270752 0.092010
0.318146 0.276062 0.074524
0.423584 0.299225 0.031036
0.542328 0.311066 0.000000
0.645844 0.311005 0.000000
0.749084 0.308716 0.000000
0.865326 0.338501 0.000000
0.044861 0.289703 0.146118
0.157135 0.334503 0.156586
0.261536 0.365753 0.138641
0.368866 0.382599 0.112152
0.451874 0.389038 0.077148
0.555176 0.412415 0.021942
0.666046 0.431305 0.000000
0.775085 0.438232 0.000000
0.891113 0.462006 0.000000
0.118500 0.368744 0.187347
0.203461 0.420410 0.188812
0.288910 0.460754 0.194702
0.427460 0.485718 0.172241
0.497559 0.491638 0.105896
0.582703 0.500305 0.045532
0.680298 0.524933 0.010376
0.795746 0.548859 0.000000
0.911285 0.577606 0.000000
0.182678 0.448090 0.221954
0.242950 0.505371 0.247711
0.346039 0.544678 0.236877
0.479156 0.578186 0.228851
0.562164 0.597870 0.186798
0.625183 0.600098 0.069366
0.712341 0.616302 0.026184
0.819550 0.646118 0.021057
0.932404 0.675842 0.006866
0.221771 0.522247 0.267609
0.275696 0.588318 0.304474
0.414124 0.628235 0.283661
0.535339 0.660797 0.285767
0.614380 0.695862 0.238342
0.680664 0.711853 0.147858
0.757721 0.717560 0.039886
0.864746 0.741669 0.040314
0.953827 0.764648 0.038910
0.255615 0.599030 0.329834
0.364960 0.672729 0.339905
0.485779 0.711243 0.327820
0.595093 0.736542 0.353455
0.668121 0.764740 0.318878
0.728088 0.787018 0.244110
0.795227 0.790131 0.148743
0.885834 0.799530 0.052765
0.968231 0.822876 0.057709
0.011719 0.004425 0.054840
0.067596 0.012299 0.059326
0.139526 0.016724 0.050293
0.235107 0.007568 0.037659
0.343018 0.000000 0.026062
0.425049 0.000000 0.035553
0.512177 0.000000 0.043915
0.597870 0.000000 0.052887
0.695007 0.000000 0.072388
0.000000 0.072693 0.093323
0.068146 0.091949 0.104919
0.190674 0.100952 0.086853
0.304810 0.104126 0.070312
0.437012 0.071289 0.041412
0.558563 0.000000 0.026215
0.643158 0.000000 0.029175
0.726837 0.000000 0.036926
0.839264 0.000000 0.042023
0.000000 0.148895 0.142853
0.018219 0.183197 0.149567
0.178223 0.202362 0.140320
0.321838 0.209137 0.109283
0.440399 0.211823 0.084656
0.558197 0.205688 0.058502
0.676117 0.180969 0.025818
0.791168 0.155548 0.009430
0.914612 0.167053 0.002655
0.000000 0.231812 0.192444
0.035034 0.274231 0.193329
0.211456 0.295227 0.190948
0.328827 0.306549 0.170868
0.443604 0.331116 0.129852
0.562164 0.334442 0.098694
0.673431 0.329407 0.069092
0.802277 0.310577 0.024933
0.927155 0.334869 0.013397
0.004517 0.321136 0.222809
0.079071 0.368439 0.230164
0.224701 0.400909 0.208374
0.378754 0.418945 0.203796
0.471069 0.423431 0.184998
0.575104 0.452087 0.145264
0.687897 0.464661 0.108124
0.810669 0.458405 0.067749
0.936310 0.474091 0.040497
0.016022 0.405304 0.251465
0.122925 0.459381 0.275146
0.278961 0.490448 0.273987
0.429810 0.517639 0.252625
0.523712 0.531433 0.224976
0.604492 0.539001 0.185394
0.702850 0.568604 0.147003
0.826233 0.584290 0.108917
0.944275 0.602203 0.090485
0.109955 0.482880 0.300720
0.199249 0.538635 0.330597
0.308899 0.582489 0.307953
0.457367 0.611816 0.283173
0.579468 0.631836 0.301453
0.648254 0.639923 0.228363
0.735107 0.655243 0.181030
0.849426 0.680420 0.143524
0.953308 0.707947 0.135040
0.185150 0.552979 0.346832
0.224182 0.623199 0.371613
0.376740 0.658569 0.392578
0.527405 0.690948 0.379364
0.624298 0.720337 0.358093
0.702301 0.742157 0.307587
0.777008 0.749176 0.218781
0.881744 0.769135 0.163330
0.965942 0.789001 0.175964
0.131866 0.642731 0.441925
0.227661 0.717712 0.477448
0.396698 0.749298 0.499847
0.545929 0.771149 0.506226
0.647644 0.792664 0.489319
0.735779 0.819672 0.468719
0.814240 0.833130 0.418091
0.898041 0.843994 0.337585
0.978638 0.861389 0.337891
0.043213 0.000000 0.119385
0.089996 0.008972 0.117157
0.132874 0.024628 0.116913
0.208130 0.033386 0.118225
0.299500 0.034027 0.114349
0.406555 0.012207 0.109161
0.519196 0.000000 0.106110
0.604034 0.000000 0.115631
0.706573 0.000000 0.135406
0.012268 0.088989 0.179321
0.086517 0.104004 0.178162
0.176270 0.112091 0.179016
0.277283 0.116516 0.175293
0.383606 0.124023 0.166687
0.511261 0.106140 0.146240
0.638824 0.022888 0.124908
0.739197 0.000000 0.130219
0.850159 0.000000 0.142883
0.000000 0.170319 0.218903
0.000000 0.204010 0.247681
0.176971 0.222687 0.246948
0.304352 0.230103 0.227539
0.429901 0.235260 0.206818
0.574890 0.217468 0.180084
0.708466 0.176636 0.152283
0.827362 0.136414 0.136047
0.943634 0.143555 0.139862
0.000000 0.251892 0.264221
0.000000 0.289398 0.289032
0.118896 0.331085 0.296173
0.298706 0.344482 0.301483
0.450806 0.341736 0.247711
0.576294 0.339996 0.220490
0.701508 0.331451 0.194519
0.847778 0.305176 0.160767
0.962097 0.321411 0.157715
0.000000 0.341675 0.314301
0.000000 0.387451 0.340149
0.131836 0.429413 0.342682
0.348907 0.444580 0.366302
0.465729 0.458099 0.329529
0.579926 0.473053 0.285919
0.696167 0.473969 0.245361
0.835876 0.461304 0.208649
0.959167 0.473297 0.198578
0.000000 0.425903 0.359650
0.007141 0.484161 0.378662
0.188538 0.521423 0.383301
0.359741 0.544586 0.389008
0.506134 0.566833 0.364349
0.608704 0.569702 0.343872
0.711334 0.592682 0.305450
0.841675 0.596222 0.257141
0.958008 0.610229 0.244507
0.009857 0.510223 0.393555
0.014557 0.575348 0.421936
0.215454 0.610168 0.432465
0.420746 0.631744 0.453033
0.559357 0.652435 0.427582
0.654114 0.668610 0.393127
0.742462 0.679810 0.351715
0.856842 0.707794 0.308502
0.964417 0.725525 0.294556
0.013977 0.588226 0.435852
0.046692 0.653900 0.467102
0.278198 0.687592 0.489807
0.448914 0.720642 0.485046
0.578247 0.745453 0.463867
0.700836 0.765167 0.465424
0.782593 0.777039 0.407196
0.887268 0.794434 0.360291
0.970490 0.816772 0.352997
0.007263 0.666748 0.533752
0.011871 0.743103 0.571686
0.250916 0.776215 0.588623
0.462616 0.797638 0.602386
0.591248 0.821411 0.594635
0.702637 0.838348 0.586060
0.810852 0.858185 0.564575
0.897278 0.865448 0.512451
0.978363 0.881165 0.498322
0.077972 0.000000 0.151031
0.111023 0.000000 0.170990
0.156128 0.011292 0.179657
0.215942 0.035095 0.186859
0.280304 0.059845 0.190125
0.364868 0.075684 0.187134
0.473114 0.055603 0.185608
0.595154 0.006622 0.188782
0.714905 0.000000 0.198242
0.094757 0.080017 0.240082
0.134003 0.101990 0.256012
0.202576 0.107513 0.257782
0.271088 0.128723 0.257751
0.351318 0.152100 0.248077
0.460510 0.154602 0.242523
0.574554 0.147125 0.242432
0.692871 0.115387 0.236633
0.825867 0.067047 0.232056
0.004425 0.197388 0.324860
0.034912 0.223480 0.339417
0.197083 0.238403 0.325012
0.291809 0.248688 0.321869
0.420624 0.248322 0.316986
0.531189 0.256439 0.305695
0.641693 0.257446 0.298004
0.779907 0.223694 0.269989
0.925476 0.196838 0.261993
0.000000 0.274597 0.344482
0.000000 0.308990 0.370270
0.101318 0.348846 0.407684
0.304352 0.362366 0.396393
0.431763 0.367493 0.379822
0.560913 0.368439 0.352692
0.705963 0.354736 0.323700
0.861450 0.328400 0.296021
0.975372 0.331024 0.296387
0.000000 0.359497 0.392517
0.000000 0.405884 0.421387
0.000000 0.453674 0.444061
0.243500 0.475739 0.442932
0.431793 0.486145 0.449554
0.579651 0.479492 0.399902
0.709290 0.475708 0.365265
0.866150 0.462830 0.332123
0.981049 0.470154 0.323273
0.000000 0.446564 0.432617
0.000000 0.500488 0.465637
0.000000 0.545227 0.484802
0.240723 0.575470 0.488983
0.478912 0.581512 0.514526
0.601685 0.595398 0.479523
0.713440 0.605713 0.431335
0.851196 0.600250 0.388092
0.972290 0.610291 0.371796
0.000000 0.526398 0.478210
0.000000 0.589722 0.515076
0.010284 0.634033 0.520447
0.310608 0.658386 0.530334
0.480682 0.679016 0.522186
0.630432 0.696533 0.511139
0.741577 0.702637 0.489777
0.860931 0.722321 0.444397
0.971466 0.735199 0.429077
0.000000 0.603180 0.522614
0.004089 0.670258 0.552063
0.010101 0.717224 0.558807
0.325653 0.746552 0.574738
0.524750 0.766113 0.581329
0.673035 0.781372 0.569611
0.783783 0.798004 0.544098
0.890076 0.815552 0.509583
0.972504 0.832794 0.486633
0.000000 0.677277 0.603058
0.002167 0.755554 0.640503
0.019684 0.800110 0.644714
0.299744 0.828217 0.658600
0.504211 0.844757 0.669281
0.653625 0.857239 0.668823
0.782623 0.874176 0.650391
0.898193 0.879700 0.631104
0.977631 0.893768 0.606903
0.098145 0.000000 0.234863
0.122681 0.000000 0.247986
0.160889 0.003510 0.249786
0.221710 0.030273 0.246552
0.282227 0.067322 0.238617
0.355072 0.090485 0.244049
0.447540 0.099823 0.253418
0.560760 0.103882 0.263916
0.689972 0.084625 0.285278
0.122131 0.076263 0.296844
0.155670 0.112793 0.323975
0.219269 0.110596 0.330902
0.300140 0.126709 0.330719
0.373016 0.151672 0.331818
0.449890 0.174866 0.331390
0.534119 0.201599 0.328094
0.648346 0.192963 0.330872
0.770966 0.192657 0.349152
0.120361 0.203461 0.382996
0.101776 0.239960 0.427948
0.238251 0.251740 0.420074
0.331360 0.241272 0.410614
0.410889 0.263855 0.407684
0.496338 0.288391 0.396027
0.605927 0.294708 0.387909
0.718689 0.289917 0.384277
0.848724 0.299164 0.402710
0.005493 0.302399 0.457886
0.004395 0.340027 0.472931
0.176178 0.364807 0.483978
0.324768 0.377045 0.466797
0.424957 0.390045 0.462769
0.554932 0.387787 0.459167
0.666748 0.393372 0.446289
0.781464 0.394806 0.438171
0.930786 0.400635 0.434753
0.000000 0.381622 0.469116
0.000000 0.424805 0.502319
0.000000 0.467072 0.538971
0.230225 0.490845 0.547028
0.438293 0.501282 0.534241
0.567596 0.505768 0.522675
0.689453 0.505554 0.496857
0.858551 0.492340 0.463623
0.981781 0.494873 0.453674
0.000000 0.463867 0.509735
0.000000 0.516296 0.544006
0.000000 0.553894 0.565002
0.092621 0.597473 0.582428
0.392944 0.608337 0.579773
0.567505 0.617554 0.580017
0.710876 0.611389 0.537872
0.866577 0.606689 0.507416
0.984283 0.614288 0.492401
0.000000 0.540985 0.548096
0.000000 0.605072 0.581604
0.000000 0.641846 0.598785
0.044373 0.691101 0.621613
0.380463 0.706085 0.624603
0.601685 0.710907 0.631897
0.734650 0.720856 0.603058
0.864899 0.730621 0.561005
0.977722 0.739471 0.544800
0.000000 0.617310 0.583893
0.000000 0.685028 0.630127
0.000000 0.726562 0.645477
0.120728 0.771698 0.654938
0.444244 0.787323 0.662415
0.605591 0.806396 0.649445
0.761749 0.823090 0.645538
0.884583 0.830933 0.624115
0.973633 0.846680 0.600494
0.000000 0.692322 0.658630
0.000000 0.765808 0.701752
0.000000 0.805542 0.719574
0.058167 0.849457 0.732697
0.408386 0.863159 0.739807
0.603851 0.874695 0.741547
0.739624 0.890808 0.723358
0.890045 0.896332 0.722809
0.976196 0.905701 0.697601
0.104523 0.014801 0.311096
0.127563 0.026581 0.325439
0.172577 0.025970 0.332245
0.228424 0.040833 0.333191
0.296143 0.072815 0.328552
0.363251 0.104401 0.321045
0.440338 0.134308 0.313477
0.545502 0.148132 0.328827
0.661530 0.158569 0.357330
0.125671 0.068329 0.369629
0.178192 0.118500 0.416138
0.232483 0.116425 0.425690
0.303589 0.129211 0.426331
0.376587 0.160278 0.414429
0.441956 0.198303 0.396484
0.530151 0.219238 0.396942
0.625732 0.229431 0.405670
0.731476 0.254486 0.430023
0.181458 0.208069 0.448608
0.201965 0.244415 0.475861
0.272125 0.255524 0.481873
0.352386 0.244446 0.485535
0.443237 0.263550 0.479034
0.521057 0.289612 0.476044
0.597504 0.318176 0.474304
0.680176 0.340027 0.469086
0.799927 0.360077 0.485748
0.147522 0.310211 0.512726
0.101440 0.358307 0.564117
0.216614 0.382233 0.576508
0.355804 0.392914 0.562195
0.457947 0.390167 0.539459
0.540649 0.405823 0.539185
0.631042 0.426941 0.530914
0.743469 0.430725 0.522491
0.870117 0.453918 0.535004
0.005981 0.403290 0.572906
0.003448 0.450714 0.592529
0.049713 0.481171 0.619904
0.297272 0.502106 0.619415
0.457825 0.511475 0.597290
0.562103 0.523895 0.592926
0.689850 0.523468 0.586731
0.805878 0.527252 0.574493
0.930420 0.549896 0.583160
0.000000 0.481293 0.582916
0.000000 0.532959 0.619019
0.000000 0.568939 0.638794
0.060181 0.607971 0.682098
0.370697 0.621307 0.672638
0.570404 0.628174 0.657623
0.697449 0.632385 0.645538
0.843048 0.632446 0.624634
0.982391 0.635437 0.605164
0.000000 0.556396 0.618225
0.000000 0.617493 0.655884
0.000000 0.652100 0.673248
0.000000 0.700439 0.703369
0.270020 0.725281 0.706696
0.531738 0.734650 0.699554
0.700897 0.742065 0.695007
0.867279 0.736542 0.660248
0.980469 0.744873 0.649475
0.000000 0.629822 0.655579
0.000000 0.699951 0.693756
0.000000 0.736084 0.706665
0.000000 0.783203 0.734497
0.211639 0.819489 0.747162
0.520325 0.832001 0.748840
0.721558 0.840240 0.739227
0.878815 0.844177 0.721283
0.976685 0.856964 0.705322
0.000000 0.701538 0.715881
0.000000 0.775116 0.759705
0.000000 0.815247 0.774872
0.000000 0.857574 0.796234
0.180756 0.886230 0.808960
0.487579 0.897339 0.811584
0.695282 0.905090 0.810150
0.874969 0.911469 0.796814
0.975830 0.914734 0.777618
0.107269 0.050903 0.398315
0.127441 0.060333 0.415253
0.179321 0.071686 0.416962
0.230194 0.063873 0.413513
0.315735 0.085236 0.400452
0.384644 0.113586 0.393219
0.454895 0.146942 0.392731
0.535675 0.183990 0.382904
0.645325 0.208557 0.414185
0.116211 0.095062 0.458069
0.155457 0.157379 0.491028
0.222015 0.165649 0.501068
0.279541 0.154816 0.505432
0.378937 0.164093 0.503082
0.454102 0.196838 0.487885
0.530518 0.228516 0.477905
0.604736 0.263428 0.459442
0.708801 0.293793 0.483246
0.203094 0.208954 0.517670
0.228729 0.255798 0.547974
0.287262 0.270081 0.563904
0.356873 0.253998 0.574921
0.456909 0.264313 0.575806
0.526581 0.297821 0.558716
0.587219 0.338440 0.536469
0.673309 0.360138 0.533600
0.780334 0.390930 0.556396
0.229858 0.320160 0.569794
0.252655 0.360870 0.588593
0.320862 0.383728 0.598999
0.402435 0.390442 0.621704
0.484985 0.384430 0.619110
0.569977 0.404907 0.605286
0.652954 0.427399 0.604584
0.732178 0.453979 0.597717
0.823212 0.495422 0.606140
0.159973 0.413055 0.626343
0.053741 0.467743 0.686920
0.081604 0.495422 0.709473
0.332092 0.516571 0.710175
0.476196 0.528931 0.694519
0.590118 0.522217 0.668121
0.678680 0.536987 0.662903
0.768585 0.556427 0.645844
0.892548 0.580200 0.653107
0.004456 0.500824 0.679077
0.001770 0.550842 0.700317
0.000641 0.583252 0.715454
0.203308 0.614685 0.747223
0.428436 0.629669 0.738739
0.590088 0.638336 0.720306
0.695953 0.646484 0.712433
0.835358 0.645721 0.699707
0.946320 0.666138 0.704437
0.000000 0.575378 0.688354
0.000000 0.631897 0.727173
0.000000 0.662598 0.740448
0.000000 0.709229 0.784454
0.250244 0.734894 0.802734
0.517395 0.745850 0.790863
0.700165 0.751587 0.773987
0.845795 0.754608 0.759308
0.968872 0.767944 0.751495
0.000000 0.642242 0.716156
0.000000 0.711975 0.761719
0.000000 0.746094 0.777496
0.000000 0.789886 0.809875
0.000000 0.834412 0.838593
0.441315 0.848663 0.825775
0.670105 0.859192 0.817291
0.855896 0.862579 0.802155
0.976685 0.868103 0.793823
0.000000 0.711090 0.771759
0.000000 0.783661 0.814178
0.000000 0.820831 0.834351
0.000000 0.862030 0.862793
0.000000 0.897430 0.880981
0.394989 0.912262 0.878448
0.649963 0.919617 0.875916
0.821075 0.928406 0.858337
0.971802 0.925690 0.848755
0.133728 0.076447 0.464050
0.154755 0.078247 0.473022
0.203369 0.085266 0.477997
0.249786 0.079407 0.479553
0.335297 0.095215 0.474030
0.406952 0.125885 0.457611
0.475494 0.163116 0.437225
0.556122 0.199402 0.448822
0.647888 0.235077 0.472900
0.171722 0.098511 0.511444
0.161957 0.164642 0.568817
0.222260 0.187744 0.585907
0.280029 0.188477 0.581390
0.370941 0.171906 0.575806
0.464355 0.203552 0.552887
0.543427 0.237396 0.523376
0.619751 0.267212 0.519409
0.706238 0.317505 0.543304
0.169586 0.232758 0.604309
0.208527 0.280273 0.645874
0.282104 0.299713 0.653107
0.342590 0.301208 0.653198
0.420685 0.283600 0.652832
0.527618 0.303711 0.646790
0.597839 0.339844 0.629913
0.672485 0.371704 0.612427
0.754608 0.425079 0.604034
0.263489 0.325623 0.628143
0.279419 0.372894 0.667328
0.320221 0.399384 0.685272
0.409241 0.410431 0.696960
0.481323 0.394318 0.697845
0.591431 0.403198 0.698883
0.655426 0.434753 0.679535
0.720459 0.473633 0.653870
0.818024 0.510986 0.664856
0.277344 0.416168 0.664948
0.300507 0.466064 0.685394
0.309082 0.493988 0.705811
0.440552 0.515320 0.723846
0.536560 0.520630 0.734436
0.623718 0.512085 0.745178
0.705933 0.535095 0.733795
0.785217 0.556946 0.718842
0.875702 0.598389 0.725342
0.158081 0.509003 0.732117
0.011475 0.569977 0.797333
0.009979 0.598297 0.808716
0.262268 0.626312 0.837402
0.456024 0.643311 0.834106
0.598969 0.654846 0.813629
0.721100 0.642670 0.790833
0.816437 0.659332 0.773346
0.917511 0.690643 0.766510
0.004822 0.592133 0.778656
0.002655 0.646545 0.803070
0.001129 0.676392 0.812744
0.026672 0.719788 0.865143
0.335388 0.741882 0.868713
0.559418 0.754211 0.853607
0.719879 0.763336 0.838470
0.850616 0.762146 0.829102
0.959473 0.776733 0.822021
0.000397 0.658142 0.789368
0.000000 0.724670 0.826447
0.000000 0.757904 0.843750
0.000000 0.798981 0.878754
0.000000 0.841400 0.918884
0.425385 0.857513 0.916382
0.657806 0.869049 0.905121
0.851959 0.873077 0.885040
0.969513 0.880859 0.876099
0.000000 0.721527 0.824554
0.000000 0.793793 0.867554
0.000000 0.828491 0.883942
0.000000 0.867920 0.918823
0.000000 0.900848 0.948486
0.337555 0.918762 0.952728
0.625519 0.926758 0.938416
0.819702 0.933441 0.925171
0.972229 0.938751 0.912140
0.202942 0.087952 0.542969
0.211914 0.097229 0.563202
0.249908 0.092499 0.571228
0.316162 0.089752 0.577332
0.404022 0.113708 0.567902
0.471313 0.148132 0.547668
0.535309 0.191284 0.543396
0.597839 0.238983 0.542023
0.664429 0.294525 0.536652
0.219238 0.136475 0.595551
0.216705 0.249481 0.691498
0.262634 0.284332 0.707764
0.321777 0.288818 0.711639
0.386200 0.272278 0.706818
0.508484 0.275238 0.694214
0.594971 0.306274 0.662994
0.669373 0.348206 0.629303
0.753143 0.401154 0.640656
0.207275 0.297943 0.699341
0.231903 0.352844 0.751221
0.280090 0.380310 0.768219
0.372894 0.395630 0.769196
0.437134 0.394958 0.762299
0.523407 0.378479 0.760590
0.630249 0.400055 0.746979
0.710419 0.431671 0.710266
0.796356 0.485779 0.709869
0.271698 0.378815 0.733246
0.314453 0.424927 0.753052
0.351959 0.453766 0.761841
0.444336 0.471985 0.777893
0.513611 0.469727 0.789948
0.598358 0.452698 0.806763
0.682831 0.481293 0.793884
0.750641 0.515228 0.768494
0.836945 0.566650 0.753632
0.314209 0.451202 0.746674
0.341644 0.503021 0.770813
0.356323 0.529022 0.779083
0.458649 0.553894 0.808014
0.552704 0.573303 0.827209
0.617523 0.570709 0.823730
0.717499 0.569763 0.822144
0.804138 0.592926 0.803802
0.889648 0.631134 0.800018
0.325409 0.520477 0.756836
0.294586 0.584930 0.805634
0.224304 0.618073 0.851135
0.381317 0.642700 0.866302
0.527191 0.660309 0.873169
0.644348 0.670441 0.875458
0.749329 0.649445 0.871826
0.844177 0.671906 0.859680
0.923523 0.709717 0.849030
0.128967 0.605988 0.842957
0.011444 0.670044 0.895569
0.009033 0.702515 0.901428
0.097778 0.732788 0.939484
0.392303 0.753510 0.944885
0.577515 0.768433 0.940552
0.717438 0.782196 0.928009
0.854614 0.770935 0.906525
0.948944 0.793549 0.895264
0.007172 0.673187 0.869751
0.004333 0.741333 0.898895
0.002319 0.772369 0.910339
0.001282 0.806213 0.944580
0.104095 0.841431 0.980682
0.458832 0.858337 0.974060
0.676178 0.871613 0.961365
0.856873 0.881042 0.946960
0.969299 0.885529 0.943420
0.003235 0.737366 0.884003
0.000000 0.803772 0.917938
0.000000 0.834808 0.930328
0.000000 0.870209 0.965088
0.071289 0.899170 0.984100
0.396149 0.914612 0.986542
0.623444 0.927002 0.986206
0.816559 0.937592 0.977783
0.970490 0.946259 0.968170
