Fujifilm Eterna 500T (8573) - Only contrast.cube
# Created by Benjamin (IWLTBAP) : http://luts.iwltbap.com
# Copyright: (C) Copyright 2010-2017 Triune Films and IWLTBAP SAS
# Cannot be resold, shared or otherwise redistributed
TITLE "Film Print Emulation LUTs Pack (Rec.709, sRGB, DCI-P3)"
LUT_3D_SIZE 9
0.000732 0.000732 0.000732
0.087799 0.000183 0.000183
0.214752 0.000000 0.000000
0.353424 0.000000 0.000000
0.490906 0.000000 0.000000
0.618988 0.000000 0.000000
0.742096 0.000000 0.000000
0.869354 0.000000 0.000000
0.970093 0.000000 0.000000
0.000183 0.087799 0.000183
0.088043 0.088043 0.000000
0.215118 0.088013 0.000000
0.353790 0.087891 0.000000
0.491180 0.087769 0.000000
0.619171 0.087738 0.000000
0.742310 0.087708 0.000000
0.869629 0.087646 0.000000
0.969788 0.087769 0.000000
0.000000 0.214752 0.000000
0.088013 0.215118 0.000000
0.215179 0.215179 0.000000
0.353912 0.215179 0.000000
0.491211 0.215179 0.000000
0.619141 0.215271 0.000000
0.742279 0.215363 0.000000
0.869659 0.215424 0.000000
0.969208 0.215698 0.000000
0.000000 0.353424 0.000000
0.087891 0.353790 0.000000
0.215179 0.353912 0.000000
0.353943 0.353943 0.000000
0.491150 0.353973 0.000000
0.619019 0.354065 0.000000
0.742157 0.354187 0.000000
0.869629 0.354279 0.000000
0.968597 0.354584 0.000000
0.000000 0.490906 0.000000
0.087769 0.491180 0.000000
0.215179 0.491211 0.000000
0.353973 0.491150 0.000000
0.491119 0.491119 0.000000
0.618896 0.491119 0.000000
0.742065 0.491180 0.000000
0.869598 0.491180 0.000000
0.967957 0.491394 0.000000
0.000000 0.618988 0.000000
0.087738 0.619171 0.000000
0.215271 0.619141 0.000000
0.354065 0.619019 0.000000
0.491119 0.618896 0.000000
0.618866 0.618866 0.000000
0.742004 0.618835 0.000000
0.869629 0.618805 0.000000
0.967407 0.618958 0.000000
0.000000 0.742096 0.000000
0.087708 0.742310 0.000000
0.215363 0.742279 0.000000
0.354187 0.742157 0.000000
0.491180 0.742065 0.000000
0.618835 0.742004 0.000000
0.742004 0.742004 0.000000
0.869690 0.741974 0.000000
0.966858 0.742157 0.000000
0.000000 0.869354 0.000000
0.087646 0.869629 0.000000
0.215424 0.869659 0.000000
0.354279 0.869629 0.000000
0.491180 0.869598 0.000000
0.618805 0.869629 0.000000
0.741974 0.869690 0.000000
0.869720 0.869720 0.000000
0.966278 0.869965 0.000000
0.000000 0.970093 0.000000
0.087769 0.969788 0.000000
0.215698 0.969208 0.000000
0.354584 0.968597 0.000000
0.491394 0.967957 0.000000
0.618958 0.967407 0.000000
0.742157 0.966858 0.000000
0.869965 0.966278 0.000000
0.965942 0.965881 0.000000
0.000183 0.000183 0.087799
0.088043 0.000000 0.088043
0.215118 0.000000 0.088013
0.353790 0.000000 0.087891
0.491180 0.000000 0.087769
0.619171 0.000000 0.087738
0.742310 0.000000 0.087708
0.869629 0.000000 0.087646
0.969788 0.000000 0.087769
0.000000 0.088043 0.088043
0.088287 0.088287 0.088287
0.215424 0.088226 0.088226
0.354156 0.088104 0.088104
0.491455 0.087982 0.087982
0.619385 0.087921 0.087921
0.742523 0.087860 0.087860
0.869904 0.087799 0.087799
0.969452 0.087921 0.087921
0.000000 0.215118 0.088013
0.088226 0.215424 0.088226
0.215515 0.215515 0.088165
0.354248 0.215515 0.088043
0.491486 0.215515 0.087921
0.619324 0.215576 0.087830
0.742462 0.215668 0.087799
0.869934 0.215729 0.087738
0.968872 0.216003 0.087860
0.000000 0.353790 0.087891
0.088104 0.354156 0.088104
0.215515 0.354248 0.088043
0.354279 0.354279 0.087891
0.491394 0.354309 0.087769
0.619202 0.354401 0.087708
0.742340 0.354523 0.087646
0.869873 0.354614 0.087585
0.968231 0.354889 0.087677
0.000000 0.491180 0.087769
0.087982 0.491455 0.087982
0.215515 0.491486 0.087921
0.354309 0.491394 0.087769
0.491364 0.491364 0.087646
0.619080 0.491364 0.087555
0.742249 0.491394 0.087494
0.869843 0.491425 0.087433
0.967621 0.491638 0.087555
0.000000 0.619171 0.087738
0.087921 0.619385 0.087921
0.215576 0.619324 0.087830
0.354401 0.619202 0.087708
0.491364 0.619080 0.087555
0.619019 0.619019 0.087463
0.742188 0.619019 0.087433
0.869873 0.618958 0.087341
0.967041 0.619110 0.087463
0.000000 0.742310 0.087708
0.087860 0.742523 0.087860
0.215668 0.742462 0.087799
0.354523 0.742340 0.087646
0.491394 0.742249 0.087494
0.619019 0.742188 0.087433
0.742188 0.742188 0.087372
0.869934 0.742157 0.087280
0.966492 0.742310 0.087402
0.000000 0.869629 0.087646
0.087799 0.869904 0.087799
0.215729 0.869934 0.087738
0.354614 0.869873 0.087585
0.491425 0.869843 0.087433
0.618958 0.869873 0.087341
0.742157 0.869934 0.087280
0.869965 0.869965 0.087189
0.965912 0.870209 0.087311
0.000000 0.969788 0.087769
0.087921 0.969452 0.087921
0.216003 0.968872 0.087860
0.354889 0.968231 0.087677
0.491638 0.967621 0.087555
0.619110 0.967041 0.087463
0.742310 0.966492 0.087402
0.870209 0.965912 0.087311
0.965576 0.965576 0.087463
0.000000 0.000000 0.214752
0.088013 0.000000 0.215118
0.215179 0.000000 0.215179
0.353912 0.000000 0.215179
0.491211 0.000000 0.215179
0.619141 0.000000 0.215271
0.742279 0.000000 0.215363
0.869659 0.000000 0.215424
0.969208 0.000000 0.215698
0.000000 0.088013 0.215118
0.088226 0.088226 0.215424
0.215515 0.088165 0.215515
0.354248 0.088043 0.215515
0.491486 0.087921 0.215515
0.619324 0.087830 0.215576
0.742462 0.087799 0.215668
0.869934 0.087738 0.215729
0.968872 0.087860 0.216003
0.000000 0.215179 0.215179
0.088165 0.215515 0.215515
0.215576 0.215576 0.215576
0.354340 0.215576 0.215576
0.491486 0.215576 0.215576
0.619263 0.215637 0.215637
0.742432 0.215729 0.215729
0.869965 0.215790 0.215790
0.968323 0.216064 0.216064
0.000000 0.353912 0.215179
0.088043 0.354248 0.215515
0.215576 0.354340 0.215576
0.354370 0.354370 0.215546
0.491425 0.354401 0.215546
0.619141 0.354492 0.215637
0.742310 0.354614 0.215729
0.869904 0.354675 0.215790
0.967682 0.354980 0.216064
0.000000 0.491211 0.215179
0.087921 0.491486 0.215515
0.215576 0.491486 0.215576
0.354401 0.491425 0.215546
0.491364 0.491364 0.215546
0.619019 0.491364 0.215637
0.742188 0.491394 0.215729
0.869873 0.491425 0.215790
0.967041 0.491638 0.216064
0.000000 0.619141 0.215271
0.087830 0.619324 0.215576
0.215637 0.619263 0.215637
0.354492 0.619141 0.215637
0.491364 0.619019 0.215637
0.618988 0.618988 0.215698
0.742157 0.618958 0.215790
0.869904 0.618896 0.215851
0.966461 0.619049 0.216125
0.000000 0.742279 0.215363
0.087799 0.742462 0.215668
0.215729 0.742432 0.215729
0.354614 0.742310 0.215729
0.491394 0.742188 0.215729
0.618958 0.742157 0.215790
0.742126 0.742126 0.215881
0.869965 0.742096 0.215942
0.965912 0.742279 0.216248
0.000000 0.869659 0.215424
0.087738 0.869934 0.215729
0.215790 0.869965 0.215790
0.354675 0.869904 0.215790
0.491425 0.869873 0.215790
0.618896 0.869904 0.215851
0.742096 0.869965 0.215942
0.869965 0.869965 0.216003
0.965332 0.870209 0.216309
0.000000 0.969208 0.215698
0.087860 0.968872 0.216003
0.216064 0.968323 0.216064
0.354980 0.967682 0.216064
0.491638 0.967041 0.216064
0.619049 0.966461 0.216125
0.742279 0.965912 0.216248
0.870209 0.965332 0.216309
0.964966 0.964966 0.216614
0.000000 0.000000 0.353424
0.087891 0.000000 0.353790
0.215179 0.000000 0.353912
0.353943 0.000000 0.353943
0.491150 0.000000 0.353973
0.619019 0.000000 0.354065
0.742157 0.000000 0.354187
0.869629 0.000000 0.354279
0.968597 0.000000 0.354584
0.000000 0.087891 0.353790
0.088104 0.088104 0.354156
0.215515 0.088043 0.354248
0.354279 0.087891 0.354279
0.491394 0.087769 0.354309
0.619202 0.087708 0.354401
0.742340 0.087646 0.354523
0.869873 0.087585 0.354614
0.968231 0.087677 0.354889
0.000000 0.215179 0.353912
0.088043 0.215515 0.354248
0.215576 0.215576 0.354340
0.354370 0.215546 0.354370
0.491425 0.215546 0.354401
0.619141 0.215637 0.354492
0.742310 0.215729 0.354614
0.869904 0.215790 0.354675
0.967682 0.216064 0.354980
0.000000 0.353943 0.353943
0.087891 0.354279 0.354279
0.215546 0.354370 0.354370
0.354370 0.354370 0.354370
0.491333 0.354401 0.354401
0.619019 0.354492 0.354492
0.742188 0.354614 0.354614
0.869843 0.354706 0.354706
0.967010 0.354980 0.354980
0.000000 0.491150 0.353973
0.087769 0.491394 0.354309
0.215546 0.491425 0.354401
0.354401 0.491333 0.354401
0.491302 0.491302 0.354431
0.618896 0.491302 0.354523
0.742065 0.491333 0.354645
0.869812 0.491333 0.354706
0.966370 0.491547 0.355011
0.000000 0.619019 0.354065
0.087708 0.619202 0.354401
0.215637 0.619141 0.354492
0.354492 0.619019 0.354492
0.491302 0.618896 0.354523
0.618835 0.618835 0.354614
0.742035 0.618835 0.354736
0.869843 0.618774 0.354797
0.965790 0.618927 0.355103
0.000000 0.742157 0.354187
0.087646 0.742340 0.354523
0.215729 0.742310 0.354614
0.354614 0.742188 0.354614
0.491333 0.742065 0.354645
0.618835 0.742035 0.354736
0.742035 0.742035 0.354828
0.869904 0.741974 0.354919
0.965240 0.742157 0.355225
0.000000 0.869629 0.354279
0.087585 0.869873 0.354614
0.215790 0.869904 0.354675
0.354706 0.869843 0.354706
0.491333 0.869812 0.354706
0.618774 0.869843 0.354797
0.741974 0.869904 0.354919
0.869934 0.869934 0.354980
0.964661 0.870178 0.355286
0.000000 0.968597 0.354584
0.087677 0.968231 0.354889
0.216064 0.967682 0.354980
0.354980 0.967010 0.354980
0.491547 0.966370 0.355011
0.618927 0.965790 0.355103
0.742157 0.965240 0.355225
0.870178 0.964661 0.355286
0.964325 0.964325 0.355621
0.000000 0.000000 0.490906
0.087769 0.000000 0.491180
0.215179 0.000000 0.491211
0.353973 0.000000 0.491150
0.491119 0.000000 0.491119
0.618896 0.000000 0.491119
0.742065 0.000000 0.491180
0.869598 0.000000 0.491180
0.967957 0.000000 0.491394
0.000000 0.087769 0.491180
0.087982 0.087982 0.491455
0.215515 0.087921 0.491486
0.354309 0.087769 0.491394
0.491364 0.087646 0.491364
0.619080 0.087555 0.491364
0.742249 0.087494 0.491394
0.869843 0.087433 0.491425
0.967621 0.087555 0.491638
0.000000 0.215179 0.491211
0.087921 0.215515 0.491486
0.215576 0.215576 0.491486
0.354401 0.215546 0.491425
0.491364 0.215546 0.491364
0.619019 0.215637 0.491364
0.742188 0.215729 0.491394
0.869873 0.215790 0.491425
0.967041 0.216064 0.491638
0.000000 0.353973 0.491150
0.087769 0.354309 0.491394
0.215546 0.354401 0.491425
0.354401 0.354401 0.491333
0.491302 0.354431 0.491302
0.618896 0.354523 0.491302
0.742065 0.354645 0.491333
0.869812 0.354706 0.491333
0.966370 0.355011 0.491547
0.000000 0.491119 0.491119
0.087646 0.491364 0.491364
0.215546 0.491364 0.491364
0.354431 0.491302 0.491302
0.491241 0.491241 0.491241
0.618774 0.491241 0.491241
0.741974 0.491272 0.491272
0.869781 0.491272 0.491272
0.965729 0.491486 0.491486
0.000000 0.618896 0.491119
0.087555 0.619080 0.491364
0.215637 0.619019 0.491364
0.354523 0.618896 0.491302
0.491241 0.618774 0.491241
0.618744 0.618744 0.491241
0.741943 0.618713 0.491272
0.869812 0.618652 0.491272
0.965149 0.618835 0.491486
0.000000 0.742065 0.491180
0.087494 0.742249 0.491394
0.215729 0.742188 0.491394
0.354645 0.742065 0.491333
0.491272 0.741974 0.491272
0.618713 0.741943 0.491272
0.741913 0.741913 0.491302
0.869873 0.741882 0.491302
0.964600 0.742065 0.491516
0.000000 0.869598 0.491180
0.087433 0.869843 0.491425
0.215790 0.869873 0.491425
0.354706 0.869812 0.491333
0.491272 0.869781 0.491272
0.618652 0.869812 0.491272
0.741882 0.869873 0.491302
0.869873 0.869873 0.491272
0.964020 0.870148 0.491516
0.000000 0.967957 0.491394
0.087555 0.967621 0.491638
0.216064 0.967041 0.491638
0.355011 0.966370 0.491547
0.491486 0.965729 0.491486
0.618835 0.965149 0.491486
0.742065 0.964600 0.491516
0.870148 0.964020 0.491516
0.963684 0.963684 0.491730
0.000000 0.000000 0.618988
0.087738 0.000000 0.619171
0.215271 0.000000 0.619141
0.354065 0.000000 0.619019
0.491119 0.000000 0.618896
0.618866 0.000000 0.618866
0.742004 0.000000 0.618835
0.869629 0.000000 0.618805
0.967407 0.000000 0.618958
0.000000 0.087738 0.619171
0.087921 0.087921 0.619385
0.215576 0.087830 0.619324
0.354401 0.087708 0.619202
0.491364 0.087555 0.619080
0.619019 0.087463 0.619019
0.742188 0.087433 0.619019
0.869873 0.087341 0.618958
0.967041 0.087463 0.619110
0.000000 0.215271 0.619141
0.087830 0.215576 0.619324
0.215637 0.215637 0.619263
0.354492 0.215637 0.619141
0.491364 0.215637 0.619019
0.618988 0.215698 0.618988
0.742157 0.215790 0.618958
0.869904 0.215851 0.618896
0.966461 0.216125 0.619049
0.000000 0.354065 0.619019
0.087708 0.354401 0.619202
0.215637 0.354492 0.619141
0.354492 0.354492 0.619019
0.491302 0.354523 0.618896
0.618835 0.354614 0.618835
0.742035 0.354736 0.618835
0.869843 0.354797 0.618774
0.965790 0.355103 0.618927
0.000000 0.491119 0.618896
0.087555 0.491364 0.619080
0.215637 0.491364 0.619019
0.354523 0.491302 0.618896
0.491241 0.491241 0.618774
0.618744 0.491241 0.618744
0.741943 0.491272 0.618713
0.869812 0.491272 0.618652
0.965149 0.491486 0.618835
0.000000 0.618866 0.618866
0.087463 0.619019 0.619019
0.215698 0.618988 0.618988
0.354614 0.618835 0.618835
0.491241 0.618744 0.618744
0.618683 0.618683 0.618683
0.741882 0.618652 0.618652
0.869843 0.618622 0.618622
0.964569 0.618774 0.618774
0.000000 0.742004 0.618835
0.087433 0.742188 0.619019
0.215790 0.742157 0.618958
0.354736 0.742035 0.618835
0.491272 0.741943 0.618713
0.618652 0.741882 0.618652
0.741882 0.741882 0.618652
0.869904 0.741852 0.618591
0.964020 0.742035 0.618774
0.000000 0.869629 0.618805
0.087341 0.869873 0.618958
0.215851 0.869904 0.618896
0.354797 0.869843 0.618774
0.491272 0.869812 0.618652
0.618622 0.869843 0.618622
0.741852 0.869904 0.618591
0.869904 0.869904 0.618530
0.963440 0.870178 0.618713
0.000000 0.967407 0.618958
0.087463 0.967041 0.619110
0.216125 0.966461 0.619049
0.355103 0.965790 0.618927
0.491486 0.965149 0.618835
0.618774 0.964569 0.618774
0.742035 0.964020 0.618774
0.870178 0.963440 0.618713
0.963104 0.963104 0.618896
0.000000 0.000000 0.742096
0.087708 0.000000 0.742310
0.215363 0.000000 0.742279
0.354187 0.000000 0.742157
0.491180 0.000000 0.742065
0.618835 0.000000 0.742004
0.742004 0.000000 0.742004
0.869690 0.000000 0.741974
0.966858 0.000000 0.742157
0.000000 0.087708 0.742310
0.087860 0.087860 0.742523
0.215668 0.087799 0.742462
0.354523 0.087646 0.742340
0.491394 0.087494 0.742249
0.619019 0.087433 0.742188
0.742188 0.087372 0.742188
0.869934 0.087280 0.742157
0.966492 0.087402 0.742310
0.000000 0.215363 0.742279
0.087799 0.215668 0.742462
0.215729 0.215729 0.742432
0.354614 0.215729 0.742310
0.491394 0.215729 0.742188
0.618958 0.215790 0.742157
0.742126 0.215881 0.742126
0.869965 0.215942 0.742096
0.965912 0.216248 0.742279
0.000000 0.354187 0.742157
0.087646 0.354523 0.742340
0.215729 0.354614 0.742310
0.354614 0.354614 0.742188
0.491333 0.354645 0.742065
0.618835 0.354736 0.742035
0.742035 0.354828 0.742035
0.869904 0.354919 0.741974
0.965240 0.355225 0.742157
0.000000 0.491180 0.742065
0.087494 0.491394 0.742249
0.215729 0.491394 0.742188
0.354645 0.491333 0.742065
0.491272 0.491272 0.741974
0.618713 0.491272 0.741943
0.741913 0.491302 0.741913
0.869873 0.491302 0.741882
0.964600 0.491516 0.742065
0.000000 0.618835 0.742004
0.087433 0.619019 0.742188
0.215790 0.618958 0.742157
0.354736 0.618835 0.742035
0.491272 0.618713 0.741943
0.618652 0.618652 0.741882
0.741882 0.618652 0.741882
0.869904 0.618591 0.741852
0.964020 0.618774 0.742035
0.000000 0.742004 0.742004
0.087372 0.742188 0.742188
0.215881 0.742126 0.742126
0.354828 0.742035 0.742035
0.491302 0.741913 0.741913
0.618652 0.741882 0.741882
0.741882 0.741882 0.741882
0.869934 0.741852 0.741852
0.963470 0.742035 0.742035
0.000000 0.869690 0.741974
0.087280 0.869934 0.742157
0.215942 0.869965 0.742096
0.354919 0.869904 0.741974
0.491302 0.869873 0.741882
0.618591 0.869904 0.741852
0.741852 0.869934 0.741852
0.869965 0.869965 0.741791
0.962891 0.870239 0.742004
0.000000 0.966858 0.742157
0.087402 0.966492 0.742310
0.216248 0.965912 0.742279
0.355225 0.965240 0.742157
0.491516 0.964600 0.742065
0.618774 0.964020 0.742035
0.742035 0.963470 0.742035
0.870239 0.962891 0.742004
0.962524 0.962524 0.742218
0.000000 0.000000 0.869354
0.087646 0.000000 0.869629
0.215424 0.000000 0.869659
0.354279 0.000000 0.869629
0.491180 0.000000 0.869598
0.618805 0.000000 0.869629
0.741974 0.000000 0.869690
0.869720 0.000000 0.869720
0.966278 0.000000 0.869965
0.000000 0.087646 0.869629
0.087799 0.087799 0.869904
0.215729 0.087738 0.869934
0.354614 0.087585 0.869873
0.491425 0.087433 0.869843
0.618958 0.087341 0.869873
0.742157 0.087280 0.869934
0.869965 0.087189 0.869965
0.965912 0.087311 0.870209
0.000000 0.215424 0.869659
0.087738 0.215729 0.869934
0.215790 0.215790 0.869965
0.354675 0.215790 0.869904
0.491425 0.215790 0.869873
0.618896 0.215851 0.869904
0.742096 0.215942 0.869965
0.869965 0.216003 0.869965
0.965332 0.216309 0.870209
0.000000 0.354279 0.869629
0.087585 0.354614 0.869873
0.215790 0.354675 0.869904
0.354706 0.354706 0.869843
0.491333 0.354706 0.869812
0.618774 0.354797 0.869843
0.741974 0.354919 0.869904
0.869934 0.354980 0.869934
0.964661 0.355286 0.870178
0.000000 0.491180 0.869598
0.087433 0.491425 0.869843
0.215790 0.491425 0.869873
0.354706 0.491333 0.869812
0.491272 0.491272 0.869781
0.618652 0.491272 0.869812
0.741882 0.491302 0.869873
0.869873 0.491272 0.869873
0.964020 0.491516 0.870148
0.000000 0.618805 0.869629
0.087341 0.618958 0.869873
0.215851 0.618896 0.869904
0.354797 0.618774 0.869843
0.491272 0.618652 0.869812
0.618622 0.618622 0.869843
0.741852 0.618591 0.869904
0.869904 0.618530 0.869904
0.963440 0.618713 0.870178
0.000000 0.741974 0.869690
0.087280 0.742157 0.869934
0.215942 0.742096 0.869965
0.354919 0.741974 0.869904
0.491302 0.741882 0.869873
0.618591 0.741852 0.869904
0.741852 0.741852 0.869934
0.869965 0.741791 0.869965
0.962891 0.742004 0.870239
0.000000 0.869720 0.869720
0.087189 0.869965 0.869965
0.216003 0.869965 0.869965
0.354980 0.869934 0.869934
0.491272 0.869873 0.869873
0.618530 0.869904 0.869904
0.741791 0.869965 0.869965
0.869995 0.869995 0.869995
0.962280 0.870239 0.870239
0.000000 0.966278 0.869965
0.087311 0.965912 0.870209
0.216309 0.965332 0.870209
0.355286 0.964661 0.870178
0.491516 0.964020 0.870148
0.618713 0.963440 0.870178
0.742004 0.962891 0.870239
0.870239 0.962280 0.870239
0.961945 0.961945 0.870514
0.000000 0.000000 0.970062
0.087769 0.000000 0.969788
0.215698 0.000000 0.969208
0.354584 0.000000 0.968597
0.491394 0.000000 0.967957
0.618958 0.000000 0.967407
0.742157 0.000000 0.966858
0.869965 0.000000 0.966278
0.965942 0.000000 0.965942
0.000000 0.087769 0.969788
0.087921 0.087921 0.969452
0.216003 0.087860 0.968872
0.354889 0.087677 0.968231
0.491638 0.087555 0.967621
0.619110 0.087463 0.967041
0.742310 0.087402 0.966492
0.870209 0.087311 0.965912
0.965576 0.087463 0.965576
0.000000 0.215698 0.969208
0.087860 0.216003 0.968872
0.216064 0.216064 0.968323
0.354980 0.216064 0.967682
0.491638 0.216064 0.967041
0.619049 0.216125 0.966461
0.742279 0.216248 0.965912
0.870209 0.216309 0.965332
0.964966 0.216614 0.964966
0.000000 0.354584 0.968597
0.087677 0.354889 0.968231
0.216064 0.354980 0.967682
0.354980 0.354980 0.967010
0.491547 0.355011 0.966370
0.618927 0.355103 0.965790
0.742157 0.355225 0.965240
0.870178 0.355286 0.964661
0.964325 0.355621 0.964325
0.000000 0.491394 0.967957
0.087555 0.491638 0.967621
0.216064 0.491638 0.967041
0.355011 0.491547 0.966370
0.491486 0.491486 0.965729
0.618835 0.491486 0.965149
0.742065 0.491516 0.964600
0.870148 0.491516 0.964020
0.963684 0.491730 0.963684
0.000000 0.618958 0.967407
0.087463 0.619110 0.967041
0.216125 0.619049 0.966461
0.355103 0.618927 0.965790
0.491486 0.618835 0.965149
0.618774 0.618774 0.964569
0.742035 0.618774 0.964020
0.870178 0.618713 0.963440
0.963104 0.618896 0.963104
0.000000 0.742157 0.966858
0.087402 0.742310 0.966492
0.216248 0.742279 0.965912
0.355225 0.742157 0.965240
0.491516 0.742065 0.964600
0.618774 0.742035 0.964020
0.742035 0.742035 0.963470
0.870239 0.742004 0.962891
0.962524 0.742218 0.962524
0.000000 0.869965 0.966278
0.087311 0.870209 0.965912
0.216309 0.870209 0.965332
0.355286 0.870178 0.964661
0.491516 0.870148 0.964020
0.618713 0.870178 0.963440
0.742004 0.870239 0.962891
0.870239 0.870239 0.962280
0.961945 0.870514 0.961945
0.000000 0.965942 0.965942
0.087463 0.965576 0.965576
0.216614 0.964966 0.964966
0.355621 0.964325 0.964325
0.491730 0.963684 0.963684
0.618896 0.963104 0.963104
0.742218 0.962524 0.962524
0.870514 0.961945 0.961945
0.961609 0.961609 0.961609
