Fujifilm Eterna 400T (8583) - Look.cube
# Created by Benjamin (IWLTBAP) : http://luts.iwltbap.com
# Copyright: (C) Copyright 2010-2017 Triune Films and IWLTBAP SAS
# Cannot be resold, shared or otherwise redistributed
TITLE "Film Print Emulation LUTs Pack (Rec.709, sRGB, DCI-P3)"
LUT_3D_SIZE 9
0.014465 0.013245 0.010254
0.107788 0.013824 0.002960
0.259247 0.025665 0.012329
0.400818 0.029358 0.022217
0.508423 0.027100 0.022736
0.592468 0.024689 0.022736
0.665283 0.023224 0.020752
0.727020 0.022217 0.021240
0.786285 0.021729 0.021729
0.000000 0.061646 0.042511
0.078674 0.073334 0.015289
0.226349 0.087128 0.016296
0.379272 0.084961 0.022705
0.497803 0.074738 0.022217
0.598724 0.070923 0.022217
0.678406 0.068939 0.021240
0.749542 0.067963 0.022705
0.808960 0.067963 0.023224
0.000000 0.139435 0.073639
0.012665 0.128693 0.058472
0.231415 0.194244 0.040405
0.397705 0.198486 0.039673
0.528229 0.191254 0.031952
0.638702 0.180237 0.030243
0.718964 0.168640 0.027557
0.790344 0.155762 0.025177
0.852997 0.149017 0.025665
0.000000 0.191284 0.072632
0.000000 0.178040 0.074158
0.184570 0.260559 0.006836
0.386230 0.315582 0.033203
0.543976 0.316925 0.042145
0.664398 0.310120 0.043518
0.750671 0.302643 0.040741
0.826752 0.296173 0.037109
0.889465 0.291107 0.036346
0.000000 0.232117 0.080536
0.000000 0.227234 0.079102
0.025330 0.296814 0.040863
0.337646 0.376770 0.000000
0.531433 0.425476 0.016296
0.662292 0.429016 0.024689
0.763702 0.426514 0.025665
0.842407 0.422485 0.025665
0.912598 0.417908 0.026642
0.000000 0.257721 0.086975
0.000000 0.260498 0.085175
0.008453 0.316040 0.094635
0.304932 0.440948 0.000000
0.483337 0.483185 0.000000
0.641907 0.524933 0.000000
0.757507 0.530151 0.000000
0.843048 0.527863 0.000000
0.917023 0.524811 0.000000
0.000000 0.276917 0.091309
0.000000 0.286346 0.095917
0.000000 0.334503 0.103790
0.214783 0.467926 0.000000
0.463287 0.538086 0.000000
0.602570 0.576019 0.000000
0.741058 0.611572 0.000000
0.828400 0.616058 0.000000
0.906891 0.617828 0.000000
0.000000 0.291382 0.097534
0.000000 0.302490 0.097931
0.000000 0.352325 0.110046
0.034088 0.464478 0.000031
0.436615 0.579346 0.000000
0.591370 0.625549 0.000000
0.713348 0.664612 0.000000
0.812714 0.687531 0.000000
0.895355 0.690796 0.000000
0.000000 0.303345 0.097534
0.000000 0.315216 0.101105
0.000000 0.363525 0.109344
0.006348 0.440063 0.100922
0.401215 0.599915 0.000000
0.577942 0.653259 0.000000
0.690918 0.692627 0.000000
0.790100 0.730377 0.000000
0.880615 0.756348 0.000000
0.000000 0.026001 0.091309
0.079254 0.018646 0.098297
0.243195 0.026154 0.097443
0.399353 0.032776 0.069427
0.515778 0.029816 0.069916
0.602570 0.027069 0.068451
0.677490 0.025665 0.067963
0.739502 0.025665 0.068939
0.796265 0.025177 0.069427
0.000000 0.066193 0.059265
0.033783 0.074341 0.085785
0.211151 0.093170 0.082672
0.369781 0.090210 0.070435
0.502991 0.076965 0.069427
0.605682 0.072388 0.068451
0.687469 0.070923 0.068451
0.759827 0.070923 0.069916
0.820312 0.072388 0.069916
0.000000 0.141449 0.082397
0.012665 0.137634 0.093170
0.204102 0.194397 0.086060
0.384491 0.208344 0.089539
0.528595 0.199799 0.080719
0.642609 0.188995 0.078247
0.725342 0.177124 0.074738
0.798462 0.164154 0.073822
0.858673 0.154510 0.073334
0.000000 0.202637 0.071594
0.000000 0.193542 0.079590
0.105927 0.266296 0.031708
0.353973 0.316650 0.061554
0.536499 0.328796 0.086761
0.660004 0.322144 0.088867
0.753632 0.314148 0.088867
0.830872 0.305450 0.085693
0.894836 0.300354 0.084198
0.000000 0.246857 0.083801
0.000000 0.245758 0.082886
0.025330 0.303253 0.096252
0.314514 0.390320 0.033478
0.515076 0.434509 0.053619
0.652161 0.438690 0.065002
0.759186 0.436676 0.067474
0.840820 0.432953 0.067963
0.912384 0.428741 0.068939
0.000000 0.276520 0.092163
0.000000 0.281067 0.093018
0.008453 0.332855 0.101135
0.259491 0.453827 0.021118
0.471893 0.495087 0.036926
0.627960 0.535065 0.046722
0.748138 0.539154 0.046722
0.836212 0.538025 0.046722
0.911957 0.535400 0.046722
0.000000 0.293793 0.098328
0.000000 0.301361 0.097137
0.000000 0.352509 0.110077
0.120056 0.473083 0.012665
0.452209 0.556854 0.026733
0.590271 0.581696 0.039001
0.728546 0.619476 0.046722
0.820679 0.622742 0.046722
0.900391 0.624786 0.046722
0.000000 0.305634 0.098328
0.000000 0.309357 0.116364
0.000000 0.365936 0.110077
0.019897 0.462006 0.079712
0.424072 0.597260 0.018707
0.585846 0.640472 0.030731
0.698730 0.664490 0.040375
0.804169 0.692535 0.046722
0.886627 0.697937 0.046722
0.000000 0.302734 0.124634
0.000000 0.311371 0.134796
0.000000 0.369415 0.126862
0.006348 0.441925 0.123383
0.381927 0.609253 0.012665
0.568909 0.664917 0.023224
0.688538 0.703033 0.033478
0.779785 0.732574 0.041382
0.873779 0.759949 0.046722
0.000000 0.042511 0.128723
0.000000 0.048981 0.218170
0.229858 0.037384 0.213531
0.385345 0.044159 0.213104
0.512268 0.061310 0.201538
0.605652 0.066406 0.184448
0.680206 0.064484 0.168213
0.744812 0.059021 0.158661
0.801727 0.058502 0.157715
0.000000 0.072601 0.135376
0.000000 0.066193 0.140015
0.192657 0.088837 0.201996
0.353119 0.092529 0.207397
0.499420 0.105469 0.197723
0.609680 0.113129 0.179321
0.691345 0.112152 0.169464
0.765015 0.107544 0.160980
0.824524 0.105743 0.157715
0.000000 0.141144 0.143951
0.000000 0.137421 0.162415
0.127502 0.184235 0.197083
0.379425 0.235626 0.222839
0.530426 0.232056 0.207275
0.643982 0.215027 0.181305
0.728455 0.200806 0.166534
0.801971 0.187317 0.157227
0.864258 0.177277 0.155243
0.000000 0.207794 0.155914
0.000000 0.196747 0.158447
0.053467 0.248901 0.186981
0.339783 0.327881 0.199066
0.531860 0.347992 0.194092
0.653656 0.337402 0.162811
0.748199 0.325531 0.134216
0.826660 0.317322 0.134216
0.893402 0.311340 0.131683
0.000000 0.247314 0.156677
0.000000 0.248230 0.163635
0.025330 0.291443 0.174774
0.265839 0.400574 0.141846
0.485016 0.437866 0.109253
0.638123 0.449860 0.101868
0.750671 0.449097 0.107269
0.834198 0.444672 0.109741
0.906189 0.438843 0.111725
0.000000 0.267365 0.152557
0.000000 0.270172 0.158966
0.008453 0.322266 0.169800
0.098022 0.443298 0.088409
0.454651 0.513947 0.073883
0.597778 0.536377 0.093445
0.733276 0.551025 0.093445
0.824432 0.549774 0.093445
0.902649 0.546143 0.093445
0.000000 0.279480 0.157196
0.000000 0.288422 0.163635
0.000000 0.337952 0.169617
0.037994 0.448853 0.147247
0.433350 0.578461 0.053467
0.583618 0.599335 0.078033
0.712555 0.624908 0.093445
0.807129 0.631897 0.093445
0.890076 0.633972 0.093445
0.000000 0.285553 0.164124
0.000000 0.297791 0.171692
0.000000 0.347504 0.178253
0.019897 0.431915 0.179962
0.392181 0.612915 0.037384
0.575653 0.658081 0.061462
0.692352 0.680237 0.080780
0.788177 0.698639 0.093445
0.874268 0.705078 0.093445
0.000000 0.285706 0.172150
0.000000 0.302490 0.180481
0.000000 0.353760 0.187347
0.006348 0.423645 0.189423
0.294312 0.600861 0.025330
0.560120 0.683929 0.046448
0.683228 0.719971 0.066986
0.773071 0.744171 0.082764
0.859802 0.763733 0.093445
0.000000 0.056824 0.184357
0.000000 0.067841 0.270569
0.228851 0.059448 0.289307
0.378937 0.058533 0.300690
0.498474 0.057831 0.304352
0.600861 0.071594 0.303925
0.679352 0.077057 0.298370
0.747467 0.080414 0.293274
0.804352 0.081573 0.289612
0.000000 0.089600 0.203400
0.000000 0.087830 0.212067
0.151520 0.096283 0.311523
0.348145 0.093872 0.313721
0.485901 0.101868 0.318359
0.605743 0.120026 0.316650
0.691467 0.126953 0.312378
0.765625 0.131134 0.308289
0.829102 0.133850 0.308746
0.000000 0.166534 0.232941
0.000000 0.164124 0.245270
0.019714 0.180603 0.311859
0.353912 0.228271 0.339539
0.510132 0.229584 0.339020
0.638702 0.233704 0.339844
0.730469 0.226562 0.333038
0.807159 0.219238 0.328247
0.869873 0.209290 0.326721
0.000000 0.227417 0.246674
0.000000 0.232941 0.259155
0.019714 0.259491 0.283752
0.292053 0.317719 0.310333
0.539429 0.381989 0.358185
0.664734 0.377563 0.348602
0.763000 0.368988 0.337677
0.840576 0.360352 0.331390
0.908142 0.353516 0.327637
0.000000 0.263519 0.221558
0.000000 0.271698 0.231262
0.019714 0.310364 0.254364
0.112762 0.383698 0.280640
0.485016 0.461578 0.323792
0.650574 0.483276 0.336884
0.763702 0.478729 0.325073
0.846649 0.473541 0.320190
0.920929 0.469452 0.315338
0.000000 0.288788 0.225525
0.000000 0.301971 0.234253
0.008453 0.341125 0.250122
0.063324 0.402374 0.258301
0.432892 0.529572 0.277100
0.596100 0.555511 0.274780
0.738312 0.574066 0.280548
0.832123 0.571564 0.278564
0.911743 0.568420 0.281189
0.000000 0.300873 0.227051
0.000000 0.316956 0.234741
0.000000 0.348938 0.239288
0.037994 0.423553 0.256744
0.335266 0.549042 0.230591
0.559235 0.606598 0.231262
0.701172 0.635132 0.227142
0.808472 0.647217 0.236511
0.892273 0.649109 0.229431
0.000000 0.309479 0.229767
0.000000 0.325012 0.234253
0.000000 0.356476 0.240387
0.019897 0.429626 0.254517
0.241241 0.560669 0.202881
0.542694 0.661469 0.214508
0.675018 0.687927 0.179718
0.778107 0.705017 0.171295
0.874023 0.716248 0.180939
0.000000 0.316498 0.233093
0.000000 0.331146 0.237335
0.000000 0.362427 0.241028
0.006348 0.427551 0.256470
0.114532 0.549133 0.188324
0.521729 0.683807 0.210602
0.661896 0.723572 0.177277
0.761627 0.748657 0.147339
0.853577 0.770142 0.140167
0.000000 0.074158 0.226410
0.000000 0.084717 0.325562
0.222748 0.081024 0.338684
0.383667 0.077087 0.352539
0.494659 0.074158 0.367249
0.587494 0.070953 0.378082
0.673706 0.077454 0.386230
0.745117 0.083466 0.384644
0.801331 0.084778 0.382751
0.000000 0.100677 0.252045
0.000000 0.102234 0.265930
0.113586 0.101868 0.394562
0.355621 0.102173 0.397797
0.484436 0.109375 0.403625
0.594269 0.118317 0.411133
0.681091 0.124176 0.413727
0.759491 0.132050 0.414764
0.823029 0.136688 0.415680
0.000000 0.174896 0.307037
0.000000 0.178925 0.318787
0.000000 0.191498 0.363098
0.337921 0.228577 0.434052
0.507599 0.233124 0.439789
0.624207 0.226929 0.443512
0.717072 0.221191 0.444397
0.797241 0.217041 0.444489
0.864685 0.213348 0.446075
0.000000 0.255493 0.317291
0.000000 0.269043 0.336975
0.000000 0.284485 0.355835
0.198547 0.293457 0.392365
0.516785 0.374420 0.453369
0.649506 0.378510 0.461975
0.755157 0.376129 0.465210
0.834991 0.369415 0.460724
0.906433 0.364502 0.459167
0.000000 0.300385 0.319580
0.000000 0.315308 0.332306
0.000000 0.336304 0.347076
0.091614 0.356903 0.338196
0.470581 0.462677 0.427521
0.659271 0.511505 0.468750
0.773376 0.508087 0.464844
0.856812 0.502563 0.460632
0.931488 0.498169 0.460876
0.000000 0.312164 0.272949
0.000000 0.329803 0.286957
0.000000 0.354858 0.303070
0.044342 0.410583 0.334991
0.388092 0.516632 0.382446
0.596863 0.573364 0.417664
0.748505 0.601410 0.441040
0.844421 0.599121 0.441742
0.924011 0.594208 0.440033
0.000000 0.322998 0.276093
0.000000 0.342072 0.285828
0.000000 0.379608 0.302460
0.037994 0.442444 0.328522
0.270264 0.535431 0.330292
0.562164 0.629333 0.383667
0.704010 0.655365 0.392242
0.819733 0.672180 0.408539
0.905518 0.675018 0.411621
0.000000 0.329254 0.276367
0.000000 0.352325 0.287750
0.000000 0.388397 0.301605
0.019897 0.442078 0.314545
0.090881 0.526245 0.282745
0.518280 0.661652 0.348419
0.670929 0.699951 0.353424
0.782440 0.724945 0.366852
0.882202 0.738373 0.378204
0.000000 0.335175 0.277985
0.000000 0.357880 0.289062
0.000000 0.392731 0.298767
0.006348 0.432007 0.305786
0.050659 0.505676 0.275940
0.462585 0.659149 0.314789
0.644592 0.727570 0.335968
0.757904 0.760712 0.339966
0.857727 0.788177 0.354950
0.000000 0.090881 0.282806
0.000000 0.092163 0.384583
0.237000 0.090027 0.374451
0.390839 0.091766 0.382965
0.494019 0.090027 0.404694
0.582428 0.085693 0.421631
0.659241 0.081787 0.441528
0.738129 0.080139 0.454529
0.797180 0.083679 0.453735
0.000000 0.110077 0.297394
0.000000 0.113953 0.329346
0.126526 0.112915 0.448273
0.367462 0.111115 0.446014
0.486847 0.117889 0.457336
0.589020 0.124481 0.468658
0.674042 0.130066 0.483459
0.755005 0.133881 0.493835
0.818756 0.136688 0.495453
0.000000 0.188995 0.354858
0.000000 0.194153 0.371216
0.000000 0.205322 0.431305
0.313446 0.227814 0.499969
0.513580 0.234772 0.511932
0.624390 0.229858 0.519958
0.711792 0.222992 0.526978
0.792542 0.218506 0.532776
0.858429 0.211548 0.530884
0.000000 0.279724 0.387573
0.000000 0.290588 0.405792
0.000000 0.303314 0.422821
0.164795 0.304260 0.478424
0.518341 0.382812 0.539734
0.640808 0.376923 0.545166
0.739929 0.370972 0.549469
0.819733 0.366394 0.553589
0.897034 0.363831 0.554291
0.000000 0.340698 0.398346
0.000000 0.360046 0.417969
0.000000 0.380066 0.437927
0.017731 0.397675 0.462067
0.441467 0.456970 0.496307
0.650238 0.516998 0.560822
0.770050 0.520691 0.571686
0.852020 0.512238 0.571899
0.927917 0.507874 0.569794
0.000000 0.363983 0.388580
0.000000 0.384674 0.404327
0.000000 0.411072 0.419373
0.017731 0.439117 0.427612
0.303009 0.471649 0.424805
0.587097 0.578949 0.519989
0.758789 0.625671 0.562439
0.851807 0.624908 0.569489
0.933136 0.619537 0.565033
0.000000 0.371704 0.368347
0.000000 0.392883 0.369507
0.000000 0.414581 0.362915
0.017731 0.451935 0.388092
0.173981 0.500488 0.390228
0.539825 0.624847 0.484100
0.705566 0.670746 0.518768
0.827240 0.696320 0.542236
0.914185 0.698120 0.546112
0.000000 0.370087 0.345734
0.000000 0.389771 0.342407
0.000000 0.416504 0.357666
0.017731 0.466003 0.382050
0.070923 0.532440 0.380768
0.479767 0.652100 0.447235
0.676147 0.719635 0.487213
0.789795 0.745453 0.505768
0.891022 0.762390 0.519318
0.000000 0.369904 0.328247
0.000000 0.392548 0.341675
0.000000 0.420715 0.355469
0.006348 0.461609 0.370697
0.050659 0.531891 0.371033
0.421844 0.650940 0.408539
0.646973 0.748962 0.462524
0.762573 0.780823 0.474182
0.863281 0.807526 0.492401
0.000000 0.100311 0.343872
0.079071 0.096313 0.404694
0.269012 0.097931 0.402008
0.404327 0.103394 0.399933
0.497009 0.102051 0.425018
0.577881 0.099457 0.449463
0.646667 0.094696 0.474518
0.720306 0.090027 0.495483
0.787231 0.085052 0.512512
0.000000 0.120422 0.329041
0.000000 0.126862 0.409882
0.163391 0.122711 0.490723
0.390442 0.121063 0.480042
0.496155 0.127289 0.495148
0.592133 0.132996 0.511780
0.665924 0.136902 0.531036
0.743683 0.140869 0.552155
0.812653 0.141418 0.564819
0.000000 0.202637 0.399384
0.000000 0.205902 0.409943
0.000000 0.211487 0.487396
0.331543 0.233093 0.538239
0.524384 0.240997 0.561401
0.627594 0.233521 0.573181
0.708527 0.222290 0.583130
0.781372 0.216370 0.596588
0.854828 0.215637 0.608246
0.000000 0.294250 0.439026
0.000000 0.303192 0.454498
0.000000 0.313080 0.468933
0.171234 0.314270 0.527161
0.520782 0.386505 0.590546
0.645386 0.383820 0.603058
0.736511 0.375153 0.612518
0.811462 0.368011 0.622406
0.887238 0.363403 0.629120
0.000000 0.372467 0.457458
0.000000 0.388397 0.473633
0.000000 0.403473 0.488861
0.000031 0.413727 0.515350
0.429016 0.457184 0.553375
0.642242 0.516327 0.615417
0.752472 0.512390 0.625214
0.837585 0.509857 0.638733
0.915497 0.505951 0.647705
0.000000 0.402863 0.453613
0.000000 0.423218 0.468933
0.000000 0.443573 0.481598
0.000031 0.460388 0.487274
0.287506 0.456085 0.459656
0.585846 0.586273 0.582886
0.765472 0.641296 0.640472
0.852081 0.638184 0.647949
0.933533 0.633820 0.655090
0.000000 0.416748 0.445160
0.000000 0.439728 0.455322
0.000000 0.462952 0.460419
0.000031 0.481171 0.455627
0.172272 0.493896 0.434723
0.499420 0.597626 0.523071
0.712128 0.681549 0.600647
0.830200 0.707703 0.630432
0.918060 0.712097 0.639282
0.000000 0.421265 0.436218
0.000000 0.442871 0.441040
0.000000 0.465057 0.439087
0.000031 0.477142 0.418396
0.039398 0.524017 0.426147
0.433929 0.618439 0.488678
0.672699 0.718994 0.565613
0.785675 0.747467 0.589722
0.893829 0.774353 0.615692
0.000000 0.424774 0.430389
0.000000 0.444489 0.427338
0.000000 0.457855 0.406738
0.000031 0.479462 0.415161
0.039398 0.539062 0.425751
0.387817 0.630676 0.465973
0.642761 0.751190 0.547455
0.761597 0.786530 0.565826
0.861725 0.815674 0.587982
0.000000 0.099915 0.421509
0.161926 0.101868 0.421844
0.310974 0.102631 0.416840
0.418365 0.107880 0.414917
0.505707 0.111115 0.429413
0.576294 0.109406 0.458008
0.637665 0.105713 0.485901
0.704865 0.101105 0.517273
0.766693 0.095367 0.546753
0.000000 0.132080 0.399414
0.000000 0.131195 0.511780
0.212402 0.126862 0.519196
0.416626 0.131195 0.513489
0.507568 0.135590 0.518677
0.596802 0.141022 0.539062
0.661438 0.143707 0.560181
0.730652 0.146057 0.583588
0.799164 0.147125 0.606628
0.000000 0.213501 0.435272
0.000000 0.214966 0.456940
0.000000 0.221558 0.572021
0.363281 0.241364 0.583191
0.538147 0.246185 0.597687
0.633606 0.234802 0.612396
0.705475 0.225342 0.627228
0.773987 0.218475 0.644043
0.840088 0.213898 0.657288
0.000000 0.307281 0.485321
0.000000 0.312500 0.496429
0.000000 0.318298 0.533356
0.215332 0.328339 0.578278
0.520172 0.384949 0.627075
0.654022 0.389130 0.649170
0.736542 0.380127 0.662079
0.804108 0.371521 0.677063
0.875824 0.365082 0.691193
0.000000 0.398193 0.505920
0.000000 0.412567 0.521149
0.000000 0.422821 0.534332
0.097107 0.420105 0.559875
0.423340 0.454224 0.591248
0.649078 0.521393 0.662994
0.754089 0.518402 0.678253
0.824432 0.510956 0.695129
0.897003 0.503784 0.705841
0.000000 0.437378 0.506287
0.000000 0.451447 0.519775
0.000000 0.471924 0.535614
0.000031 0.485565 0.542542
0.302551 0.478180 0.523254
0.589996 0.595428 0.630768
0.761169 0.646088 0.692108
0.847290 0.644928 0.709961
0.921936 0.637573 0.722565
0.000000 0.456512 0.499634
0.000000 0.473633 0.508820
0.000000 0.494049 0.517517
0.000031 0.511841 0.521332
0.247925 0.503662 0.485413
0.462952 0.566986 0.542786
0.705261 0.682343 0.653198
0.831879 0.719482 0.698425
0.915588 0.723267 0.710419
0.000000 0.459595 0.486542
0.000000 0.480133 0.498688
0.000000 0.500671 0.502258
0.000031 0.520721 0.499359
0.075317 0.524841 0.459106
0.403870 0.590088 0.514038
0.667664 0.714050 0.619965
0.782043 0.751801 0.656097
0.889679 0.778778 0.689453
0.000000 0.463837 0.482300
0.000000 0.482910 0.488251
0.000000 0.502838 0.486053
0.000031 0.520782 0.481537
0.016907 0.535980 0.454346
0.352264 0.597626 0.486603
0.617218 0.724487 0.587158
0.753876 0.781494 0.631531
0.856140 0.813934 0.657990
0.133606 0.104553 0.433228
0.226715 0.106415 0.434174
0.356934 0.106781 0.429352
0.438232 0.112915 0.430389
0.517365 0.118744 0.425751
0.577393 0.117279 0.458069
0.632996 0.114349 0.489258
0.691040 0.110901 0.523560
0.749664 0.106049 0.562500
0.000000 0.137421 0.505646
0.079590 0.132385 0.543152
0.285004 0.132690 0.537323
0.444000 0.137726 0.532928
0.529358 0.142273 0.525177
0.606323 0.147461 0.550690
0.662689 0.149292 0.574188
0.725159 0.151703 0.599976
0.781921 0.151489 0.627350
0.000000 0.222931 0.471069
0.000000 0.225189 0.524384
0.139435 0.231934 0.598846
0.407043 0.246216 0.608307
0.556824 0.249451 0.611511
0.644592 0.237488 0.627899
0.706512 0.229034 0.646240
0.768707 0.220886 0.666351
0.827911 0.217316 0.687408
0.000000 0.317047 0.530365
0.000000 0.325562 0.534943
0.000000 0.328003 0.584045
0.290710 0.343964 0.614868
0.531952 0.385651 0.645660
0.663605 0.392822 0.672821
0.739410 0.383759 0.689880
0.799164 0.373749 0.707275
0.864136 0.368134 0.723572
0.000000 0.420288 0.551666
0.000000 0.429230 0.563293
0.000000 0.433685 0.568909
0.175354 0.422241 0.593628
0.438446 0.460022 0.619263
0.662598 0.529205 0.698303
0.757843 0.524994 0.714691
0.820923 0.514435 0.730408
0.887268 0.505829 0.746735
0.000000 0.467133 0.556030
0.000000 0.479095 0.566620
0.000000 0.493835 0.577393
0.000031 0.505707 0.591827
0.325134 0.492554 0.558258
0.580444 0.587616 0.657410
0.754059 0.641113 0.724335
0.829315 0.640167 0.743866
0.906281 0.634033 0.761780
0.000000 0.491608 0.551208
0.000000 0.503632 0.555603
0.000000 0.521393 0.567230
0.000031 0.535889 0.569092
0.264648 0.527283 0.540527
0.464142 0.559967 0.561127
0.725006 0.704376 0.714508
0.835327 0.732422 0.754547
0.913879 0.734283 0.769623
0.000000 0.498505 0.542145
0.000000 0.513580 0.549866
0.000000 0.531830 0.554352
0.000031 0.549103 0.554810
0.214600 0.540161 0.509155
0.385864 0.569244 0.528717
0.634979 0.686523 0.640961
0.775543 0.750946 0.709473
0.883942 0.783600 0.748444
0.000000 0.500824 0.531403
0.000000 0.514862 0.537048
0.000000 0.536102 0.542084
0.000031 0.552429 0.538483
0.078125 0.543854 0.480286
0.330200 0.571442 0.502411
0.594330 0.700165 0.615143
0.746857 0.773682 0.680206
0.850586 0.814667 0.723480
