Fujifilm Eterna 500T (8573) - Only color.cube
# Created by Benjamin (IWLTBAP) : http://luts.iwltbap.com
# Copyright: (C) Copyright 2010-2017 Triune Films and IWLTBAP SAS
# Cannot be resold, shared or otherwise redistributed
TITLE "Film Print Emulation LUTs Pack (Rec.709, sRGB, DCI-P3)"
LUT_3D_SIZE 5
0.000244 0.000000 0.001984
0.185944 0.041229 0.000000
0.349640 0.000000 0.000000
0.499054 0.000000 0.000000
0.689117 0.000000 0.044647
0.000000 0.172546 0.133209
0.219879 0.212219 0.103485
0.426270 0.235687 0.000000
0.633453 0.232635 0.000397
0.840240 0.252350 0.001373
0.071106 0.320770 0.191589
0.285553 0.386230 0.185242
0.460693 0.407440 0.120117
0.673676 0.447021 0.001709
0.896362 0.473572 0.002045
0.213043 0.461884 0.261292
0.362732 0.552704 0.277039
0.568512 0.603271 0.227783
0.721100 0.622375 0.068817
0.945648 0.683838 0.023987
0.279938 0.604431 0.358032
0.493805 0.718506 0.356354
0.675751 0.772949 0.348206
0.802399 0.798859 0.194427
0.980347 0.830231 0.101105
0.070007 0.000000 0.164215
0.169006 0.059174 0.161743
0.320557 0.071228 0.159210
0.525391 0.000000 0.150024
0.714783 0.000000 0.181915
0.000000 0.210266 0.257294
0.207794 0.256378 0.286285
0.439545 0.267914 0.246307
0.716827 0.216339 0.197540
0.962982 0.184692 0.186157
0.000000 0.363861 0.343750
0.167603 0.444763 0.370270
0.474060 0.470367 0.357819
0.704376 0.484283 0.285156
0.979370 0.483368 0.238312
0.021240 0.518585 0.414673
0.243713 0.615875 0.449738
0.565582 0.659576 0.445312
0.751465 0.687744 0.379852
0.979401 0.732666 0.326660
0.009735 0.674225 0.542175
0.275482 0.784668 0.594574
0.598877 0.828827 0.600891
0.818054 0.863464 0.571716
0.975891 0.885803 0.509094
0.129883 0.000000 0.273987
0.194061 0.016785 0.288971
0.304382 0.107239 0.278229
0.456390 0.137817 0.292450
0.697754 0.122437 0.318756
0.155151 0.239471 0.406189
0.264496 0.283356 0.438568
0.421448 0.295135 0.427490
0.613525 0.325684 0.410339
0.853516 0.329193 0.422821
0.000000 0.400238 0.483704
0.000000 0.477661 0.547333
0.447449 0.510162 0.542999
0.697632 0.514130 0.507935
0.979370 0.503723 0.469360
0.000000 0.548859 0.556305
0.000000 0.648407 0.604584
0.392822 0.713318 0.629791
0.744019 0.728088 0.609619
0.976685 0.746979 0.552887
0.000000 0.699463 0.664581
0.000000 0.813538 0.727081
0.419281 0.868561 0.747009
0.749268 0.895874 0.731567
0.974030 0.911041 0.703735
0.140259 0.091675 0.419006
0.209900 0.110596 0.435760
0.335175 0.122772 0.421082
0.463531 0.188385 0.414368
0.652832 0.243866 0.433258
0.232574 0.244202 0.527130
0.308960 0.301453 0.571991
0.465454 0.295685 0.582764
0.594452 0.361206 0.545074
0.788147 0.408844 0.564423
0.192627 0.429199 0.631561
0.110229 0.504456 0.716644
0.484772 0.537537 0.701447
0.686584 0.545715 0.669098
0.898895 0.585144 0.658630
0.000000 0.580841 0.695343
0.000000 0.670197 0.747467
0.274811 0.742676 0.810638
0.709229 0.759583 0.781250
0.975739 0.776001 0.758026
0.000000 0.718109 0.779266
0.000000 0.828278 0.841888
0.000000 0.903046 0.886261
0.658020 0.926422 0.880737
0.973053 0.932068 0.855103
0.232513 0.125427 0.551636
0.275024 0.130005 0.578857
0.414948 0.152802 0.575775
0.540863 0.229095 0.551941
0.671906 0.325562 0.545258
0.236450 0.328461 0.706543
0.302368 0.399475 0.775970
0.446472 0.412689 0.769867
0.637939 0.417206 0.754028
0.803680 0.495239 0.716797
0.333771 0.464661 0.753876
0.372101 0.537689 0.786865
0.558990 0.579010 0.834747
0.726898 0.575531 0.829346
0.896240 0.637268 0.807220
0.164612 0.611572 0.850250
0.017334 0.709717 0.906860
0.403992 0.761719 0.955231
0.727264 0.791077 0.936005
0.969879 0.802307 0.899475
0.000000 0.744965 0.889343
0.000000 0.841675 0.938446
0.098511 0.905151 0.976654
0.631836 0.934570 0.971893
0.972137 0.947021 0.968933
