Fujifilm Eterna 250D (8563) - Only color.cube
# Created by Benjamin (IWLTBAP) : http://luts.iwltbap.com
# Copyright: (C) Copyright 2010-2017 Triune Films and IWLTBAP SAS
# Cannot be resold, shared or otherwise redistributed
TITLE "Film Print Emulation LUTs Pack (Rec.709, sRGB, DCI-P3)"
LUT_3D_SIZE 33
0.001343 0.002960 0.005646
0.024597 0.004669 0.008942
0.057526 0.008362 0.016144
0.092346 0.014618 0.024475
0.128662 0.023956 0.034821
0.167267 0.036346 0.046112
0.206268 0.050140 0.058746
0.243805 0.066010 0.072754
0.279114 0.082458 0.085541
0.311829 0.098175 0.095734
0.342072 0.112854 0.104980
0.370026 0.125549 0.112091
0.396149 0.136383 0.117401
0.420746 0.145691 0.122009
0.443970 0.153473 0.125580
0.465759 0.160187 0.128632
0.486267 0.165710 0.131195
0.505981 0.170166 0.133301
0.525024 0.174469 0.135345
0.543518 0.178101 0.136993
0.561707 0.181396 0.138580
0.579224 0.184326 0.140167
0.596344 0.186981 0.141357
0.612976 0.189301 0.142548
0.629456 0.191345 0.143311
0.645782 0.193085 0.144470
0.662384 0.194855 0.145233
0.679443 0.196320 0.145996
0.697235 0.197784 0.146759
0.715851 0.199219 0.147522
0.735596 0.200684 0.148285
0.756317 0.202087 0.149017
0.778229 0.203278 0.149780
0.001038 0.035583 0.025787
0.021637 0.038574 0.028717
0.052917 0.043488 0.032654
0.087372 0.049072 0.037476
0.123260 0.057983 0.045105
0.161713 0.068695 0.053528
0.201050 0.081879 0.064453
0.239166 0.095612 0.076294
0.275055 0.109222 0.088043
0.308289 0.122314 0.097961
0.338928 0.134521 0.106537
0.367371 0.145020 0.113068
0.393921 0.154449 0.118774
0.419098 0.162659 0.122925
0.442841 0.169556 0.126923
0.465393 0.175598 0.129913
0.486755 0.180298 0.132050
0.507141 0.184601 0.134521
0.526764 0.188507 0.136169
0.545807 0.191833 0.138184
0.564423 0.195068 0.139771
0.582458 0.197754 0.140961
0.600067 0.200409 0.142517
0.617432 0.202545 0.143707
0.634735 0.204651 0.144836
0.651917 0.206482 0.145996
0.669464 0.208069 0.146759
0.687378 0.209442 0.147522
0.706146 0.210999 0.148254
0.725830 0.212311 0.149384
0.746460 0.213654 0.150116
0.768158 0.214935 0.150879
0.791046 0.216461 0.151611
0.000641 0.076416 0.050995
0.018616 0.077759 0.050201
0.047791 0.080353 0.050415
0.081787 0.085144 0.052399
0.117798 0.092377 0.056061
0.156555 0.101624 0.062012
0.196228 0.112427 0.071289
0.235016 0.123962 0.081696
0.271729 0.135284 0.091675
0.305603 0.146088 0.100739
0.336945 0.156067 0.108582
0.365845 0.165436 0.114990
0.392853 0.173340 0.120636
0.418579 0.180328 0.124695
0.443024 0.186462 0.128204
0.466278 0.191589 0.131195
0.488312 0.196075 0.133698
0.509460 0.200195 0.136169
0.529663 0.203491 0.138184
0.549194 0.206726 0.139771
0.568237 0.209442 0.141357
0.586792 0.211884 0.142914
0.605042 0.214081 0.144073
0.623047 0.216248 0.145599
0.641144 0.218170 0.146729
0.659241 0.219849 0.147491
0.677582 0.221527 0.148621
0.696564 0.222961 0.149750
0.716278 0.224396 0.150482
0.737000 0.225586 0.151215
0.758575 0.227020 0.151947
0.781281 0.228394 0.153046
0.805054 0.229767 0.153778
0.000244 0.115295 0.076874
0.015625 0.115417 0.073517
0.042938 0.116852 0.070801
0.076202 0.120422 0.068787
0.112244 0.125885 0.069672
0.151520 0.133362 0.073395
0.192108 0.142212 0.079681
0.232025 0.151855 0.087433
0.269653 0.161469 0.096313
0.304565 0.170502 0.104462
0.336639 0.179260 0.112091
0.366119 0.187012 0.118317
0.393677 0.193878 0.123352
0.419922 0.199982 0.127777
0.445068 0.205383 0.131195
0.469055 0.209930 0.134125
0.491882 0.213684 0.136566
0.513672 0.217133 0.138977
0.534485 0.220093 0.140564
0.554504 0.222778 0.142517
0.574005 0.225220 0.144073
0.593048 0.227417 0.145599
0.611816 0.229614 0.146729
0.630646 0.231354 0.148224
0.649384 0.233093 0.149353
0.668427 0.234802 0.150452
0.687775 0.236145 0.151550
0.707794 0.237457 0.152283
0.728577 0.238739 0.153381
0.750244 0.240021 0.154114
0.772766 0.241302 0.154846
0.796387 0.242554 0.155914
0.821014 0.243805 0.156616
0.000000 0.150543 0.099426
0.012146 0.149963 0.095062
0.037811 0.150452 0.090576
0.070190 0.152618 0.086487
0.106567 0.157288 0.084747
0.146606 0.163605 0.085480
0.188629 0.171387 0.088654
0.229858 0.179565 0.094604
0.268890 0.187836 0.101807
0.304932 0.195892 0.109100
0.338013 0.203339 0.116455
0.368225 0.210205 0.122467
0.396515 0.216125 0.127777
0.423523 0.221405 0.132050
0.449310 0.226105 0.135345
0.473999 0.230072 0.138184
0.497589 0.233368 0.140961
0.520050 0.236389 0.142883
0.541412 0.238983 0.144836
0.562012 0.241180 0.146362
0.581879 0.243164 0.148224
0.601471 0.244934 0.149323
0.620819 0.246887 0.150818
0.640350 0.248260 0.151917
0.659943 0.249817 0.152985
0.679840 0.251190 0.154419
0.700348 0.252380 0.155151
0.721466 0.253571 0.156219
0.743439 0.254730 0.157257
0.766022 0.255890 0.157990
0.789581 0.256897 0.158691
0.814087 0.258026 0.159729
0.839386 0.259186 0.160431
0.000000 0.182495 0.118042
0.008698 0.181488 0.112885
0.032257 0.181335 0.107574
0.064117 0.182861 0.103088
0.100769 0.186707 0.098907
0.141632 0.192169 0.097351
0.185242 0.199127 0.098541
0.227966 0.206635 0.102356
0.268768 0.214233 0.108093
0.306213 0.221466 0.115021
0.340454 0.228180 0.121582
0.371765 0.234192 0.127777
0.400879 0.239655 0.132874
0.428589 0.244354 0.137390
0.455231 0.248383 0.140961
0.480652 0.251831 0.143677
0.505127 0.254852 0.146332
0.528259 0.257324 0.148560
0.550323 0.259613 0.150421
0.571411 0.261566 0.151886
0.591797 0.263153 0.153320
0.611877 0.264740 0.154755
0.632019 0.266174 0.156158
0.652252 0.267426 0.157227
0.672821 0.268799 0.158600
0.693787 0.269897 0.159668
0.715515 0.270813 0.160339
0.737885 0.271881 0.161377
0.760803 0.272797 0.162415
0.784576 0.273682 0.163086
0.809082 0.274597 0.163757
0.834259 0.275482 0.164764
0.860260 0.276550 0.165436
0.000000 0.211731 0.132965
0.005737 0.210205 0.127930
0.027435 0.209656 0.122803
0.057465 0.210724 0.117035
0.095001 0.213928 0.112396
0.136414 0.219177 0.109039
0.181549 0.225647 0.108582
0.226074 0.232574 0.110626
0.268524 0.239563 0.115051
0.307648 0.246246 0.120667
0.343262 0.252625 0.127380
0.375641 0.258301 0.133301
0.405792 0.263458 0.139008
0.434631 0.267883 0.143311
0.462189 0.271729 0.147095
0.488556 0.275055 0.150421
0.513763 0.277740 0.152954
0.537720 0.280090 0.155090
0.560455 0.281982 0.157196
0.582184 0.283722 0.158936
0.603241 0.285156 0.160309
0.623993 0.286438 0.161652
0.644836 0.287567 0.162659
0.666046 0.288666 0.164001
0.687653 0.289520 0.165009
0.710052 0.290497 0.165985
0.733032 0.291321 0.166992
0.756592 0.292145 0.167969
0.780792 0.292816 0.168640
0.805573 0.293518 0.169586
0.830872 0.294342 0.170258
0.856781 0.295013 0.171234
0.883179 0.295807 0.171875
0.000000 0.237793 0.144836
0.002777 0.236145 0.140625
0.022980 0.235291 0.135590
0.051208 0.236206 0.129944
0.088867 0.239136 0.124481
0.131134 0.243988 0.120575
0.177643 0.250183 0.118317
0.223755 0.256775 0.118835
0.267761 0.263611 0.122040
0.308472 0.270203 0.126953
0.345459 0.276398 0.132904
0.379303 0.282166 0.139404
0.410736 0.287323 0.144836
0.440765 0.291779 0.150055
0.469330 0.295624 0.154022
0.496826 0.299011 0.157898
0.522919 0.301788 0.160614
0.547760 0.304016 0.162994
0.571350 0.305847 0.165314
0.593750 0.307404 0.166931
0.615479 0.308685 0.168243
0.637177 0.309814 0.169525
0.658905 0.310699 0.170807
0.681152 0.311584 0.172058
0.704163 0.312347 0.173004
0.728027 0.313080 0.173950
0.752350 0.313568 0.174896
0.777222 0.314209 0.175507
0.802673 0.314697 0.176147
0.828430 0.315308 0.177063
0.854523 0.315796 0.177673
0.880920 0.316406 0.178314
0.907837 0.317017 0.179199
0.000000 0.261414 0.153992
0.000793 0.259491 0.150085
0.018646 0.258423 0.145752
0.045441 0.259216 0.140930
0.083160 0.262115 0.135559
0.126129 0.266998 0.131134
0.173370 0.272919 0.127777
0.220978 0.279816 0.127380
0.266479 0.286621 0.129120
0.308624 0.293335 0.133331
0.347015 0.299683 0.139038
0.382202 0.305634 0.144867
0.415039 0.310913 0.150818
0.446259 0.315674 0.156525
0.476135 0.319855 0.161316
0.504761 0.323395 0.165314
0.532043 0.326385 0.168854
0.557861 0.328735 0.171722
0.582275 0.330719 0.173889
0.605621 0.332123 0.175751
0.628326 0.333405 0.177277
0.650909 0.334320 0.178467
0.673737 0.335114 0.179688
0.697296 0.335785 0.180573
0.721741 0.336456 0.181458
0.747101 0.336914 0.182373
0.772858 0.337372 0.183258
0.799194 0.337830 0.183838
0.825714 0.338135 0.184418
0.852386 0.338593 0.185303
0.879028 0.338928 0.185883
0.906006 0.339386 0.186462
0.935211 0.339813 0.187042
0.000000 0.282898 0.160950
0.000000 0.281006 0.157867
0.015289 0.279907 0.154510
0.040924 0.280640 0.149994
0.078400 0.283539 0.145355
0.121643 0.288361 0.140900
0.169556 0.294678 0.137390
0.218170 0.301575 0.136230
0.264801 0.308746 0.137054
0.308075 0.315704 0.140228
0.347656 0.322205 0.145264
0.383972 0.328308 0.150818
0.418091 0.334045 0.156891
0.450806 0.339172 0.162659
0.481964 0.343781 0.168243
0.511902 0.347748 0.172974
0.540405 0.351135 0.176971
0.567444 0.353821 0.180267
0.592865 0.355957 0.182617
0.617126 0.357544 0.184631
0.641052 0.358795 0.186066
0.664795 0.359741 0.187500
0.688843 0.360474 0.188629
0.713928 0.361084 0.189453
0.739899 0.361511 0.190308
0.766571 0.361908 0.191132
0.793884 0.362305 0.191986
0.821564 0.362610 0.192535
0.849121 0.362823 0.193085
0.876526 0.363037 0.193634
0.903931 0.363312 0.194214
0.933136 0.363617 0.194763
0.969330 0.363831 0.195312
0.000000 0.303009 0.166901
0.000000 0.301147 0.164612
0.012878 0.300140 0.161377
0.037140 0.300934 0.157806
0.074402 0.303986 0.153778
0.117859 0.308899 0.149963
0.166168 0.315308 0.146729
0.215637 0.322571 0.145264
0.262970 0.329865 0.145630
0.307037 0.337158 0.147888
0.347565 0.344147 0.151917
0.384918 0.350525 0.156891
0.420227 0.356659 0.162689
0.454102 0.362122 0.168884
0.486664 0.367279 0.174530
0.517914 0.371765 0.179962
0.547699 0.375671 0.184357
0.575897 0.378845 0.188049
0.602570 0.381378 0.191101
0.628265 0.383331 0.193268
0.653320 0.384705 0.195160
0.678345 0.385651 0.196503
0.704010 0.386414 0.197571
0.730530 0.387085 0.198639
0.757904 0.387451 0.199432
0.786163 0.387848 0.200195
0.814941 0.388123 0.200745
0.843719 0.388306 0.201538
0.872192 0.388489 0.202057
0.900482 0.388672 0.202576
0.929993 0.388763 0.202850
0.966888 0.388855 0.203369
0.986847 0.388947 0.203613
0.000000 0.321930 0.171997
0.000000 0.320099 0.170441
0.010925 0.319305 0.167969
0.034607 0.320282 0.165192
0.071503 0.323334 0.162079
0.115173 0.328583 0.158844
0.163818 0.335297 0.156158
0.213715 0.342834 0.154419
0.261536 0.350647 0.154449
0.306152 0.358246 0.156189
0.347198 0.365448 0.159332
0.385223 0.372192 0.163696
0.421326 0.378662 0.168915
0.456207 0.384644 0.174561
0.489868 0.390228 0.180267
0.522461 0.395325 0.185791
0.553650 0.399902 0.190826
0.583160 0.403778 0.195160
0.611206 0.406891 0.198883
0.638367 0.409241 0.201477
0.665009 0.410950 0.203522
0.691467 0.412109 0.205292
0.718719 0.412994 0.206268
0.746826 0.413605 0.207275
0.775635 0.414124 0.208282
0.805389 0.414490 0.209015
0.835297 0.414734 0.209747
0.865204 0.414917 0.210266
0.894684 0.415009 0.210754
0.924805 0.415100 0.210999
0.962372 0.415070 0.211487
0.984985 0.415070 0.211731
0.994720 0.415070 0.212219
0.000000 0.339600 0.176941
0.000000 0.338257 0.175720
0.009460 0.337585 0.174255
0.033081 0.338837 0.172241
0.069763 0.342255 0.169922
0.113617 0.347717 0.167511
0.162445 0.354828 0.165649
0.212646 0.362671 0.164368
0.260773 0.370880 0.164368
0.305695 0.378876 0.165375
0.346893 0.386597 0.167633
0.385315 0.393738 0.171143
0.421875 0.400391 0.175476
0.457367 0.406830 0.180298
0.491943 0.412750 0.185791
0.525604 0.418427 0.191132
0.558044 0.423676 0.196533
0.588959 0.428223 0.201477
0.618530 0.432037 0.205536
0.647247 0.434906 0.208740
0.675537 0.437164 0.211151
0.703888 0.438751 0.213318
0.732849 0.439819 0.214508
0.762482 0.440552 0.215668
0.792938 0.441132 0.216614
0.823975 0.441528 0.217316
0.855133 0.441864 0.218018
0.885925 0.442017 0.218506
0.916809 0.442108 0.218964
0.953461 0.442078 0.219421
0.981964 0.442078 0.219666
0.993713 0.441986 0.220123
0.997467 0.441925 0.220337
0.000000 0.356354 0.182556
0.000000 0.355408 0.181396
0.009369 0.355347 0.180298
0.033020 0.357025 0.178955
0.069458 0.360779 0.177643
0.113373 0.366608 0.176300
0.162292 0.373993 0.175171
0.212677 0.382416 0.174591
0.260803 0.391113 0.174591
0.305725 0.399658 0.175507
0.347015 0.407806 0.177002
0.385437 0.415253 0.179413
0.422119 0.422211 0.182648
0.458008 0.428741 0.186401
0.493164 0.434998 0.190857
0.527496 0.441071 0.196014
0.560944 0.446808 0.201477
0.593109 0.452026 0.206512
0.624176 0.456573 0.210938
0.654602 0.460266 0.214722
0.684662 0.463074 0.217773
0.715057 0.465179 0.220062
0.745941 0.466614 0.221863
0.777313 0.467621 0.223206
0.809387 0.468475 0.224304
0.841675 0.468903 0.225189
0.873932 0.469299 0.225861
0.905853 0.469513 0.226532
0.939972 0.469666 0.226959
0.976654 0.469666 0.227417
0.991943 0.469666 0.227631
0.996887 0.469513 0.227844
0.999176 0.469421 0.228271
0.000000 0.372070 0.188568
0.000000 0.371979 0.187714
0.011200 0.372620 0.186951
0.034393 0.374847 0.186249
0.071350 0.379150 0.185577
0.114868 0.385437 0.185150
0.163635 0.393250 0.184662
0.213745 0.402039 0.184692
0.261871 0.411346 0.185272
0.306580 0.420471 0.185822
0.347778 0.429016 0.186951
0.385925 0.436951 0.188354
0.422638 0.444031 0.190308
0.458466 0.450775 0.193054
0.493805 0.457123 0.196564
0.528564 0.463379 0.200989
0.562683 0.469391 0.205780
0.595825 0.475159 0.210693
0.628204 0.480316 0.215454
0.660217 0.484741 0.219604
0.692261 0.488342 0.223206
0.724731 0.491089 0.226044
0.757599 0.493103 0.228210
0.790924 0.494598 0.229950
0.824677 0.495667 0.231201
0.858398 0.496429 0.232483
0.891785 0.497009 0.233307
0.925873 0.497345 0.233948
0.967346 0.497498 0.234558
0.988495 0.497559 0.234985
0.996124 0.497559 0.235199
0.998932 0.497467 0.235596
0.999207 0.497406 0.235809
0.000000 0.387085 0.195923
0.000000 0.387970 0.195404
0.014862 0.389587 0.194702
0.038513 0.392548 0.194305
0.075043 0.397400 0.194214
0.118256 0.404175 0.194061
0.166504 0.412476 0.194397
0.216156 0.421844 0.194977
0.263763 0.431641 0.195770
0.308228 0.441254 0.196289
0.349121 0.450378 0.197083
0.387115 0.458710 0.197876
0.423584 0.466095 0.198914
0.459167 0.472900 0.200470
0.494324 0.479279 0.202789
0.529144 0.485474 0.206055
0.563599 0.491669 0.209961
0.597260 0.497589 0.214508
0.630707 0.503296 0.218903
0.664124 0.508392 0.223419
0.697876 0.512695 0.227142
0.732391 0.516174 0.230560
0.767242 0.518951 0.233307
0.802704 0.521027 0.235565
0.838165 0.522644 0.237396
0.873444 0.523773 0.238831
0.908356 0.524628 0.240021
0.947723 0.525208 0.241028
0.982025 0.525543 0.241608
0.994415 0.525726 0.242188
0.998047 0.525787 0.242584
0.999176 0.525787 0.242981
0.999207 0.525787 0.243378
0.000000 0.401550 0.204468
0.003510 0.403625 0.203979
0.020386 0.406189 0.203583
0.045807 0.410187 0.203217
0.081818 0.415680 0.203400
0.123840 0.422974 0.203766
0.171326 0.431702 0.204559
0.219910 0.441498 0.205353
0.266815 0.451813 0.206085
0.310669 0.461975 0.206818
0.351135 0.471680 0.207306
0.388855 0.480469 0.207794
0.425018 0.488251 0.208038
0.460266 0.495239 0.208771
0.495117 0.501617 0.209991
0.529755 0.507690 0.211914
0.564056 0.513733 0.214752
0.597992 0.519745 0.218231
0.631989 0.525604 0.222076
0.666351 0.531128 0.226288
0.701538 0.536072 0.230377
0.737762 0.540314 0.234131
0.774597 0.543793 0.237396
0.812073 0.546570 0.240021
0.849396 0.548828 0.242401
0.886383 0.550598 0.244324
0.923737 0.551880 0.245880
0.968628 0.552887 0.247192
0.990234 0.553497 0.248138
0.996796 0.553925 0.248901
0.999207 0.554169 0.249451
0.999207 0.554291 0.250031
0.999207 0.554413 0.250397
0.000000 0.415710 0.214203
0.010956 0.418976 0.213806
0.029327 0.422729 0.213226
0.056122 0.427612 0.213104
0.091064 0.433807 0.213470
0.131744 0.441650 0.214050
0.177612 0.450897 0.214813
0.224640 0.461029 0.215759
0.270508 0.471832 0.216675
0.313690 0.482605 0.217346
0.353790 0.492798 0.217804
0.391235 0.502106 0.217804
0.427094 0.510437 0.217804
0.462097 0.517670 0.217560
0.496521 0.524170 0.217773
0.530670 0.530212 0.218475
0.564667 0.536072 0.220062
0.598480 0.541840 0.222321
0.632599 0.547638 0.225403
0.667419 0.553253 0.229095
0.703400 0.558533 0.232880
0.740967 0.563293 0.236603
0.779388 0.567444 0.240021
0.818512 0.571014 0.243378
0.857697 0.573975 0.246246
0.896423 0.576447 0.248535
0.936707 0.578369 0.250580
0.979523 0.579865 0.252411
0.994385 0.580963 0.253693
0.998291 0.581787 0.254761
0.999207 0.582367 0.255676
0.999207 0.582703 0.256378
0.999207 0.583008 0.256927
0.002441 0.429596 0.224731
0.020264 0.434082 0.224396
0.040955 0.439026 0.224060
0.069183 0.444824 0.223969
0.102295 0.451904 0.224091
0.141327 0.460175 0.224365
0.185242 0.469818 0.225067
0.230377 0.480377 0.225952
0.275024 0.491547 0.226807
0.317200 0.502777 0.227448
0.356781 0.513641 0.227631
0.393951 0.523621 0.227631
0.429688 0.532440 0.227203
0.464386 0.540100 0.226532
0.498474 0.546814 0.226074
0.532196 0.552887 0.225861
0.565674 0.558533 0.226288
0.599091 0.564056 0.227386
0.632904 0.569580 0.229309
0.667755 0.575012 0.232056
0.704102 0.580383 0.235168
0.742279 0.585358 0.238434
0.781708 0.590027 0.242004
0.822144 0.594147 0.245483
0.862885 0.597839 0.248535
0.903320 0.601013 0.251495
0.949036 0.603760 0.254242
0.985687 0.606018 0.256378
0.996216 0.607697 0.258331
0.999207 0.609070 0.259735
0.999207 0.610046 0.260956
0.999237 0.610809 0.262146
0.999237 0.611450 0.263000
0.012238 0.443542 0.236053
0.032227 0.449249 0.235962
0.055725 0.455200 0.235474
0.083008 0.461914 0.235352
0.114716 0.469574 0.235229
0.152069 0.478394 0.235504
0.193390 0.488342 0.235931
0.236755 0.499237 0.236542
0.279755 0.510803 0.237122
0.321045 0.522552 0.237518
0.360046 0.533936 0.237701
0.397003 0.544556 0.237488
0.432709 0.554047 0.236847
0.467255 0.562256 0.235809
0.500977 0.569397 0.234772
0.534210 0.575592 0.233948
0.567291 0.581299 0.233307
0.600128 0.586548 0.233521
0.633575 0.591766 0.234161
0.668091 0.596893 0.235779
0.704224 0.601990 0.237823
0.742493 0.606934 0.240631
0.782288 0.611786 0.243561
0.823486 0.616272 0.246826
0.865234 0.620544 0.250031
0.907043 0.624390 0.253326
0.957001 0.627869 0.256409
0.988922 0.630829 0.259033
0.997070 0.633362 0.261475
0.999207 0.635376 0.263702
0.999237 0.637054 0.265381
0.999237 0.638336 0.266876
0.999237 0.639557 0.268188
0.023315 0.457672 0.248169
0.046173 0.464294 0.247894
0.071014 0.471222 0.247803
0.097382 0.478699 0.247498
0.127472 0.486938 0.247192
0.162750 0.496216 0.247223
0.201874 0.506531 0.247406
0.243164 0.517761 0.247589
0.284546 0.529602 0.247742
0.324951 0.541748 0.247925
0.363464 0.553680 0.247711
0.400238 0.564850 0.247314
0.435822 0.575012 0.246521
0.470337 0.583984 0.245361
0.503967 0.591675 0.243988
0.536804 0.598297 0.242615
0.569397 0.604156 0.241425
0.601776 0.609375 0.240448
0.634674 0.614349 0.240234
0.668732 0.619141 0.240417
0.704498 0.623810 0.241425
0.742401 0.628510 0.243195
0.782104 0.633148 0.245300
0.823364 0.637756 0.247986
0.865479 0.642273 0.250946
0.908112 0.646667 0.254242
0.959961 0.650726 0.257477
0.990265 0.654480 0.260620
0.997528 0.657745 0.263519
0.999207 0.660583 0.266052
0.999237 0.662933 0.268372
0.999237 0.664948 0.270477
0.999237 0.666809 0.272430
0.036743 0.471863 0.260284
0.062012 0.479431 0.260406
0.086182 0.487091 0.260132
0.111389 0.495178 0.260010
0.140198 0.504089 0.259521
0.173340 0.513702 0.259338
0.210052 0.524292 0.258972
0.249298 0.535706 0.258972
0.289276 0.547852 0.258575
0.328674 0.560272 0.258362
0.366669 0.572632 0.257996
0.403412 0.584473 0.257080
0.439056 0.595276 0.256165
0.473541 0.604919 0.254700
0.507050 0.613403 0.253235
0.539734 0.620636 0.251556
0.571960 0.626831 0.249695
0.604004 0.632446 0.248169
0.636505 0.637360 0.247040
0.670013 0.641907 0.246277
0.705322 0.646210 0.246277
0.742706 0.650482 0.246643
0.781830 0.654785 0.247803
0.822723 0.659149 0.249664
0.864655 0.663635 0.252075
0.907379 0.668182 0.254791
0.959595 0.672668 0.257996
0.990448 0.676941 0.261139
0.997681 0.680878 0.264374
0.999237 0.684418 0.267212
0.999237 0.687592 0.269989
0.999237 0.690430 0.272583
0.999237 0.693146 0.275116
0.051941 0.486267 0.272675
0.076996 0.494537 0.272919
0.100342 0.502899 0.272980
0.124634 0.511627 0.272705
0.152069 0.520813 0.272369
0.183197 0.530853 0.271881
0.217621 0.541565 0.271210
0.254944 0.553253 0.270691
0.293457 0.565460 0.270020
0.332153 0.578156 0.269318
0.369751 0.590912 0.268463
0.406403 0.603210 0.267273
0.442108 0.614716 0.265900
0.476654 0.625061 0.264191
0.510193 0.634277 0.262451
0.542816 0.642334 0.260529
0.574829 0.649231 0.258423
0.606628 0.655212 0.256439
0.638885 0.660431 0.254639
0.672119 0.665039 0.252991
0.706970 0.669220 0.252075
0.743774 0.673157 0.251526
0.782227 0.677032 0.251526
0.822449 0.681030 0.252258
0.863708 0.685211 0.253723
0.905884 0.689575 0.255707
0.957245 0.694153 0.258362
0.989899 0.698669 0.261292
0.997589 0.703125 0.264374
0.999237 0.707275 0.267395
0.999268 0.711121 0.270477
0.999268 0.714783 0.273376
0.999268 0.718323 0.276215
0.067444 0.500854 0.285187
0.091248 0.509644 0.285553
0.113617 0.518585 0.285858
0.136932 0.527802 0.285583
0.162750 0.537415 0.285309
0.191864 0.547668 0.284698
0.224487 0.558594 0.283905
0.260101 0.570282 0.283112
0.297485 0.582672 0.282013
0.335297 0.595459 0.280914
0.372620 0.608490 0.279480
0.409119 0.621277 0.277924
0.444916 0.633301 0.276154
0.479584 0.644379 0.274231
0.513153 0.654297 0.272125
0.545807 0.663147 0.269806
0.577759 0.670898 0.267487
0.609375 0.677612 0.265137
0.641571 0.683350 0.262726
0.674652 0.688263 0.260651
0.709259 0.692657 0.258728
0.745667 0.696503 0.257324
0.783539 0.700104 0.256409
0.822937 0.703766 0.256073
0.863342 0.707550 0.256592
0.904633 0.711578 0.257660
0.954407 0.715912 0.259247
0.988953 0.720337 0.261475
0.997406 0.724884 0.264221
0.999237 0.729309 0.267059
0.999268 0.733734 0.270020
0.999268 0.738007 0.273071
0.999268 0.742126 0.276062
0.082123 0.515472 0.297394
0.104675 0.524811 0.298126
0.126251 0.534180 0.298553
0.148529 0.543762 0.298553
0.172668 0.553680 0.298279
0.199921 0.564087 0.297699
0.230652 0.575134 0.296844
0.264801 0.586853 0.295837
0.301208 0.599365 0.294403
0.338257 0.612274 0.292938
0.375275 0.625519 0.291199
0.411713 0.638611 0.289154
0.447540 0.651154 0.286926
0.482269 0.662842 0.284698
0.515991 0.673492 0.282104
0.548645 0.683167 0.279633
0.580627 0.691803 0.276825
0.612305 0.699371 0.274139
0.644501 0.705963 0.271393
0.677582 0.711609 0.268768
0.712158 0.716370 0.266266
0.748383 0.720459 0.264069
0.785797 0.724121 0.262360
0.824402 0.727570 0.261169
0.863922 0.730988 0.260651
0.904205 0.734558 0.260620
0.952209 0.738373 0.261322
0.988007 0.742432 0.262512
0.997101 0.746704 0.264374
0.999268 0.751129 0.266724
0.999268 0.755585 0.269348
0.999268 0.760010 0.272095
0.999298 0.764496 0.274963
0.096375 0.529999 0.309296
0.117401 0.539734 0.310333
0.137817 0.549500 0.310944
0.158813 0.559418 0.311066
0.181763 0.569519 0.311035
0.207214 0.580139 0.310516
0.236603 0.591278 0.309723
0.269287 0.603058 0.308655
0.304535 0.615540 0.307068
0.341034 0.628571 0.305359
0.377655 0.641937 0.303223
0.413971 0.655273 0.300934
0.449829 0.668182 0.298340
0.484741 0.680481 0.295563
0.518463 0.691895 0.292725
0.551239 0.702362 0.289734
0.583252 0.711975 0.286652
0.615021 0.720520 0.283539
0.647339 0.728088 0.280334
0.680542 0.734589 0.277252
0.715271 0.740051 0.274414
0.751373 0.744659 0.271698
0.788513 0.748596 0.269409
0.826599 0.752014 0.267426
0.865387 0.755249 0.265930
0.904724 0.758484 0.265076
0.951416 0.761780 0.264740
0.987335 0.765289 0.265076
0.996918 0.769073 0.265900
0.999268 0.773010 0.267242
0.999298 0.777130 0.269043
0.999298 0.781403 0.271149
0.999298 0.785736 0.273407
0.109711 0.544434 0.320740
0.129395 0.554413 0.321899
0.148895 0.564484 0.322845
0.168518 0.574585 0.323273
0.189667 0.584961 0.323364
0.214111 0.595703 0.322998
0.242065 0.606873 0.322357
0.273590 0.618744 0.321259
0.307831 0.631256 0.319794
0.343750 0.644287 0.317963
0.379852 0.657745 0.315735
0.416138 0.671265 0.313141
0.451904 0.684570 0.310394
0.486786 0.697357 0.307190
0.520660 0.709595 0.303925
0.553467 0.720947 0.300476
0.585571 0.731506 0.297089
0.617432 0.741058 0.293488
0.649933 0.749481 0.289948
0.683380 0.756927 0.286438
0.718323 0.763214 0.283173
