Fujifilm Eterna 400T (8583) - Only color.cube
# Created by Benjamin (IWLTBAP) : http://luts.iwltbap.com
# Copyright: (C) Copyright 2010-2017 Triune Films and IWLTBAP SAS
# Cannot be resold, shared or otherwise redistributed
TITLE "Film Print Emulation LUTs Pack (Rec.709, sRGB, DCI-P3)"
LUT_3D_SIZE 9
0.014038 0.013000 0.010010
0.208405 0.011627 0.008606
0.336273 0.049500 0.009552
0.467316 0.061340 0.048401
0.559784 0.053986 0.051147
0.666534 0.046021 0.051422
0.749512 0.041351 0.041779
0.825714 0.037720 0.044495
0.910309 0.036163 0.047607
0.012604 0.124725 0.113464
0.185028 0.140320 0.018433
0.311951 0.159698 0.022522
0.450287 0.156403 0.051086
0.548370 0.141968 0.048920
0.673767 0.136505 0.049255
0.763855 0.134003 0.044464
0.852448 0.132996 0.052460
0.942841 0.133179 0.054413
0.011688 0.214874 0.149963
0.011841 0.203461 0.136688
0.315521 0.271606 0.110443
0.464966 0.276276 0.108612
0.581512 0.268066 0.087036
0.719757 0.256226 0.081909
0.814301 0.244476 0.072449
0.914978 0.231873 0.064331
0.996582 0.224823 0.066101
0.011292 0.268097 0.149231
0.011383 0.254059 0.150757
0.281281 0.334747 0.006012
0.456207 0.383148 0.090607
0.601318 0.384216 0.114929
0.748566 0.377472 0.117981
0.853302 0.369598 0.112213
0.970337 0.363037 0.104095
1.000000 0.357971 0.102051
0.010956 0.311066 0.156677
0.010986 0.306610 0.155243
0.028809 0.363739 0.110504
0.414520 0.438507 0.004608
0.585541 0.479797 0.023010
0.746399 0.482483 0.062164
0.871399 0.480499 0.066345
0.988098 0.477386 0.067261
1.000000 0.473633 0.071686
0.010742 0.332336 0.163300
0.010742 0.334259 0.161407
0.010345 0.383545 0.171204
0.385101 0.492767 0.004486
0.533112 0.533112 0.003479
0.723755 0.578735 0.002319
0.862122 0.584869 0.001740
0.988739 0.582458 0.001404
1.000000 0.579010 0.001373
0.010620 0.345795 0.167755
0.010529 0.353424 0.172485
0.010193 0.399475 0.179382
0.303894 0.516724 0.004822
0.514313 0.594238 0.003265
0.678955 0.638245 0.002258
0.841644 0.678131 0.001434
0.972290 0.683777 0.001099
1.000000 0.686066 0.001038
0.010498 0.358093 0.173920
0.010406 0.369720 0.174377
0.010040 0.414886 0.184509
0.049194 0.513519 0.006409
0.493622 0.642212 0.003143
0.666168 0.695465 0.002075
0.805817 0.747131 0.001282
0.948761 0.780212 0.000854
1.000000 0.785950 0.000763
0.010406 0.370605 0.173920
0.010315 0.382721 0.177063
0.009979 0.425354 0.183929
0.009583 0.491699 0.176880
0.467987 0.664825 0.003143
0.649323 0.732208 0.002014
0.777527 0.788910 0.001251
0.913910 0.848633 0.000732
1.000000 0.895630 0.000519
0.012756 0.049652 0.167908
0.185577 0.023926 0.175110
0.323853 0.051208 0.174042
0.466064 0.070953 0.146667
0.567535 0.062927 0.147064
0.678070 0.053925 0.145844
0.762695 0.049561 0.145416
0.840546 0.049713 0.146301
0.922119 0.048248 0.146912
0.012390 0.130463 0.136993
0.047760 0.141510 0.162415
0.300720 0.167480 0.158905
0.442139 0.163452 0.147461
0.553802 0.144653 0.146667
0.681610 0.138367 0.145813
0.773468 0.136261 0.145782
0.865784 0.136353 0.147125
0.961456 0.138611 0.147369
0.011597 0.216980 0.158325
0.011536 0.212891 0.169739
0.295685 0.271881 0.162506
0.454712 0.287415 0.165802
0.581848 0.277710 0.157043
0.724121 0.265320 0.154510
0.822998 0.252808 0.151276
0.924652 0.240082 0.150787
0.999084 0.230499 0.150574
0.011200 0.281158 0.148468
0.011230 0.270691 0.155579
0.207794 0.338623 0.085571
0.428680 0.384033 0.139954
0.591431 0.394501 0.162720
0.743713 0.388733 0.164764
0.856812 0.381439 0.164703
0.975494 0.372864 0.161743
1.000000 0.367371 0.160309
0.010834 0.324066 0.160095
0.010834 0.323151 0.159088
0.028534 0.370605 0.172760
0.393799 0.450409 0.091583
0.567017 0.487061 0.132507
0.735077 0.490448 0.143250
0.864349 0.488831 0.145416
0.986389 0.485931 0.146118
1.000000 0.482544 0.146942
0.010620 0.345459 0.168884
0.010590 0.348999 0.169678
0.010193 0.398102 0.177246
0.337097 0.503754 0.044952
0.521729 0.546295 0.102417
0.707794 0.590363 0.123718
0.849854 0.595123 0.123932
0.981445 0.594116 0.124420
1.000000 0.591034 0.124481
0.010468 0.360565 0.174622
0.010437 0.368439 0.173676
0.010040 0.414948 0.184509
0.219849 0.522125 0.009766
0.505341 0.616058 0.069855
0.664673 0.644501 0.108521
0.826508 0.687469 0.123993
0.961182 0.691925 0.124481
1.000000 0.694672 0.124603
0.010376 0.373077 0.174622
0.010254 0.377014 0.189301
0.009949 0.427765 0.184509
0.015808 0.510712 0.156097
0.484436 0.661865 0.033813
0.659515 0.714905 0.084381
0.785828 0.746796 0.112091
0.932831 0.788666 0.124481
1.000000 0.797943 0.124725
0.010254 0.369965 0.195770
0.010162 0.379059 0.203949
0.009857 0.431183 0.197449
0.009460 0.493286 0.194458
0.453156 0.675507 0.008972
0.636932 0.747620 0.055695
0.774811 0.805664 0.093628
0.898651 0.852264 0.114594
1.000000 0.901184 0.124908
0.012177 0.095093 0.199188
0.011475 0.107819 0.283051
0.314636 0.083496 0.278412
0.455536 0.099426 0.277618
0.563995 0.124847 0.266388
0.681854 0.130798 0.248016
0.765778 0.128479 0.231903
0.846497 0.121552 0.223602
0.929657 0.121338 0.222809
0.011841 0.138763 0.204712
0.011871 0.130585 0.208527
0.287262 0.161987 0.267303
0.428009 0.166656 0.272156
0.550262 0.180450 0.262573
0.686493 0.187561 0.242279
0.777710 0.186584 0.232941
0.873627 0.182098 0.225525
0.967438 0.180664 0.222748
0.011230 0.216675 0.212006
0.011139 0.212738 0.228058
0.227325 0.260895 0.262756
0.450989 0.314392 0.286865
0.584290 0.311127 0.271576
0.726044 0.294464 0.244232
0.826935 0.278717 0.230164
0.929871 0.263763 0.222168
1.000000 0.253357 0.220612
0.010651 0.286987 0.222260
0.010712 0.274506 0.224548
0.146118 0.326172 0.251923
0.416656 0.394073 0.263855
0.586029 0.411011 0.258606
0.736847 0.401703 0.226898
0.850159 0.391693 0.202545
0.970032 0.384766 0.202637
1.000000 0.379089 0.200500
0.010406 0.324524 0.222870
0.010345 0.325226 0.229004
0.028381 0.358398 0.238922
0.343201 0.459076 0.209717
0.534821 0.489960 0.182556
0.719421 0.499908 0.176086
0.852997 0.499359 0.180298
0.979279 0.495789 0.182251
1.000000 0.490967 0.184021
0.010315 0.339111 0.219360
0.010254 0.341003 0.224945
0.009888 0.389191 0.234344
0.201813 0.494659 0.164978
0.507080 0.566498 0.150726
0.673431 0.591858 0.168732
0.832275 0.608948 0.168427
0.966675 0.607727 0.168427
1.000000 0.603546 0.168427
0.010223 0.347809 0.223358
0.010132 0.355408 0.228973
0.009796 0.402527 0.234192
0.076416 0.499634 0.214783
0.491089 0.640961 0.132111
0.656647 0.663788 0.154236
0.804413 0.694366 0.168304
0.938263 0.703766 0.168274
1.000000 0.706604 0.168243
0.010162 0.352783 0.229431
0.010040 0.364838 0.236084
0.009674 0.410645 0.242157
0.015930 0.485168 0.243774
0.461090 0.679718 0.104126
0.646179 0.738434 0.140106
0.778748 0.768188 0.156738
0.911163 0.798920 0.168121
1.000000 0.808838 0.168091
0.010101 0.353027 0.236542
0.009949 0.369843 0.244598
0.009583 0.416290 0.252228
0.009155 0.478363 0.254456
0.375427 0.665924 0.064087
0.624573 0.773956 0.123444
0.769135 0.830688 0.145020
0.886017 0.873413 0.158386
0.998505 0.907440 0.167969
0.011658 0.118835 0.249207
0.010956 0.132690 0.331238
0.314026 0.122742 0.347382
0.450531 0.121429 0.357574
0.549438 0.120636 0.360718
0.676880 0.137726 0.360046
0.765137 0.145081 0.354675
0.849579 0.149933 0.349945
0.934021 0.151520 0.346680
0.011200 0.162933 0.268951
0.011139 0.160553 0.277191
0.255157 0.171417 0.367523
0.423920 0.168518 0.368988
0.535950 0.176941 0.372498
0.682587 0.194275 0.370758
0.778137 0.201202 0.367096
0.874542 0.205627 0.363525
0.973419 0.208557 0.363983
0.010437 0.242950 0.297089
0.010376 0.240509 0.308868
0.016113 0.257050 0.367950
0.429352 0.307953 0.389191
0.562134 0.308960 0.388458
0.720490 0.312592 0.388763
0.829346 0.305908 0.383118
0.938904 0.299133 0.379425
1.000000 0.288879 0.378235
0.009918 0.306946 0.310181
0.009827 0.312042 0.321320
0.016083 0.333893 0.342438
0.373627 0.385468 0.365997
0.595764 0.443420 0.406830
0.749451 0.439178 0.396606
0.870148 0.430878 0.386658
0.986176 0.422638 0.381683
1.000000 0.416290 0.378845
0.009888 0.336578 0.286163
0.009796 0.342224 0.295471
0.016052 0.378296 0.317017
0.214020 0.445160 0.339539
0.535309 0.510864 0.376282
0.733948 0.533478 0.386017
0.871033 0.528534 0.376678
0.991394 0.523132 0.372894
1.000000 0.518799 0.369049
0.009735 0.355835 0.289917
0.009583 0.369324 0.298340
0.009277 0.405304 0.313202
0.164093 0.460968 0.320526
0.491089 0.584381 0.335602
0.672058 0.614471 0.333252
0.838043 0.635925 0.337921
0.976562 0.633270 0.336304
1.000000 0.629669 0.338593
0.009644 0.368134 0.291382
0.009491 0.384644 0.298767
0.009277 0.412048 0.303131
0.076691 0.478760 0.319336
0.413086 0.607147 0.294189
0.623688 0.672333 0.294464
0.788971 0.708008 0.290192
0.940674 0.724457 0.299255
1.000000 0.727142 0.292419
0.009583 0.377289 0.293976
0.009460 0.391724 0.298309
0.009247 0.418823 0.304199
0.016022 0.483368 0.317108
0.323364 0.620667 0.267334
0.600128 0.743225 0.277985
0.760437 0.780579 0.241455
0.895569 0.808685 0.233398
1.000000 0.825226 0.242554
0.009491 0.384155 0.297241
0.009399 0.396881 0.301300
0.009186 0.424500 0.304718
0.008759 0.481628 0.318726
0.215546 0.607330 0.252838
0.574646 0.774017 0.274109
0.746216 0.836700 0.238922
0.867401 0.881836 0.213135
0.995605 0.918518 0.207123
0.011200 0.140991 0.290863
0.010468 0.156311 0.378937
0.309845 0.151306 0.388947
0.454498 0.145416 0.401642
0.545441 0.141266 0.416016
0.661560 0.137177 0.424591
0.759186 0.145813 0.430786
0.846741 0.154327 0.429443
0.928955 0.156128 0.427979
0.010773 0.176025 0.315094
0.010681 0.177643 0.327209
0.214600 0.177460 0.438660
0.430786 0.177582 0.441040
0.534515 0.184540 0.446289
0.669739 0.192749 0.453003
0.767212 0.198395 0.455322
0.865112 0.206635 0.456207
0.965210 0.211761 0.457153
0.009949 0.251221 0.363770
0.009857 0.255310 0.373596
0.009521 0.268768 0.412811
0.415558 0.308319 0.474976
0.559631 0.312408 0.480255
0.704132 0.306458 0.483582
0.811646 0.300964 0.484253
0.922852 0.297058 0.484406
1.000000 0.293427 0.486053
0.009369 0.331085 0.372345
0.009216 0.340485 0.387573
0.009033 0.352112 0.405457
0.292297 0.360748 0.436462
0.569641 0.436432 0.493347
0.733032 0.440125 0.501434
0.858582 0.437958 0.504517
0.980194 0.431671 0.500153
1.000000 0.426941 0.498627
0.009125 0.367767 0.374023
0.008972 0.383240 0.383881
0.008789 0.401367 0.396423
0.197601 0.419586 0.388428
0.521179 0.512024 0.468323
0.743774 0.564392 0.508057
0.886932 0.560974 0.503998
0.997711 0.555420 0.499878
1.000000 0.550781 0.500153
0.009308 0.380035 0.333008
0.009125 0.395752 0.345245
0.008911 0.417389 0.359955
0.118103 0.467957 0.385956
0.458679 0.569916 0.427826
0.673431 0.635315 0.458679
0.850037 0.666626 0.480591
0.989258 0.664307 0.481323
1.000000 0.658966 0.479675
0.009216 0.389923 0.335693
0.009064 0.406158 0.344208
0.008759 0.441223 0.359436
0.076904 0.494568 0.381012
0.348877 0.591400 0.381500
0.628235 0.700745 0.428406
0.792786 0.735321 0.435089
0.959534 0.757660 0.449951
1.000000 0.761597 0.452759
0.009186 0.395355 0.335968
0.009003 0.415131 0.345886
0.008698 0.449036 0.358582
0.016052 0.493774 0.369843
0.197052 0.580780 0.341125
0.571167 0.743622 0.396301
0.756317 0.801208 0.400970
0.903046 0.839203 0.414215
1.000000 0.862976 0.423645
0.009155 0.400269 0.337280
0.008972 0.420166 0.347137
0.008698 0.452667 0.355957
0.008453 0.485413 0.362305
0.139954 0.558289 0.335510
0.514160 0.740356 0.368835
0.727631 0.843597 0.384796
0.861786 0.902466 0.387878
0.997589 0.951508 0.402374
0.010681 0.164825 0.341705
0.010071 0.166473 0.430511
0.320190 0.163696 0.422363
0.460358 0.165802 0.428741
0.544800 0.163422 0.447296
0.655365 0.157501 0.462921
0.743439 0.151825 0.481750
0.838501 0.149506 0.494354
0.922974 0.154785 0.493591
0.010437 0.185455 0.355011
0.010254 0.189087 0.381805
0.227020 0.188232 0.489319
0.441345 0.186188 0.486633
0.537231 0.192535 0.497559
0.663727 0.198975 0.508575
0.759705 0.204590 0.524902
0.858704 0.208557 0.539124
0.958893 0.211823 0.541321
0.009583 0.265961 0.404541
0.009460 0.271820 0.419891
0.009033 0.284668 0.472778
0.393921 0.307709 0.547699
0.566254 0.313995 0.561676
0.704651 0.309326 0.570251
0.803925 0.302795 0.577545
0.917084 0.298645 0.583862
0.998749 0.291595 0.581787
0.008881 0.348358 0.432709
0.008728 0.357819 0.448761
0.008545 0.370972 0.464722
0.267334 0.372314 0.519684
0.571564 0.444427 0.591888
0.723633 0.438873 0.597717
0.840149 0.433044 0.602478
0.960052 0.428864 0.607208
1.000000 0.426361 0.608002
0.008484 0.405182 0.441772
0.008270 0.422455 0.460114
0.008057 0.441864 0.479034
0.011108 0.457092 0.502594
0.497894 0.507019 0.542603
0.734192 0.570526 0.615509
0.880951 0.574677 0.629974
0.995026 0.565857 0.630402
1.000000 0.561249 0.627197
0.008392 0.426208 0.433441
0.008209 0.445984 0.447266
0.007996 0.468140 0.461395
0.011047 0.491486 0.469147
0.384369 0.520996 0.466003
0.662354 0.641968 0.569824
0.863251 0.696411 0.617188
0.994659 0.695801 0.626587
1.000000 0.688873 0.620422
0.008453 0.433746 0.417328
0.008331 0.452881 0.418243
0.008270 0.471039 0.412384
0.011047 0.502258 0.433014
0.274231 0.552795 0.434509
0.596771 0.695099 0.525482
0.795044 0.755676 0.568024
0.970062 0.795715 0.593781
1.000000 0.798767 0.598175
0.008606 0.432159 0.395111
0.008514 0.450256 0.391998
0.008270 0.472656 0.407135
0.011047 0.514954 0.428192
0.177185 0.588165 0.427094
0.530151 0.731201 0.487030
0.762238 0.830536 0.529114
0.912964 0.876190 0.553101
1.000000 0.905487 0.568359
0.008698 0.431885 0.380646
0.008484 0.452606 0.391388
0.008270 0.476135 0.404907
0.007965 0.510803 0.419159
0.140259 0.587585 0.419464
0.483398 0.729584 0.450439
0.730591 0.882599 0.501404
0.868683 0.937775 0.513275
0.999390 0.987518 0.536224
0.010254 0.175659 0.393707
0.186493 0.171661 0.447937
0.347137 0.173309 0.445190
0.470428 0.178680 0.442963
0.548096 0.177246 0.466248
0.649506 0.174591 0.489624
0.729584 0.169250 0.514618
0.816345 0.163239 0.541351
0.910858 0.156799 0.562012
0.010193 0.195251 0.381592
0.009705 0.201782 0.452667
0.266174 0.197784 0.535889
0.460297 0.195892 0.521271
0.547333 0.202057 0.541382
0.667664 0.207764 0.561371
0.751068 0.211914 0.582153
0.844910 0.216309 0.605774
0.948975 0.216980 0.620728
0.009247 0.281586 0.442871
0.009155 0.285187 0.452667
0.008636 0.291473 0.531281
0.410431 0.312714 0.590668
0.578217 0.319611 0.616852
0.708557 0.312866 0.632721
0.799225 0.302246 0.648285
0.902039 0.296509 0.669403
0.996979 0.296021 0.695312
0.008514 0.361450 0.480194
0.008362 0.370911 0.495270
0.008240 0.381226 0.509583
0.272491 0.382660 0.578888
0.574402 0.447845 0.659821
0.728882 0.445312 0.681641
0.836029 0.437225 0.706879
0.946381 0.430389 0.732574
1.000000 0.425903 0.749878
0.007965 0.434601 0.498108
0.007812 0.449280 0.514465
0.007629 0.461975 0.533142
0.007416 0.470551 0.566284
0.488922 0.507385 0.607422
0.725433 0.569855 0.714691
0.854736 0.565704 0.739288
0.982483 0.563232 0.778687
1.000000 0.559143 0.807983
0.007843 0.461304 0.494324
0.007660 0.478394 0.509460
0.007477 0.495300 0.523376
0.007355 0.509888 0.530884
0.369720 0.506226 0.499725
0.661133 0.650330 0.647797
0.873108 0.717072 0.783997
0.994415 0.713135 0.809082
1.000000 0.707336 0.832977
0.007812 0.472900 0.486023
0.007660 0.491974 0.495941
0.007507 0.512238 0.500854
0.007446 0.531158 0.496216
0.273010 0.545776 0.475647
0.551300 0.662689 0.573364
0.804474 0.770782 0.676605
0.973541 0.812958 0.754089
1.000000 0.819275 0.781006
0.007843 0.476685 0.477356
0.007721 0.494568 0.481995
0.007629 0.514099 0.480072
0.007660 0.526672 0.460327
0.088959 0.578644 0.467834
0.492432 0.687042 0.531860
0.758698 0.829651 0.621002
0.907684 0.879974 0.658234
1.000000 0.926178 0.717102
0.007874 0.479584 0.471710
0.007782 0.495972 0.468842
0.007812 0.507477 0.449524
0.007660 0.529236 0.457306
0.088989 0.596100 0.467377
0.458832 0.702667 0.505585
0.726288 0.886658 0.599731
0.867188 0.948425 0.621216
0.998901 1.000000 0.655670
0.009796 0.175507 0.463654
0.264771 0.177399 0.463837
0.391052 0.178131 0.458862
0.480499 0.183105 0.456940
0.557526 0.186066 0.470398
0.647400 0.184448 0.498016
0.719574 0.180664 0.528229
0.793945 0.176117 0.567383
0.876190 0.170105 0.599701
0.009735 0.207275 0.442932
0.008972 0.206451 0.562469
0.302948 0.201874 0.570557
0.479553 0.206146 0.563751
0.559784 0.210693 0.569366
0.673218 0.216400 0.591187
0.746277 0.219330 0.615173
0.829590 0.221802 0.649017
0.925476 0.223175 0.690613
0.008972 0.293518 0.476654
0.008820 0.295105 0.497742
0.007996 0.301910 0.631927
0.438446 0.319977 0.648834
0.594604 0.324127 0.671326
0.715515 0.313934 0.706146
0.794952 0.305084 0.743683
0.888153 0.298523 0.794586
0.985321 0.293945 0.838257
0.008148 0.375275 0.528351
0.008026 0.380707 0.543701
0.007782 0.386200 0.585815
0.305573 0.395142 0.641449
0.573669 0.446350 0.743408
0.738312 0.449677 0.811920
0.835632 0.441681 0.850800
0.932495 0.433563 0.889740
1.000000 0.427307 0.925049
0.007538 0.457520 0.555145
0.007385 0.469604 0.572632
0.007263 0.478119 0.586731
0.202850 0.476227 0.615662
0.484802 0.504852 0.660950
0.732880 0.575165 0.853180
0.856323 0.571899 0.892639
0.965851 0.564178 0.934387
1.000000 0.556702 0.959076
0.007355 0.490173 0.555573
0.007202 0.502136 0.571106
0.007019 0.521301 0.588043
0.006897 0.536407 0.595764
0.384308 0.528320 0.574158
0.666168 0.660156 0.753845
0.866028 0.723236 0.927124
0.990631 0.721985 0.968567
1.000000 0.712189 0.997101
0.007294 0.506531 0.547546
0.007141 0.523010 0.558533
0.006958 0.545868 0.568573
0.006836 0.564911 0.572632
0.329102 0.556366 0.527924
0.514923 0.628326 0.595154
0.794678 0.771759 0.826324
0.975128 0.830048 0.942596
1.000000 0.836212 0.969940
0.007385 0.509186 0.529877
0.007172 0.530182 0.546295
0.007019 0.552917 0.550598
0.006927 0.574554 0.547028
0.183380 0.579498 0.499512
0.470673 0.654510 0.563660
0.753235 0.822021 0.726593
0.901825 0.887421 0.835876
1.000000 0.933746 0.922089
0.007385 0.513062 0.524231
0.007233 0.533234 0.532196
0.007111 0.555176 0.529114
0.007050 0.574615 0.523163
0.009644 0.592102 0.494873
0.428894 0.662689 0.529144
0.697388 0.838684 0.654205
0.855927 0.938873 0.757050
0.996277 0.998962 0.841919
0.234833 0.180176 0.474670
0.313049 0.181854 0.475433
0.432068 0.182098 0.470551
0.495087 0.187805 0.471405
0.569977 0.193298 0.466888
0.648895 0.191803 0.498047
0.714264 0.189026 0.532928
0.778076 0.185638 0.574127
0.852142 0.181152 0.617859
0.008972 0.213074 0.555176
0.187653 0.207977 0.596863
0.366730 0.208038 0.589874
0.499786 0.213165 0.584747
0.583649 0.217926 0.576233
0.684082 0.223450 0.604309
0.747620 0.225311 0.634338
0.822784 0.227905 0.675171
0.902893 0.227600 0.744293
0.008698 0.302979 0.511932
0.008301 0.305237 0.576324
0.242523 0.311890 0.673676
0.473022 0.324188 0.694763
0.621124 0.326721 0.703705
0.727875 0.316284 0.745361
0.796295 0.308472 0.801514
0.878632 0.300842 0.861755
0.971008 0.297302 0.915588
0.007812 0.385071 0.582581
0.007721 0.392548 0.587524
0.007385 0.394745 0.650452
0.373444 0.408234 0.712769
0.587006 0.446869 0.799713
0.748657 0.452576 0.878174
0.838776 0.444885 0.921204
0.924408 0.435638 0.961670
0.999481 0.430176 0.998627
0.007172 0.476105 0.606201
0.007050 0.483551 0.619781
0.006989 0.487274 0.627197
0.275787 0.478027 0.664948
0.495941 0.510040 0.724060
0.747467 0.583893 0.940857
0.861237 0.579163 0.978394
0.960632 0.567719 0.998718
1.000000 0.558777 0.998901
0.006927 0.516449 0.611145
0.006805 0.529144 0.623932
0.006622 0.545776 0.640076
0.006439 0.558563 0.662018
0.405121 0.544556 0.613159
0.654205 0.651611 0.838409
0.855743 0.716492 0.998505
0.971924 0.715546 0.999054
1.000000 0.707458 0.999176
0.006805 0.543243 0.605560
0.006714 0.556213 0.610565
0.006531 0.575500 0.624695
0.006439 0.592224 0.627289
0.343384 0.582336 0.593048
0.515900 0.620209 0.616241
0.820953 0.807556 0.978271
0.978943 0.851776 0.999420
1.000000 0.855103 0.999542
0.006805 0.550751 0.595337
0.006683 0.566925 0.604004
0.006561 0.587494 0.609070
0.006439 0.607666 0.609619
0.304962 0.597260 0.558502
0.457397 0.630920 0.579620
0.717529 0.778534 0.785217
0.889679 0.885651 0.967499
1.000000 0.942413 0.999786
0.006866 0.553192 0.583374
0.006744 0.568237 0.589569
0.006592 0.592438 0.595154
0.006500 0.611542 0.591095
0.186676 0.601654 0.521667
0.409576 0.633514 0.550110
0.671448 0.801819 0.714355
0.847046 0.924438 0.898438
0.992615 0.999969 0.999939
