Fujifilm Eterna 250D (8563) - Only color.cube
# Created by Benjamin (IWLTBAP) : http://luts.iwltbap.com
# Copyright: (C) Copyright 2010-2017 Triune Films and IWLTBAP SAS
# Cannot be resold, shared or otherwise redistributed
TITLE "Film Print Emulation LUTs Pack (Rec.709, sRGB, DCI-P3)"
LUT_3D_SIZE 9
0.001343 0.002960 0.005646
0.128662 0.023956 0.034821
0.279114 0.082458 0.085541
0.396149 0.136383 0.117401
0.486267 0.165710 0.131195
0.561707 0.181396 0.138580
0.629456 0.191345 0.143311
0.697235 0.197784 0.146759
0.778229 0.203278 0.149780
0.000000 0.150543 0.099426
0.106567 0.157288 0.084747
0.268890 0.187836 0.101807
0.396515 0.216125 0.127777
0.497589 0.233368 0.140961
0.581879 0.243164 0.148224
0.659943 0.249817 0.152985
0.743439 0.254730 0.157257
0.839386 0.259186 0.160431
0.000000 0.261414 0.153992
0.083160 0.262115 0.135559
0.266479 0.286621 0.129120
0.415039 0.310913 0.150818
0.532043 0.326385 0.168854
0.628326 0.333405 0.177277
0.721741 0.336456 0.181458
0.825714 0.338135 0.184418
0.935211 0.339813 0.187042
0.000000 0.339600 0.176941
0.069763 0.342255 0.169922
0.260773 0.370880 0.164368
0.421875 0.400391 0.175476
0.558044 0.423676 0.196533
0.675537 0.437164 0.211151
0.792938 0.441132 0.216614
0.916809 0.442108 0.218964
0.997467 0.441925 0.220337
0.000000 0.401550 0.204468
0.081818 0.415680 0.203400
0.266815 0.451813 0.206085
0.425018 0.488251 0.208038
0.564056 0.513733 0.214752
0.701538 0.536072 0.230377
0.849396 0.548828 0.242401
0.990234 0.553497 0.248138
0.999207 0.554413 0.250397
0.023315 0.457672 0.248169
0.127472 0.486938 0.247192
0.284546 0.529602 0.247742
0.435822 0.575012 0.246521
0.569397 0.604156 0.241425
0.704498 0.623810 0.241425
0.865479 0.642273 0.250946
0.997528 0.657745 0.263519
0.999237 0.666809 0.272430
0.082123 0.515472 0.297394
0.172668 0.553680 0.298279
0.301208 0.599365 0.294403
0.447540 0.651154 0.286926
0.580627 0.691803 0.276825
0.712158 0.716370 0.266266
0.863922 0.730988 0.260651
0.997101 0.746704 0.264374
0.999298 0.764496 0.274963
0.134186 0.572632 0.342804
0.204376 0.614105 0.347565
0.314362 0.660736 0.345703
0.455536 0.715454 0.335846
0.589203 0.767944 0.319336
0.723328 0.806824 0.302704
0.872040 0.829315 0.289124
0.996857 0.841705 0.279480
0.999359 0.851166 0.274536
0.173462 0.625732 0.385468
0.228271 0.666382 0.392853
0.326447 0.713348 0.395874
0.461639 0.769135 0.390533
0.593262 0.830872 0.373016
0.727997 0.885864 0.351318
0.878052 0.927765 0.330505
0.997437 0.957886 0.313110
0.999512 0.982971 0.298462
0.000977 0.011444 0.059601
0.091095 0.021027 0.105255
0.248505 0.068695 0.152130
0.375702 0.125946 0.173157
0.473694 0.160797 0.184479
0.555206 0.179749 0.190125
0.628784 0.191833 0.193939
0.701447 0.199707 0.196655
0.784607 0.205353 0.198517
0.000000 0.131622 0.127411
0.077087 0.141998 0.149353
0.237457 0.173676 0.174103
0.374207 0.205627 0.187622
0.480530 0.226654 0.195557
0.571045 0.239136 0.200012
0.653351 0.247528 0.203613
0.741699 0.253845 0.206665
0.840790 0.258636 0.209137
0.000000 0.235901 0.172821
0.057678 0.252014 0.189606
0.232056 0.280487 0.199860
0.391510 0.304901 0.212738
0.514008 0.321136 0.222626
0.616211 0.329498 0.226807
0.713135 0.333771 0.228973
0.822479 0.336639 0.230927
0.936768 0.338654 0.232422
0.000000 0.323608 0.218079
0.038177 0.342224 0.230713
0.218536 0.375214 0.232330
0.396362 0.403168 0.236603
0.540619 0.424072 0.249084
0.664490 0.438171 0.259064
0.786621 0.443024 0.262177
0.916229 0.444458 0.263184
0.997925 0.444366 0.263672
0.000000 0.395935 0.259003
0.035095 0.424286 0.271637
0.215027 0.465240 0.272827
0.397003 0.500031 0.268097
0.545593 0.521759 0.268158
0.687286 0.541199 0.278046
0.840393 0.554504 0.287415
0.989288 0.559845 0.291779
0.999237 0.560577 0.292877
0.000000 0.461884 0.299042
0.062866 0.500702 0.312012
0.228912 0.547852 0.314697
0.405304 0.592133 0.307587
0.550232 0.618988 0.297943
0.688141 0.634735 0.293152
0.850616 0.649719 0.297729
0.996582 0.664825 0.307129
0.999268 0.675201 0.314850
0.022919 0.522278 0.336975
0.114105 0.566833 0.351257
0.254333 0.617126 0.356445
0.416443 0.669739 0.349365
0.560059 0.709869 0.336456
0.694824 0.733459 0.323090
0.848297 0.744934 0.314209
0.995667 0.756226 0.314087
0.999329 0.772034 0.321167
0.089142 0.579834 0.374817
0.166718 0.624481 0.389893
0.279297 0.675415 0.398102
0.427368 0.732391 0.393463
0.568176 0.784943 0.379028
0.703156 0.823730 0.362579
0.854462 0.846191 0.347809
0.995209 0.857056 0.336670
0.999390 0.863251 0.329620
0.150146 0.632996 0.412109
0.203888 0.674835 0.427277
0.299011 0.725006 0.438202
0.438660 0.783386 0.437683
0.574738 0.845032 0.424042
0.708496 0.901123 0.406250
0.859436 0.944580 0.387970
0.995819 0.985260 0.372223
0.999603 1.000000 0.359161
0.000305 0.034668 0.149597
0.046295 0.034058 0.184723
0.213470 0.073273 0.236420
0.362457 0.128357 0.247986
0.469147 0.164795 0.255341
0.555176 0.184875 0.260620
0.632233 0.197754 0.263550
0.708893 0.205780 0.264709
0.795013 0.211212 0.264526
0.000000 0.175598 0.219635
0.034180 0.149750 0.229126
0.193146 0.167267 0.262451
0.354034 0.201416 0.270752
0.470520 0.226227 0.272308
0.565796 0.241119 0.274811
0.650543 0.250458 0.276489
0.741943 0.257324 0.277710
0.843964 0.262695 0.278931
0.000000 0.239441 0.228271
0.025635 0.247162 0.253326
0.186493 0.274506 0.284698
0.366547 0.302795 0.298950
0.499054 0.321747 0.303345
0.605804 0.331360 0.304413
0.704254 0.335968 0.304077
0.816162 0.339233 0.303711
0.934204 0.341583 0.303528
0.000000 0.304688 0.251343
0.014313 0.326080 0.277771
0.167328 0.369568 0.305389
0.366119 0.406219 0.320679
0.523010 0.429718 0.331207
0.650726 0.443817 0.336884
0.773499 0.448608 0.336639
0.905579 0.449799 0.334778
0.997528 0.449951 0.333160
0.000000 0.378540 0.292084
0.006470 0.409637 0.316284
0.156097 0.462708 0.338379
0.360443 0.507965 0.346985
0.523621 0.531677 0.349731
0.671143 0.550995 0.357239
0.825348 0.563995 0.363373
0.983093 0.568787 0.364410
0.999268 0.569305 0.363037
0.000000 0.452637 0.331299
0.013184 0.493561 0.355347
0.164673 0.550690 0.376434
0.366394 0.603363 0.382324
0.524506 0.631561 0.376343
0.667786 0.646851 0.371857
0.833801 0.661621 0.375427
0.994934 0.676666 0.383026
0.999359 0.687042 0.388977
0.000000 0.519989 0.367157
0.050629 0.565918 0.391693
0.195068 0.623474 0.413696
0.379120 0.682770 0.420197
0.533600 0.724426 0.412109
0.670868 0.747742 0.400269
0.825714 0.758667 0.391266
0.992188 0.769684 0.390411
0.999420 0.785797 0.396973
0.037140 0.581604 0.403290
0.114777 0.626740 0.427124
0.233643 0.682800 0.449799
0.394501 0.746033 0.458130
0.543091 0.800171 0.449829
0.678589 0.838898 0.436310
0.829163 0.861389 0.422455
0.989471 0.871918 0.411133
0.999512 0.877747 0.403900
0.114960 0.637695 0.440063
0.172852 0.680054 0.462708
0.268585 0.734161 0.485138
0.411652 0.797729 0.495819
0.552032 0.861389 0.488434
0.685242 0.917999 0.474518
0.834290 0.965607 0.458801
0.989868 1.000000 0.444031
0.999664 1.000000 0.431580
0.000000 0.053558 0.226990
0.015656 0.056763 0.259460
0.169739 0.092499 0.311218
0.338623 0.136841 0.324768
0.458893 0.171112 0.327759
0.551849 0.191132 0.332886
0.631683 0.204010 0.336945
0.710754 0.212372 0.338257
0.798004 0.217987 0.337738
0.000000 0.214355 0.302734
0.005341 0.167023 0.296814
0.141083 0.167297 0.333435
0.321411 0.194977 0.350891
0.453186 0.222443 0.349518
0.558472 0.241730 0.350189
0.646057 0.253235 0.352234
0.738251 0.261292 0.353668
0.840820 0.267029 0.354675
0.000000 0.271790 0.305634
0.002167 0.262360 0.318268
0.133606 0.272400 0.356598
0.330017 0.294373 0.382751
0.476715 0.316376 0.385406
0.593201 0.330841 0.385254
0.693298 0.337616 0.385254
0.804688 0.341797 0.384857
0.923431 0.344666 0.384308
0.000000 0.301361 0.293793
0.000000 0.316467 0.317139
0.115875 0.356934 0.361023
0.328857 0.397858 0.398987
0.501526 0.429291 0.418060
0.634857 0.447327 0.425293
0.755524 0.452881 0.425171
0.887054 0.454285 0.422943
0.996124 0.454590 0.420502
0.000000 0.356323 0.311371
0.000000 0.377350 0.332977
0.102539 0.432770 0.373993
0.318054 0.496765 0.414093
0.500549 0.535248 0.436981
0.655792 0.559784 0.452545
0.806976 0.572571 0.459412
0.967041 0.576202 0.458801
0.999390 0.576385 0.455750
0.000000 0.430450 0.348602
0.000000 0.460754 0.372131
0.102600 0.519531 0.408508
0.319336 0.593628 0.446045
0.496368 0.636383 0.460693
0.648590 0.656616 0.465363
0.818695 0.674469 0.474304
0.991241 0.689209 0.482666
0.999451 0.698059 0.486908
0.000000 0.506500 0.388672
0.005859 0.544922 0.414703
0.124298 0.603363 0.449738
0.332855 0.678558 0.483337
0.504303 0.732330 0.494049
0.646057 0.757812 0.489105
0.801941 0.770630 0.484222
0.985962 0.784393 0.487122
0.999512 0.802734 0.496582
0.003418 0.575439 0.427216
0.054077 0.615570 0.454010
0.173370 0.672333 0.488190
0.355133 0.746887 0.518646
0.514984 0.810730 0.527344
0.652832 0.851410 0.521057
0.800171 0.874237 0.510529
0.973999 0.885406 0.501190
0.999634 0.893524 0.496216
0.064392 0.637512 0.465576
0.125946 0.676941 0.491913
0.230774 0.731995 0.523682
0.381256 0.803528 0.551666
0.526245 0.875031 0.559814
0.660461 0.934692 0.553558
0.805328 0.996765 0.542206
0.972198 1.000000 0.529846
0.999756 1.000000 0.518402
0.000000 0.068115 0.277802
0.006042 0.084229 0.313568
0.146301 0.117767 0.361542
0.313019 0.148621 0.384125
0.436035 0.175781 0.390991
0.538635 0.195221 0.396210
0.626617 0.207764 0.402130
0.710754 0.215698 0.405029
0.799866 0.221832 0.404785
0.000000 0.223297 0.350067
0.000000 0.176819 0.342682
0.113586 0.172577 0.382111
0.292603 0.193085 0.412323
0.424225 0.215576 0.419006
0.537933 0.236267 0.420898
0.636261 0.250916 0.423462
0.734802 0.261200 0.425629
0.840912 0.268311 0.426666
0.000000 0.304840 0.372620
0.000000 0.284332 0.376251
0.097290 0.277222 0.412811
0.293976 0.287445 0.453400
0.442230 0.303894 0.463318
0.568024 0.320801 0.463898
0.677856 0.332489 0.464264
0.795319 0.339569 0.464417
0.917755 0.344269 0.463837
0.000000 0.329742 0.356201
0.000000 0.338776 0.374268
0.074036 0.363647 0.417877
0.287048 0.389404 0.470642
0.466858 0.415924 0.499237
0.610565 0.439758 0.508972
0.736145 0.450775 0.511108
0.870636 0.454529 0.510559
0.993988 0.455994 0.508972
0.000000 0.352142 0.343201
0.000000 0.367645 0.361938
0.061615 0.413818 0.406525
0.275269 0.475342 0.465393
0.471069 0.523682 0.511841
0.638062 0.560333 0.542358
0.787415 0.576599 0.553406
0.937775 0.580078 0.553802
0.999481 0.580139 0.551300
0.000000 0.406006 0.360138
0.000000 0.424866 0.377655
0.053375 0.472626 0.415222
0.268646 0.556854 0.477051
0.464661 0.623688 0.527374
0.631927 0.660431 0.556335
0.805664 0.684662 0.575592
0.984741 0.699188 0.585541
0.999573 0.705811 0.588165
0.000000 0.481598 0.399414
0.000000 0.507385 0.419556
0.059662 0.554901 0.453766
0.276428 0.641235 0.510345
0.470795 0.721191 0.557922
0.623993 0.760315 0.574127
0.782257 0.778992 0.579803
0.978729 0.798004 0.589966
0.999664 0.819366 0.603455
0.000000 0.556763 0.442291
0.002808 0.587250 0.465149
0.099518 0.636597 0.499237
0.304535 0.718018 0.547546
0.483063 0.803711 0.587708
0.629395 0.856415 0.600922
0.773956 0.881866 0.598450
0.945190 0.895355 0.594513
0.999756 0.908722 0.595337
0.002686 0.624207 0.482574
0.041992 0.657928 0.506836
0.164459 0.708435 0.539551
0.342957 0.785645 0.581909
0.497375 0.871857 0.615326
0.636902 0.942535 0.627319
0.778595 1.000000 0.624207
0.935913 1.000000 0.616272
0.999847 1.000000 0.607971
0.000000 0.089752 0.313568
0.009613 0.111084 0.357330
0.149078 0.137695 0.402161
0.302185 0.162933 0.424561
0.411926 0.182159 0.439758
0.510071 0.198242 0.451263
0.604401 0.210541 0.461121
0.697571 0.217712 0.467621
0.798309 0.222107 0.470367
0.000000 0.217041 0.377686
0.000000 0.181000 0.379181
0.111267 0.178284 0.422119
0.281799 0.196350 0.455688
0.401581 0.213684 0.471497
0.505463 0.229980 0.481842
0.605560 0.244873 0.489502
0.712128 0.256989 0.495697
0.833832 0.265533 0.500336
0.000000 0.324493 0.427979
0.000000 0.298065 0.426819
0.079651 0.281097 0.458832
0.272949 0.285065 0.504852
0.416229 0.295868 0.524445
0.531036 0.307495 0.532043
0.639496 0.319824 0.537323
0.763458 0.330719 0.541443
0.904602 0.338562 0.543915
0.000000 0.370056 0.424927
0.000000 0.373932 0.439301
0.044342 0.381714 0.474609
0.250732 0.390442 0.530426
0.431244 0.403412 0.566895
0.570953 0.421143 0.580200
0.696136 0.436432 0.586548
0.840210 0.446198 0.590302
0.989838 0.451904 0.591858
0.000000 0.382660 0.403870
0.000000 0.396484 0.421051
0.034637 0.430695 0.461212
0.237885 0.473938 0.520416
0.433533 0.506714 0.573151
0.603638 0.543396 0.612793
0.754913 0.568176 0.630859
0.908752 0.576996 0.636169
0.999573 0.580017 0.637665
0.000000 0.403900 0.390839
0.000000 0.417725 0.405426
0.029816 0.455139 0.439514
0.231842 0.527435 0.502075
0.430511 0.596161 0.567902
0.608856 0.649780 0.624939
0.787750 0.686890 0.662445
0.969543 0.703278 0.677277
0.999664 0.709259 0.681580
0.000000 0.458588 0.407959
0.000000 0.474274 0.421967
0.025238 0.508636 0.449188
0.227386 0.589111 0.510040
0.433044 0.684448 0.586700
0.600159 0.747498 0.638306
0.764740 0.780914 0.666412
0.968475 0.807373 0.688446
0.999786 0.831604 0.707886
0.000000 0.531006 0.446991
0.000000 0.552002 0.463623
0.041565 0.588989 0.490692
0.246185 0.665192 0.544342
0.442841 0.767242 0.614746
0.603210 0.843842 0.662720
0.748932 0.880127 0.678986
0.919891 0.899628 0.684906
0.999847 0.922058 0.695618
0.000000 0.601379 0.490601
0.000000 0.627869 0.509399
0.088562 0.669800 0.537628
0.290344 0.743042 0.585022
0.459808 0.840363 0.642120
0.609772 0.930939 0.686279
0.753448 1.000000 0.703064
0.907654 1.000000 0.702118
0.999939 1.000000 0.697021
0.000000 0.114136 0.351044
0.024323 0.130829 0.402466
0.170288 0.153076 0.438934
0.304718 0.175903 0.456329
0.399292 0.191620 0.475464
0.482117 0.202118 0.493927
0.568665 0.212128 0.508942
0.658905 0.219238 0.520721
0.761719 0.223389 0.529541
0.000000 0.205048 0.395477
0.002655 0.181885 0.413055
0.125031 0.184082 0.459595
0.284271 0.201691 0.490723
0.392303 0.216980 0.509888
0.481110 0.228668 0.527618
0.568451 0.239685 0.542297
0.665558 0.250977 0.554901
0.784698 0.260620 0.566376
0.000000 0.332031 0.472534
0.000000 0.302917 0.470306
0.077087 0.282410 0.500153
0.264923 0.284241 0.545197
0.404968 0.293579 0.569733
0.506012 0.300720 0.583984
0.597473 0.307892 0.595612
0.703918 0.317474 0.606018
0.844055 0.327423 0.615112
0.000000 0.404083 0.488068
0.000000 0.403168 0.500488
0.030151 0.397156 0.527008
0.225281 0.393188 0.578064
0.408630 0.398987 0.619812
0.537567 0.407593 0.637909
0.643738 0.416565 0.648468
0.772278 0.427551 0.658478
0.937164 0.438049 0.667084
0.000000 0.429443 0.476990
0.000000 0.441711 0.493042
0.021729 0.464203 0.525146
0.210785 0.488861 0.576813
0.401398 0.501740 0.628357
0.559174 0.520935 0.670288
0.695923 0.542358 0.693878
0.850677 0.558594 0.708252
0.996643 0.569824 0.718475
0.000000 0.435333 0.450806
0.000000 0.448334 0.464996
0.018982 0.477905 0.495483
0.207092 0.532227 0.550720
0.398529 0.580444 0.608307
0.568329 0.624878 0.672394
0.743927 0.668701 0.731445
0.921997 0.693970 0.762238
0.999725 0.705780 0.776245
0.000000 0.457275 0.437012
0.000000 0.468903 0.448395
0.015228 0.495087 0.471069
0.200073 0.559509 0.524048
0.400055 0.645203 0.599915
0.569092 0.718811 0.674530
0.741211 0.772186 0.740662
0.944885 0.810516 0.791931
0.999817 0.837494 0.826019
0.000000 0.510376 0.452454
0.000000 0.524597 0.464050
0.015991 0.550629 0.484100
0.199799 0.613800 0.532806
0.402710 0.713715 0.615234
0.571930 0.809113 0.696320
0.721344 0.864594 0.750183
0.895660 0.896667 0.782806
0.999908 0.932251 0.817627
0.000000 0.578278 0.490295
0.000000 0.597992 0.504883
0.035706 0.629272 0.527252
0.229034 0.688324 0.570587
0.414001 0.784210 0.641022
0.575867 0.890564 0.719574
0.723297 0.978180 0.775848
0.875305 1.000000 0.795654
0.998901 1.000000 0.800018
0.000000 0.131439 0.399536
0.059296 0.145050 0.443909
0.203674 0.165131 0.467499
0.315491 0.185974 0.480255
0.396851 0.201202 0.497467
0.465912 0.208618 0.519958
0.537659 0.214142 0.540894
0.617035 0.219910 0.559021
0.705811 0.223633 0.575531
0.000000 0.193298 0.413544
0.016205 0.181763 0.445587
0.149780 0.189636 0.491547
0.295105 0.207092 0.517944
0.391724 0.221619 0.535828
0.469482 0.231628 0.557648
0.542664 0.239197 0.578827
0.624420 0.247070 0.598877
0.723297 0.255249 0.617920
0.000000 0.329346 0.503021
0.000000 0.300293 0.503174
0.085541 0.281586 0.533997
0.267365 0.283661 0.575592
0.402374 0.292908 0.600220
0.495453 0.298981 0.619324
0.572784 0.302826 0.636688
0.657532 0.307892 0.653748
0.769348 0.315125 0.670471
0.000000 0.429565 0.540710
0.000000 0.422119 0.549713
0.026886 0.406372 0.570099
0.213501 0.393982 0.614075
0.396027 0.396576 0.655914
0.521942 0.402863 0.680756
0.611633 0.405670 0.695984
0.709656 0.410461 0.711975
0.847656 0.418762 0.729889
0.000000 0.473083 0.543854
0.000000 0.483124 0.558167
0.021484 0.495789 0.582458
0.200958 0.503510 0.621887
0.381531 0.502686 0.669586
0.528717 0.510010 0.717377
0.646637 0.519989 0.745850
0.772247 0.531982 0.768463
0.940521 0.546356 0.792847
0.000000 0.485626 0.524933
0.000000 0.497925 0.538757
0.017273 0.520721 0.563660
0.197815 0.558624 0.607208
0.378204 0.585419 0.651459
0.526825 0.606140 0.710327
0.678894 0.635742 0.778992
0.849792 0.664642 0.828400
0.997589 0.686829 0.863708
0.000000 0.487335 0.494263
0.000000 0.498657 0.505920
0.012695 0.520325 0.526855
0.188049 0.568756 0.570526
0.376709 0.630493 0.626709
0.531311 0.689606 0.693481
0.693695 0.745178 0.782745
0.901581 0.795807 0.873657
0.999817 0.832367 0.937439
0.000000 0.509583 0.479187
0.000000 0.520477 0.488800
0.011749 0.539612 0.504730
0.182831 0.587891 0.543304
0.375397 0.670227 0.613922
0.538483 0.765991 0.703461
0.689575 0.838684 0.792145
0.870636 0.887024 0.868805
0.999908 0.938232 0.949829
0.000000 0.557770 0.487701
0.000000 0.571930 0.499207
0.012970 0.594269 0.515930
0.181854 0.639862 0.552032
0.374908 0.725037 0.625580
0.541229 0.835724 0.723846
0.692688 0.928894 0.818390
0.840179 1.000000 0.872040
0.993195 1.000000 0.897827
0.000000 0.142975 0.456207
0.108368 0.157593 0.479126
0.239990 0.175690 0.491028
0.329590 0.193939 0.500427
0.399109 0.209076 0.512390
0.457733 0.215912 0.534302
0.516663 0.218903 0.559174
0.584473 0.222443 0.583374
0.661163 0.225922 0.609131
0.000000 0.184845 0.441498
0.036652 0.183533 0.481506
0.179413 0.195740 0.521210
0.310242 0.212494 0.541138
0.395721 0.226135 0.554047
0.464569 0.235687 0.575714
0.527740 0.241791 0.601227
0.596313 0.246918 0.627258
0.675446 0.252258 0.653473
0.000000 0.319550 0.527191
0.000000 0.294189 0.532501
0.099792 0.280029 0.564941
0.276459 0.283661 0.601074
0.404510 0.292786 0.621185
0.491119 0.298615 0.641113
0.559845 0.301636 0.662933
0.630707 0.304535 0.686249
0.715973 0.307495 0.710724
0.000000 0.447845 0.585449
0.000000 0.433411 0.590302
0.028381 0.410675 0.607147
0.209442 0.393616 0.644470
0.388885 0.394226 0.681549
0.513855 0.400177 0.709686
0.596802 0.401825 0.731171
0.674774 0.401978 0.752533
0.778259 0.404327 0.778076
0.000000 0.510010 0.598694
0.000000 0.517151 0.611023
0.026031 0.521545 0.630096
0.200378 0.514404 0.658783
0.367615 0.502777 0.699432
0.509277 0.505310 0.753448
0.621948 0.510468 0.788971
0.718506 0.513733 0.813385
0.850006 0.522156 0.846649
0.000000 0.535736 0.593872
0.000000 0.547119 0.606140
0.022949 0.564972 0.626373
0.204651 0.587860 0.656433
0.369293 0.596924 0.687866
0.498871 0.599854 0.744476
0.632385 0.612885 0.816101
0.771088 0.631439 0.870453
0.947998 0.654602 0.923035
0.000000 0.538116 0.569061
0.000000 0.550049 0.580933
0.011902 0.568665 0.599182
0.184387 0.603088 0.631165
0.364410 0.641113 0.667328
0.499664 0.673370 0.712982
0.638428 0.710693 0.798462
0.827179 0.758514 0.911987
0.999512 0.811218 0.999817
0.000000 0.534058 0.533325
0.000000 0.544403 0.543152
0.015320 0.560364 0.557709
0.184845 0.594574 0.586151
0.360657 0.650421 0.631592
0.505249 0.728485 0.702240
0.648926 0.806854 0.802094
0.831085 0.867249 0.918488
0.999908 0.940033 0.999939
0.000000 0.553101 0.510712
0.000000 0.562744 0.520508
0.024445 0.575928 0.527771
0.187714 0.604462 0.544830
0.355316 0.676422 0.607941
0.509796 0.783936 0.711884
0.666412 0.887054 0.832489
0.813507 0.950256 0.920074
0.977783 1.000000 0.999969
