Fujifilm Eterna 400T (8583) - Only contrast.cube
# Created by Benjamin (IWLTBAP) : http://luts.iwltbap.com
# Copyright: (C) Copyright 2010-2017 Triune Films and IWLTBAP SAS
# Cannot be resold, shared or otherwise redistributed
TITLE "Film Print Emulation LUTs Pack (Rec.709, sRGB, DCI-P3)"
LUT_3D_SIZE 9
0.012634 0.012634 0.012634
0.064209 0.012543 0.012543
0.167786 0.012085 0.012085
0.305634 0.011383 0.011383
0.451508 0.010620 0.010620
0.562744 0.010101 0.010101
0.666412 0.009644 0.009644
0.734589 0.009430 0.009430
0.799561 0.009247 0.009247
0.012543 0.064209 0.012543
0.064362 0.064362 0.012421
0.168365 0.064148 0.011963
0.306152 0.063721 0.011261
0.452118 0.063232 0.010529
0.563080 0.062988 0.010010
0.666656 0.062805 0.009552
0.734619 0.062836 0.009308
0.799652 0.062927 0.009125
0.012085 0.167786 0.012085
0.064148 0.168365 0.011963
0.168549 0.168549 0.011505
0.306366 0.168488 0.010803
0.452393 0.168365 0.010040
0.563080 0.168457 0.009521
0.666534 0.168610 0.009064
0.734253 0.169006 0.008850
0.799408 0.169403 0.008636
0.011383 0.305634 0.011383
0.063721 0.306152 0.011261
0.168488 0.306366 0.010803
0.306335 0.306335 0.010101
0.452423 0.306274 0.009338
0.562866 0.306458 0.008820
0.666168 0.306732 0.008362
0.733704 0.307251 0.008148
0.798920 0.307770 0.007935
0.010620 0.451508 0.010620
0.063232 0.452118 0.010529
0.168365 0.452393 0.010040
0.306274 0.452423 0.009338
0.452393 0.452393 0.008575
0.562561 0.452606 0.008057
0.665741 0.452850 0.007599
0.733093 0.453339 0.007385
0.798370 0.453857 0.007172
0.010101 0.562744 0.010101
0.062988 0.563080 0.010010
0.168457 0.563080 0.009521
0.306458 0.562866 0.008820
0.452606 0.562561 0.008057
0.562531 0.562531 0.007568
0.665588 0.562561 0.007111
0.732727 0.562805 0.006897
0.798096 0.563110 0.006683
0.009644 0.666412 0.009644
0.062805 0.666656 0.009552
0.168610 0.666534 0.009064
0.306732 0.666168 0.008362
0.452850 0.665741 0.007599
0.562561 0.665588 0.007111
0.665466 0.665466 0.006622
0.732391 0.665558 0.006439
0.797852 0.665680 0.006226
0.009430 0.734589 0.009430
0.062836 0.734619 0.009308
0.169006 0.734253 0.008850
0.307251 0.733704 0.008148
0.453339 0.733093 0.007385
0.562805 0.732727 0.006897
0.665558 0.732391 0.006439
0.732330 0.732330 0.006226
0.797882 0.732300 0.006012
0.009247 0.799561 0.009247
0.062927 0.799652 0.009125
0.169403 0.799408 0.008636
0.307770 0.798920 0.007935
0.453857 0.798370 0.007172
0.563110 0.798096 0.006683
0.665680 0.797852 0.006226
0.732300 0.797882 0.006012
0.797943 0.797852 0.012634
0.012543 0.012543 0.064209
0.064362 0.012421 0.064362
0.168365 0.011963 0.064148
0.306152 0.011261 0.063721
0.452118 0.010529 0.063232
0.563080 0.010010 0.062988
0.666656 0.009552 0.062805
0.734619 0.009308 0.062836
0.799652 0.009125 0.062927
0.012421 0.064362 0.064362
0.064514 0.064514 0.064514
0.168884 0.064301 0.064301
0.306702 0.063873 0.063873
0.452759 0.063385 0.063385
0.563446 0.063141 0.063141
0.666870 0.062958 0.062958
0.734619 0.062988 0.062988
0.799774 0.063049 0.063049
0.011963 0.168365 0.064148
0.064301 0.168884 0.064301
0.169067 0.169067 0.064117
0.306915 0.169006 0.063660
0.453003 0.168854 0.063171
0.563446 0.168945 0.062927
0.666748 0.169098 0.062714
0.734283 0.169464 0.062775
0.799500 0.169861 0.062836
0.011261 0.306152 0.063721
0.063873 0.306702 0.063873
0.169006 0.306915 0.063660
0.306885 0.306885 0.063232
0.453033 0.306854 0.062744
0.563202 0.307068 0.062500
0.666382 0.307343 0.062286
0.733704 0.307861 0.062347
0.799011 0.308380 0.062408
0.010529 0.452118 0.063232
0.063385 0.452759 0.063385
0.168854 0.453003 0.063171
0.306854 0.453033 0.062744
0.452972 0.452972 0.062225
0.562927 0.453186 0.061981
0.665955 0.453430 0.061798
0.733093 0.453918 0.061859
0.798462 0.454407 0.061920
0.010010 0.563080 0.062988
0.063141 0.563446 0.063141
0.168945 0.563446 0.062927
0.307068 0.563202 0.062500
0.453186 0.562927 0.061981
0.562897 0.562897 0.061737
0.665771 0.562897 0.061554
0.732727 0.563171 0.061615
0.798187 0.563446 0.061676
0.009552 0.666656 0.062805
0.062958 0.666870 0.062958
0.169098 0.666748 0.062714
0.307343 0.666382 0.062286
0.453430 0.665955 0.061798
0.562897 0.665771 0.061554
0.665649 0.665649 0.061371
0.732422 0.665741 0.061401
0.797943 0.665863 0.061493
0.009308 0.734619 0.062836
0.062988 0.734619 0.062988
0.169464 0.734283 0.062775
0.307861 0.733704 0.062347
0.453918 0.733093 0.061859
0.563171 0.732727 0.061615
0.665741 0.732422 0.061401
0.732361 0.732361 0.061462
0.797974 0.732300 0.061523
0.009125 0.799652 0.062927
0.063049 0.799774 0.063049
0.169861 0.799500 0.062836
0.308380 0.799011 0.062408
0.454407 0.798462 0.061920
0.563446 0.798187 0.061676
0.665863 0.797943 0.061493
0.732300 0.797974 0.061523
0.797974 0.797974 0.061584
0.012085 0.012085 0.167786
0.064148 0.011963 0.168365
0.168549 0.011505 0.168549
0.306366 0.010803 0.168488
0.452393 0.010040 0.168365
0.563080 0.009521 0.168457
0.666534 0.009064 0.168610
0.734253 0.008850 0.169006
0.799408 0.008636 0.169403
0.011963 0.064148 0.168365
0.064301 0.064301 0.168884
0.169067 0.064117 0.169067
0.306915 0.063660 0.169006
0.453003 0.063171 0.168854
0.563446 0.062927 0.168945
0.666748 0.062714 0.169098
0.734283 0.062775 0.169464
0.799500 0.062836 0.169861
0.011505 0.168549 0.168549
0.064117 0.169067 0.169067
0.169220 0.169220 0.169220
0.307129 0.169128 0.169128
0.453247 0.168976 0.168976
0.563416 0.169067 0.169067
0.666595 0.169220 0.169220
0.733917 0.169586 0.169586
0.799225 0.169952 0.169952
0.010803 0.306366 0.168488
0.063660 0.306915 0.169006
0.169128 0.307129 0.169128
0.307129 0.307129 0.169037
0.453247 0.307068 0.168884
0.563202 0.307312 0.168976
0.666229 0.307587 0.169098
0.733368 0.308105 0.169464
0.798737 0.308655 0.169830
0.010040 0.452393 0.168365
0.063171 0.453003 0.168854
0.168976 0.453247 0.168976
0.307068 0.453247 0.168884
0.453217 0.453217 0.168732
0.562897 0.453400 0.168793
0.665802 0.453644 0.168915
0.732758 0.454132 0.169281
0.798187 0.454620 0.169647
0.009521 0.563080 0.168457
0.062927 0.563446 0.168945
0.169067 0.563416 0.169067
0.307312 0.563202 0.168976
0.453400 0.562897 0.168793
0.562866 0.562866 0.168884
0.665619 0.562897 0.168976
0.732391 0.563171 0.169342
0.797913 0.563446 0.169708
0.009064 0.666534 0.168610
0.062714 0.666748 0.169098
0.169220 0.666595 0.169220
0.307587 0.666229 0.169098
0.453644 0.665802 0.168915
0.562897 0.665619 0.168976
0.665466 0.665466 0.169098
0.732086 0.665558 0.169434
0.797668 0.665649 0.169800
0.008850 0.734253 0.169006
0.062775 0.734283 0.169464
0.169586 0.733917 0.169586
0.308105 0.733368 0.169464
0.454132 0.732758 0.169281
0.563171 0.732391 0.169342
0.665558 0.732086 0.169434
0.732025 0.732025 0.169800
0.797699 0.731964 0.170166
0.008636 0.799408 0.169403
0.062836 0.799500 0.169861
0.169952 0.799225 0.169952
0.308655 0.798737 0.169830
0.454620 0.798187 0.169647
0.563446 0.797913 0.169708
0.665649 0.797668 0.169800
0.731964 0.797699 0.170166
0.797699 0.797699 0.170502
0.011383 0.011383 0.305634
0.063721 0.011261 0.306152
0.168488 0.010803 0.306366
0.306335 0.010101 0.306335
0.452423 0.009338 0.306274
0.562866 0.008820 0.306458
0.666168 0.008362 0.306732
0.733704 0.008148 0.307251
0.798920 0.007935 0.307770
0.011261 0.063721 0.306152
0.063873 0.063873 0.306702
0.169006 0.063660 0.306915
0.306885 0.063232 0.306885
0.453033 0.062744 0.306854
0.563202 0.062500 0.307068
0.666382 0.062286 0.307343
0.733704 0.062347 0.307861
0.799011 0.062408 0.308380
0.010803 0.168488 0.306366
0.063660 0.169006 0.306915
0.169128 0.169128 0.307129
0.307129 0.169037 0.307129
0.453247 0.168884 0.307068
0.563202 0.168976 0.307312
0.666229 0.169098 0.307587
0.733368 0.169464 0.308105
0.798737 0.169830 0.308655
0.010101 0.306335 0.306335
0.063232 0.306885 0.306885
0.169037 0.307129 0.307129
0.307129 0.307129 0.307129
0.453278 0.307098 0.307098
0.562958 0.307343 0.307343
0.665863 0.307617 0.307617
0.732788 0.308136 0.308136
0.798248 0.308685 0.308685
0.009338 0.452423 0.306274
0.062744 0.453033 0.306854
0.168884 0.453247 0.307068
0.307098 0.453278 0.307098
0.453217 0.453217 0.307068
0.562683 0.453400 0.307312
0.665405 0.453644 0.307587
0.732178 0.454102 0.308136
0.797699 0.454590 0.308655
0.008820 0.562866 0.306458
0.062500 0.563202 0.307068
0.168976 0.563202 0.307312
0.307343 0.562958 0.307343
0.453400 0.562683 0.307312
0.562653 0.562653 0.307556
0.665222 0.562653 0.307831
0.731812 0.562927 0.308380
0.797424 0.563202 0.308929
0.008362 0.666168 0.306732
0.062286 0.666382 0.307343
0.169098 0.666229 0.307587
0.307617 0.665863 0.307617
0.453644 0.665405 0.307587
0.562653 0.665222 0.307831
0.665070 0.665070 0.308136
0.731506 0.665131 0.308655
0.797180 0.665222 0.309204
0.008148 0.733704 0.307251
0.062347 0.733704 0.307861
0.169464 0.733368 0.308105
0.308136 0.732788 0.308136
0.454102 0.732178 0.308136
0.562927 0.731812 0.308380
0.665131 0.731506 0.308655
0.731476 0.731476 0.309204
0.797180 0.731415 0.309753
0.007935 0.798920 0.307770
0.062408 0.799011 0.308380
0.169830 0.798737 0.308655
0.308685 0.798248 0.308685
0.454590 0.797699 0.308655
0.563202 0.797424 0.308929
0.665222 0.797180 0.309204
0.731415 0.797180 0.309753
0.797211 0.797211 0.310303
0.010620 0.010620 0.451508
0.063232 0.010529 0.452118
0.168365 0.010040 0.452393
0.306274 0.009338 0.452423
0.452393 0.008575 0.452393
0.562561 0.008057 0.452606
0.665741 0.007599 0.452850
0.733093 0.007385 0.453339
0.798370 0.007172 0.453857
0.010529 0.063232 0.452118
0.063385 0.063385 0.452759
0.168854 0.063171 0.453003
0.306854 0.062744 0.453033
0.452972 0.062225 0.452972
0.562927 0.061981 0.453186
0.665955 0.061798 0.453430
0.733093 0.061859 0.453918
0.798462 0.061920 0.454407
0.010040 0.168365 0.452393
0.063171 0.168854 0.453003
0.168976 0.168976 0.453247
0.307068 0.168884 0.453247
0.453217 0.168732 0.453217
0.562897 0.168793 0.453400
0.665802 0.168915 0.453644
0.732758 0.169281 0.454132
0.798187 0.169647 0.454620
0.009338 0.306274 0.452423
0.062744 0.306854 0.453033
0.168884 0.307068 0.453247
0.307098 0.307098 0.453278
0.453217 0.307068 0.453217
0.562683 0.307312 0.453400
0.665405 0.307587 0.453644
0.732178 0.308136 0.454102
0.797699 0.308655 0.454590
0.008575 0.452393 0.452393
0.062225 0.452972 0.452972
0.168732 0.453217 0.453217
0.307068 0.453217 0.453217
0.453156 0.453156 0.453156
0.562378 0.453339 0.453339
0.664948 0.453552 0.453552
0.731567 0.454041 0.454041
0.797180 0.454498 0.454498
0.008057 0.562561 0.452606
0.061981 0.562927 0.453186
0.168793 0.562897 0.453400
0.307312 0.562683 0.453400
0.453339 0.562378 0.453339
0.562378 0.562378 0.453522
0.664764 0.562378 0.453735
0.731232 0.562653 0.454193
0.796875 0.562958 0.454681
0.007599 0.665741 0.452850
0.061798 0.665955 0.453430
0.168915 0.665802 0.453644
0.307587 0.665405 0.453644
0.453552 0.664948 0.453552
0.562378 0.664764 0.453735
0.664612 0.664612 0.453949
0.730927 0.664673 0.454407
0.796661 0.664734 0.454865
0.007385 0.733093 0.453339
0.061859 0.733093 0.453918
0.169281 0.732758 0.454132
0.308136 0.732178 0.454102
0.454041 0.731567 0.454041
0.562653 0.731232 0.454193
0.664673 0.730927 0.454407
0.730865 0.730865 0.454865
0.796661 0.730835 0.455322
0.007172 0.798370 0.453857
0.061920 0.798462 0.454407
0.169647 0.798187 0.454620
0.308655 0.797699 0.454590
0.454498 0.797180 0.454498
0.562958 0.796875 0.454681
0.664734 0.796661 0.454865
0.730835 0.796661 0.455322
0.796661 0.796661 0.455750
0.010101 0.010101 0.562744
0.062988 0.010010 0.563080
0.168457 0.009521 0.563080
0.306458 0.008820 0.562866
0.452606 0.008057 0.562561
0.562531 0.007568 0.562531
0.665588 0.007111 0.562561
0.732727 0.006897 0.562805
0.798096 0.006683 0.563110
0.010010 0.062988 0.563080
0.063141 0.063141 0.563446
0.168945 0.062927 0.563446
0.307068 0.062500 0.563202
0.453186 0.061981 0.562927
0.562897 0.061737 0.562897
0.665771 0.061554 0.562897
0.732727 0.061615 0.563171
0.798187 0.061676 0.563446
0.009521 0.168457 0.563080
0.062927 0.168945 0.563446
0.169067 0.169067 0.563416
0.307312 0.168976 0.563202
0.453400 0.168793 0.562897
0.562866 0.168884 0.562866
0.665619 0.168976 0.562897
0.732391 0.169342 0.563171
0.797913 0.169708 0.563446
0.008820 0.306458 0.562866
0.062500 0.307068 0.563202
0.168976 0.307312 0.563202
0.307343 0.307343 0.562958
0.453400 0.307312 0.562683
0.562653 0.307556 0.562653
0.665222 0.307831 0.562653
0.731812 0.308380 0.562927
0.797424 0.308929 0.563202
0.008057 0.452606 0.562561
0.061981 0.453186 0.562927
0.168793 0.453400 0.562897
0.307312 0.453400 0.562683
0.453339 0.453339 0.562378
0.562378 0.453522 0.562378
0.664764 0.453735 0.562378
0.731232 0.454193 0.562653
0.796875 0.454681 0.562958
0.007568 0.562531 0.562531
0.061737 0.562897 0.562897
0.168884 0.562866 0.562866
0.307556 0.562653 0.562653
0.453522 0.562378 0.562378
0.562347 0.562347 0.562347
0.664551 0.562378 0.562378
0.730865 0.562653 0.562653
0.796600 0.562958 0.562958
0.007111 0.665588 0.562561
0.061554 0.665771 0.562897
0.168976 0.665619 0.562897
0.307831 0.665222 0.562653
0.453735 0.664764 0.562378
0.562378 0.664551 0.562378
0.664398 0.664398 0.562408
0.730591 0.664459 0.562714
0.796387 0.664520 0.563019
0.006897 0.732727 0.562805
0.061615 0.732727 0.563171
0.169342 0.732391 0.563171
0.308380 0.731812 0.562927
0.454193 0.731232 0.562653
0.562653 0.730865 0.562653
0.664459 0.730591 0.562714
0.730530 0.730530 0.563019
0.796387 0.730499 0.563293
0.006683 0.798096 0.563110
0.061676 0.798187 0.563446
0.169708 0.797913 0.563446
0.308929 0.797424 0.563202
0.454681 0.796875 0.562958
0.562958 0.796600 0.562958
0.664520 0.796387 0.563019
0.730499 0.796387 0.563293
0.796387 0.796387 0.563599
0.009644 0.009644 0.666412
0.062805 0.009552 0.666656
0.168610 0.009064 0.666534
0.306732 0.008362 0.666168
0.452850 0.007599 0.665741
0.562561 0.007111 0.665588
0.665466 0.006622 0.665466
0.732391 0.006439 0.665558
0.797852 0.006226 0.665680
0.009552 0.062805 0.666656
0.062958 0.062958 0.666870
0.169098 0.062714 0.666748
0.307343 0.062286 0.666382
0.453430 0.061798 0.665955
0.562897 0.061554 0.665771
0.665649 0.061371 0.665649
0.732422 0.061401 0.665741
0.797943 0.061493 0.665863
0.009064 0.168610 0.666534
0.062714 0.169098 0.666748
0.169220 0.169220 0.666595
0.307587 0.169098 0.666229
0.453644 0.168915 0.665802
0.562897 0.168976 0.665619
0.665466 0.169098 0.665466
0.732086 0.169434 0.665558
0.797668 0.169800 0.665649
0.008362 0.306732 0.666168
0.062286 0.307343 0.666382
0.169098 0.307587 0.666229
0.307617 0.307617 0.665863
0.453644 0.307587 0.665405
0.562653 0.307831 0.665222
0.665070 0.308136 0.665070
0.731506 0.308655 0.665131
0.797180 0.309204 0.665222
0.007599 0.452850 0.665741
0.061798 0.453430 0.665955
0.168915 0.453644 0.665802
0.307587 0.453644 0.665405
0.453552 0.453552 0.664948
0.562378 0.453735 0.664764
0.664612 0.453949 0.664612
0.730927 0.454407 0.664673
0.796661 0.454865 0.664734
0.007111 0.562561 0.665588
0.061554 0.562897 0.665771
0.168976 0.562897 0.665619
0.307831 0.562653 0.665222
0.453735 0.562378 0.664764
0.562378 0.562378 0.664551
0.664398 0.562408 0.664398
0.730591 0.562714 0.664459
0.796387 0.563019 0.664520
0.006622 0.665466 0.665466
0.061371 0.665649 0.665649
0.169098 0.665466 0.665466
0.308136 0.665070 0.665070
0.453949 0.664612 0.664612
0.562408 0.664398 0.664398
0.664215 0.664215 0.664215
0.730286 0.664276 0.664276
0.796143 0.664337 0.664337
0.006439 0.732391 0.665558
0.061401 0.732422 0.665741
0.169434 0.732086 0.665558
0.308655 0.731506 0.665131
0.454407 0.730927 0.664673
0.562714 0.730591 0.664459
0.664276 0.730286 0.664276
0.730255 0.730255 0.664337
0.796143 0.730225 0.664398
0.006226 0.797852 0.665680
0.061493 0.797943 0.665863
0.169800 0.797668 0.665649
0.309204 0.797180 0.665222
0.454865 0.796661 0.664734
0.563019 0.796387 0.664520
0.664337 0.796143 0.664337
0.730225 0.796143 0.664398
0.796173 0.796173 0.664459
0.009430 0.009430 0.734589
0.062836 0.009308 0.734619
0.169006 0.008850 0.734253
0.307251 0.008148 0.733704
0.453339 0.007385 0.733093
0.562805 0.006897 0.732727
0.665558 0.006439 0.732391
0.732330 0.006226 0.732330
0.797882 0.006012 0.732300
0.009308 0.062836 0.734619
0.062988 0.062988 0.734619
0.169464 0.062775 0.734283
0.307861 0.062347 0.733704
0.453918 0.061859 0.733093
0.563171 0.061615 0.732727
0.665741 0.061401 0.732422
0.732361 0.061462 0.732361
0.797974 0.061523 0.732300
0.008850 0.169006 0.734253
0.062775 0.169464 0.734283
0.169586 0.169586 0.733917
0.308105 0.169464 0.733368
0.454132 0.169281 0.732758
0.563171 0.169342 0.732391
0.665558 0.169434 0.732086
0.732025 0.169800 0.732025
0.797699 0.170166 0.731964
0.008148 0.307251 0.733704
0.062347 0.307861 0.733704
0.169464 0.308105 0.733368
0.308136 0.308136 0.732788
0.454102 0.308136 0.732178
0.562927 0.308380 0.731812
0.665131 0.308655 0.731506
0.731476 0.309204 0.731476
0.797180 0.309753 0.731415
0.007385 0.453339 0.733093
0.061859 0.453918 0.733093
0.169281 0.454132 0.732758
0.308136 0.454102 0.732178
0.454041 0.454041 0.731567
0.562653 0.454193 0.731232
0.664673 0.454407 0.730927
0.730865 0.454865 0.730865
0.796661 0.455322 0.730835
0.006897 0.562805 0.732727
0.061615 0.563171 0.732727
0.169342 0.563171 0.732391
0.308380 0.562927 0.731812
0.454193 0.562653 0.731232
0.562653 0.562653 0.730865
0.664459 0.562714 0.730591
0.730530 0.563019 0.730530
0.796387 0.563293 0.730499
0.006439 0.665558 0.732391
0.061401 0.665741 0.732422
0.169434 0.665558 0.732086
0.308655 0.665131 0.731506
0.454407 0.664673 0.730927
0.562714 0.664459 0.730591
0.664276 0.664276 0.730286
0.730255 0.664337 0.730255
0.796143 0.664398 0.730225
0.006226 0.732330 0.732330
0.061462 0.732361 0.732361
0.169800 0.732025 0.732025
0.309204 0.731476 0.731476
0.454865 0.730865 0.730865
0.563019 0.730530 0.730530
0.664337 0.730255 0.730255
0.730225 0.730225 0.730225
0.796173 0.730194 0.730194
0.006012 0.797882 0.732300
0.061523 0.797974 0.732300
0.170166 0.797699 0.731964
0.309753 0.797180 0.731415
0.455322 0.796661 0.730835
0.563293 0.796387 0.730499
0.664398 0.796143 0.730225
0.730194 0.796173 0.730194
0.796173 0.796173 0.730164
0.009247 0.009247 0.799530
0.062927 0.009125 0.799652
0.169403 0.008636 0.799408
0.307770 0.007935 0.798920
0.453857 0.007172 0.798370
0.563110 0.006683 0.798096
0.665680 0.006226 0.797852
0.732300 0.006012 0.797882
0.797913 0.005829 0.797913
0.009125 0.062927 0.799652
0.063049 0.063049 0.799774
0.169861 0.062836 0.799500
0.308380 0.062408 0.799011
0.454407 0.061920 0.798462
0.563446 0.061676 0.798187
0.665863 0.061493 0.797943
0.732300 0.061523 0.797974
0.797974 0.061584 0.797974
0.008636 0.169403 0.799408
0.062836 0.169861 0.799500
0.169952 0.169952 0.799225
0.308655 0.169830 0.798737
0.454620 0.169647 0.798187
0.563446 0.169708 0.797913
0.665649 0.169800 0.797668
0.731964 0.170166 0.797699
0.797699 0.170502 0.797699
0.007935 0.307770 0.798920
0.062408 0.308380 0.799011
0.169830 0.308655 0.798737
0.308685 0.308685 0.798248
0.454590 0.308655 0.797699
0.563202 0.308929 0.797424
0.665222 0.309204 0.797180
0.731415 0.309753 0.797180
0.797211 0.310303 0.797211
0.007172 0.453857 0.798370
0.061920 0.454407 0.798462
0.169647 0.454620 0.798187
0.308655 0.454590 0.797699
0.454498 0.454498 0.797180
0.562958 0.454681 0.796875
0.664734 0.454865 0.796661
0.730835 0.455322 0.796661
0.796661 0.455750 0.796661
0.006683 0.563110 0.798096
0.061676 0.563446 0.798187
0.169708 0.563446 0.797913
0.308929 0.563202 0.797424
0.454681 0.562958 0.796875
0.562958 0.562958 0.796600
0.664520 0.563019 0.796387
0.730499 0.563293 0.796387
0.796387 0.563599 0.796387
0.006226 0.665680 0.797852
0.061493 0.665863 0.797943
0.169800 0.665649 0.797668
0.309204 0.665222 0.797180
0.454865 0.664734 0.796661
0.563019 0.664520 0.796387
0.664337 0.664337 0.796143
0.730225 0.664398 0.796143
0.796173 0.664459 0.796173
0.006012 0.732300 0.797882
0.061523 0.732300 0.797974
0.170166 0.731964 0.797699
0.309753 0.731415 0.797180
0.455322 0.730835 0.796661
0.563293 0.730499 0.796387
0.664398 0.730225 0.796143
0.730194 0.730194 0.796173
0.796173 0.730164 0.796173
0.005829 0.797913 0.797913
0.061584 0.797974 0.797974
0.170502 0.797699 0.797699
0.310303 0.797211 0.797211
0.455750 0.796661 0.796661
0.563599 0.796387 0.796387
0.664459 0.796173 0.796173
0.730164 0.796173 0.796173
0.796204 0.796204 0.796204
