Fujifilm Eterna 400T (8583) - Only color.cube
# Created by Benjamin (IWLTBAP) : http://luts.iwltbap.com
# Copyright: (C) Copyright 2010-2017 Triune Films and IWLTBAP SAS
# Cannot be resold, shared or otherwise redistributed
TITLE "Film Print Emulation LUTs Pack (Rec.709, sRGB, DCI-P3)"
LUT_3D_SIZE 33
0.014038 0.013000 0.010010
0.033020 0.012848 0.009857
0.127411 0.012146 0.009155
0.177490 0.011810 0.008820
0.208405 0.011627 0.008606
0.244812 0.018799 0.008301
0.279846 0.026398 0.007996
0.307465 0.035797 0.007751
0.336273 0.049500 0.009552
0.376801 0.057281 0.024292
0.414551 0.061340 0.034302
0.441589 0.062927 0.041138
0.467316 0.061340 0.048401
0.487488 0.061371 0.050903
0.509369 0.058960 0.046112
0.535095 0.057343 0.048615
0.559784 0.053986 0.051147
0.585266 0.053131 0.051208
0.612518 0.049622 0.052521
0.640625 0.047852 0.052582
0.666534 0.046021 0.051422
0.688934 0.044159 0.046570
0.710510 0.043243 0.044128
0.731079 0.041351 0.041748
0.749512 0.041351 0.041779
0.767883 0.039520 0.041840
0.785278 0.039520 0.044342
0.805054 0.037689 0.044403
0.825714 0.037720 0.044495
0.845551 0.035950 0.044617
0.863281 0.036011 0.047241
0.885864 0.036072 0.047424
0.910309 0.036163 0.047607
0.023041 0.030365 0.017670
0.032959 0.038147 0.009674
0.077393 0.038574 0.009338
0.148804 0.045868 0.008759
0.184875 0.046753 0.008514
0.214050 0.053741 0.008270
0.252014 0.058746 0.007965
0.279846 0.064331 0.007751
0.311310 0.068848 0.007507
0.338989 0.080780 0.007294
0.382507 0.087952 0.022491
0.417145 0.091278 0.032227
0.447174 0.092377 0.038879
0.470917 0.093445 0.046082
0.492462 0.092346 0.050995
0.515930 0.091278 0.046204
0.542053 0.089050 0.048737
0.570953 0.087921 0.051270
0.596710 0.085602 0.051331
0.626831 0.084412 0.052643
0.655060 0.082031 0.052704
0.678223 0.080811 0.051544
0.701477 0.079559 0.049133
0.723022 0.078339 0.046692
0.744141 0.077087 0.041840
0.762390 0.077087 0.041870
0.780701 0.075806 0.041931
0.801117 0.075836 0.044464
0.825653 0.074554 0.044556
0.842773 0.074615 0.044678
0.863312 0.073364 0.047333
0.885529 0.073456 0.047516
0.913361 0.073547 0.047699
0.020752 0.066864 0.049133
0.027039 0.053314 0.016968
0.088501 0.085052 0.008911
0.145233 0.085022 0.008514
0.186890 0.086731 0.008209
0.209564 0.089020 0.008057
0.245911 0.098175 0.007751
0.279388 0.103699 0.007477
0.308655 0.105652 0.007263
0.334106 0.105652 0.007111
0.373474 0.109467 0.015198
0.409760 0.112640 0.030151
0.442963 0.113495 0.038910
0.468567 0.113892 0.046112
0.491394 0.113464 0.051056
0.511536 0.112579 0.048706
0.538971 0.112122 0.046326
0.569489 0.110779 0.048889
0.597870 0.109406 0.051422
0.630066 0.108002 0.052734
0.658875 0.107056 0.052795
0.680664 0.106567 0.051636
0.704834 0.105621 0.046722
0.726288 0.104645 0.044281
0.749176 0.103699 0.041901
0.767609 0.103210 0.041962
0.787903 0.102234 0.044464
0.811829 0.102264 0.044556
0.831848 0.101288 0.044678
0.851044 0.101349 0.047302
0.870880 0.101410 0.047485
0.895111 0.101501 0.047668
0.919342 0.101562 0.050354
0.013092 0.098236 0.079712
0.020752 0.067627 0.049164
0.056000 0.095703 0.019409
0.150604 0.114502 0.009399
0.186035 0.115753 0.008026
0.211426 0.117035 0.007843
0.246765 0.124451 0.007568
0.281067 0.128723 0.007294
0.310669 0.130585 0.007172
0.337067 0.131744 0.013153
0.377747 0.131348 0.026184
0.411774 0.130554 0.032257
0.445648 0.129395 0.038940
0.471466 0.128998 0.046173
0.493774 0.128601 0.051117
0.515411 0.127838 0.046295
0.542847 0.126678 0.048828
0.571869 0.125519 0.051361
0.606598 0.124329 0.052704
0.638702 0.123108 0.052795
0.666077 0.122711 0.051636
0.688446 0.121887 0.049225
0.710297 0.121490 0.044312
0.733246 0.120667 0.041901
0.756500 0.119843 0.041962
0.775452 0.119415 0.044464
0.795380 0.119415 0.044556
0.819977 0.118591 0.047150
0.840515 0.118652 0.047302
0.860474 0.118713 0.049957
0.882568 0.118774 0.050110
0.907654 0.118408 0.052826
0.929291 0.118469 0.052979
0.012604 0.124725 0.113464
0.013092 0.098236 0.082520
0.034363 0.107300 0.061035
0.138580 0.126953 0.034149
0.185028 0.140320 0.018433
0.212921 0.142883 0.007904
0.250092 0.151276 0.010376
0.282532 0.156677 0.010254
0.311951 0.159698 0.022522
0.343567 0.161224 0.036621
0.380859 0.162994 0.048523
0.416473 0.160034 0.048584
0.450287 0.156403 0.051086
0.475433 0.150360 0.052338
0.498260 0.146118 0.051178
0.521423 0.144867 0.046387
0.548370 0.141968 0.048920
0.581665 0.139954 0.051483
0.616943 0.138580 0.052795
0.649628 0.137207 0.051666
0.673767 0.136505 0.049255
0.698303 0.136139 0.044312
0.720795 0.135406 0.041931
0.741577 0.134705 0.041962
0.763855 0.134003 0.044464
0.784149 0.133270 0.044556
0.806366 0.133270 0.047150
0.832245 0.133301 0.049805
0.852448 0.132996 0.052460
0.871948 0.133026 0.052612
0.897461 0.133087 0.052795
0.920105 0.133148 0.054230
0.942841 0.133179 0.054413
0.012238 0.154602 0.134277
0.012543 0.127472 0.118469
0.012634 0.124359 0.102356
0.046448 0.135773 0.074707
0.177551 0.158722 0.050446
0.208771 0.173981 0.034302
0.253845 0.179443 0.032227
0.285339 0.182739 0.045990
0.315216 0.188232 0.067261
0.351746 0.190247 0.073822
0.386383 0.187469 0.065247
0.421478 0.188660 0.070831
0.452454 0.184784 0.068756
0.480133 0.181274 0.063202
0.503448 0.177673 0.057404
0.528259 0.172974 0.055084
0.557220 0.168854 0.055145
0.588043 0.163269 0.055237
0.628357 0.157898 0.052917
0.660492 0.154266 0.049286
0.683197 0.152252 0.044342
0.708893 0.151337 0.041962
0.729340 0.150757 0.041992
0.752777 0.150116 0.044495
0.775970 0.149231 0.047089
0.796509 0.149200 0.049683
0.823792 0.148621 0.049805
0.844574 0.148651 0.052460
0.863098 0.148682 0.053864
0.888519 0.148712 0.054047
0.914825 0.148773 0.054260
0.933899 0.149384 0.054413
0.958466 0.149445 0.054626
0.012024 0.175415 0.140991
0.012207 0.157959 0.134766
0.012329 0.146545 0.129913
0.012329 0.160431 0.112915
0.141174 0.174164 0.088257
0.203766 0.187561 0.064697
0.240997 0.201385 0.077576
0.286804 0.209564 0.086945
0.319489 0.215302 0.094666
0.354187 0.217560 0.093933
0.391968 0.215210 0.089813
0.425354 0.215698 0.089874
0.456726 0.214569 0.083771
0.483398 0.212769 0.076324
0.508728 0.210571 0.074371
0.536377 0.205353 0.071320
0.567352 0.200348 0.069244
0.601288 0.197021 0.063782
0.639099 0.188446 0.055573
0.670807 0.183258 0.049469
0.696381 0.181030 0.047028
0.721008 0.177856 0.047058
0.742950 0.175537 0.049591
0.764526 0.171753 0.049652
0.785034 0.170288 0.052216
0.812195 0.167328 0.052307
0.836334 0.164825 0.053711
0.856140 0.164856 0.053894
0.879822 0.165405 0.054077
0.908783 0.165436 0.054291
0.926666 0.165466 0.053192
0.954224 0.165497 0.053406
0.975037 0.165527 0.053589
0.011841 0.194458 0.149139
0.011963 0.180908 0.143555
0.012085 0.170380 0.138397
0.012115 0.174011 0.131958
0.014008 0.192963 0.101196
0.191986 0.205475 0.076538
0.239990 0.218872 0.071564
0.286804 0.240173 0.112274
0.320526 0.242401 0.111664
0.359375 0.244629 0.110413
0.396637 0.246552 0.107727
0.427887 0.245392 0.102020
0.461395 0.244232 0.094238
0.487762 0.242249 0.091827
0.514618 0.241425 0.089355
0.544037 0.239105 0.084137
0.575226 0.234802 0.076752
0.609619 0.230927 0.071716
0.649170 0.228180 0.066376
0.681122 0.222656 0.064148
0.708771 0.219116 0.064209
0.733521 0.213928 0.064270
0.756134 0.210083 0.064331
0.777313 0.205414 0.063232
0.799683 0.199493 0.060944
0.828491 0.197144 0.058716
0.850861 0.193176 0.056458
0.872009 0.192169 0.056610
0.898956 0.188293 0.054352
0.920410 0.187073 0.054504
0.950012 0.188354 0.054779
0.971191 0.188385 0.054932
0.987457 0.187134 0.053802
0.011688 0.214874 0.149963
0.011780 0.199402 0.150696
0.011902 0.187866 0.146790
0.011902 0.187195 0.144775
0.011841 0.203461 0.136688
0.145386 0.224518 0.096039
0.234253 0.239685 0.063965
0.276428 0.253601 0.066406
0.315521 0.271606 0.110443
0.359192 0.274261 0.117401
0.397766 0.274933 0.115631
0.431091 0.276581 0.112518
0.464966 0.276276 0.108612
0.490387 0.275146 0.103729
0.519196 0.272705 0.096924
0.550293 0.271698 0.092102
0.581512 0.268066 0.087036
0.621368 0.264801 0.085358
0.659607 0.261627 0.084534
0.693329 0.260071 0.084595
0.719757 0.256226 0.081909
0.743713 0.252014 0.079163
0.766998 0.250092 0.075348
0.787415 0.247375 0.074402
0.814301 0.244476 0.072449
0.838379 0.242554 0.069397
0.861603 0.235138 0.065063
0.891266 0.236206 0.065308
0.914978 0.231873 0.064331
0.940796 0.230072 0.064545
0.965118 0.229065 0.065887
0.984924 0.226868 0.066010
0.996582 0.224823 0.066101
0.011597 0.228729 0.146454
0.011658 0.217010 0.149567
0.011719 0.207977 0.149963
0.011749 0.204773 0.151093
0.011719 0.214325 0.146423
0.021149 0.239136 0.114594
0.215607 0.255554 0.065125
0.271179 0.271393 0.045135
0.303711 0.285858 0.060944
0.347626 0.302368 0.106476
0.397797 0.305298 0.113220
0.432526 0.307770 0.115112
0.464233 0.307098 0.117554
0.492706 0.305084 0.112061
0.524567 0.306061 0.108124
0.558441 0.304688 0.106110
0.592468 0.302765 0.104034
0.632294 0.300842 0.101166
0.668304 0.299011 0.098145
0.699158 0.295624 0.095001
0.729156 0.294006 0.092590
0.752869 0.290985 0.090118
0.775818 0.289093 0.087585
0.798340 0.285614 0.084991
0.825928 0.283020 0.083282
0.848602 0.280304 0.082520
0.875885 0.277008 0.082703
0.909302 0.274536 0.082916
0.928925 0.271118 0.081177
0.956879 0.268707 0.081360
0.977570 0.264923 0.081482
0.993652 0.266876 0.083466
1.000000 0.263611 0.081635
0.011475 0.243225 0.149597
0.011597 0.229767 0.146851
0.011627 0.224335 0.148041
0.011627 0.222076 0.148407
0.011597 0.227722 0.146057
0.011871 0.242310 0.138123
0.185913 0.270477 0.048615
0.259491 0.290833 0.022705
0.294891 0.302368 0.023651
0.333710 0.317902 0.056458
0.392700 0.330505 0.100006
0.430084 0.332153 0.106659
0.462433 0.332458 0.111420
0.492950 0.332642 0.114624
0.528412 0.331940 0.117676
0.565796 0.331573 0.117737
0.597595 0.329987 0.114777
0.639191 0.329376 0.112335
0.676056 0.327942 0.109772
0.706055 0.326416 0.106384
0.737549 0.324554 0.103607
0.761414 0.322540 0.102936
0.785522 0.321014 0.102997
0.814789 0.318878 0.100830
0.838837 0.317719 0.099457
0.862061 0.315735 0.098053
0.893066 0.313873 0.095856
0.920166 0.311493 0.093597
0.947571 0.309845 0.092102
0.971619 0.308289 0.091400
0.987823 0.305695 0.089783
0.998993 0.304352 0.088989
1.000000 0.304352 0.089020
0.011383 0.257629 0.149994
0.011444 0.248718 0.149994
0.011505 0.240326 0.148438
0.011536 0.237213 0.148438
0.011505 0.238861 0.147644
0.011414 0.254852 0.144867
0.028229 0.286499 0.058380
0.233459 0.306824 0.016083
0.291016 0.320129 0.007599
0.325775 0.329865 0.009247
0.378204 0.343658 0.055481
0.425446 0.351929 0.092957
0.459473 0.352722 0.103180
0.491211 0.354034 0.110870
0.525391 0.354431 0.115356
0.566193 0.353668 0.118378
0.601715 0.352997 0.119568
0.643250 0.351715 0.120117
0.680328 0.349854 0.119568
0.712250 0.348755 0.116699
0.744720 0.347229 0.114319
0.770538 0.345734 0.111877
0.793732 0.344666 0.109985
0.822510 0.342926 0.107391
0.846375 0.341339 0.106140
0.871613 0.340302 0.104156
0.904358 0.339478 0.102173
0.929871 0.338104 0.100067
0.959869 0.336731 0.098724
0.981689 0.335205 0.096497
0.995789 0.335022 0.094971
1.000000 0.333679 0.094177
1.000000 0.332214 0.092560
0.011292 0.268097 0.149231
0.011353 0.261719 0.149628
0.011383 0.257019 0.149994
0.011383 0.254089 0.150757
0.011383 0.254059 0.150757
0.011322 0.267639 0.147675
0.014008 0.290436 0.135986
0.201019 0.318695 0.007446
0.281281 0.334747 0.006012
0.318939 0.344086 0.005707
0.365662 0.353638 0.005920
0.411438 0.373169 0.050812
0.456207 0.383148 0.090607
0.487366 0.384430 0.102600
0.523773 0.385498 0.109711
0.566681 0.386047 0.113647
0.601318 0.384216 0.114929
0.647614 0.382751 0.116150
0.683472 0.381195 0.117340
0.714905 0.379242 0.117950
0.748566 0.377472 0.117981
0.775421 0.375336 0.118011
0.801758 0.372803 0.115692
0.830658 0.372040 0.113983
0.853302 0.369598 0.112213
0.881012 0.367889 0.109772
0.913361 0.365540 0.107941
0.940735 0.364990 0.106720
0.970337 0.363037 0.104095
0.989227 0.360840 0.102722
0.999237 0.359528 0.102783
1.000000 0.358398 0.102051
1.000000 0.357971 0.102051
0.011230 0.278809 0.149261
0.011261 0.274017 0.148468
0.011292 0.269287 0.149231
0.011322 0.267242 0.148865
0.011322 0.267242 0.148865
0.011261 0.276978 0.147675
0.011230 0.294891 0.144104
0.033661 0.325287 0.007690
0.261780 0.343262 0.006073
0.310974 0.357208 0.005707
0.354218 0.371918 0.005341
0.401855 0.383331 0.005005
0.443298 0.401428 0.048523
0.483124 0.406799 0.085541
0.516113 0.409027 0.095825
0.560425 0.410309 0.103577
0.604889 0.411835 0.106537
0.647400 0.409698 0.109314
0.682709 0.409210 0.109344
0.717072 0.407928 0.110016
0.749237 0.405609 0.112000
0.778992 0.404022 0.112030
0.807281 0.402405 0.112091
0.836060 0.400726 0.112213
0.860779 0.398621 0.112946
0.891937 0.397339 0.113098
0.920013 0.396027 0.113220
0.951599 0.394440 0.112732
0.977234 0.393311 0.110962
0.994690 0.393250 0.109741
1.000000 0.390686 0.108459
1.000000 0.389557 0.107117
1.000000 0.388733 0.107117
0.011139 0.288666 0.149658
0.011169 0.286102 0.148865
0.011200 0.281311 0.148468
0.011230 0.278687 0.149261
0.011230 0.280212 0.148071
0.011169 0.286621 0.148865
0.011047 0.304352 0.147705
0.022095 0.328094 0.127869
0.208588 0.350189 0.006378
0.298218 0.372467 0.005676
0.336761 0.386353 0.005371
0.393951 0.398438 0.004944
0.430634 0.408630 0.004700
0.475189 0.427643 0.048737
0.509277 0.432404 0.074371
0.555969 0.435516 0.087616
0.600006 0.436218 0.095337
0.642578 0.436066 0.098572
0.681946 0.435699 0.099396
0.714539 0.434845 0.099457
0.749969 0.433441 0.101044
0.780640 0.433258 0.101135
0.812012 0.433167 0.101196
0.839264 0.430115 0.102081
0.865234 0.428009 0.103668
0.899841 0.427155 0.103882
0.925842 0.425873 0.104736
0.958984 0.425110 0.104187
0.983765 0.422485 0.105042
0.997253 0.420227 0.105103
1.000000 0.419220 0.105133
1.000000 0.416992 0.105804
1.000000 0.418884 0.104431
0.011047 0.299774 0.152679
0.011078 0.296692 0.150787
0.011108 0.291840 0.151184
0.011108 0.291718 0.151184
0.011108 0.291718 0.151184
0.011017 0.302460 0.153046
0.010925 0.316986 0.153442
0.011932 0.332703 0.151245
0.035248 0.360474 0.007446
0.271942 0.383392 0.005768
0.329498 0.401489 0.005310
0.384521 0.412537 0.004944
0.424683 0.422302 0.004639
0.459900 0.434906 0.004364
0.502502 0.451630 0.036713
0.546844 0.457184 0.054108
0.592133 0.459473 0.067322
0.639130 0.459778 0.075897
0.680420 0.460236 0.080780
0.714111 0.460266 0.083618
0.748657 0.459106 0.085510
0.780945 0.459625 0.085602
0.813995 0.458405 0.086609
0.841797 0.457458 0.088531
0.870361 0.456573 0.088715
0.906311 0.456879 0.087219
0.930450 0.453918 0.089966
0.963257 0.453308 0.090179
0.987640 0.453735 0.089508
0.999664 0.450348 0.092102
1.000000 0.448639 0.092957
1.000000 0.447540 0.092957
1.000000 0.447601 0.092957
0.010956 0.311066 0.156677
0.010986 0.307098 0.155243
0.011017 0.304352 0.153778
0.011017 0.304108 0.153412
0.010986 0.306610 0.155243
0.010925 0.311646 0.157013
0.010834 0.324646 0.157013
0.010803 0.338928 0.156677
0.028809 0.363739 0.110504
0.233307 0.394592 0.005951
0.318115 0.414490 0.005310
0.372528 0.427795 0.004913
0.414520 0.438507 0.004608
0.452301 0.448242 0.004333
0.489929 0.462524 0.004059
0.536530 0.474701 0.012634
0.585541 0.479797 0.023010
0.629791 0.480042 0.038269
0.674835 0.481445 0.050873
0.710785 0.482178 0.057220
0.746399 0.482483 0.062164
0.778351 0.482971 0.062286
0.814148 0.482483 0.062439
0.842712 0.481079 0.066132
0.871399 0.480499 0.066345
0.906921 0.479553 0.066620
0.932739 0.479095 0.066833
0.967316 0.477570 0.069305
0.988098 0.477386 0.067261
1.000000 0.476044 0.069550
1.000000 0.475250 0.069550
1.000000 0.473694 0.071686
1.000000 0.473633 0.071686
0.010895 0.318298 0.157013
0.010895 0.315918 0.158752
0.010925 0.313019 0.157013
0.010925 0.313995 0.158051
0.010895 0.314819 0.158051
0.010864 0.320801 0.158752
0.010803 0.328217 0.160736
0.010681 0.344574 0.159088
0.017365 0.368469 0.151306
0.153473 0.403046 0.006409
0.297577 0.426941 0.005371
0.363770 0.443665 0.004883
0.406891 0.451874 0.004578
0.444611 0.463196 0.004303
0.479919 0.471405 0.004059
0.521973 0.488373 0.003754
0.576813 0.496063 0.003448
0.623840 0.501221 0.003174
0.670746 0.503113 0.006287
0.705963 0.503235 0.016571
0.741943 0.504547 0.020203
0.776306 0.503906 0.027283
0.813660 0.503113 0.031769
0.842346 0.503967 0.029694
0.870697 0.502106 0.034393
0.907074 0.502747 0.032288
0.936981 0.501190 0.034790
0.967743 0.500397 0.037354
0.989929 0.499939 0.037506
1.000000 0.499969 0.035187
1.000000 0.498047 0.040039
1.000000 0.497192 0.040039
1.000000 0.496399 0.042542
0.010834 0.323273 0.159088
0.010834 0.323273 0.159088
0.010864 0.320312 0.158051
0.010864 0.321136 0.158752
0.010864 0.322205 0.158752
0.010803 0.327332 0.161072
0.010742 0.335693 0.162354
0.010620 0.350250 0.164825
0.010986 0.374054 0.167206
0.032806 0.408203 0.047211
0.270538 0.439148 0.005463
0.349243 0.458984 0.004883
0.401245 0.468597 0.004517
0.438812 0.476471 0.004272
0.473297 0.484558 0.004028
0.506622 0.495361 0.003815
0.565460 0.515625 0.003387
0.615540 0.521027 0.003113
0.662659 0.526672 0.002838
0.700775 0.527893 0.002655
0.735535 0.528717 0.002472
0.771301 0.530426 0.002319
0.811066 0.530579 0.002136
0.841156 0.528534 0.002045
0.870209 0.530243 0.001923
0.907562 0.527893 0.003052
0.935120 0.527283 0.004089
0.970581 0.526520 0.004089
0.990692 0.525421 0.005981
1.000000 0.525024 0.005981
1.000000 0.523285 0.007385
1.000000 0.523285 0.007385
1.000000 0.522461 0.007385
0.010803 0.328125 0.161072
0.010803 0.327667 0.161072
0.010803 0.326965 0.160431
0.010803 0.327667 0.161072
0.010773 0.328461 0.162048
0.010742 0.333130 0.161407
0.010651 0.342316 0.166046
0.010529 0.357788 0.171234
0.010406 0.377533 0.170441
0.024994 0.407440 0.132446
0.231720 0.443970 0.005676
0.329834 0.467865 0.004944
0.393982 0.481506 0.004486
0.433624 0.489838 0.004242
0.468140 0.498718 0.003998
0.501984 0.507843 0.003754
0.549530 0.524353 0.003448
0.606781 0.543579 0.003052
0.655609 0.550751 0.002777
0.695648 0.554016 0.002563
0.731293 0.555542 0.002380
0.766205 0.557068 0.002228
0.806152 0.557709 0.002045
0.839203 0.558746 0.001923
0.868042 0.558380 0.001831
0.905884 0.557556 0.001709
0.932709 0.557007 0.001648
0.966736 0.556061 0.001556
0.990875 0.555420 0.001495
1.000000 0.553131 0.001465
1.000000 0.554230 0.001465
1.000000 0.552216 0.001465
1.000000 0.552216 0.001465
0.010742 0.332336 0.163300
0.010742 0.332336 0.163300
0.010773 0.331329 0.162994
0.010742 0.332336 0.163300
0.010742 0.334259 0.161407
0.010681 0.340118 0.164856
0.010590 0.350067 0.170715
0.010468 0.360565 0.174622
0.010345 0.383545 0.171204
0.013763 0.406860 0.155365
0.158936 0.445496 0.006134
0.310822 0.474060 0.005005
0.385101 0.492767 0.004486
0.425995 0.500793 0.004211
0.463135 0.511719 0.003937
0.496246 0.519714 0.003723
0.533112 0.533112 0.003479
0.583527 0.551483 0.003143
0.642670 0.566986 0.002747
0.685211 0.574707 0.002502
0.723755 0.578735 0.002319
0.760590 0.582031 0.002136
0.796082 0.583282 0.001984
0.834290 0.584198 0.001831
0.862122 0.584869 0.001740
0.903351 0.584167 0.001617
0.930420 0.583527 0.001556
0.964935 0.583771 0.001465
0.988739 0.582458 0.001404
1.000000 0.582184 0.001373
1.000000 0.580963 0.001373
1.000000 0.580963 0.001373
1.000000 0.579010 0.001373
0.010742 0.336151 0.162354
0.010742 0.336151 0.162354
0.010742 0.336151 0.162354
0.010712 0.337708 0.162994
0.010681 0.339691 0.164856
0.010620 0.345886 0.167755
0.010498 0.356354 0.173431
0.010406 0.369415 0.173920
0.010284 0.387054 0.174133
0.010468 0.405975 0.171967
0.031372 0.449432 0.006897
0.286102 0.479309 0.005127
0.376923 0.504303 0.004486
0.420258 0.514343 0.004181
0.459290 0.526093 0.003906
0.490967 0.536102 0.003662
0.524933 0.545654 0.003448
0.571808 0.560211 0.003143
0.623444 0.577301 0.002808
0.680023 0.593231 0.002441
0.715851 0.601196 0.002258
0.754303 0.605560 0.002045
0.789429 0.608887 0.001892
0.828918 0.609863 0.001740
0.858307 0.610931 0.001648
0.892242 0.611481 0.001556
0.923981 0.611847 0.001465
0.961731 0.610748 0.001373
0.984528 0.610535 0.001312
0.999817 0.610840 0.001282
1.000000 0.609985 0.001282
1.000000 0.609894 0.001282
1.000000 0.609344 0.001282
0.010712 0.337830 0.163300
0.010681 0.339905 0.164856
0.010681 0.339905 0.164856
0.010681 0.341766 0.165741
0.010651 0.344177 0.167480
0.010559 0.352386 0.171753
0.010468 0.364502 0.172485
0.010376 0.375916 0.175751
0.010254 0.390869 0.175262
0.010162 0.411133 0.175690
0.021729 0.447205 0.131531
0.250671 0.482483 0.005341
0.347229 0.510254 0.004608
0.416504 0.529846 0.004120
0.454712 0.541779 0.003845
0.487701 0.551300 0.003601
0.521484 0.561859 0.003387
0.561554 0.569977 0.003143
0.604675 0.585266 0.002869
0.662384 0.606293 0.002472
0.708954 0.619049 0.002197
0.746246 0.627319 0.002014
0.780975 0.632080 0.001831
0.824921 0.634796 0.001648
0.851105 0.636108 0.001587
0.888031 0.636780 0.001465
0.918365 0.637695 0.001373
0.955078 0.638519 0.001282
0.981384 0.639099 0.001221
0.998291 0.638031 0.001190
1.000000 0.638550 0.001190
1.000000 0.638916 0.001190
1.000000 0.638611 0.001190
0.010681 0.341888 0.165741
0.010651 0.343506 0.166626
0.010651 0.342102 0.166046
0.010620 0.346222 0.168304
0.010590 0.348785 0.169678
0.010529 0.356232 0.173218
0.010437 0.368835 0.173676
0.010315 0.381866 0.177063
0.010223 0.393646 0.176819
0.010071 0.414154 0.179352
0.012085 0.446320 0.161133
0.195312 0.485992 0.005676
0.326324 0.514465 0.004700
0.405945 0.543274 0.004089
0.449158 0.555206 0.003784
0.483643 0.566376 0.003571
0.519531 0.577240 0.003326
0.561493 0.589661 0.003052
0.595673 0.598846 0.002838
0.649048 0.612732 0.002533
0.699646 0.633148 0.002197
0.737976 0.642975 0.001984
0.776031 0.649841 0.001770
0.817993 0.655487 0.001587
0.844421 0.657593 0.001526
0.878967 0.658691 0.001404
0.915466 0.659332 0.001312
0.946503 0.659882 0.001251
0.978760 0.660858 0.001160
0.996216 0.661255 0.001129
1.000000 0.661865 0.001129
1.000000 0.664062 0.001099
1.000000 0.662567 0.001129
0.010620 0.345795 0.167755
0.010620 0.346313 0.168884
0.010590 0.347931 0.169678
0.010590 0.349304 0.169952
0.010529 0.353424 0.172485
0.010468 0.361786 0.174377
0.010376 0.373566 0.175079
0.010284 0.385101 0.178131
0.010193 0.399475 0.179382
0.010040 0.417664 0.182373
0.010101 0.441254 0.178070
0.040253 0.484802 0.006622
0.303894 0.516724 0.004822
0.391388 0.550751 0.004150
0.442780 0.567993 0.003754
0.479797 0.581970 0.003510
0.514313 0.594238 0.003265
0.558838 0.606750 0.002991
0.591492 0.614624 0.002777
0.635223 0.623901 0.002533
0.678955 0.638245 0.002258
0.729492 0.656219 0.001953
0.767792 0.665619 0.001770
0.805420 0.673737 0.001587
0.841644 0.678131 0.001434
0.873566 0.680878 0.001343
0.909729 0.680573 0.001251
0.942596 0.681488 0.001190
0.972290 0.683777 0.001099
0.994110 0.684662 0.001068
1.000000 0.685059 0.001038
1.000000 0.685669 0.001038
1.000000 0.686066 0.001038
0.010590 0.348572 0.169952
0.010559 0.351013 0.171234
0.010559 0.351013 0.171234
0.010529 0.353424 0.172485
0.010498 0.358093 0.173706
0.010468 0.364410 0.172485
0.010376 0.376678 0.175293
0.010254 0.389313 0.176392
0.010132 0.404022 0.181000
0.010010 0.419128 0.184113
0.009888 0.442017 0.181122
0.019104 0.481934 0.035522
0.278992 0.516876 0.004974
0.367310 0.553375 0.004272
0.433746 0.581390 0.003754
0.473724 0.595978 0.003448
0.510345 0.609833 0.003204
0.555481 0.622986 0.002930
0.590454 0.632202 0.002716
0.632935 0.641418 0.002472
0.669159 0.647156 0.002289
0.707703 0.660767 0.002045
0.758575 0.679962 0.001740
0.800537 0.690857 0.001526
0.835938 0.697479 0.001373
0.865234 0.702271 0.001282
0.905396 0.705292 0.001190
0.932953 0.706207 0.001129
0.968964 0.707642 0.001038
0.991394 0.708008 0.001007
1.000000 0.708832 0.000977
1.000000 0.710022 0.000977
1.000000 0.709961 0.000977
0.010559 0.352997 0.171997
0.010529 0.355835 0.172729
0.010529 0.353546 0.172729
0.010498 0.358093 0.173706
0.010468 0.361786 0.174377
0.010437 0.367432 0.173676
0.010315 0.380524 0.176392
0.010254 0.392548 0.177032
0.010101 0.407562 0.182404
0.010010 0.419983 0.185669
0.009857 0.442596 0.183105
0.011078 0.477661 0.135284
0.234253 0.517883 0.005249
0.344421 0.557526 0.004364
0.428192 0.594360 0.003723
0.471069 0.611664 0.003387
0.504639 0.623749 0.003174
0.550659 0.636566 0.002899
0.590454 0.647369 0.002655
0.630585 0.657928 0.002411
0.669067 0.664825 0.002197
