Fujifilm Eterna Vivid 160T (8543) - Only contrast.cube
# Created by Benjamin (IWLTBAP) : http://luts.iwltbap.com
# Copyright: (C) Copyright 2010-2017 Triune Films and IWLTBAP SAS
# Cannot be resold, shared or otherwise redistributed
TITLE "Film Print Emulation LUTs Pack (Rec.709, sRGB, DCI-P3)"
LUT_3D_SIZE 33
0.000244 0.000244 0.000244
0.020508 0.000244 0.000244
0.041351 0.000244 0.000244
0.064392 0.000214 0.000214
0.089294 0.000183 0.000183
0.117401 0.000122 0.000122
0.148499 0.000061 0.000061
0.182190 0.000000 0.000000
0.218231 0.000000 0.000000
0.255219 0.000000 0.000000
0.293060 0.000000 0.000000
0.330811 0.000000 0.000000
0.368378 0.000000 0.000000
0.405334 0.000000 0.000000
0.441833 0.000000 0.000000
0.477661 0.000000 0.000000
0.513214 0.000000 0.000000
0.548431 0.000000 0.000000
0.583282 0.000000 0.000000
0.617798 0.000000 0.000000
0.651642 0.000000 0.000000
0.684723 0.000000 0.000000
0.717102 0.000000 0.000000
0.748596 0.000000 0.000000
0.779388 0.000000 0.000000
0.809296 0.000000 0.000000
0.838043 0.000000 0.000000
0.865143 0.000000 0.000000
0.890076 0.000000 0.000000
0.912659 0.000000 0.000000
0.932800 0.000000 0.000000
0.950836 0.000000 0.000000
0.967438 0.000000 0.000000
0.000244 0.020508 0.000244
0.020508 0.020508 0.000244
0.041382 0.020508 0.000244
0.064423 0.020477 0.000214
0.089355 0.020447 0.000183
0.117462 0.020386 0.000122
0.148590 0.020325 0.000061
0.182281 0.020233 0.000000
0.218353 0.020142 0.000000
0.255341 0.020020 0.000000
0.293182 0.019897 0.000000
0.330933 0.019775 0.000000
0.368500 0.019653 0.000000
0.405457 0.019531 0.000000
0.441925 0.019440 0.000000
0.477783 0.019318 0.000000
0.513336 0.019226 0.000000
0.548553 0.019135 0.000000
0.583374 0.019043 0.000000
0.617889 0.018921 0.000000
0.651733 0.018829 0.000000
0.684814 0.018768 0.000000
0.717194 0.018677 0.000000
0.748688 0.018616 0.000000
0.779480 0.018524 0.000000
0.809357 0.018463 0.000000
0.838104 0.018433 0.000000
0.865173 0.018372 0.000000
0.890106 0.018341 0.000000
0.912689 0.018341 0.000000
0.932800 0.018341 0.000000
0.950806 0.018372 0.000000
0.967407 0.018402 0.000000
0.000244 0.041351 0.000244
0.020508 0.041382 0.000244
0.041382 0.041382 0.000244
0.064423 0.041382 0.000214
0.089386 0.041351 0.000183
0.117523 0.041321 0.000122
0.148651 0.041229 0.000061
0.182404 0.041168 0.000000
0.218445 0.041077 0.000000
0.255463 0.040955 0.000000
0.293304 0.040863 0.000000
0.331055 0.040741 0.000000
0.368591 0.040619 0.000000
0.405548 0.040527 0.000000
0.442047 0.040436 0.000000
0.477875 0.040344 0.000000
0.513428 0.040253 0.000000
0.548645 0.040161 0.000000
0.583466 0.040070 0.000000
0.617981 0.039978 0.000000
0.651825 0.039886 0.000000
0.684875 0.039825 0.000000
0.717255 0.039734 0.000000
0.748749 0.039673 0.000000
0.779541 0.039612 0.000000
0.809418 0.039581 0.000000
0.838165 0.039520 0.000000
0.865204 0.039490 0.000000
0.890106 0.039459 0.000000
0.912689 0.039459 0.000000
0.932770 0.039490 0.000000
0.950775 0.039520 0.000000
0.967377 0.039551 0.000000
0.000214 0.064392 0.000214
0.020477 0.064423 0.000214
0.041382 0.064423 0.000214
0.064453 0.064453 0.000183
0.089417 0.064423 0.000153
0.117554 0.064392 0.000092
0.148743 0.064362 0.000031
0.182465 0.064270 0.000000
0.218536 0.064178 0.000000
0.255554 0.064087 0.000000
0.293427 0.063995 0.000000
0.331146 0.063904 0.000000
0.368713 0.063812 0.000000
0.405640 0.063721 0.000000
0.442139 0.063629 0.000000
0.477966 0.063538 0.000000
0.513519 0.063477 0.000000
0.548737 0.063385 0.000000
0.583557 0.063324 0.000000
0.618073 0.063232 0.000000
0.651886 0.063171 0.000000
0.684967 0.063110 0.000000
0.717316 0.063049 0.000000
0.748810 0.062988 0.000000
0.779572 0.062958 0.000000
0.809448 0.062927 0.000000
0.838196 0.062897 0.000000
0.865234 0.062866 0.000000
0.890137 0.062866 0.000000
0.912659 0.062866 0.000000
0.932739 0.062897 0.000000
0.950745 0.062927 0.000000
0.967316 0.062988 0.000000
0.000183 0.089294 0.000183
0.020447 0.089355 0.000183
0.041351 0.089386 0.000183
0.064423 0.089417 0.000153
0.089417 0.089417 0.000122
0.117584 0.089417 0.000061
0.148773 0.089386 0.000000
0.182556 0.089325 0.000000
0.218628 0.089264 0.000000
0.255646 0.089172 0.000000
0.293488 0.089111 0.000000
0.331238 0.089020 0.000000
0.368805 0.088959 0.000000
0.405731 0.088898 0.000000
0.442200 0.088806 0.000000
0.478027 0.088745 0.000000
0.513580 0.088684 0.000000
0.548798 0.088654 0.000000
0.583618 0.088593 0.000000
0.618134 0.088531 0.000000
0.651947 0.088470 0.000000
0.684998 0.088440 0.000000
0.717377 0.088409 0.000000
0.748840 0.088379 0.000000
0.779602 0.088348 0.000000
0.809479 0.088318 0.000000
0.838196 0.088318 0.000000
0.865234 0.088318 0.000000
0.890106 0.088318 0.000000
0.912628 0.088348 0.000000
0.932709 0.088409 0.000000
0.950684 0.088470 0.000000
0.967255 0.088562 0.000000
0.000122 0.117401 0.000122
0.020386 0.117462 0.000122
0.041321 0.117523 0.000122
0.064392 0.117554 0.000092
0.089417 0.117584 0.000061
0.117615 0.117615 0.000000
0.148804 0.117584 0.000000
0.182587 0.117554 0.000000
0.218689 0.117523 0.000000
0.255707 0.117462 0.000000
0.293579 0.117432 0.000000
0.331299 0.117371 0.000000
0.368866 0.117310 0.000000
0.405792 0.117279 0.000000
0.442261 0.117218 0.000000
0.478088 0.117188 0.000000
0.513611 0.117157 0.000000
0.548828 0.117096 0.000000
0.583679 0.117065 0.000000
0.618164 0.117035 0.000000
0.651978 0.117004 0.000000
0.685028 0.117004 0.000000
0.717377 0.116974 0.000000
0.748871 0.116974 0.000000
0.779633 0.116974 0.000000
0.809479 0.116974 0.000000
0.838196 0.116974 0.000000
0.865204 0.117004 0.000000
0.890076 0.117035 0.000000
0.912598 0.117096 0.000000
0.932617 0.117157 0.000000
0.950592 0.117249 0.000000
0.967163 0.117340 0.000000
0.000061 0.148499 0.000061
0.020325 0.148590 0.000061
0.041229 0.148651 0.000061
0.064362 0.148743 0.000031
0.089386 0.148773 0.000000
0.117584 0.148804 0.000000
0.148834 0.148834 0.000000
0.182617 0.148834 0.000000
0.218719 0.148804 0.000000
0.255737 0.148773 0.000000
0.293610 0.148743 0.000000
0.331360 0.148712 0.000000
0.368896 0.148682 0.000000
0.405823 0.148651 0.000000
0.442291 0.148621 0.000000
0.478119 0.148590 0.000000
0.513641 0.148590 0.000000
0.548859 0.148560 0.000000
0.583679 0.148560 0.000000
0.618195 0.148529 0.000000
0.651978 0.148529 0.000000
0.685059 0.148529 0.000000
0.717407 0.148529 0.000000
0.748871 0.148560 0.000000
0.779633 0.148560 0.000000
0.809479 0.148590 0.000000
0.838165 0.148621 0.000000
0.865173 0.148651 0.000000
0.890015 0.148712 0.000000
0.912506 0.148804 0.000000
0.932526 0.148895 0.000000
0.950500 0.148987 0.000000
0.967072 0.149109 0.000000
0.000000 0.182190 0.000000
0.020233 0.182281 0.000000
0.041168 0.182404 0.000000
0.064270 0.182465 0.000000
0.089325 0.182556 0.000000
0.117554 0.182587 0.000000
0.148834 0.182617 0.000000
0.182648 0.182648 0.000000
0.218750 0.182617 0.000000
0.255768 0.182617 0.000000
0.293640 0.182617 0.000000
0.331390 0.182587 0.000000
0.368927 0.182587 0.000000
0.405853 0.182556 0.000000
0.442291 0.182556 0.000000
0.478119 0.182556 0.000000
0.513672 0.182556 0.000000
0.548859 0.182556 0.000000
0.583679 0.182556 0.000000
0.618195 0.182587 0.000000
0.651978 0.182587 0.000000
0.685028 0.182617 0.000000
0.717377 0.182617 0.000000
0.748840 0.182648 0.000000
0.779602 0.182678 0.000000
0.809448 0.182739 0.000000
0.838135 0.182770 0.000000
0.865112 0.182831 0.000000
0.889954 0.182922 0.000000
0.912415 0.183014 0.000000
0.932434 0.183105 0.000000
0.950378 0.183228 0.000000
0.966949 0.183380 0.000000
0.000000 0.218231 0.000000
0.020142 0.218353 0.000000
0.041077 0.218445 0.000000
0.064178 0.218536 0.000000
0.089264 0.218628 0.000000
0.117523 0.218689 0.000000
0.148804 0.218719 0.000000
0.182617 0.218750 0.000000
0.218750 0.218750 0.000000
0.255798 0.218750 0.000000
0.293640 0.218750 0.000000
0.331390 0.218750 0.000000
0.368927 0.218750 0.000000
0.405853 0.218750 0.000000
0.442291 0.218750 0.000000
0.478119 0.218750 0.000000
0.513672 0.218750 0.000000
0.548859 0.218781 0.000000
0.583679 0.218781 0.000000
0.618164 0.218811 0.000000
0.651978 0.218842 0.000000
0.685028 0.218872 0.000000
0.717346 0.218903 0.000000
0.748810 0.218933 0.000000
0.779541 0.218964 0.000000
0.809387 0.219025 0.000000
0.838074 0.219086 0.000000
0.865051 0.219147 0.000000
0.889862 0.219238 0.000000
0.912323 0.219330 0.000000
0.932312 0.219452 0.000000
0.950256 0.219604 0.000000
0.966797 0.219727 0.000000
0.000000 0.255219 0.000000
0.020020 0.255341 0.000000
0.040955 0.255463 0.000000
0.064087 0.255554 0.000000
0.089172 0.255646 0.000000
0.117462 0.255707 0.000000
0.148773 0.255737 0.000000
0.182617 0.255768 0.000000
0.218750 0.255798 0.000000
0.255798 0.255798 0.000000
0.293671 0.255798 0.000000
0.331390 0.255798 0.000000
0.368927 0.255798 0.000000
0.405853 0.255798 0.000000
0.442291 0.255798 0.000000
0.478119 0.255829 0.000000
0.513641 0.255829 0.000000
0.548859 0.255859 0.000000
0.583679 0.255890 0.000000
0.618164 0.255890 0.000000
0.651947 0.255920 0.000000
0.684998 0.255951 0.000000
0.717316 0.256012 0.000000
0.748779 0.256042 0.000000
0.779510 0.256104 0.000000
0.809326 0.256165 0.000000
0.838013 0.256226 0.000000
0.864960 0.256287 0.000000
0.889771 0.256378 0.000000
0.912201 0.256500 0.000000
0.932190 0.256622 0.000000
0.950104 0.256744 0.000000
0.966675 0.256897 0.000000
0.000000 0.293060 0.000000
0.019897 0.293182 0.000000
0.040863 0.293304 0.000000
0.063995 0.293427 0.000000
0.089111 0.293488 0.000000
0.117432 0.293579 0.000000
0.148743 0.293610 0.000000
0.182617 0.293640 0.000000
0.218750 0.293640 0.000000
0.255798 0.293671 0.000000
0.293671 0.293671 0.000000
0.331390 0.293671 0.000000
0.368927 0.293671 0.000000
0.405823 0.293671 0.000000
0.442291 0.293671 0.000000
0.478088 0.293701 0.000000
0.513641 0.293701 0.000000
0.548828 0.293732 0.000000
0.583649 0.293762 0.000000
0.618134 0.293762 0.000000
0.651917 0.293793 0.000000
0.684937 0.293823 0.000000
0.717285 0.293884 0.000000
0.748718 0.293915 0.000000
0.779449 0.293976 0.000000
0.809265 0.294037 0.000000
0.837952 0.294098 0.000000
0.864868 0.294159 0.000000
0.889679 0.294250 0.000000
0.912079 0.294373 0.000000
0.932068 0.294495 0.000000
0.949982 0.294617 0.000000
0.966522 0.294769 0.000000
0.000000 0.330811 0.000000
0.019775 0.330933 0.000000
0.040741 0.331055 0.000000
0.063904 0.331146 0.000000
0.089020 0.331238 0.000000
0.117371 0.331299 0.000000
0.148712 0.331360 0.000000
0.182587 0.331390 0.000000
0.218750 0.331390 0.000000
0.255798 0.331390 0.000000
0.293671 0.331390 0.000000
0.331390 0.331390 0.000000
0.368927 0.331390 0.000000
0.405823 0.331390 0.000000
0.442291 0.331421 0.000000
0.478088 0.331421 0.000000
0.513611 0.331451 0.000000
0.548828 0.331451 0.000000
0.583618 0.331482 0.000000
0.618103 0.331512 0.000000
0.651886 0.331543 0.000000
0.684906 0.331573 0.000000
0.717224 0.331604 0.000000
0.748688 0.331665 0.000000
0.779419 0.331696 0.000000
0.809204 0.331757 0.000000
0.837891 0.331818 0.000000
0.864807 0.331909 0.000000
0.889587 0.331970 0.000000
0.911987 0.332092 0.000000
0.931915 0.332214 0.000000
0.949829 0.332367 0.000000
0.966370 0.332489 0.000000
0.000000 0.368378 0.000000
0.019653 0.368500 0.000000
0.040619 0.368591 0.000000
0.063812 0.368713 0.000000
0.088959 0.368805 0.000000
0.117310 0.368866 0.000000
0.148682 0.368896 0.000000
0.182587 0.368927 0.000000
0.218750 0.368927 0.000000
0.255798 0.368927 0.000000
0.293671 0.368927 0.000000
0.331390 0.368927 0.000000
0.368927 0.368927 0.000000
0.405823 0.368927 0.000000
0.442261 0.368927 0.000000
0.478088 0.368958 0.000000
0.513611 0.368958 0.000000
0.548798 0.368988 0.000000
0.583618 0.368988 0.000000
0.618073 0.369019 0.000000
0.651855 0.369049 0.000000
0.684875 0.369080 0.000000
0.717194 0.369110 0.000000
0.748627 0.369141 0.000000
0.779358 0.369202 0.000000
0.809174 0.369232 0.000000
0.837799 0.369293 0.000000
0.864716 0.369385 0.000000
0.889465 0.369476 0.000000
0.911865 0.369568 0.000000
0.931793 0.369690 0.000000
0.949677 0.369812 0.000000
0.966217 0.369965 0.000000
0.000000 0.405334 0.000000
0.019531 0.405457 0.000000
0.040527 0.405548 0.000000
0.063721 0.405640 0.000000
0.088898 0.405731 0.000000
0.117279 0.405792 0.000000
0.148651 0.405823 0.000000
0.182556 0.405853 0.000000
0.218750 0.405853 0.000000
0.255798 0.405853 0.000000
0.293671 0.405823 0.000000
0.331390 0.405823 0.000000
0.368927 0.405823 0.000000
0.405823 0.405823 0.000000
0.442261 0.405823 0.000000
0.478058 0.405823 0.000000
0.513580 0.405853 0.000000
0.548798 0.405853 0.000000
0.583588 0.405853 0.000000
0.618073 0.405884 0.000000
0.651825 0.405914 0.000000
0.684845 0.405914 0.000000
0.717163 0.405945 0.000000
0.748596 0.406006 0.000000
0.779297 0.406036 0.000000
0.809113 0.406067 0.000000
0.837738 0.406128 0.000000
0.864624 0.406219 0.000000
0.889374 0.406281 0.000000
0.911743 0.406372 0.000000
0.931671 0.406494 0.000000
0.949554 0.406647 0.000000
0.966064 0.406769 0.000000
0.000000 0.441833 0.000000
0.019440 0.441925 0.000000
0.040436 0.442047 0.000000
0.063629 0.442139 0.000000
0.088806 0.442200 0.000000
0.117218 0.442261 0.000000
0.148621 0.442291 0.000000
0.182556 0.442291 0.000000
0.218750 0.442291 0.000000
0.255798 0.442291 0.000000
0.293671 0.442291 0.000000
0.331421 0.442291 0.000000
0.368927 0.442261 0.000000
0.405823 0.442261 0.000000
0.442261 0.442261 0.000000
0.478058 0.442261 0.000000
0.513580 0.442261 0.000000
0.548767 0.442261 0.000000
0.583588 0.442291 0.000000
0.618042 0.442291 0.000000
0.651825 0.442322 0.000000
0.684845 0.442322 0.000000
0.717133 0.442352 0.000000
0.748566 0.442383 0.000000
0.779266 0.442444 0.000000
0.809052 0.442474 0.000000
0.837677 0.442535 0.000000
0.864563 0.442596 0.000000
0.889313 0.442657 0.000000
0.911652 0.442780 0.000000
0.931549 0.442871 0.000000
0.949432 0.442993 0.000000
0.965942 0.443146 0.000000
0.000000 0.477661 0.000000
0.019318 0.477783 0.000000
0.040344 0.477875 0.000000
0.063538 0.477966 0.000000
0.088745 0.478027 0.000000
0.117188 0.478088 0.000000
0.148590 0.478119 0.000000
0.182556 0.478119 0.000000
0.218750 0.478119 0.000000
0.255829 0.478119 0.000000
0.293701 0.478088 0.000000
0.331421 0.478088 0.000000
0.368958 0.478088 0.000000
0.405823 0.478058 0.000000
0.442261 0.478058 0.000000
0.478058 0.478058 0.000000
0.513580 0.478058 0.000000
0.548767 0.478058 0.000000
0.583588 0.478058 0.000000
0.618042 0.478088 0.000000
0.651794 0.478088 0.000000
0.684814 0.478119 0.000000
0.717102 0.478149 0.000000
0.748535 0.478180 0.000000
0.779236 0.478210 0.000000
0.809021 0.478241 0.000000
0.837646 0.478302 0.000000
0.864502 0.478363 0.000000
0.889221 0.478424 0.000000
0.911560 0.478516 0.000000
0.931427 0.478638 0.000000
0.949280 0.478760 0.000000
0.965790 0.478882 0.000000
0.000000 0.513214 0.000000
0.019226 0.513336 0.000000
0.040253 0.513428 0.000000
0.063477 0.513519 0.000000
0.088684 0.513580 0.000000
0.117157 0.513611 0.000000
0.148590 0.513641 0.000000
0.182556 0.513672 0.000000
0.218750 0.513672 0.000000
0.255829 0.513641 0.000000
0.293701 0.513641 0.000000
0.331451 0.513611 0.000000
0.368958 0.513611 0.000000
0.405853 0.513580 0.000000
0.442261 0.513580 0.000000
0.478058 0.513580 0.000000
0.513580 0.513580 0.000000
0.548767 0.513580 0.000000
0.583588 0.513580 0.000000
0.618042 0.513580 0.000000
0.651794 0.513611 0.000000
0.684784 0.513611 0.000000
0.717072 0.513641 0.000000
0.748505 0.513672 0.000000
0.779205 0.513702 0.000000
0.808960 0.513733 0.000000
0.837585 0.513794 0.000000
0.864441 0.513855 0.000000
0.889130 0.513916 0.000000
0.911438 0.514008 0.000000
0.931335 0.514130 0.000000
0.949158 0.514252 0.000000
0.965668 0.514374 0.000000
0.000000 0.548431 0.000000
0.019135 0.548553 0.000000
0.040161 0.548645 0.000000
0.063385 0.548737 0.000000
0.088654 0.548798 0.000000
0.117096 0.548828 0.000000
0.148560 0.548859 0.000000
0.182556 0.548859 0.000000
0.218781 0.548859 0.000000
0.255859 0.548859 0.000000
0.293732 0.548828 0.000000
0.331451 0.548828 0.000000
0.368988 0.548798 0.000000
0.405853 0.548798 0.000000
0.442261 0.548767 0.000000
0.478058 0.548767 0.000000
0.513580 0.548767 0.000000
0.548767 0.548767 0.000000
0.583557 0.548767 0.000000
0.618011 0.548767 0.000000
0.651764 0.548798 0.000000
0.684784 0.548798 0.000000
0.717072 0.548828 0.000000
0.748474 0.548859 0.000000
0.779175 0.548889 0.000000
0.808929 0.548920 0.000000
0.837524 0.548950 0.000000
0.864380 0.549011 0.000000
0.889038 0.549103 0.000000
0.911346 0.549164 0.000000
0.931213 0.549286 0.000000
0.949036 0.549408 0.000000
0.965546 0.549530 0.000000
0.000000 0.583282 0.000000
0.019043 0.583374 0.000000
0.040070 0.583466 0.000000
0.063324 0.583557 0.000000
0.088593 0.583618 0.000000
0.117065 0.583679 0.000000
0.148560 0.583679 0.000000
0.182556 0.583679 0.000000
0.218781 0.583679 0.000000
0.255890 0.583679 0.000000
0.293762 0.583649 0.000000
0.331482 0.583618 0.000000
0.368988 0.583618 0.000000
0.405853 0.583588 0.000000
0.442291 0.583588 0.000000
0.478058 0.583588 0.000000
0.513580 0.583588 0.000000
0.548767 0.583557 0.000000
0.583557 0.583557 0.000000
0.618011 0.583588 0.000000
0.651764 0.583588 0.000000
0.684753 0.583588 0.000000
0.717041 0.583618 0.000000
0.748444 0.583649 0.000000
0.779144 0.583649 0.000000
0.808899 0.583710 0.000000
0.837494 0.583740 0.000000
0.864288 0.583801 0.000000
0.888977 0.583862 0.000000
0.911255 0.583954 0.000000
0.931091 0.584045 0.000000
0.948914 0.584167 0.000000
0.965393 0.584290 0.000000
0.000000 0.617798 0.000000
0.018921 0.617889 0.000000
0.039978 0.617981 0.000000
0.063232 0.618073 0.000000
0.088531 0.618134 0.000000
0.117035 0.618164 0.000000
0.148529 0.618195 0.000000
0.182587 0.618195 0.000000
0.218811 0.618164 0.000000
0.255890 0.618164 0.000000
0.293762 0.618134 0.000000
0.331512 0.618103 0.000000
0.369019 0.618073 0.000000
0.405884 0.618073 0.000000
0.442291 0.618042 0.000000
0.478088 0.618042 0.000000
0.513580 0.618042 0.000000
0.548767 0.618011 0.000000
0.583588 0.618011 0.000000
0.618011 0.618011 0.000000
0.651764 0.618011 0.000000
0.684753 0.618042 0.000000
0.717010 0.618042 0.000000
0.748413 0.618073 0.000000
0.779114 0.618103 0.000000
0.808868 0.618134 0.000000
0.837433 0.618164 0.000000
0.864258 0.618225 0.000000
0.888885 0.618286 0.000000
0.911163 0.618347 0.000000
0.931000 0.618469 0.000000
0.948792 0.618561 0.000000
0.965271 0.618683 0.000000
0.000000 0.651642 0.000000
0.018829 0.651733 0.000000
0.039886 0.651825 0.000000
0.063171 0.651886 0.000000
0.088470 0.651947 0.000000
0.117004 0.651978 0.000000
0.148529 0.651978 0.000000
0.182587 0.651978 0.000000
0.218842 0.651978 0.000000
0.255920 0.651947 0.000000
0.293793 0.651917 0.000000
0.331543 0.651886 0.000000
0.369049 0.651855 0.000000
0.405914 0.651825 0.000000
0.442322 0.651825 0.000000
0.478088 0.651794 0.000000
0.513611 0.651794 0.000000
0.548798 0.651764 0.000000
0.583588 0.651764 0.000000
0.618011 0.651764 0.000000
0.651764 0.651764 0.000000
0.684753 0.651764 0.000000
0.717010 0.651764 0.000000
0.748413 0.651764 0.000000
0.779083 0.651794 0.000000
0.808838 0.651825 0.000000
0.837402 0.651855 0.000000
0.864197 0.651886 0.000000
0.888824 0.651947 0.000000
0.911072 0.652039 0.000000
0.930878 0.652130 0.000000
0.948700 0.652222 0.000000
0.965149 0.652344 0.000000
0.000000 0.684723 0.000000
0.018768 0.684814 0.000000
0.039825 0.684875 0.000000
0.063110 0.684967 0.000000
0.088440 0.684998 0.000000
0.117004 0.685028 0.000000
0.148529 0.685059 0.000000
0.182617 0.685028 0.000000
0.218872 0.685028 0.000000
0.255951 0.684998 0.000000
0.293823 0.684937 0.000000
0.331573 0.684906 0.000000
0.369080 0.684875 0.000000
0.405914 0.684845 0.000000
0.442322 0.684845 0.000000
0.478119 0.684814 0.000000
0.513611 0.684784 0.000000
0.548798 0.684784 0.000000
0.583588 0.684753 0.000000
0.618042 0.684753 0.000000
0.651764 0.684753 0.000000
0.684753 0.684753 0.000000
0.717010 0.684753 0.000000
0.748383 0.684753 0.000000
0.779053 0.684753 0.000000
0.808807 0.684784 0.000000
0.837372 0.684814 0.000000
0.864136 0.684845 0.000000
0.888763 0.684906 0.000000
0.910980 0.684998 0.000000
0.930786 0.685059 0.000000
0.948578 0.685181 0.000000
0.965057 0.685303 0.000000
0.000000 0.717102 0.000000
0.018677 0.717194 0.000000
0.039734 0.717255 0.000000
0.063049 0.717316 0.000000
0.088409 0.717377 0.000000
0.116974 0.717377 0.000000
0.148529 0.717407 0.000000
0.182617 0.717377 0.000000
0.218903 0.717346 0.000000
0.256012 0.717316 0.000000
0.293884 0.717285 0.000000
0.331604 0.717224 0.000000
0.369110 0.717194 0.000000
0.405945 0.717163 0.000000
0.442352 0.717133 0.000000
0.478149 0.717102 0.000000
0.513641 0.717072 0.000000
0.548828 0.717072 0.000000
0.583618 0.717041 0.000000
0.618042 0.717010 0.000000
0.651764 0.717010 0.000000
0.684753 0.717010 0.000000
0.717010 0.717010 0.000000
0.748383 0.717010 0.000000
0.779053 0.717010 0.000000
0.808777 0.717010 0.000000
0.837341 0.717041 0.000000
0.864105 0.717072 0.000000
0.888702 0.717133 0.000000
0.910919 0.717194 0.000000
0.930695 0.717285 0.000000
0.948486 0.717377 0.000000
0.964935 0.717499 0.000000
0.000000 0.748596 0.000000
0.018616 0.748688 0.000000
0.039673 0.748749 0.000000
0.062988 0.748810 0.000000
0.088379 0.748840 0.000000
0.116974 0.748871 0.000000
0.148560 0.748871 0.000000
0.182648 0.748840 0.000000
0.218933 0.748810 0.000000
0.256042 0.748779 0.000000
0.293915 0.748718 0.000000
0.331665 0.748688 0.000000
0.369141 0.748627 0.000000
0.406006 0.748596 0.000000
0.442383 0.748566 0.000000
0.478180 0.748535 0.000000
0.513672 0.748505 0.000000
0.548859 0.748474 0.000000
0.583649 0.748444 0.000000
0.618073 0.748413 0.000000
0.651764 0.748413 0.000000
0.684753 0.748383 0.000000
0.717010 0.748383 0.000000
0.748383 0.748383 0.000000
0.779053 0.748383 0.000000
0.808777 0.748383 0.000000
0.837311 0.748413 0.000000
0.864044 0.748444 0.000000
0.888641 0.748474 0.000000
0.910828 0.748535 0.000000
0.930603 0.748627 0.000000
0.948364 0.748718 0.000000
0.964844 0.748810 0.000000
0.000000 0.779388 0.000000
0.018524 0.779480 0.000000
0.039612 0.779541 0.000000
0.062958 0.779572 0.000000
0.088348 0.779602 0.000000
0.116974 0.779633 0.000000
0.148560 0.779633 0.000000
0.182678 0.779602 0.000000
0.218964 0.779541 0.000000
0.256104 0.779510 0.000000
0.293976 0.779449 0.000000
0.331696 0.779419 0.000000
0.369202 0.779358 0.000000
0.406036 0.779297 0.000000
0.442444 0.779266 0.000000
0.478210 0.779236 0.000000
0.513702 0.779205 0.000000
0.548889 0.779175 0.000000
0.583649 0.779144 0.000000
0.618103 0.779114 0.000000
0.651794 0.779083 0.000000
0.684753 0.779053 0.000000
0.717010 0.779053 0.000000
0.748383 0.779053 0.000000
0.779053 0.779053 0.000000
0.808746 0.779053 0.000000
0.837280 0.779053 0.000000
0.864014 0.779083 0.000000
0.888611 0.779114 0.000000
0.910767 0.779175 0.000000
0.930511 0.779266 0.000000
0.948273 0.779358 0.000000
0.964722 0.779449 0.000000
0.000000 0.809296 0.000000
0.018463 0.809357 0.000000
0.039581 0.809418 0.000000
0.062927 0.809448 0.000000
0.088318 0.809479 0.000000
0.116974 0.809479 0.000000
0.148590 0.809479 0.000000
0.182739 0.809448 0.000000
0.219025 0.809387 0.000000
0.256165 0.809326 0.000000
0.294037 0.809265 0.000000
0.331757 0.809204 0.000000
0.369232 0.809174 0.000000
0.406067 0.809113 0.000000
0.442474 0.809052 0.000000
0.478241 0.809021 0.000000
0.513733 0.808960 0.000000
0.548920 0.808929 0.000000
0.583710 0.808899 0.000000
0.618134 0.808868 0.000000
0.651825 0.808838 0.000000
0.684784 0.808807 0.000000
0.717010 0.808777 0.000000
0.748383 0.808777 0.000000
0.779053 0.808746 0.000000
0.808746 0.808746 0.000000
0.837280 0.808777 0.000000
0.863983 0.808777 0.000000
0.888550 0.808807 0.000000
0.910706 0.808868 0.000000
0.930450 0.808929 0.000000
0.948181 0.809021 0.000000
0.964630 0.809082 0.000000
0.000000 0.838043 0.000000
0.018433 0.838104 0.000000
0.039520 0.838165 0.000000
0.062897 0.838196 0.000000
0.088318 0.838196 0.000000
0.116974 0.838196 0.000000
0.148621 0.838165 0.000000
0.182770 0.838135 0.000000
0.219086 0.838074 0.000000
0.256226 0.838013 0.000000
0.294098 0.837952 0.000000
0.331818 0.837891 0.000000
0.369293 0.837799 0.000000
0.406128 0.837738 0.000000
0.442535 0.837677 0.000000
0.478302 0.837646 0.000000
0.513794 0.837585 0.000000
0.548950 0.837524 0.000000
0.583740 0.837494 0.000000
0.618164 0.837433 0.000000
0.651855 0.837402 0.000000
