Fujifilm Eterna 500T (8573) - Look.cube
# Created by Benjamin (IWLTBAP) : http://luts.iwltbap.com
# Copyright: (C) Copyright 2010-2017 Triune Films and IWLTBAP SAS
# Cannot be resold, shared or otherwise redistributed
TITLE "Film Print Emulation LUTs Pack (Rec.709, sRGB, DCI-P3)"
LUT_3D_SIZE 5
0.000244 0.000000 0.001984
0.150604 0.012085 0.000000
0.331238 0.000000 0.000000
0.491760 0.000000 0.000000
0.681519 0.000000 0.013489
0.000000 0.132416 0.090759
0.189423 0.172180 0.061096
0.415680 0.198395 0.000000
0.625671 0.194885 0.000000
0.836090 0.218201 0.000000
0.044861 0.289703 0.146118
0.261536 0.365753 0.138641
0.451874 0.389038 0.077148
0.666046 0.431305 0.000000
0.891113 0.462006 0.000000
0.182678 0.448090 0.221954
0.346039 0.544678 0.236877
0.562164 0.597870 0.186798
0.712341 0.616302 0.026184
0.932404 0.675842 0.006866
0.255615 0.599030 0.329834
0.485779 0.711243 0.327820
0.668121 0.764740 0.318878
0.795227 0.790131 0.148743
0.968231 0.822876 0.057709
0.043213 0.000000 0.119385
0.132874 0.024628 0.116913
0.299500 0.034027 0.114349
0.519196 0.000000 0.106110
0.706573 0.000000 0.135406
0.000000 0.170319 0.218903
0.176971 0.222687 0.246948
0.429901 0.235260 0.206818
0.708466 0.176636 0.152283
0.943634 0.143555 0.139862
0.000000 0.341675 0.314301
0.131836 0.429413 0.342682
0.465729 0.458099 0.329529
0.696167 0.473969 0.245361
0.959167 0.473297 0.198578
0.009857 0.510223 0.393555
0.215454 0.610168 0.432465
0.559357 0.652435 0.427582
0.742462 0.679810 0.351715
0.964417 0.725525 0.294556
0.007263 0.666748 0.533752
0.250916 0.776215 0.588623
0.591248 0.821411 0.594635
0.810852 0.858185 0.564575
0.978363 0.881165 0.498322
0.098145 0.000000 0.234863
0.160889 0.003510 0.249786
0.282227 0.067322 0.238617
0.447540 0.099823 0.253418
0.689972 0.084625 0.285278
0.120361 0.203461 0.382996
0.238251 0.251740 0.420074
0.410889 0.263855 0.407684
0.605927 0.294708 0.387909
0.848724 0.299164 0.402710
0.000000 0.381622 0.469116
0.000000 0.467072 0.538971
0.438293 0.501282 0.534241
0.689453 0.505554 0.496857
0.981781 0.494873 0.453674
0.000000 0.540985 0.548096
0.000000 0.641846 0.598785
0.380463 0.706085 0.624603
0.734650 0.720856 0.603058
0.977722 0.739471 0.544800
0.000000 0.692322 0.658630
0.000000 0.805542 0.719574
0.408386 0.863159 0.739807
0.739624 0.890808 0.723358
0.976196 0.905701 0.697601
0.107269 0.050903 0.398315
0.179321 0.071686 0.416962
0.315735 0.085236 0.400452
0.454895 0.146942 0.392731
0.645325 0.208557 0.414185
0.203094 0.208954 0.517670
0.287262 0.270081 0.563904
0.456909 0.264313 0.575806
0.587219 0.338440 0.536469
0.780334 0.390930 0.556396
0.159973 0.413055 0.626343
0.081604 0.495422 0.709473
0.476196 0.528931 0.694519
0.678680 0.536987 0.662903
0.892548 0.580200 0.653107
0.000000 0.575378 0.688354
0.000000 0.662598 0.740448
0.250244 0.734894 0.802734
0.700165 0.751587 0.773987
0.968872 0.767944 0.751495
0.000000 0.711090 0.771759
0.000000 0.820831 0.834351
0.000000 0.897430 0.880981
0.649963 0.919617 0.875916
0.971802 0.925690 0.848755
0.202942 0.087952 0.542969
0.249908 0.092499 0.571228
0.404022 0.113708 0.567902
0.535309 0.191284 0.543396
0.664429 0.294525 0.536652
0.207275 0.297943 0.699341
0.280090 0.380310 0.768219
0.437134 0.394958 0.762299
0.630249 0.400055 0.746979
0.796356 0.485779 0.709869
0.314209 0.451202 0.746674
0.356323 0.529022 0.779083
0.552704 0.573303 0.827209
0.717499 0.569763 0.822144
0.889648 0.631134 0.800018
0.128967 0.605988 0.842957
0.009033 0.702515 0.901428
0.392303 0.753510 0.944885
0.717438 0.782196 0.928009
0.948944 0.793549 0.895264
0.003235 0.737366 0.884003
0.000000 0.834808 0.930328
0.071289 0.899170 0.984100
0.623444 0.927002 0.986206
0.970490 0.946259 0.968170
