Fujifilm Eterna 400T (8583) - Look.cube
# Created by Benjamin (IWLTBAP) : http://luts.iwltbap.com
# Copyright: (C) Copyright 2010-2017 Triune Films and IWLTBAP SAS
# Cannot be resold, shared or otherwise redistributed
TITLE "Film Print Emulation LUTs Pack (Rec.709, sRGB, DCI-P3)"
LUT_3D_SIZE 33
0.014465 0.013245 0.010254
0.026489 0.010864 0.007904
0.047058 0.011353 0.006927
0.072540 0.011841 0.005432
0.107788 0.013824 0.002960
0.143188 0.017273 0.002960
0.182831 0.019257 0.005432
0.220398 0.021729 0.008392
0.259247 0.025665 0.012329
0.296509 0.028015 0.016785
0.338196 0.029358 0.019257
0.369141 0.029816 0.020721
0.400818 0.029358 0.022217
0.428619 0.029358 0.022736
0.457520 0.028473 0.021729
0.485474 0.028015 0.022217
0.508423 0.027100 0.022736
0.531433 0.026642 0.022736
0.552002 0.025665 0.023224
0.572205 0.025177 0.023224
0.592468 0.024689 0.022736
0.612091 0.024200 0.021729
0.630768 0.023712 0.021240
0.648804 0.023224 0.020752
0.665283 0.023224 0.020752
0.682037 0.022736 0.020752
0.698242 0.022736 0.021240
0.712891 0.022217 0.021240
0.727020 0.022217 0.021240
0.743500 0.021729 0.021240
0.757751 0.021729 0.021729
0.772095 0.021729 0.021729
0.786285 0.021729 0.021729
0.022064 0.020508 0.014984
0.026489 0.022552 0.007904
0.038177 0.022552 0.007904
0.055298 0.024506 0.007904
0.078674 0.024994 0.006897
0.114258 0.026978 0.004425
0.149353 0.028473 0.002472
0.182892 0.030426 0.004456
0.225677 0.031921 0.007416
0.262299 0.036377 0.010376
0.302734 0.039215 0.016296
0.341125 0.040588 0.018768
0.375610 0.041046 0.020264
0.405762 0.041473 0.021729
0.435516 0.041046 0.022736
0.465515 0.040588 0.021729
0.492004 0.039673 0.022217
0.518860 0.039215 0.022736
0.540649 0.038300 0.022736
0.562286 0.037811 0.023224
0.582977 0.036865 0.023224
0.602631 0.036377 0.022736
0.622955 0.035858 0.022217
0.641724 0.035370 0.021729
0.660492 0.034882 0.020752
0.676971 0.034882 0.020752
0.694153 0.034393 0.020752
0.710358 0.034393 0.021240
0.727020 0.033905 0.021240
0.741211 0.033905 0.021240
0.757843 0.033386 0.021729
0.771973 0.033386 0.021729
0.788788 0.033386 0.021729
0.021301 0.031525 0.022858
0.023712 0.026886 0.014893
0.039642 0.038177 0.010376
0.053314 0.038177 0.009857
0.080719 0.038666 0.007416
0.108826 0.039642 0.005920
0.144012 0.043610 0.004425
0.182098 0.046570 0.004944
0.222015 0.047546 0.007385
0.256653 0.047546 0.009369
0.292969 0.049988 0.014313
0.332764 0.052277 0.018250
0.370697 0.052704 0.020233
0.402649 0.053162 0.021729
0.434052 0.052704 0.022736
0.460236 0.052277 0.022217
0.489105 0.051819 0.021729
0.517456 0.050903 0.022217
0.541534 0.049988 0.022736
0.564545 0.049011 0.023224
0.586029 0.048553 0.023224
0.604736 0.048035 0.022736
0.625854 0.047546 0.021729
0.644562 0.047058 0.021240
0.665009 0.046570 0.020752
0.681854 0.046082 0.020752
0.700500 0.045563 0.021240
0.717285 0.045563 0.021240
0.731995 0.045074 0.021240
0.748322 0.045074 0.021729
0.762939 0.045074 0.021729
0.777100 0.045074 0.021729
0.793854 0.045074 0.022217
0.015778 0.044006 0.030731
0.021301 0.031555 0.022888
0.035065 0.042358 0.015503
0.056274 0.053314 0.011841
0.079895 0.054291 0.009888
0.111176 0.055298 0.007416
0.144653 0.061188 0.008392
0.184540 0.064392 0.006897
0.224854 0.066132 0.010376
0.260071 0.066986 0.013824
0.297546 0.066559 0.017273
0.335052 0.066132 0.018768
0.373810 0.065277 0.020233
0.406586 0.064850 0.021729
0.437225 0.064392 0.022736
0.464935 0.063965 0.021729
0.492737 0.063049 0.022217
0.519623 0.062134 0.022736
0.547821 0.061188 0.023224
0.570801 0.060211 0.023224
0.592010 0.059723 0.022736
0.611633 0.059235 0.022217
0.630585 0.058746 0.021240
0.650757 0.058258 0.020752
0.671631 0.057739 0.020752
0.689209 0.057251 0.021240
0.706421 0.057251 0.021240
0.722839 0.056763 0.021729
0.739349 0.056763 0.021729
0.755890 0.056763 0.022217
0.770325 0.056763 0.022217
0.784515 0.056274 0.022705
0.801270 0.056274 0.022736
0.000000 0.061646 0.042511
0.015778 0.044006 0.031555
0.027588 0.048798 0.025513
0.050507 0.062927 0.019043
0.078674 0.073334 0.015289
0.112854 0.075195 0.010864
0.147522 0.081116 0.012817
0.186340 0.084961 0.012817
0.226349 0.087128 0.016296
0.266602 0.088165 0.019745
0.300842 0.089539 0.022217
0.340240 0.087463 0.022217
0.379272 0.084961 0.022705
0.412018 0.080719 0.023193
0.443329 0.077820 0.022736
0.471771 0.076965 0.021729
0.497803 0.074738 0.022217
0.528381 0.073334 0.022736
0.555084 0.072388 0.023224
0.578827 0.071411 0.022736
0.598724 0.070923 0.022217
0.620239 0.070435 0.021240
0.639709 0.069916 0.020752
0.658173 0.069427 0.020752
0.678406 0.068939 0.021240
0.697296 0.068451 0.021240
0.713776 0.068451 0.021729
0.732391 0.068451 0.022217
0.749542 0.067963 0.022705
0.763702 0.067963 0.022736
0.778412 0.067963 0.022736
0.794556 0.067963 0.023224
0.808960 0.067963 0.023224
0.000000 0.083801 0.056183
0.000000 0.063965 0.044739
0.012024 0.061371 0.038086
0.033508 0.069885 0.028839
0.072418 0.086212 0.022766
0.107635 0.098450 0.019257
0.150696 0.103882 0.018768
0.190277 0.107330 0.021729
0.231079 0.113129 0.026611
0.273773 0.115326 0.028473
0.306885 0.112305 0.026154
0.346008 0.113678 0.027557
0.381897 0.109711 0.027069
0.418640 0.106110 0.025665
0.450043 0.102570 0.024200
0.478882 0.098083 0.023682
0.506042 0.094360 0.023682
0.533844 0.089935 0.023682
0.563324 0.085968 0.023224
0.587280 0.083588 0.022217
0.606964 0.082092 0.021240
0.629333 0.081604 0.020752
0.647217 0.081116 0.020752
0.668243 0.080627 0.021240
0.689667 0.080139 0.021729
0.707245 0.080139 0.022217
0.725708 0.079651 0.022217
0.742950 0.079651 0.022736
0.757812 0.079651 0.023224
0.773682 0.079651 0.023224
0.790131 0.079651 0.023224
0.804077 0.080139 0.023224
0.818176 0.080139 0.023224
0.000000 0.100311 0.063385
0.000000 0.086090 0.056824
0.000000 0.078125 0.052338
0.009521 0.087891 0.042145
0.051544 0.098785 0.032806
0.101166 0.112274 0.026031
0.139679 0.126465 0.029358
0.192261 0.134338 0.032349
0.237000 0.139893 0.034790
0.275696 0.141876 0.034393
0.312927 0.139893 0.033173
0.350433 0.140350 0.033173
0.387024 0.139221 0.031097
0.423157 0.137634 0.028900
0.456818 0.135559 0.028473
0.486694 0.130646 0.027557
0.515472 0.125916 0.027069
0.544006 0.122559 0.025665
0.571014 0.113586 0.023712
0.596039 0.108307 0.022217
0.618500 0.106049 0.021729
0.639832 0.102875 0.021729
0.659393 0.100769 0.022217
0.679016 0.097168 0.022217
0.698090 0.095764 0.022705
0.717560 0.093292 0.022736
0.735870 0.091309 0.023193
0.752655 0.091309 0.023224
0.768738 0.091797 0.023224
0.785370 0.091797 0.023224
0.799591 0.091797 0.022736
0.815460 0.091797 0.022736
0.830017 0.091797 0.022736
0.000000 0.119751 0.072601
0.000000 0.105682 0.066193
0.000000 0.095490 0.060455
0.004974 0.098877 0.054382
0.018707 0.118011 0.037415
0.086212 0.130310 0.029144
0.138885 0.142944 0.027740
0.192261 0.163727 0.041443
0.238464 0.166168 0.041107
0.279938 0.168365 0.040405
0.317993 0.170349 0.039307
0.353180 0.169281 0.037109
0.392975 0.167999 0.034393
0.429077 0.166168 0.033600
0.463989 0.165253 0.032776
0.493835 0.162964 0.031097
0.522675 0.158600 0.028900
0.549896 0.154846 0.027557
0.578339 0.152252 0.026154
0.605042 0.147003 0.025665
0.629181 0.143829 0.025665
0.650909 0.138947 0.025665
0.671265 0.135376 0.025665
0.690948 0.130981 0.025177
0.709412 0.125275 0.024689
0.729401 0.122864 0.024200
0.748291 0.118866 0.023712
0.763794 0.117737 0.023712
0.779266 0.113708 0.023224
0.794891 0.112427 0.023224
0.812988 0.113708 0.023224
0.827057 0.113708 0.023224
0.841187 0.112427 0.022736
0.000000 0.139435 0.073639
0.000000 0.124664 0.074158
0.000000 0.112915 0.070007
0.001587 0.112091 0.067749
0.012665 0.128693 0.058472
0.053406 0.148193 0.035248
0.133911 0.163025 0.025970
0.177917 0.177185 0.026398
0.231415 0.194244 0.040405
0.279785 0.196533 0.043488
0.319122 0.197144 0.042816
0.356842 0.198639 0.041443
0.397705 0.198486 0.039673
0.432648 0.197418 0.037842
0.469330 0.195312 0.035187
0.499542 0.194397 0.033600
0.528229 0.191254 0.031952
0.558167 0.188324 0.031525
0.586426 0.185486 0.031097
0.615814 0.183929 0.031097
0.638702 0.180237 0.030243
0.660034 0.176178 0.029358
0.681274 0.174255 0.028473
0.700134 0.171509 0.028015
0.718964 0.168640 0.027557
0.737732 0.166534 0.026611
0.756866 0.159149 0.025665
0.775208 0.160095 0.025665
0.790344 0.155762 0.025177
0.807953 0.154022 0.025177
0.822754 0.152985 0.025665
0.838745 0.150909 0.025665
0.852997 0.149017 0.025665
0.000000 0.152557 0.069489
0.000000 0.141449 0.073151
0.000000 0.133026 0.073639
0.000000 0.129974 0.074646
0.007965 0.139038 0.069427
0.021698 0.162781 0.042786
0.115784 0.179047 0.026031
0.170776 0.193848 0.021484
0.214813 0.206604 0.025116
0.270050 0.222687 0.038971
0.319122 0.225800 0.041473
0.358429 0.228455 0.042480
0.396667 0.227844 0.043488
0.435760 0.225677 0.041107
0.475098 0.226715 0.039307
0.507172 0.225311 0.038605
0.537384 0.223358 0.037842
0.566071 0.221375 0.036713
0.593750 0.219513 0.035583
0.620819 0.216187 0.034393
0.646973 0.214661 0.033600
0.668335 0.211761 0.032776
0.689575 0.210022 0.031952
0.708527 0.206848 0.031097
0.727509 0.204529 0.030670
0.746582 0.202118 0.030243
0.766388 0.199188 0.030243
0.785919 0.196991 0.030243
0.801239 0.193878 0.029785
0.817291 0.191742 0.029785
0.832275 0.188416 0.029785
0.848816 0.190094 0.030243
0.862396 0.187103 0.029785
0.000000 0.167023 0.073120
0.000000 0.153625 0.070007
0.000000 0.148346 0.071075
0.000000 0.146149 0.071594
0.004211 0.151520 0.069183
0.015839 0.166168 0.059998
0.079376 0.192963 0.022278
0.156219 0.210999 0.016266
0.202850 0.222382 0.016663
0.255707 0.239380 0.023895
0.313538 0.255096 0.036346
0.355621 0.257507 0.038971
0.394226 0.257812 0.040771
0.436066 0.258148 0.042145
0.479004 0.257294 0.043488
0.514038 0.256744 0.043488
0.541290 0.254547 0.042145
0.570984 0.253876 0.041107
0.600494 0.251984 0.040039
0.626678 0.250061 0.038605
0.654480 0.247742 0.037476
0.676147 0.245392 0.037109
0.698547 0.243591 0.037109
0.719391 0.241150 0.036346
0.738342 0.239777 0.035950
0.757324 0.237488 0.035187
0.776276 0.235291 0.034393
0.794922 0.232666 0.033600
0.811768 0.230774 0.033173
0.827606 0.229004 0.032776
0.841888 0.226196 0.032349
0.858337 0.224762 0.031952
0.872406 0.224762 0.031952
0.000000 0.181549 0.073639
0.000000 0.172638 0.073639
0.000000 0.164154 0.071594
0.000000 0.160950 0.071594
0.001160 0.162628 0.070923
0.011017 0.178833 0.067505
0.024750 0.207245 0.024658
0.133087 0.226959 0.014648
0.197632 0.241791 0.011780
0.245331 0.253845 0.012604
0.297638 0.273743 0.023773
0.350250 0.284515 0.033997
0.390381 0.285553 0.037506
0.433685 0.287079 0.040405
0.475922 0.287537 0.042480
0.514374 0.286682 0.043854
0.544250 0.286041 0.044495
0.573914 0.284515 0.044800
0.604218 0.282379 0.044495
0.632111 0.281097 0.043152
0.660980 0.279236 0.041779
0.684570 0.277313 0.040741
0.705231 0.275787 0.040039
0.725006 0.273407 0.038971
0.744873 0.271118 0.038208
0.763763 0.269501 0.037476
0.782623 0.268219 0.036713
0.801941 0.266235 0.035950
0.819366 0.264008 0.035187
0.835938 0.261749 0.034393
0.852173 0.261505 0.033997
0.866486 0.259430 0.033600
0.880676 0.257416 0.033203
0.000000 0.191284 0.072632
0.000000 0.185455 0.073151
0.000000 0.180908 0.073639
0.000000 0.178040 0.074158
0.000000 0.178040 0.074158
0.007019 0.190887 0.070831
0.018982 0.210999 0.057983
0.097351 0.240051 0.011292
0.184570 0.260559 0.006836
0.235992 0.274109 0.008087
0.285187 0.286194 0.010864
0.334198 0.305573 0.022614
0.386230 0.315582 0.033203
0.428436 0.317078 0.037109
0.474274 0.318237 0.040039
0.514832 0.318878 0.041473
0.543976 0.316925 0.042145
0.577087 0.315338 0.042847
0.606964 0.313721 0.043182
0.634338 0.311859 0.043518
0.664398 0.310120 0.043518
0.689209 0.308105 0.043518
0.710815 0.305725 0.042480
0.731506 0.304901 0.041473
0.750671 0.302643 0.040741
0.769745 0.300903 0.039703
0.789307 0.298645 0.038971
0.808105 0.298096 0.038208
0.826752 0.296173 0.037109
0.843536 0.293976 0.036713
0.859314 0.292694 0.036713
0.874420 0.291595 0.036346
0.889465 0.291107 0.036346
0.000000 0.200714 0.072632
0.000000 0.196381 0.071594
0.000000 0.192322 0.072632
0.000000 0.190491 0.072113
0.000000 0.190460 0.072113
0.003662 0.199097 0.070923
0.014130 0.215271 0.066681
0.028534 0.247925 0.006226
0.158783 0.272980 0.004547
0.224762 0.290100 0.004242
0.275513 0.304352 0.005707
0.323486 0.315521 0.009155
0.370605 0.336609 0.022034
0.422485 0.343079 0.031525
0.465576 0.345764 0.034790
0.509003 0.347260 0.037506
0.546478 0.349091 0.038605
0.576874 0.346649 0.039703
0.606232 0.346222 0.039703
0.636230 0.344727 0.040039
0.665009 0.342072 0.040771
0.692566 0.340240 0.040771
0.714417 0.338318 0.040771
0.736115 0.336273 0.040771
0.756531 0.333740 0.041107
0.775757 0.332123 0.041107
0.794952 0.330505 0.041107
0.814178 0.328522 0.040741
0.832245 0.327179 0.040039
0.850677 0.327026 0.039307
0.865326 0.324036 0.038971
0.881927 0.322754 0.038239
0.896118 0.321808 0.038239
0.000000 0.209473 0.073151
0.000000 0.207062 0.072113
0.000000 0.202850 0.071594
0.000000 0.200531 0.072632
0.000000 0.201874 0.071075
0.000763 0.207581 0.072266
0.009949 0.224884 0.070709
0.022156 0.251862 0.050507
0.107056 0.282074 0.002686
0.207245 0.304810 0.000000
0.259308 0.318726 0.000610
0.314789 0.332977 0.001678
0.356079 0.345093 0.004822
0.411346 0.365784 0.021942
0.457336 0.370667 0.028015
0.504700 0.373932 0.031952
0.542999 0.374725 0.034393
0.573334 0.374603 0.035583
0.605469 0.374268 0.035980
0.633942 0.373474 0.035980
0.665588 0.371979 0.036346
0.694092 0.371887 0.036346
0.717529 0.371765 0.036346
0.738892 0.368652 0.036743
0.759644 0.366364 0.037109
0.780060 0.365509 0.037109
0.799408 0.364166 0.037506
0.818848 0.363281 0.037109
0.838013 0.360535 0.037506
0.854980 0.358124 0.037506
0.871674 0.357086 0.037506
0.887268 0.354614 0.037872
0.902344 0.356720 0.037109
0.000000 0.220154 0.076172
0.000000 0.217133 0.074158
0.000000 0.212433 0.074677
0.000000 0.212250 0.074677
0.000000 0.212250 0.074677
0.000000 0.222931 0.076660
0.006317 0.238647 0.077332
0.017242 0.258240 0.074615
0.030975 0.293274 0.000702
0.171875 0.315491 0.000000
0.250092 0.336487 0.000000
0.304382 0.349457 0.000000
0.349243 0.360168 0.000000
0.390808 0.373108 0.000549
0.448517 0.391632 0.019348
0.496246 0.398346 0.023224
0.536987 0.401154 0.026154
0.570770 0.401672 0.028473
0.604095 0.402222 0.029816
0.633545 0.402344 0.030670
0.664429 0.400970 0.031097
0.694305 0.401550 0.031097
0.718842 0.400177 0.031525
0.741028 0.398987 0.031952
0.763031 0.397919 0.031952
0.784027 0.398224 0.031525
0.802368 0.394623 0.032379
0.821747 0.393768 0.032379
0.841949 0.394226 0.031952
0.860809 0.390198 0.032776
0.876526 0.388153 0.033203
0.892242 0.386902 0.033203
0.908783 0.386963 0.033203
0.000000 0.232117 0.080536
0.000000 0.227753 0.079102
0.000000 0.224854 0.077637
0.000000 0.224701 0.077148
0.000000 0.227234 0.079102
0.000000 0.232758 0.080994
0.003174 0.247589 0.081024
0.012939 0.267273 0.080566
0.025330 0.296814 0.040863
0.133057 0.328186 0.000000
0.234680 0.351593 0.000000
0.291504 0.365692 0.000000
0.337646 0.376770 0.000000
0.381195 0.387512 0.000000
0.431702 0.404755 0.000000
0.486542 0.419220 0.013702
0.531433 0.425476 0.016296
0.563995 0.425720 0.019745
0.599060 0.427612 0.022217
0.630585 0.428528 0.023712
0.662292 0.429016 0.024689
0.691864 0.429596 0.024689
0.718933 0.429016 0.024689
0.741791 0.427185 0.025665
0.763702 0.426514 0.025665
0.784424 0.425293 0.025665
0.803711 0.424652 0.025665
0.824585 0.422729 0.026154
0.842407 0.422485 0.025665
0.862793 0.420898 0.026154
0.879791 0.419952 0.026154
0.895874 0.417969 0.026642
0.912598 0.417908 0.026642
0.000000 0.240265 0.081024
0.000000 0.237518 0.082428
0.000000 0.234283 0.081024
0.000000 0.235260 0.081940
0.000000 0.236237 0.081940
0.000000 0.243103 0.082428
0.000366 0.252136 0.084564
0.009125 0.275360 0.082916
0.020355 0.301300 0.074860
0.057648 0.338074 0.000031
0.206390 0.364777 0.000000
0.283356 0.382294 0.000000
0.328949 0.391815 0.000000
0.371948 0.405426 0.000000
0.417999 0.415375 0.000000
0.472107 0.435822 0.000000
0.523865 0.445038 0.008118
0.559692 0.451019 0.009399
0.595520 0.453278 0.011871
0.626343 0.453491 0.014832
0.658142 0.454926 0.015808
0.689819 0.454193 0.017303
0.718536 0.453339 0.018280
0.741425 0.454254 0.017792
0.763184 0.452057 0.018768
0.784454 0.452759 0.018280
0.806030 0.450806 0.018768
0.824799 0.449829 0.019257
0.844360 0.449249 0.019257
0.865082 0.449249 0.018768
0.882263 0.447052 0.019745
0.897980 0.445984 0.019745
0.915039 0.445099 0.020264
0.000000 0.245941 0.082886
0.000000 0.245941 0.082886
0.000000 0.242493 0.081940
0.000000 0.243439 0.082428
0.000000 0.244690 0.082428
0.000000 0.250977 0.084717
0.000000 0.262512 0.086090
0.005737 0.282684 0.088501
0.015961 0.306610 0.090546
0.028503 0.344299 0.022003
0.169922 0.377258 0.000000
0.271271 0.400269 0.000000
0.322601 0.411896 0.000000
0.365234 0.421356 0.000000
0.408752 0.431152 0.000000
0.453827 0.444214 0.000000
0.513458 0.466919 0.000000
0.553772 0.472198 0.000000
0.588593 0.477448 0.001007
0.621918 0.478607 0.003479
0.652435 0.479401 0.005432
0.685120 0.480896 0.006927
0.716797 0.481018 0.008392
0.740387 0.479156 0.009888
0.762848 0.480560 0.009399
0.784790 0.478363 0.010864
0.804993 0.477753 0.011353
0.826904 0.476990 0.011353
0.845215 0.475891 0.011871
0.865295 0.475525 0.011871
0.883423 0.473969 0.012360
0.900208 0.473969 0.012360
0.917236 0.473145 0.012360
0.000000 0.251892 0.084717
0.000000 0.251465 0.084717
0.000000 0.250397 0.084259
0.000000 0.251465 0.084717
0.000000 0.252502 0.085632
0.000000 0.258881 0.085175
0.000000 0.272095 0.089600
0.002716 0.291046 0.094696
0.011993 0.309967 0.093994
0.023499 0.343842 0.054321
0.131592 0.382416 0.000000
0.250458 0.410828 0.000000
0.314667 0.427307 0.000000
0.359314 0.437531 0.000000
0.401611 0.448151 0.000000
0.447845 0.458588 0.000000
0.498627 0.475372 0.000000
0.547668 0.492493 0.000000
0.582855 0.499084 0.000000
0.617462 0.502197 0.000000
0.648621 0.503693 0.000000
0.680359 0.505066 0.000000
0.713562 0.505676 0.000000
0.738770 0.506653 0.000000
0.761475 0.506195 0.000000
0.783661 0.505341 0.000000
0.803680 0.504730 0.001007
0.824127 0.503784 0.001495
0.845490 0.503143 0.001984
0.864960 0.500946 0.002960
0.885406 0.501953 0.001984
0.900269 0.500092 0.002960
0.916992 0.500092 0.002472
0.000000 0.257721 0.086975
0.000000 0.257721 0.086975
0.000000 0.256378 0.086517
0.000000 0.257721 0.086975
0.000000 0.260498 0.085175
0.000000 0.269043 0.088287
0.000000 0.282379 0.094238
0.000000 0.293884 0.098328
0.008453 0.316040 0.094635
0.019012 0.343170 0.079010
0.060730 0.384033 0.000031
0.224335 0.418304 0.000000
0.304932 0.440948 0.000000
0.350555 0.450500 0.000000
0.394775 0.462860 0.000000
0.440216 0.470978 0.000000
0.483337 0.483185 0.000000
0.529755 0.499817 0.000000
0.573212 0.514343 0.000000
0.608215 0.521332 0.000000
0.641907 0.524933 0.000000
0.675201 0.527771 0.000000
0.706757 0.528870 0.000000
0.734589 0.529633 0.000000
0.757507 0.530151 0.000000
0.782074 0.529449 0.000000
0.802338 0.528870 0.000000
0.822876 0.529053 0.000000
0.843048 0.527863 0.000000
0.864380 0.527557 0.000000
0.884338 0.526550 0.000000
0.899414 0.526520 0.000000
0.917023 0.524811 0.000000
0.000000 0.263245 0.086090
0.000000 0.263245 0.086090
0.000000 0.263245 0.086090
0.000000 0.265533 0.086517
0.000000 0.268372 0.088287
0.000000 0.277039 0.091309
0.000000 0.289551 0.097107
0.000000 0.302216 0.097534
0.005219 0.319946 0.097839
0.014923 0.342163 0.095367
0.026642 0.388885 0.005066
0.190857 0.424591 0.000000
0.296112 0.454529 0.000000
0.343964 0.465576 0.000000
0.389862 0.476929 0.000000
0.433044 0.485840 0.000000
0.475220 0.494354 0.000000
0.519318 0.507996 0.000000
0.559357 0.523590 0.000000
0.603577 0.537354 0.000000
0.634888 0.544189 0.000000
0.669464 0.547974 0.000000
0.701691 0.550781 0.000000
0.730133 0.551636 0.000000
0.754761 0.552521 0.000000
0.775940 0.552917 0.000000
0.798065 0.553192 0.000000
0.820709 0.552185 0.000000
0.838776 0.551971 0.000000
0.861237 0.552155 0.000000
0.881195 0.551422 0.000000
0.898621 0.551331 0.000000
0.915955 0.550903 0.000000
0.000000 0.265686 0.086975
0.000000 0.268646 0.088287
0.000000 0.268646 0.088287
0.000000 0.271423 0.089172
0.000000 0.274750 0.090881
0.000000 0.285156 0.095062
0.000000 0.297668 0.095917
0.000000 0.308380 0.099518
0.002289 0.324341 0.098999
0.011230 0.348175 0.099640
0.022064 0.386566 0.053406
0.147675 0.428436 0.000000
0.269440 0.461182 0.000000
0.339722 0.480286 0.000000
0.383942 0.490875 0.000000
0.428558 0.499603 0.000000
0.471527 0.509521 0.000000
0.509857 0.516968 0.000000
0.546204 0.530487 0.000000
0.588287 0.548492 0.000000
0.628876 0.559509 0.000000
0.662079 0.566650 0.000000
0.694275 0.570801 0.000000
0.726929 0.573151 0.000000
0.748962 0.574249 0.000000
0.773743 0.574768 0.000000
0.793640 0.575500 0.000000
0.816406 0.576141 0.000000
0.835876 0.576630 0.000000
0.857239 0.575653 0.000000
0.876923 0.576111 0.000000
0.896240 0.576416 0.000000
0.913452 0.576141 0.000000
0.000000 0.271576 0.089172
0.000000 0.273773 0.090027
0.000000 0.271851 0.089600
0.000000 0.277466 0.091736
0.000000 0.280823 0.093018
0.000000 0.289459 0.096710
0.000000 0.301727 0.097137
0.000000 0.314270 0.101074
0.000000 0.327576 0.100708
0.007843 0.351654 0.103821
0.017914 0.385498 0.084869
0.089722 0.432526 0.000031
0.245697 0.465637 0.000000
0.327820 0.492157 0.000000
0.377289 0.503265 0.000000
0.423004 0.513672 0.000000
0.469360 0.523468 0.000000
0.509766 0.534241 0.000000
0.539612 0.542053 0.000000
0.577850 0.554016 0.000000
0.620850 0.571686 0.000000
0.654572 0.580231 0.000000
0.689545 0.586395 0.000000
0.721680 0.591553 0.000000
0.743378 0.593506 0.000000
0.768585 0.594421 0.000000
0.791199 0.594940 0.000000
0.811340 0.595398 0.000000
0.833618 0.596222 0.000000
0.853302 0.596588 0.000000
0.873291 0.597107 0.000000
0.894104 0.599121 0.000000
0.910034 0.597748 0.000000
0.000000 0.276917 0.091309
0.000000 0.277588 0.092163
0.000000 0.279755 0.093018
0.000000 0.281464 0.093445
0.000000 0.286346 0.095917
0.000000 0.295044 0.097931
0.000000 0.306091 0.098724
0.000000 0.317749 0.102264
0.000000 0.334503 0.103790
0.004761 0.355499 0.107483
0.014069 0.379974 0.102325
0.032471 0.430969 0.000031
0.214783 0.467926 0.000000
0.311676 0.499023 0.000000
0.369812 0.515167 0.000000
0.417816 0.527557 0.000000
0.463287 0.538086 0.000000
0.507263 0.548828 0.000000
0.536407 0.555634 0.000000
0.567810 0.563599 0.000000
0.602570 0.576019 0.000000
0.646912 0.592224 0.000000
0.681854 0.600830 0.000000
0.713074 0.607941 0.000000
0.741058 0.611572 0.000000
0.765167 0.613831 0.000000
0.786560 0.613525 0.000000
0.809235 0.614227 0.000000
0.828400 0.616058 0.000000
0.850037 0.616730 0.000000
0.870514 0.617035 0.000000
0.889984 0.617523 0.000000
0.906891 0.617828 0.000000
0.000000 0.280548 0.093445
0.000000 0.283600 0.094666
0.000000 0.283600 0.094666
0.000000 0.286346 0.095917
0.000000 0.291382 0.097137
0.000000 0.297546 0.095917
0.000000 0.309082 0.099121
0.000000 0.322540 0.100311
0.000000 0.339844 0.105652
0.001892 0.357025 0.109680
0.010559 0.380798 0.106018
0.020905 0.427887 0.019287
0.181305 0.468140 0.000000
0.286377 0.501434 0.000000
0.359283 0.527039 0.000000
0.409210 0.539581 0.000000
0.458466 0.551422 0.000000
0.504089 0.562775 0.000000
0.535553 0.570740 0.000000
0.566132 0.578766 0.000000
0.593994 0.583862 0.000000
0.627716 0.596436 0.000000
0.673340 0.613129 0.000000
0.709869 0.621979 0.000000
0.736145 0.627167 0.000000
0.759766 0.630737 0.000000
0.783508 0.632996 0.000000
0.803955 0.633667 0.000000
0.825928 0.634644 0.000000
0.846436 0.634918 0.000000
0.865997 0.635468 0.000000
0.888275 0.636383 0.000000
0.905457 0.636322 0.000000
0.000000 0.285950 0.095490
0.000000 0.288940 0.096313
0.000000 0.286469 0.096313
0.000000 0.291382 0.097137
0.000000 0.295044 0.097931
0.000000 0.300385 0.097137
0.000000 0.312866 0.100311
0.000000 0.326355 0.101105
0.000000 0.344055 0.107513
0.000000 0.357971 0.111511
0.007324 0.381439 0.108551
0.016968 0.423004 0.056946
0.133606 0.469086 0.000000
0.266968 0.505341 0.000000
0.352997 0.538177 0.000000
0.405609 0.553009 0.000000
0.451263 0.563385 0.000000
0.499634 0.574524 0.000000
0.535522 0.584015 0.000000
0.564453 0.593689 0.000000
0.593872 0.600037 0.000000
