Fujifilm Eterna Vivid 160T (8543) - Look.cube
# Created by Benjamin (IWLTBAP) : http://luts.iwltbap.com
# Copyright: (C) Copyright 2010-2017 Triune Films and IWLTBAP SAS
# Cannot be resold, shared or otherwise redistributed
TITLE "Film Print Emulation LUTs Pack (Rec.709, sRGB, DCI-P3)"
LUT_3D_SIZE 5
0.000793 0.000000 0.000000
0.141357 0.013000 0.011108
0.297607 0.013855 0.019348
0.461731 0.018951 0.029724
0.604675 0.023834 0.038177
0.031769 0.113220 0.039337
0.195099 0.178741 0.042633
0.403137 0.210876 0.049133
0.595459 0.211945 0.060547
0.735809 0.209991 0.066376
0.062805 0.229828 0.071564
0.233551 0.326660 0.085693
0.468170 0.405792 0.076385
0.678955 0.438782 0.078094
0.826660 0.456879 0.083038
0.089539 0.345825 0.102264
0.266235 0.459198 0.131165
0.518066 0.579041 0.105530
0.741119 0.632538 0.106964
0.877075 0.654663 0.103546
0.111420 0.448303 0.130341
0.307404 0.576630 0.168640
0.555115 0.707642 0.138519
0.777496 0.777039 0.118958
0.887848 0.799408 0.125305
0.008942 0.013672 0.100464
0.115967 0.035156 0.174103
0.308289 0.040955 0.202393
0.485321 0.035004 0.196106
0.627594 0.030518 0.203217
0.048981 0.142944 0.178253
0.204010 0.214844 0.238800
0.442963 0.252991 0.263306
0.635803 0.254303 0.263489
0.771667 0.255707 0.270782
0.075470 0.264618 0.209564
0.244873 0.375153 0.267365
0.503998 0.466553 0.280304
0.718872 0.499451 0.276184
0.862915 0.518127 0.285828
0.093994 0.381226 0.239594
0.264252 0.512024 0.299500
0.543915 0.645599 0.298157
0.767517 0.699341 0.288818
0.898956 0.721375 0.293915
0.113708 0.485474 0.288940
0.291748 0.631531 0.360413
0.570892 0.774933 0.372711
0.794525 0.849243 0.343475
0.909088 0.871765 0.347229
0.019196 0.025757 0.197113
0.085083 0.038116 0.264801
0.293365 0.073822 0.351227
0.480408 0.068542 0.390289
0.632324 0.074005 0.398010
0.063110 0.169708 0.298218
0.152405 0.220734 0.377197
0.432739 0.285889 0.482178
0.643066 0.276917 0.507263
0.784760 0.284576 0.509460
0.093719 0.297913 0.364807
0.205902 0.385773 0.434235
0.508698 0.507507 0.525604
0.737610 0.545776 0.543671
0.889069 0.564636 0.555786
0.118713 0.419708 0.395233
0.238739 0.529480 0.462738
0.547699 0.683838 0.556763
0.782898 0.750122 0.577789
0.931213 0.774780 0.586914
0.132019 0.521301 0.437653
0.253357 0.641632 0.510925
0.567413 0.807281 0.607880
0.804321 0.896027 0.629761
0.936066 0.923035 0.641571
0.030884 0.039917 0.294189
0.075684 0.042847 0.351166
0.287262 0.091492 0.442688
0.471161 0.097351 0.511871
0.625793 0.091278 0.552948
0.076019 0.191681 0.413452
0.133362 0.231659 0.479797
0.409760 0.303802 0.586365
0.629639 0.322418 0.667480
0.785614 0.317688 0.700806
0.103241 0.324219 0.474304
0.154266 0.392792 0.541718
0.482239 0.515320 0.667450
0.724701 0.579376 0.743744
0.885742 0.601837 0.766327
0.126099 0.443329 0.526520
0.207458 0.540405 0.594299
0.535370 0.687042 0.713867
0.779053 0.775848 0.781158
0.943268 0.806824 0.793671
0.155823 0.545654 0.568146
0.259155 0.658783 0.635864
0.557709 0.803986 0.744446
0.803802 0.910339 0.812805
0.948700 0.948456 0.833252
0.040497 0.049713 0.384766
0.075684 0.048065 0.433685
0.280640 0.094177 0.516205
0.469330 0.120331 0.605103
0.620728 0.118774 0.660431
0.087128 0.213715 0.518188
0.124695 0.252625 0.574402
0.393829 0.324463 0.668549
0.616516 0.367554 0.768768
0.781433 0.387268 0.830109
0.112976 0.348724 0.577332
0.149017 0.413269 0.642151
0.460449 0.527588 0.760986
0.709351 0.605347 0.864197
0.874237 0.639984 0.912140
0.133911 0.463257 0.619720
0.182037 0.551483 0.691010
0.506409 0.686890 0.815125
0.769165 0.788422 0.915009
0.931488 0.828888 0.951904
0.151581 0.556854 0.653595
0.227203 0.662354 0.727875
0.546173 0.801880 0.845856
0.798676 0.911835 0.938049
0.952484 0.958496 0.972992
