Fujifilm Eterna 500T (8573) - Only contrast.cube
# Created by Benjamin (IWLTBAP) : http://luts.iwltbap.com
# Copyright: (C) Copyright 2010-2017 Triune Films and IWLTBAP SAS
# Cannot be resold, shared or otherwise redistributed
TITLE "Film Print Emulation LUTs Pack (Rec.709, sRGB, DCI-P3)"
LUT_3D_SIZE 33
0.000732 0.000732 0.000732
0.007843 0.000702 0.000702
0.026825 0.000580 0.000580
0.057068 0.000366 0.000366
0.087799 0.000183 0.000183
0.116760 0.000000 0.000000
0.147675 0.000000 0.000000
0.180176 0.000000 0.000000
0.214752 0.000000 0.000000
0.248901 0.000000 0.000000
0.282898 0.000000 0.000000
0.318024 0.000000 0.000000
0.353424 0.000000 0.000000
0.388062 0.000000 0.000000
0.421875 0.000000 0.000000
0.457306 0.000000 0.000000
0.490906 0.000000 0.000000
0.522522 0.000000 0.000000
0.555847 0.000000 0.000000
0.588715 0.000000 0.000000
0.618988 0.000000 0.000000
0.649017 0.000000 0.000000
0.679810 0.000000 0.000000
0.711365 0.000000 0.000000
0.742096 0.000000 0.000000
0.772644 0.000000 0.000000
0.804047 0.000000 0.000000
0.836548 0.000000 0.000000
0.869354 0.000000 0.000000
0.901245 0.000000 0.000000
0.930725 0.000000 0.000000
0.955231 0.000000 0.000000
0.970093 0.000000 0.000000
0.000702 0.007843 0.000702
0.007874 0.007874 0.000671
0.026978 0.007843 0.000549
0.057220 0.007721 0.000336
0.087982 0.007568 0.000122
0.116943 0.007477 0.000000
0.147858 0.007324 0.000000
0.180359 0.007202 0.000000
0.214935 0.007050 0.000000
0.249115 0.006897 0.000000
0.283081 0.006744 0.000000
0.318237 0.006592 0.000000
0.353638 0.006439 0.000000
0.388245 0.006287 0.000000
0.422058 0.006165 0.000000
0.457489 0.005981 0.000000
0.491089 0.005859 0.000000
0.522675 0.005737 0.000000
0.556030 0.005585 0.000000
0.588867 0.005463 0.000000
0.619141 0.005341 0.000000
0.649170 0.005219 0.000000
0.679993 0.005127 0.000000
0.711517 0.005005 0.000000
0.742249 0.004883 0.000000
0.772827 0.004761 0.000000
0.804199 0.004639 0.000000
0.836731 0.004517 0.000000
0.869537 0.004395 0.000000
0.901367 0.004272 0.000000
0.930878 0.004181 0.000000
0.955292 0.004089 0.000000
0.970123 0.004089 0.000000
0.000580 0.026825 0.000580
0.007843 0.026978 0.000549
0.027039 0.027039 0.000397
0.057312 0.027039 0.000214
0.088043 0.027039 0.000000
0.117004 0.027039 0.000000
0.147919 0.027039 0.000000
0.180450 0.027008 0.000000
0.215057 0.026978 0.000000
0.249207 0.026947 0.000000
0.283203 0.026917 0.000000
0.318329 0.026855 0.000000
0.353729 0.026825 0.000000
0.388336 0.026794 0.000000
0.422150 0.026764 0.000000
0.457611 0.026733 0.000000
0.491150 0.026703 0.000000
0.522766 0.026672 0.000000
0.556122 0.026642 0.000000
0.588928 0.026642 0.000000
0.619202 0.026611 0.000000
0.649231 0.026611 0.000000
0.680054 0.026611 0.000000
0.711609 0.026611 0.000000
0.742310 0.026581 0.000000
0.772858 0.026581 0.000000
0.804260 0.026581 0.000000
0.836792 0.026550 0.000000
0.869598 0.026520 0.000000
0.901428 0.026520 0.000000
0.930908 0.026520 0.000000
0.955261 0.026550 0.000000
0.970032 0.026642 0.000000
0.000366 0.057068 0.000366
0.007721 0.057220 0.000336
0.027039 0.057312 0.000214
0.057312 0.057312 0.000000
0.088043 0.057312 0.000000
0.117004 0.057312 0.000000
0.147949 0.057312 0.000000
0.180481 0.057312 0.000000
0.215088 0.057281 0.000000
0.249237 0.057281 0.000000
0.283234 0.057251 0.000000
0.318359 0.057220 0.000000
0.353760 0.057190 0.000000
0.388367 0.057159 0.000000
0.422150 0.057129 0.000000
0.457642 0.057098 0.000000
0.491180 0.057098 0.000000
0.522766 0.057098 0.000000
0.556152 0.057068 0.000000
0.588959 0.057068 0.000000
0.619202 0.057068 0.000000
0.649231 0.057068 0.000000
0.680054 0.057068 0.000000
0.711609 0.057068 0.000000
0.742310 0.057068 0.000000
0.772888 0.057068 0.000000
0.804291 0.057068 0.000000
0.836823 0.057068 0.000000
0.869629 0.057068 0.000000
0.901428 0.057037 0.000000
0.930878 0.057068 0.000000
0.955170 0.057098 0.000000
0.969910 0.057220 0.000000
0.000183 0.087799 0.000183
0.007568 0.087982 0.000122
0.027039 0.088043 0.000000
0.057312 0.088043 0.000000
0.088043 0.088043 0.000000
0.116974 0.088074 0.000000
0.147949 0.088074 0.000000
0.180511 0.088043 0.000000
0.215118 0.088013 0.000000
0.249268 0.087982 0.000000
0.283234 0.087952 0.000000
0.318390 0.087921 0.000000
0.353790 0.087891 0.000000
0.388397 0.087860 0.000000
0.422180 0.087830 0.000000
0.457672 0.087799 0.000000
0.491180 0.087769 0.000000
0.522766 0.087769 0.000000
0.556183 0.087738 0.000000
0.588959 0.087738 0.000000
0.619171 0.087738 0.000000
0.649200 0.087738 0.000000
0.680054 0.087708 0.000000
0.711609 0.087708 0.000000
0.742310 0.087708 0.000000
0.772888 0.087708 0.000000
0.804291 0.087677 0.000000
0.836823 0.087677 0.000000
0.869629 0.087646 0.000000
0.901428 0.087616 0.000000
0.930878 0.087616 0.000000
0.955109 0.087646 0.000000
0.969788 0.087769 0.000000
0.000000 0.116760 0.000000
0.007477 0.116943 0.000000
0.027039 0.117004 0.000000
0.057312 0.117004 0.000000
0.088074 0.116974 0.000000
0.117004 0.117004 0.000000
0.147980 0.116974 0.000000
0.180542 0.116974 0.000000
0.215149 0.116943 0.000000
0.249298 0.116913 0.000000
0.283295 0.116882 0.000000
0.318451 0.116852 0.000000
0.353851 0.116821 0.000000
0.388428 0.116791 0.000000
0.422211 0.116760 0.000000
0.457733 0.116730 0.000000
0.491211 0.116699 0.000000
0.522797 0.116699 0.000000
0.556213 0.116669 0.000000
0.588959 0.116638 0.000000
0.619202 0.116638 0.000000
0.649231 0.116638 0.000000
0.680084 0.116638 0.000000
0.711639 0.116638 0.000000
0.742310 0.116638 0.000000
0.772888 0.116638 0.000000
0.804321 0.116638 0.000000
0.836853 0.116608 0.000000
0.869659 0.116608 0.000000
0.901428 0.116577 0.000000
0.930878 0.116608 0.000000
0.955017 0.116638 0.000000
0.969666 0.116760 0.000000
0.000000 0.147675 0.000000
0.007324 0.147858 0.000000
0.027039 0.147919 0.000000
0.057312 0.147949 0.000000
0.088074 0.147949 0.000000
0.116974 0.147980 0.000000
0.147980 0.147980 0.000000
0.180573 0.147980 0.000000
0.215179 0.147949 0.000000
0.249329 0.147949 0.000000
0.283325 0.147919 0.000000
0.318481 0.147919 0.000000
0.353882 0.147888 0.000000
0.388458 0.147858 0.000000
0.422241 0.147858 0.000000
0.457764 0.147827 0.000000
0.491241 0.147827 0.000000
0.522797 0.147827 0.000000
0.556213 0.147827 0.000000
0.588989 0.147827 0.000000
0.619171 0.147827 0.000000
0.649231 0.147858 0.000000
0.680084 0.147858 0.000000
0.711639 0.147858 0.000000
0.742310 0.147858 0.000000
0.772888 0.147888 0.000000
0.804321 0.147888 0.000000
0.836853 0.147888 0.000000
0.869690 0.147888 0.000000
0.901428 0.147888 0.000000
0.930847 0.147888 0.000000
0.954956 0.147949 0.000000
0.969513 0.148071 0.000000
0.000000 0.180176 0.000000
0.007202 0.180359 0.000000
0.027008 0.180450 0.000000
0.057312 0.180481 0.000000
0.088043 0.180511 0.000000
0.116974 0.180542 0.000000
0.147980 0.180573 0.000000
0.180573 0.180573 0.000000
0.215179 0.180573 0.000000
0.249329 0.180573 0.000000
0.283325 0.180573 0.000000
0.318512 0.180573 0.000000
0.353912 0.180573 0.000000
0.388458 0.180573 0.000000
0.422241 0.180573 0.000000
0.457764 0.180573 0.000000
0.491241 0.180573 0.000000
0.522797 0.180603 0.000000
0.556244 0.180603 0.000000
0.588959 0.180634 0.000000
0.619171 0.180634 0.000000
0.649200 0.180695 0.000000
0.680084 0.180695 0.000000
0.711639 0.180725 0.000000
0.742310 0.180756 0.000000
0.772888 0.180786 0.000000
0.804321 0.180817 0.000000
0.836853 0.180817 0.000000
0.869690 0.180817 0.000000
0.901428 0.180847 0.000000
0.930817 0.180878 0.000000
0.954834 0.180969 0.000000
0.969391 0.181091 0.000000
0.000000 0.214752 0.000000
0.007050 0.214935 0.000000
0.026978 0.215057 0.000000
0.057281 0.215088 0.000000
0.088013 0.215118 0.000000
0.116943 0.215149 0.000000
0.147949 0.215179 0.000000
0.180573 0.215179 0.000000
0.215179 0.215179 0.000000
0.249329 0.215179 0.000000
0.283325 0.215179 0.000000
0.318512 0.215179 0.000000
0.353912 0.215179 0.000000
0.388458 0.215179 0.000000
0.422241 0.215179 0.000000
0.457794 0.215179 0.000000
0.491211 0.215179 0.000000
0.522797 0.215210 0.000000
0.556244 0.215210 0.000000
0.588959 0.215240 0.000000
0.619141 0.215271 0.000000
0.649170 0.215302 0.000000
0.680054 0.215302 0.000000
0.711609 0.215332 0.000000
0.742279 0.215363 0.000000
0.772858 0.215393 0.000000
0.804291 0.215424 0.000000
0.836853 0.215424 0.000000
0.869659 0.215424 0.000000
0.901398 0.215454 0.000000
0.930756 0.215485 0.000000
0.954742 0.215576 0.000000
0.969208 0.215698 0.000000
0.000000 0.248901 0.000000
0.006897 0.249115 0.000000
0.026947 0.249207 0.000000
0.057281 0.249237 0.000000
0.087982 0.249268 0.000000
0.116913 0.249298 0.000000
0.147949 0.249329 0.000000
0.180573 0.249329 0.000000
0.215179 0.249329 0.000000
0.249329 0.249329 0.000000
0.283325 0.249329 0.000000
0.318512 0.249329 0.000000
0.353912 0.249329 0.000000
0.388458 0.249329 0.000000
0.422241 0.249329 0.000000
0.457794 0.249329 0.000000
0.491211 0.249329 0.000000
0.522766 0.249329 0.000000
0.556244 0.249359 0.000000
0.588928 0.249359 0.000000
0.619110 0.249390 0.000000
0.649139 0.249420 0.000000
0.680054 0.249451 0.000000
0.711578 0.249451 0.000000
0.742249 0.249481 0.000000
0.772827 0.249512 0.000000
0.804291 0.249542 0.000000
0.836853 0.249542 0.000000
0.869659 0.249542 0.000000
0.901367 0.249573 0.000000
0.930725 0.249603 0.000000
0.954620 0.249664 0.000000
0.969055 0.249817 0.000000
0.000000 0.282898 0.000000
0.006744 0.283081 0.000000
0.026917 0.283203 0.000000
0.057251 0.283234 0.000000
0.087952 0.283234 0.000000
0.116882 0.283295 0.000000
0.147919 0.283325 0.000000
0.180573 0.283325 0.000000
0.215179 0.283325 0.000000
0.249329 0.283325 0.000000
0.283325 0.283325 0.000000
0.318542 0.283325 0.000000
0.353912 0.283325 0.000000
0.388458 0.283325 0.000000
0.422241 0.283356 0.000000
0.457794 0.283325 0.000000
0.491180 0.283356 0.000000
0.522766 0.283386 0.000000
0.556244 0.283386 0.000000
0.588898 0.283386 0.000000
0.619080 0.283447 0.000000
0.649109 0.283478 0.000000
0.680023 0.283508 0.000000
0.711578 0.283508 0.000000
0.742218 0.283569 0.000000
0.772797 0.283600 0.000000
0.804291 0.283600 0.000000
0.836823 0.283630 0.000000
0.869659 0.283630 0.000000
0.901337 0.283661 0.000000
0.930664 0.283722 0.000000
0.954529 0.283783 0.000000
0.968903 0.283936 0.000000
0.000000 0.318024 0.000000
0.006592 0.318237 0.000000
0.026855 0.318329 0.000000
0.057220 0.318359 0.000000
0.087921 0.318390 0.000000
0.116852 0.318451 0.000000
0.147919 0.318481 0.000000
0.180573 0.318512 0.000000
0.215179 0.318512 0.000000
0.249329 0.318512 0.000000
0.283325 0.318542 0.000000
0.318542 0.318542 0.000000
0.353912 0.318542 0.000000
0.388458 0.318542 0.000000
0.422241 0.318542 0.000000
0.457794 0.318542 0.000000
0.491180 0.318573 0.000000
0.522736 0.318604 0.000000
0.556213 0.318604 0.000000
0.588898 0.318634 0.000000
0.619049 0.318665 0.000000
0.649078 0.318695 0.000000
0.679993 0.318726 0.000000
0.711548 0.318756 0.000000
0.742188 0.318787 0.000000
0.772797 0.318848 0.000000
0.804260 0.318848 0.000000
0.836823 0.318878 0.000000
0.869629 0.318909 0.000000
0.901306 0.318939 0.000000
0.930634 0.318970 0.000000
0.954407 0.319061 0.000000
0.968750 0.319214 0.000000
0.000000 0.353424 0.000000
0.006439 0.353638 0.000000
0.026825 0.353729 0.000000
0.057190 0.353760 0.000000
0.087891 0.353790 0.000000
0.116821 0.353851 0.000000
0.147888 0.353882 0.000000
0.180573 0.353912 0.000000
0.215179 0.353912 0.000000
0.249329 0.353912 0.000000
0.283325 0.353912 0.000000
0.318542 0.353912 0.000000
0.353943 0.353943 0.000000
0.388458 0.353943 0.000000
0.422241 0.353943 0.000000
0.457794 0.353943 0.000000
0.491150 0.353973 0.000000
0.522705 0.353973 0.000000
0.556213 0.354004 0.000000
0.588867 0.354034 0.000000
0.619019 0.354065 0.000000
0.649048 0.354095 0.000000
0.679993 0.354126 0.000000
0.711517 0.354156 0.000000
0.742157 0.354187 0.000000
0.772766 0.354218 0.000000
0.804230 0.354248 0.000000
0.836792 0.354279 0.000000
0.869629 0.354279 0.000000
0.901276 0.354309 0.000000
0.930573 0.354340 0.000000
0.954285 0.354431 0.000000
0.968597 0.354584 0.000000
0.000000 0.388062 0.000000
0.006287 0.388245 0.000000
0.026794 0.388336 0.000000
0.057159 0.388367 0.000000
0.087860 0.388397 0.000000
0.116791 0.388428 0.000000
0.147858 0.388458 0.000000
0.180573 0.388458 0.000000
0.215179 0.388458 0.000000
0.249329 0.388458 0.000000
0.283325 0.388458 0.000000
0.318542 0.388458 0.000000
0.353943 0.388458 0.000000
0.388458 0.388458 0.000000
0.422211 0.388458 0.000000
0.457794 0.388458 0.000000
0.491150 0.388458 0.000000
0.522705 0.388458 0.000000
0.556213 0.388489 0.000000
0.588837 0.388489 0.000000
0.618988 0.388519 0.000000
0.649017 0.388550 0.000000
0.679962 0.388580 0.000000
0.711487 0.388611 0.000000
0.742126 0.388611 0.000000
0.772736 0.388641 0.000000
0.804230 0.388672 0.000000
0.836792 0.388672 0.000000
0.869629 0.388702 0.000000
0.901245 0.388702 0.000000
0.930511 0.388733 0.000000
0.954163 0.388824 0.000000
0.968414 0.388947 0.000000
0.000000 0.421875 0.000000
0.006165 0.422058 0.000000
0.026764 0.422150 0.000000
0.057129 0.422150 0.000000
0.087830 0.422180 0.000000
0.116760 0.422211 0.000000
0.147858 0.422241 0.000000
0.180573 0.422241 0.000000
0.215179 0.422241 0.000000
0.249329 0.422241 0.000000
0.283356 0.422241 0.000000
0.318542 0.422241 0.000000
0.353943 0.422241 0.000000
0.388458 0.422211 0.000000
0.422211 0.422211 0.000000
0.457825 0.422211 0.000000
0.491119 0.422211 0.000000
0.522675 0.422241 0.000000
0.556213 0.422241 0.000000
0.588806 0.422241 0.000000
0.618958 0.422272 0.000000
0.648987 0.422302 0.000000
0.679962 0.422333 0.000000
0.711487 0.422363 0.000000
0.742096 0.422363 0.000000
0.772705 0.422394 0.000000
0.804230 0.422424 0.000000
0.836792 0.422424 0.000000
0.869598 0.422455 0.000000
0.901215 0.422455 0.000000
0.930481 0.422485 0.000000
0.954071 0.422577 0.000000
0.968262 0.422729 0.000000
0.000000 0.457306 0.000000
0.005981 0.457489 0.000000
0.026733 0.457611 0.000000
0.057098 0.457642 0.000000
0.087799 0.457672 0.000000
0.116730 0.457733 0.000000
0.147827 0.457764 0.000000
0.180573 0.457764 0.000000
0.215179 0.457794 0.000000
0.249329 0.457794 0.000000
0.283325 0.457794 0.000000
0.318542 0.457794 0.000000
0.353943 0.457794 0.000000
0.388458 0.457794 0.000000
0.422211 0.457825 0.000000
0.457825 0.457825 0.000000
0.491119 0.457825 0.000000
0.522644 0.457855 0.000000
0.556183 0.457855 0.000000
0.588776 0.457886 0.000000
0.618927 0.457916 0.000000
0.648956 0.457947 0.000000
0.679932 0.457977 0.000000
0.711456 0.458008 0.000000
0.742065 0.458038 0.000000
0.772675 0.458069 0.000000
0.804199 0.458069 0.000000
0.836761 0.458099 0.000000
0.869598 0.458099 0.000000
0.901184 0.458130 0.000000
0.930420 0.458160 0.000000
0.953949 0.458221 0.000000
0.968109 0.458374 0.000000
0.000000 0.490906 0.000000
0.005859 0.491089 0.000000
0.026703 0.491150 0.000000
0.057098 0.491180 0.000000
0.087769 0.491180 0.000000
0.116699 0.491211 0.000000
0.147827 0.491241 0.000000
0.180573 0.491241 0.000000
0.215179 0.491211 0.000000
0.249329 0.491211 0.000000
0.283356 0.491180 0.000000
0.318573 0.491180 0.000000
0.353973 0.491150 0.000000
0.388458 0.491150 0.000000
0.422211 0.491119 0.000000
0.457825 0.491119 0.000000
0.491119 0.491119 0.000000
0.522644 0.491119 0.000000
0.556183 0.491089 0.000000
0.588776 0.491089 0.000000
0.618896 0.491119 0.000000
0.648926 0.491150 0.000000
0.679901 0.491150 0.000000
0.711456 0.491150 0.000000
0.742065 0.491180 0.000000
0.772675 0.491180 0.000000
0.804199 0.491180 0.000000
0.836761 0.491180 0.000000
0.869598 0.491180 0.000000
0.901154 0.491180 0.000000
0.930389 0.491211 0.000000
0.953857 0.491272 0.000000
0.967957 0.491394 0.000000
0.000000 0.522522 0.000000
0.005737 0.522675 0.000000
0.026672 0.522766 0.000000
0.057098 0.522766 0.000000
0.087769 0.522766 0.000000
0.116699 0.522797 0.000000
0.147827 0.522797 0.000000
0.180603 0.522797 0.000000
0.215210 0.522797 0.000000
0.249329 0.522766 0.000000
0.283386 0.522766 0.000000
0.318604 0.522736 0.000000
0.353973 0.522705 0.000000
0.388458 0.522705 0.000000
0.422241 0.522675 0.000000
0.457855 0.522644 0.000000
0.491119 0.522644 0.000000
0.522644 0.522644 0.000000
0.556213 0.522644 0.000000
0.588776 0.522644 0.000000
0.618896 0.522644 0.000000
0.648926 0.522675 0.000000
0.679901 0.522675 0.000000
0.711456 0.522675 0.000000
0.742035 0.522705 0.000000
0.772644 0.522705 0.000000
0.804199 0.522705 0.000000
0.836761 0.522705 0.000000
0.869598 0.522705 0.000000
0.901154 0.522736 0.000000
0.930359 0.522736 0.000000
0.953735 0.522797 0.000000
0.967834 0.522949 0.000000
0.000000 0.555847 0.000000
0.005585 0.556030 0.000000
0.026642 0.556122 0.000000
0.057068 0.556152 0.000000
0.087738 0.556183 0.000000
0.116669 0.556213 0.000000
0.147827 0.556213 0.000000
0.180603 0.556244 0.000000
0.215210 0.556244 0.000000
0.249359 0.556244 0.000000
0.283386 0.556244 0.000000
0.318604 0.556213 0.000000
0.354004 0.556213 0.000000
0.388489 0.556213 0.000000
0.422241 0.556213 0.000000
0.457855 0.556183 0.000000
0.491089 0.556183 0.000000
0.522644 0.556213 0.000000
0.556213 0.556213 0.000000
0.588745 0.556213 0.000000
0.618866 0.556244 0.000000
0.648895 0.556274 0.000000
0.679901 0.556305 0.000000
0.711426 0.556305 0.000000
0.742035 0.556335 0.000000
0.772644 0.556335 0.000000
0.804199 0.556366 0.000000
0.836761 0.556366 0.000000
0.869598 0.556366 0.000000
0.901123 0.556366 0.000000
0.930328 0.556396 0.000000
0.953644 0.556488 0.000000
0.967682 0.556610 0.000000
0.000000 0.588715 0.000000
0.005463 0.588867 0.000000
0.026642 0.588928 0.000000
0.057068 0.588959 0.000000
0.087738 0.588959 0.000000
0.116638 0.588959 0.000000
0.147827 0.588989 0.000000
0.180634 0.588959 0.000000
0.215240 0.588959 0.000000
0.249359 0.588928 0.000000
0.283386 0.588898 0.000000
0.318634 0.588898 0.000000
0.354034 0.588867 0.000000
0.388489 0.588837 0.000000
0.422241 0.588806 0.000000
0.457886 0.588776 0.000000
0.491089 0.588776 0.000000
0.522644 0.588776 0.000000
0.556213 0.588745 0.000000
0.588745 0.588745 0.000000
0.618866 0.588745 0.000000
0.648895 0.588745 0.000000
0.679901 0.588745 0.000000
0.711426 0.588745 0.000000
0.742004 0.588745 0.000000
0.772644 0.588745 0.000000
0.804199 0.588745 0.000000
0.836761 0.588745 0.000000
0.869598 0.588715 0.000000
0.901123 0.588715 0.000000
0.930298 0.588715 0.000000
0.953552 0.588776 0.000000
0.967529 0.588898 0.000000
0.000000 0.618988 0.000000
0.005341 0.619141 0.000000
0.026611 0.619202 0.000000
0.057068 0.619202 0.000000
0.087738 0.619171 0.000000
0.116638 0.619202 0.000000
0.147827 0.619171 0.000000
0.180634 0.619171 0.000000
0.215271 0.619141 0.000000
0.249390 0.619110 0.000000
0.283447 0.619080 0.000000
0.318665 0.619049 0.000000
0.354065 0.619019 0.000000
0.388519 0.618988 0.000000
0.422272 0.618958 0.000000
0.457916 0.618927 0.000000
0.491119 0.618896 0.000000
0.522644 0.618896 0.000000
0.556244 0.618866 0.000000
0.588745 0.618866 0.000000
0.618866 0.618866 0.000000
0.648895 0.618866 0.000000
0.679901 0.618835 0.000000
0.711426 0.618835 0.000000
0.742004 0.618835 0.000000
0.772644 0.618835 0.000000
0.804199 0.618835 0.000000
0.836792 0.618805 0.000000
0.869629 0.618805 0.000000
0.901123 0.618774 0.000000
0.930267 0.618774 0.000000
0.953461 0.618835 0.000000
0.967407 0.618958 0.000000
0.000000 0.649017 0.000000
0.005219 0.649170 0.000000
0.026611 0.649231 0.000000
0.057068 0.649231 0.000000
0.087738 0.649200 0.000000
0.116638 0.649231 0.000000
0.147858 0.649231 0.000000
0.180695 0.649200 0.000000
0.215302 0.649170 0.000000
0.249420 0.649139 0.000000
0.283478 0.649109 0.000000
0.318695 0.649078 0.000000
0.354095 0.649048 0.000000
0.388550 0.649017 0.000000
0.422302 0.648987 0.000000
0.457947 0.648956 0.000000
0.491150 0.648926 0.000000
0.522675 0.648926 0.000000
0.556274 0.648895 0.000000
0.588745 0.648895 0.000000
0.618866 0.648895 0.000000
0.648895 0.648895 0.000000
0.679932 0.648895 0.000000
0.711456 0.648895 0.000000
0.742004 0.648865 0.000000
0.772644 0.648865 0.000000
0.804230 0.648865 0.000000
0.836823 0.648865 0.000000
0.869659 0.648834 0.000000
0.901123 0.648834 0.000000
0.930267 0.648834 0.000000
0.953369 0.648895 0.000000
0.967255 0.648987 0.000000
0.000000 0.679810 0.000000
0.005127 0.679993 0.000000
0.026611 0.680054 0.000000
0.057068 0.680054 0.000000
0.087708 0.680054 0.000000
0.116638 0.680084 0.000000
0.147858 0.680084 0.000000
0.180695 0.680084 0.000000
0.215302 0.680054 0.000000
0.249451 0.680054 0.000000
0.283508 0.680023 0.000000
0.318726 0.679993 0.000000
0.354126 0.679993 0.000000
0.388580 0.679962 0.000000
0.422333 0.679962 0.000000
0.457977 0.679932 0.000000
0.491150 0.679901 0.000000
0.522675 0.679901 0.000000
0.556305 0.679901 0.000000
0.588745 0.679901 0.000000
0.618835 0.679901 0.000000
0.648895 0.679932 0.000000
0.679932 0.679932 0.000000
0.711456 0.679932 0.000000
0.742004 0.679932 0.000000
0.772644 0.679932 0.000000
0.804230 0.679932 0.000000
0.836823 0.679932 0.000000
0.869659 0.679932 0.000000
0.901123 0.679932 0.000000
0.930237 0.679932 0.000000
0.953278 0.679993 0.000000
0.967133 0.680115 0.000000
0.000000 0.711365 0.000000
0.005005 0.711517 0.000000
0.026611 0.711609 0.000000
0.057068 0.711609 0.000000
0.087708 0.711609 0.000000
0.116638 0.711639 0.000000
0.147858 0.711639 0.000000
0.180725 0.711639 0.000000
0.215332 0.711609 0.000000
0.249451 0.711578 0.000000
0.283508 0.711578 0.000000
0.318756 0.711548 0.000000
0.354156 0.711517 0.000000
0.388611 0.711487 0.000000
0.422363 0.711487 0.000000
0.458008 0.711456 0.000000
0.491150 0.711456 0.000000
0.522675 0.711456 0.000000
0.556305 0.711426 0.000000
0.588745 0.711426 0.000000
0.618835 0.711426 0.000000
0.648895 0.711456 0.000000
0.679932 0.711456 0.000000
0.711456 0.711456 0.000000
0.742004 0.711456 0.000000
0.772644 0.711456 0.000000
0.804230 0.711456 0.000000
0.836823 0.711456 0.000000
0.869659 0.711456 0.000000
0.901093 0.711456 0.000000
0.930206 0.711456 0.000000
0.953186 0.711517 0.000000
0.966980 0.711639 0.000000
0.000000 0.742096 0.000000
0.004883 0.742249 0.000000
0.026581 0.742310 0.000000
0.057068 0.742310 0.000000
0.087708 0.742310 0.000000
0.116638 0.742310 0.000000
0.147858 0.742310 0.000000
0.180756 0.742310 0.000000
0.215363 0.742279 0.000000
0.249481 0.742249 0.000000
0.283569 0.742218 0.000000
0.318787 0.742188 0.000000
0.354187 0.742157 0.000000
0.388611 0.742126 0.000000
0.422363 0.742096 0.000000
0.458038 0.742065 0.000000
0.491180 0.742065 0.000000
0.522705 0.742035 0.000000
0.556335 0.742035 0.000000
0.588745 0.742004 0.000000
0.618835 0.742004 0.000000
0.648865 0.742004 0.000000
0.679932 0.742004 0.000000
0.711456 0.742004 0.000000
0.742004 0.742004 0.000000
0.772644 0.742004 0.000000
0.804260 0.742004 0.000000
0.836853 0.741974 0.000000
0.869690 0.741974 0.000000
0.901093 0.741974 0.000000
0.930176 0.741974 0.000000
0.953094 0.742035 0.000000
0.966858 0.742157 0.000000
0.000000 0.772644 0.000000
0.004761 0.772827 0.000000
0.026581 0.772858 0.000000
0.057068 0.772888 0.000000
0.087708 0.772888 0.000000
0.116638 0.772888 0.000000
0.147888 0.772888 0.000000
0.180786 0.772888 0.000000
0.215393 0.772858 0.000000
0.249512 0.772827 0.000000
0.283600 0.772797 0.000000
0.318848 0.772797 0.000000
0.354218 0.772766 0.000000
0.388641 0.772736 0.000000
0.422394 0.772705 0.000000
0.458069 0.772675 0.000000
0.491180 0.772675 0.000000
0.522705 0.772644 0.000000
0.556335 0.772644 0.000000
0.588745 0.772644 0.000000
0.618835 0.772644 0.000000
0.648865 0.772644 0.000000
0.679932 0.772644 0.000000
0.711456 0.772644 0.000000
0.742004 0.772644 0.000000
0.772644 0.772644 0.000000
0.804260 0.772644 0.000000
0.836853 0.772644 0.000000
0.869690 0.772614 0.000000
0.901093 0.772614 0.000000
0.930145 0.772644 0.000000
0.953003 0.772705 0.000000
0.966736 0.772797 0.000000
0.000000 0.804047 0.000000
0.004639 0.804199 0.000000
0.026581 0.804260 0.000000
0.057068 0.804291 0.000000
0.087677 0.804291 0.000000
0.116638 0.804321 0.000000
0.147888 0.804321 0.000000
0.180817 0.804321 0.000000
0.215424 0.804291 0.000000
0.249542 0.804291 0.000000
0.283600 0.804291 0.000000
0.318848 0.804260 0.000000
0.354248 0.804230 0.000000
0.388672 0.804230 0.000000
0.422424 0.804230 0.000000
0.458069 0.804199 0.000000
0.491180 0.804199 0.000000
0.522705 0.804199 0.000000
0.556366 0.804199 0.000000
0.588745 0.804199 0.000000
0.618835 0.804199 0.000000
