Fujifilm Eterna 250D (8563) - Look.cube
# Created by Benjamin (IWLTBAP) : http://luts.iwltbap.com
# Copyright: (C) Copyright 2010-2017 Triune Films and IWLTBAP SAS
# Cannot be resold, shared or otherwise redistributed
TITLE "Film Print Emulation LUTs Pack (Rec.709, sRGB, DCI-P3)"
LUT_3D_SIZE 5
0.000000 0.000671 0.003326
0.193268 0.043640 0.044922
0.400696 0.094299 0.068420
0.524780 0.113678 0.076477
0.621033 0.123291 0.080780
0.000000 0.186066 0.090027
0.175629 0.207245 0.054382
0.448456 0.248932 0.094971
0.593842 0.257751 0.104523
0.696716 0.259644 0.108521
0.000000 0.329926 0.121063
0.177155 0.376923 0.127106
0.470612 0.422699 0.118103
0.663361 0.468872 0.166626
0.778503 0.469269 0.169800
0.035461 0.432678 0.219971
0.193909 0.506805 0.216400
0.486908 0.586456 0.195282
0.660614 0.608856 0.174225
0.810455 0.636200 0.197449
0.095917 0.528717 0.318420
0.212036 0.597076 0.329773
0.494171 0.677917 0.306580
0.670959 0.731720 0.256958
0.803986 0.752014 0.220398
0.000000 0.014984 0.066742
0.130798 0.029907 0.170471
0.387634 0.094513 0.173889
0.529907 0.119476 0.180847
0.631378 0.130280 0.180847
0.000000 0.131805 0.116394
0.050507 0.185333 0.214722
0.415924 0.242889 0.231415
0.579926 0.254089 0.227448
0.696442 0.257111 0.223389
0.000000 0.305267 0.217651
0.016815 0.404999 0.286285
0.426025 0.446442 0.272858
0.653564 0.484100 0.302612
0.777649 0.481079 0.292877
0.000000 0.438385 0.299500
0.085175 0.530670 0.356934
0.446747 0.610474 0.345428
0.645294 0.630981 0.320587
0.800964 0.650696 0.330994
0.058044 0.538971 0.373993
0.140594 0.610596 0.418304
0.460815 0.695374 0.416229
0.652374 0.749512 0.388916
0.790314 0.766296 0.363495
0.000000 0.031555 0.195587
0.049652 0.062805 0.301605
0.355560 0.101807 0.330353
0.529327 0.127991 0.334137
0.632202 0.140656 0.339935
0.000000 0.235718 0.309204
0.000000 0.180481 0.348328
0.346802 0.211517 0.403900
0.570648 0.247772 0.398956
0.686279 0.261292 0.396820
0.000000 0.251129 0.253113
0.000000 0.314728 0.321869
0.395172 0.441833 0.431458
0.629852 0.492096 0.481201
0.759369 0.491730 0.475769
0.000000 0.405548 0.335358
0.000000 0.460480 0.384766
0.398499 0.621338 0.493561
0.615997 0.639709 0.489441
0.799988 0.677887 0.527435
0.000000 0.528717 0.414001
0.054932 0.590607 0.461578
0.413391 0.706238 0.533356
0.622375 0.760223 0.533264
0.767365 0.778625 0.519989
0.000000 0.061066 0.275970
0.094666 0.084259 0.377197
0.310913 0.114136 0.409180
0.474548 0.131470 0.437714
0.614288 0.141968 0.455566
0.000000 0.271667 0.412506
0.000000 0.172394 0.407928
0.323639 0.206390 0.492523
0.488861 0.212799 0.512360
0.651276 0.237457 0.526520
0.000000 0.362610 0.417389
0.000000 0.394836 0.452484
0.322083 0.419128 0.553894
0.569031 0.453949 0.586456
0.749237 0.487488 0.601532
0.000000 0.367004 0.361938
0.000000 0.387146 0.382111
0.316010 0.546295 0.504303
0.602020 0.637024 0.615326
0.785217 0.687439 0.667328
0.000000 0.489929 0.421844
0.000000 0.525757 0.449036
0.329651 0.646729 0.545959
0.594757 0.756775 0.642822
0.743042 0.778992 0.649017
0.000000 0.077637 0.392639
0.154633 0.100708 0.418976
0.314392 0.130890 0.434326
0.423340 0.136200 0.479370
0.548615 0.143402 0.519623
0.000000 0.256927 0.489380
0.000000 0.177368 0.484436
0.326782 0.203979 0.527496
0.462982 0.209534 0.560211
0.583740 0.214233 0.595001
0.000000 0.432892 0.512695
0.000000 0.455475 0.540955
0.268768 0.420105 0.605408
0.523621 0.432373 0.643829
0.655823 0.439178 0.668671
0.000000 0.454803 0.489319
0.000000 0.483582 0.513580
0.279999 0.548401 0.567352
0.512207 0.578583 0.621399
0.766541 0.679688 0.738495
0.000000 0.466797 0.436615
0.000000 0.484711 0.454071
0.260620 0.565643 0.511902
0.563507 0.715729 0.668793
0.705780 0.751251 0.718079
