Fujifilm Eterna 400T (8583) - Look.cube
# Created by Benjamin (IWLTBAP) : http://luts.iwltbap.com
# Copyright: (C) Copyright 2010-2017 Triune Films and IWLTBAP SAS
# Cannot be resold, shared or otherwise redistributed
TITLE "Film Print Emulation LUTs Pack (Rec.709, sRGB, DCI-P3)"
LUT_3D_SIZE 5
0.014465 0.013245 0.010254
0.259247 0.025665 0.012329
0.508423 0.027100 0.022736
0.665283 0.023224 0.020752
0.786285 0.021729 0.021729
0.000000 0.139435 0.073639
0.231415 0.194244 0.040405
0.528229 0.191254 0.031952
0.718964 0.168640 0.027557
0.852997 0.149017 0.025665
0.000000 0.232117 0.080536
0.025330 0.296814 0.040863
0.531433 0.425476 0.016296
0.763702 0.426514 0.025665
0.912598 0.417908 0.026642
0.000000 0.276917 0.091309
0.000000 0.334503 0.103790
0.463287 0.538086 0.000000
0.741058 0.611572 0.000000
0.906891 0.617828 0.000000
0.000000 0.303345 0.097534
0.000000 0.363525 0.109344
0.401215 0.599915 0.000000
0.690918 0.692627 0.000000
0.880615 0.756348 0.000000
0.000000 0.042511 0.128723
0.229858 0.037384 0.213531
0.512268 0.061310 0.201538
0.680206 0.064484 0.168213
0.801727 0.058502 0.157715
0.000000 0.141144 0.143951
0.127502 0.184235 0.197083
0.530426 0.232056 0.207275
0.728455 0.200806 0.166534
0.864258 0.177277 0.155243
0.000000 0.247314 0.156677
0.025330 0.291443 0.174774
0.485016 0.437866 0.109253
0.750671 0.449097 0.107269
0.906189 0.438843 0.111725
0.000000 0.279480 0.157196
0.000000 0.337952 0.169617
0.433350 0.578461 0.053467
0.712555 0.624908 0.093445
0.890076 0.633972 0.093445
0.000000 0.285706 0.172150
0.000000 0.353760 0.187347
0.294312 0.600861 0.025330
0.683228 0.719971 0.066986
0.859802 0.763733 0.093445
0.000000 0.074158 0.226410
0.222748 0.081024 0.338684
0.494659 0.074158 0.367249
0.673706 0.077454 0.386230
0.801331 0.084778 0.382751
0.000000 0.174896 0.307037
0.000000 0.191498 0.363098
0.507599 0.233124 0.439789
0.717072 0.221191 0.444397
0.864685 0.213348 0.446075
0.000000 0.300385 0.319580
0.000000 0.336304 0.347076
0.470581 0.462677 0.427521
0.773376 0.508087 0.464844
0.931488 0.498169 0.460876
0.000000 0.322998 0.276093
0.000000 0.379608 0.302460
0.270264 0.535431 0.330292
0.704010 0.655365 0.392242
0.905518 0.675018 0.411621
0.000000 0.335175 0.277985
0.000000 0.392731 0.298767
0.050659 0.505676 0.275940
0.644592 0.727570 0.335968
0.857727 0.788177 0.354950
0.000000 0.100311 0.343872
0.269012 0.097931 0.402008
0.497009 0.102051 0.425018
0.646667 0.094696 0.474518
0.787231 0.085052 0.512512
0.000000 0.202637 0.399384
0.000000 0.211487 0.487396
0.524384 0.240997 0.561401
0.708527 0.222290 0.583130
0.854828 0.215637 0.608246
0.000000 0.372467 0.457458
0.000000 0.403473 0.488861
0.429016 0.457184 0.553375
0.752472 0.512390 0.625214
0.915497 0.505951 0.647705
0.000000 0.416748 0.445160
0.000000 0.462952 0.460419
0.172272 0.493896 0.434723
0.712128 0.681549 0.600647
0.918060 0.712097 0.639282
0.000000 0.424774 0.430389
0.000000 0.457855 0.406738
0.039398 0.539062 0.425751
0.642761 0.751190 0.547455
0.861725 0.815674 0.587982
0.133606 0.104553 0.433228
0.356934 0.106781 0.429352
0.517365 0.118744 0.425751
0.632996 0.114349 0.489258
0.749664 0.106049 0.562500
0.000000 0.222931 0.471069
0.139435 0.231934 0.598846
0.556824 0.249451 0.611511
0.706512 0.229034 0.646240
0.827911 0.217316 0.687408
0.000000 0.420288 0.551666
0.000000 0.433685 0.568909
0.438446 0.460022 0.619263
0.757843 0.524994 0.714691
0.887268 0.505829 0.746735
0.000000 0.491608 0.551208
0.000000 0.521393 0.567230
0.264648 0.527283 0.540527
0.725006 0.704376 0.714508
0.913879 0.734283 0.769623
0.000000 0.500824 0.531403
0.000000 0.536102 0.542084
0.078125 0.543854 0.480286
0.594330 0.700165 0.615143
0.850586 0.814667 0.723480
