Fujifilm Eterna 400T (8583) - Only color.cube
# Created by Benjamin (IWLTBAP) : http://luts.iwltbap.com
# Copyright: (C) Copyright 2010-2017 Triune Films and IWLTBAP SAS
# Cannot be resold, shared or otherwise redistributed
TITLE "Film Print Emulation LUTs Pack (Rec.709, sRGB, DCI-P3)"
LUT_3D_SIZE 5
0.014038 0.013000 0.010010
0.336273 0.049500 0.009552
0.559784 0.053986 0.051147
0.749512 0.041351 0.041779
0.910309 0.036163 0.047607
0.011688 0.214874 0.149963
0.315521 0.271606 0.110443
0.581512 0.268066 0.087036
0.814301 0.244476 0.072449
0.996582 0.224823 0.066101
0.010956 0.311066 0.156677
0.028809 0.363739 0.110504
0.585541 0.479797 0.023010
0.871399 0.480499 0.066345
1.000000 0.473633 0.071686
0.010620 0.345795 0.167755
0.010193 0.399475 0.179382
0.514313 0.594238 0.003265
0.841644 0.678131 0.001434
1.000000 0.686066 0.001038
0.010406 0.370605 0.173920
0.009979 0.425354 0.183929
0.467987 0.664825 0.003143
0.777527 0.788910 0.001251
1.000000 0.895630 0.000519
0.012177 0.095093 0.199188
0.314636 0.083496 0.278412
0.563995 0.124847 0.266388
0.765778 0.128479 0.231903
0.929657 0.121338 0.222809
0.011230 0.216675 0.212006
0.227325 0.260895 0.262756
0.584290 0.311127 0.271576
0.826935 0.278717 0.230164
1.000000 0.253357 0.220612
0.010406 0.324524 0.222870
0.028381 0.358398 0.238922
0.534821 0.489960 0.182556
0.852997 0.499359 0.180298
1.000000 0.490967 0.184021
0.010223 0.347809 0.223358
0.009796 0.402527 0.234192
0.491089 0.640961 0.132111
0.804413 0.694366 0.168304
1.000000 0.706604 0.168243
0.010101 0.353027 0.236542
0.009583 0.416290 0.252228
0.375427 0.665924 0.064087
0.769135 0.830688 0.145020
0.998505 0.907440 0.167969
0.011200 0.140991 0.290863
0.309845 0.151306 0.388947
0.545441 0.141266 0.416016
0.759186 0.145813 0.430786
0.928955 0.156128 0.427979
0.009949 0.251221 0.363770
0.009521 0.268768 0.412811
0.559631 0.312408 0.480255
0.811646 0.300964 0.484253
1.000000 0.293427 0.486053
0.009125 0.367767 0.374023
0.008789 0.401367 0.396423
0.521179 0.512024 0.468323
0.886932 0.560974 0.503998
1.000000 0.550781 0.500153
0.009216 0.389923 0.335693
0.008759 0.441223 0.359436
0.348877 0.591400 0.381500
0.792786 0.735321 0.435089
1.000000 0.761597 0.452759
0.009155 0.400269 0.337280
0.008698 0.452667 0.355957
0.139954 0.558289 0.335510
0.727631 0.843597 0.384796
0.997589 0.951508 0.402374
0.010254 0.175659 0.393707
0.347137 0.173309 0.445190
0.548096 0.177246 0.466248
0.729584 0.169250 0.514618
0.910858 0.156799 0.562012
0.009247 0.281586 0.442871
0.008636 0.291473 0.531281
0.578217 0.319611 0.616852
0.799225 0.302246 0.648285
0.996979 0.296021 0.695312
0.007965 0.434601 0.498108
0.007629 0.461975 0.533142
0.488922 0.507385 0.607422
0.854736 0.565704 0.739288
1.000000 0.559143 0.807983
0.007812 0.472900 0.486023
0.007507 0.512238 0.500854
0.273010 0.545776 0.475647
0.804474 0.770782 0.676605
1.000000 0.819275 0.781006
0.007874 0.479584 0.471710
0.007812 0.507477 0.449524
0.088989 0.596100 0.467377
0.726288 0.886658 0.599731
0.998901 1.000000 0.655670
0.234833 0.180176 0.474670
0.432068 0.182098 0.470551
0.569977 0.193298 0.466888
0.714264 0.189026 0.532928
0.852142 0.181152 0.617859
0.008698 0.302979 0.511932
0.242523 0.311890 0.673676
0.621124 0.326721 0.703705
0.796295 0.308472 0.801514
0.971008 0.297302 0.915588
0.007172 0.476105 0.606201
0.006989 0.487274 0.627197
0.495941 0.510040 0.724060
0.861237 0.579163 0.978394
1.000000 0.558777 0.998901
0.006805 0.543243 0.605560
0.006531 0.575500 0.624695
0.343384 0.582336 0.593048
0.820953 0.807556 0.978271
1.000000 0.855103 0.999542
0.006866 0.553192 0.583374
0.006592 0.592438 0.595154
0.186676 0.601654 0.521667
0.671448 0.801819 0.714355
0.992615 0.999969 0.999939
