Fujifilm Eterna Vivid 160T (8543) - Look.cube
# Created by Benjamin (IWLTBAP) : http://luts.iwltbap.com
# Copyright: (C) Copyright 2010-2017 Triune Films and IWLTBAP SAS
# Cannot be resold, shared or otherwise redistributed
TITLE "Film Print Emulation LUTs Pack (Rec.709, sRGB, DCI-P3)"
LUT_3D_SIZE 33
0.000793 0.000000 0.000000
0.017059 0.001678 0.001678
0.033813 0.004364 0.004852
0.050415 0.007660 0.006500
0.068146 0.009308 0.008118
0.085480 0.010956 0.009735
0.104004 0.011841 0.010437
0.122314 0.012787 0.010406
0.141357 0.013000 0.011108
0.160553 0.012360 0.011780
0.179810 0.011719 0.011749
0.198975 0.011963 0.012390
0.218506 0.011353 0.013824
0.237854 0.011566 0.014465
0.257446 0.012604 0.015808
0.277374 0.012848 0.017914
0.297607 0.013855 0.019348
0.317871 0.014160 0.020630
0.338593 0.015228 0.021912
0.359070 0.015564 0.023163
0.379791 0.016693 0.024384
0.400299 0.017029 0.025574
0.420776 0.018188 0.027496
0.441284 0.018616 0.028564
0.461731 0.018951 0.029724
0.481995 0.020020 0.030945
0.501801 0.020386 0.032043
0.520874 0.020721 0.033234
0.539124 0.021912 0.034302
0.556549 0.022186 0.035492
0.573181 0.022430 0.036774
0.589081 0.023529 0.037842
0.604675 0.023834 0.038177
0.003876 0.012604 0.004028
0.020355 0.015839 0.006348
0.037201 0.019226 0.008881
0.053864 0.022552 0.010559
0.071472 0.025726 0.011414
0.089783 0.028320 0.012787
0.109192 0.030731 0.012878
0.128723 0.031647 0.013611
0.148926 0.032532 0.013702
0.168671 0.032806 0.014252
0.189148 0.032928 0.015015
0.209259 0.032379 0.015594
0.229279 0.031799 0.017029
0.249512 0.032013 0.018402
0.269745 0.031494 0.019775
0.289978 0.031799 0.020996
0.310699 0.031250 0.022430
0.331390 0.031616 0.023621
0.352539 0.031830 0.025726
0.373566 0.031403 0.026917
0.394623 0.031677 0.028168
0.415497 0.032013 0.029449
0.436340 0.032379 0.030640
0.457031 0.032745 0.031677
0.477661 0.033051 0.032928
0.498016 0.033386 0.034119
0.517883 0.033722 0.035370
0.537048 0.034790 0.036499
0.555298 0.035095 0.037659
0.572479 0.035431 0.038757
0.588928 0.036469 0.039154
0.604645 0.036804 0.040222
0.620087 0.037811 0.040649
0.007935 0.025970 0.008728
0.023376 0.030090 0.011169
0.039520 0.034210 0.012909
0.057129 0.038239 0.014557
0.075165 0.042175 0.015381
0.094604 0.046051 0.016113
0.114380 0.049042 0.016113
0.134949 0.051239 0.016876
0.155914 0.052643 0.016876
0.176971 0.053497 0.017548
0.198181 0.053711 0.018219
0.219238 0.053864 0.018982
0.240173 0.053406 0.020325
0.260986 0.053040 0.021606
0.282104 0.052521 0.023163
0.303101 0.051453 0.024475
0.324219 0.051025 0.026520
0.345581 0.049927 0.027771
0.367188 0.049500 0.029083
0.388641 0.048370 0.030304
0.409882 0.048004 0.031525
0.431274 0.048279 0.032806
0.452332 0.047882 0.033905
0.473358 0.048157 0.035217
0.494141 0.048523 0.036377
0.514648 0.048828 0.037537
0.534515 0.049133 0.038757
0.553619 0.049438 0.039795
0.571747 0.049744 0.040894
0.588898 0.050018 0.041321
0.605225 0.050995 0.042450
0.620758 0.051270 0.042816
0.635925 0.052246 0.043884
0.011047 0.039429 0.014252
0.026489 0.044861 0.015961
0.042816 0.049133 0.017731
0.060120 0.054688 0.019257
0.078949 0.059143 0.019257
0.098724 0.063354 0.020050
0.119232 0.067413 0.020081
0.140900 0.070770 0.020142
0.162933 0.072998 0.020081
0.184967 0.074768 0.020813
0.207306 0.075897 0.021545
0.229156 0.076630 0.023010
0.251038 0.076294 0.024445
0.272766 0.075989 0.025848
0.294464 0.075165 0.027252
0.316284 0.073853 0.028595
0.338165 0.072571 0.029907
0.360138 0.071228 0.031281
0.382172 0.069885 0.032562
0.404175 0.069061 0.034515
0.425934 0.067688 0.035767
0.447662 0.067413 0.036285
0.469086 0.067139 0.037537
0.490295 0.066864 0.038757
0.511261 0.066620 0.040619
0.531860 0.066315 0.041718
0.551788 0.066620 0.042755
0.570892 0.066895 0.043213
0.588928 0.067200 0.044250
0.605896 0.067474 0.045258
0.622009 0.067688 0.045715
0.637390 0.068573 0.046021
0.652374 0.069366 0.047150
0.014893 0.053680 0.019745
0.030334 0.059418 0.021515
0.046173 0.064819 0.023163
0.063721 0.070343 0.023956
0.082214 0.076172 0.023956
0.102875 0.081604 0.023956
0.124420 0.086273 0.024017
0.146942 0.090790 0.024048
0.169708 0.094360 0.024017
0.193024 0.096893 0.024750
0.216034 0.098755 0.025513
0.239014 0.100128 0.026215
0.261871 0.100677 0.027649
0.284424 0.100525 0.029053
0.306946 0.099915 0.031219
0.329498 0.098938 0.032593
0.352234 0.097504 0.034119
0.374817 0.096100 0.035370
0.397430 0.094299 0.037384
0.420074 0.092834 0.038757
0.442291 0.091827 0.039948
0.464417 0.090729 0.041199
0.486176 0.089691 0.042389
0.507660 0.089600 0.043457
0.528931 0.088928 0.044617
0.549561 0.088348 0.045685
0.569580 0.088135 0.046722
0.588593 0.087952 0.047058
0.606567 0.088196 0.048157
0.623413 0.088470 0.049194
0.639343 0.088715 0.049500
0.654510 0.088928 0.049896
0.669373 0.089630 0.050262
0.018768 0.068451 0.024445
0.034088 0.074463 0.026825
0.049438 0.080475 0.027802
0.066864 0.086975 0.028625
0.086456 0.093018 0.029419
0.107025 0.099670 0.028687
0.129517 0.105560 0.028717
0.152771 0.110840 0.028748
0.176605 0.115540 0.028717
0.200684 0.119415 0.028778
0.224792 0.122253 0.029449
0.248566 0.124359 0.030884
0.272247 0.125854 0.031616
0.295776 0.126343 0.033112
0.319244 0.126556 0.035278
0.342651 0.125793 0.036682
0.366089 0.124695 0.038116
0.389404 0.123322 0.039459
0.412750 0.121887 0.041473
0.435760 0.120514 0.042664
0.458649 0.119019 0.043945
0.481171 0.118256 0.045105
0.503326 0.117096 0.046295
0.525177 0.116333 0.048035
0.546539 0.115570 0.049072
0.567474 0.114746 0.050140
0.587494 0.114319 0.050446
0.606506 0.113861 0.051422
0.624390 0.113342 0.052490
0.641113 0.113251 0.052826
0.656921 0.113434 0.053253
0.671936 0.114014 0.053619
0.686584 0.114197 0.054626
0.023529 0.082947 0.029907
0.038055 0.089417 0.031586
0.053528 0.096252 0.033203
0.070648 0.103088 0.033997
0.090210 0.110260 0.034058
0.111267 0.117676 0.034119
0.134277 0.124664 0.033417
0.158356 0.131042 0.033356
0.183197 0.136810 0.032654
0.208038 0.141907 0.033386
0.232971 0.145966 0.034119
0.257812 0.149109 0.034851
0.282349 0.151123 0.036285
0.306793 0.152649 0.037018
0.330902 0.153625 0.039246
0.355133 0.153809 0.040649
0.379303 0.153503 0.041931
0.403473 0.152679 0.044037
0.427399 0.151855 0.045288
0.451172 0.150757 0.046509
0.474518 0.149597 0.048370
0.497498 0.148438 0.049561
0.520020 0.147614 0.050659
0.542175 0.146790 0.052277
0.563904 0.145905 0.053375
0.584930 0.145020 0.054382
0.605011 0.144104 0.055389
0.624115 0.143494 0.055695
0.641907 0.142853 0.056671
0.658630 0.142517 0.057037
0.674194 0.142395 0.057404
0.689148 0.142853 0.057831
0.703705 0.143066 0.058167
0.027283 0.098114 0.034637
0.041748 0.104919 0.037048
0.057068 0.111969 0.038605
0.074646 0.119263 0.039459
0.094330 0.127136 0.039490
0.115814 0.135437 0.039459
0.139099 0.143585 0.038757
0.164032 0.151215 0.037994
0.189178 0.158142 0.037964
0.214966 0.164215 0.038025
0.240692 0.169159 0.037994
0.266266 0.173279 0.039429
0.291748 0.176575 0.040222
0.316803 0.179047 0.041626
0.341858 0.180786 0.042969
0.366821 0.182037 0.044373
0.391846 0.182404 0.045715
0.416626 0.182617 0.047638
0.441223 0.182434 0.048828
0.465546 0.181976 0.050690
0.489380 0.181519 0.051849
0.512939 0.180634 0.053589
0.535889 0.180176 0.054688
0.558350 0.179291 0.055725
0.580322 0.178619 0.057343
0.601501 0.177704 0.058289
0.621735 0.176819 0.059296
0.640839 0.176117 0.059692
0.658691 0.175385 0.060577
0.675385 0.175110 0.060913
0.690979 0.175049 0.061340
0.705780 0.175232 0.062317
0.720184 0.175629 0.062134
0.031769 0.113220 0.039337
0.046051 0.120209 0.041687
0.061279 0.127350 0.043182
0.078522 0.135345 0.044708
0.098419 0.143951 0.044708
0.120056 0.152985 0.044739
0.143890 0.161926 0.044006
0.169159 0.170868 0.043304
0.195099 0.178741 0.042633
0.221558 0.185822 0.042542
0.248016 0.192047 0.043274
0.274200 0.197052 0.043213
0.300354 0.201172 0.044678
0.326202 0.204468 0.045227
0.351990 0.207306 0.046631
0.377655 0.209351 0.047943
0.403137 0.210876 0.049133
0.428589 0.211975 0.050446
0.453857 0.212738 0.052277
0.478790 0.213135 0.054047
0.503174 0.213165 0.055145
0.527069 0.213165 0.056885
0.550446 0.212830 0.057922
0.573212 0.212463 0.059509
0.595459 0.211945 0.060547
0.616821 0.211365 0.062103
0.637268 0.210632 0.062988
0.656433 0.210083 0.063446
0.674377 0.209503 0.064362
0.691071 0.209351 0.064636
0.706665 0.209320 0.065063
0.721405 0.209656 0.066010
0.735809 0.209991 0.066376
0.036346 0.128174 0.043243
0.049927 0.135345 0.046143
0.065155 0.142792 0.048218
0.082611 0.151062 0.049652
0.102234 0.160309 0.049652
0.124268 0.170044 0.049713
0.148499 0.180084 0.049042
0.174133 0.189850 0.048309
0.200745 0.198883 0.047638
0.227631 0.207001 0.047516
0.254608 0.213959 0.047607
0.281494 0.219849 0.048279
0.308136 0.224915 0.048859
0.334686 0.229187 0.049500
0.361084 0.232697 0.050079
0.387360 0.235718 0.051270
0.413452 0.238190 0.052490
0.439545 0.240112 0.053711
0.465332 0.241760 0.054840
0.490631 0.243073 0.056580
0.515625 0.243896 0.058228
0.539886 0.244598 0.059326
0.563660 0.244934 0.060944
0.586761 0.244995 0.062500
0.609161 0.244843 0.063446
0.630768 0.244720 0.065033
0.651398 0.244446 0.065948
0.670746 0.244171 0.066833
0.688782 0.243866 0.067261
0.705505 0.244019 0.068115
0.721100 0.244171 0.068573
0.735870 0.244812 0.068939
0.750305 0.245392 0.069275
0.039886 0.143097 0.047607
0.053711 0.150269 0.050415
0.068756 0.158081 0.052399
0.086334 0.166595 0.054291
0.105896 0.176208 0.054901
0.128326 0.186737 0.054993
0.152893 0.197510 0.054291
0.179016 0.208435 0.053680
0.205872 0.218414 0.053040
0.233246 0.227478 0.052307
0.260895 0.235443 0.052338
0.288300 0.242188 0.052277
0.315460 0.247986 0.052765
0.342529 0.252899 0.053467
0.369476 0.257233 0.053986
0.396149 0.260925 0.054504
0.422882 0.264313 0.055695
0.449432 0.267059 0.056824
0.475647 0.269501 0.057922
0.501526 0.271545 0.058899
0.526794 0.273102 0.060669
0.551422 0.274384 0.061707
0.575531 0.275269 0.063354
0.598846 0.276001 0.064880
0.621521 0.276489 0.065765
0.643372 0.276825 0.067230
0.664185 0.277008 0.068207
0.683716 0.277161 0.069122
0.701782 0.277344 0.069977
0.718597 0.277771 0.070892
0.734314 0.278320 0.071289
0.749176 0.278992 0.071594
0.763550 0.279968 0.072510
0.044342 0.157745 0.051727
0.057983 0.165253 0.054382
0.072876 0.173035 0.056885
0.090088 0.181946 0.058685
0.109436 0.191956 0.059875
0.132172 0.202942 0.060516
0.156952 0.214630 0.059906
0.183472 0.226379 0.058685
0.210876 0.237305 0.058075
0.238739 0.247314 0.056763
0.266724 0.256226 0.056702
0.294708 0.263824 0.056763
0.322296 0.270355 0.056580
0.349823 0.276062 0.057190
0.377167 0.280945 0.057709
0.404388 0.285370 0.058228
0.431488 0.289307 0.058716
0.458466 0.292847 0.059845
0.485107 0.295807 0.060944
0.511261 0.298523 0.061890
0.536957 0.300781 0.062958
0.561920 0.302582 0.063934
0.586243 0.304077 0.065552
0.609833 0.305389 0.066528
0.632721 0.306305 0.067993
0.654816 0.307129 0.069427
0.675751 0.307739 0.070374
0.695435 0.308380 0.071198
0.713715 0.309021 0.072083
0.730621 0.309906 0.072998
0.746368 0.310760 0.073395
0.761292 0.311859 0.074219
0.775757 0.312927 0.074554
0.048126 0.172211 0.055786
0.061371 0.179840 0.058777
0.076263 0.187805 0.061066
0.093262 0.197052 0.063446
0.113312 0.207306 0.065125
0.135651 0.218933 0.065735
0.160767 0.231415 0.065094
0.187683 0.243805 0.064575
0.215698 0.255859 0.063416
0.243958 0.266724 0.062195
0.272308 0.276520 0.060944
0.300720 0.284912 0.060883
0.328735 0.292175 0.060913
0.356689 0.298523 0.060760
0.384430 0.304108 0.061249
0.412048 0.309082 0.061768
0.439392 0.313538 0.062225
0.466766 0.317413 0.062714
0.493774 0.321167 0.063690
0.520264 0.324341 0.064117
0.546234 0.326965 0.065216
0.571442 0.329376 0.066162
0.596008 0.331421 0.067657
0.619812 0.333160 0.068634
0.642975 0.334656 0.069519
0.665222 0.335907 0.070923
0.686371 0.337067 0.071808
0.706238 0.338196 0.072723
0.724609 0.339203 0.074097
0.741638 0.340302 0.074493
0.757568 0.341492 0.075378
0.772461 0.342834 0.076141
0.787048 0.344086 0.076538
0.052002 0.186646 0.059509
0.065125 0.194305 0.062439
0.079407 0.202667 0.065796
0.096375 0.212067 0.067993
0.116608 0.222626 0.070068
0.139313 0.234680 0.071075
0.164551 0.247833 0.071106
0.191956 0.261108 0.070007
0.220215 0.273956 0.068359
0.248962 0.285706 0.067261
0.277863 0.296356 0.065521
0.306458 0.305634 0.064941
0.334930 0.313660 0.064880
0.363251 0.320496 0.064758
0.391296 0.326660 0.065247
0.419281 0.332153 0.065186
0.446991 0.336975 0.065582
0.474609 0.341522 0.066040
0.501953 0.345581 0.066376
0.528717 0.349121 0.067444
0.554810 0.352386 0.067810
0.580292 0.355194 0.068695
0.605103 0.357605 0.069702
0.629211 0.359680 0.070557
0.652496 0.361664 0.071503
0.674988 0.363403 0.072357
0.696320 0.364929 0.073303
0.716217 0.366364 0.074677
0.734833 0.367798 0.075531
0.752014 0.369293 0.076294
0.767975 0.370758 0.076691
0.783020 0.372284 0.077545
0.797638 0.373810 0.078400
0.055603 0.200958 0.063721
0.068756 0.208832 0.066437
0.083008 0.217224 0.069641
0.099945 0.226776 0.072723
0.119781 0.237976 0.074829
0.142883 0.250397 0.076263
0.168518 0.263977 0.076233
0.196045 0.277954 0.075745
0.224701 0.291595 0.074188
0.253815 0.304443 0.072113
0.283081 0.315857 0.070435
0.312195 0.325928 0.069336
0.341003 0.334656 0.068665
0.369568 0.342224 0.068542
0.397980 0.348938 0.068451
0.426208 0.354828 0.068939
0.454193 0.360229 0.069366
0.482086 0.365021 0.069763
0.509705 0.369446 0.070129
0.536652 0.373474 0.070496
0.563080 0.377075 0.070892
0.588745 0.380219 0.071381
0.613739 0.383026 0.071655
0.638000 0.385468 0.072571
0.661621 0.387756 0.073395
0.684204 0.389832 0.074341
0.705688 0.391815 0.075134
0.725830 0.393677 0.075958
0.744537 0.395447 0.076813
0.761841 0.397064 0.077698
0.777863 0.398804 0.078552
0.792999 0.400513 0.078857
0.807648 0.402222 0.079651
0.059540 0.215393 0.067169
0.072144 0.223572 0.070862
0.086517 0.232117 0.073853
0.102722 0.241882 0.076935
0.122864 0.253204 0.079712
0.146057 0.266083 0.081146
0.172150 0.280090 0.082001
0.200073 0.294769 0.081085
0.229156 0.309204 0.079681
0.258759 0.322784 0.077667
0.288330 0.335114 0.075592
0.317719 0.345978 0.073975
0.346893 0.355560 0.072876
0.375824 0.363678 0.072205
0.404510 0.370880 0.072174
0.432892 0.377319 0.072601
0.461273 0.383148 0.072968
0.489288 0.388336 0.073303
0.517181 0.393097 0.073212
0.544434 0.397461 0.073578
0.570953 0.401398 0.073944
0.596863 0.404846 0.074310
0.622101 0.407959 0.074677
0.646576 0.410858 0.074951
0.670319 0.413513 0.075226
0.693115 0.415802 0.076141
0.714844 0.418060 0.076965
0.735077 0.420288 0.077759
0.753876 0.422241 0.078094
0.771240 0.424255 0.078888
0.787445 0.426117 0.079712
0.802612 0.427948 0.080566
0.817352 0.429718 0.081421
0.062805 0.229828 0.071564
0.075592 0.238007 0.074554
0.089478 0.246796 0.077942
0.105957 0.256866 0.081268
0.125977 0.268524 0.084473
0.149353 0.281708 0.086700
0.175659 0.296326 0.087524
0.204071 0.311493 0.087067
0.233551 0.326660 0.085693
0.263428 0.341034 0.083374
0.293396 0.354187 0.080963
0.323181 0.365875 0.078918
0.352753 0.376068 0.077393
0.381897 0.384918 0.076294
0.410767 0.392792 0.075653
0.439545 0.399689 0.076019
0.468170 0.405792 0.076385
0.496460 0.411499 0.076813
0.524445 0.416565 0.077087
0.551910 0.421265 0.076965
0.578735 0.425507 0.077271
0.604889 0.429230 0.077667
0.630341 0.432770 0.077423
0.654999 0.435883 0.077759
0.678955 0.438782 0.078094
0.701965 0.441498 0.078400
0.723724 0.444061 0.079193
0.744171 0.446442 0.079468
0.763092 0.448730 0.080292
0.780518 0.450806 0.081116
0.796722 0.452911 0.081451
0.811981 0.454926 0.082214
0.826660 0.456879 0.083038
0.066528 0.244232 0.075226
0.078918 0.252563 0.078552
0.092560 0.261780 0.082306
0.109161 0.271942 0.085938
0.129303 0.283813 0.088898
0.152649 0.297455 0.091522
0.179382 0.312378 0.092743
0.207886 0.328186 0.092743
0.237854 0.343903 0.091461
0.268158 0.358978 0.089203
0.298523 0.372894 0.086456
0.328552 0.385437 0.083649
0.358398 0.396423 0.081665
0.387939 0.406006 0.080078
0.417053 0.414337 0.079529
0.446106 0.421814 0.079376
0.474915 0.428436 0.079742
0.503479 0.434540 0.080109
0.531677 0.440033 0.080444
0.559418 0.444977 0.080750
0.586456 0.449554 0.081024
0.612823 0.453644 0.080841
0.638397 0.457397 0.081116
0.663300 0.460815 0.080902
0.687378 0.464050 0.081299
0.710602 0.467041 0.081512
0.732574 0.469879 0.081848
0.753143 0.472473 0.082092
0.772064 0.474854 0.082428
0.789551 0.477173 0.083221
0.805756 0.479431 0.083496
0.820984 0.481476 0.084290
0.835663 0.483459 0.084656
0.070160 0.258698 0.079254
0.082245 0.267517 0.082916
0.095673 0.276733 0.086487
0.112152 0.287231 0.089935
0.132141 0.299377 0.093689
0.155823 0.313293 0.096588
0.182678 0.328491 0.098114
0.211884 0.344635 0.098450
0.242065 0.360962 0.097229
0.272797 0.376831 0.095154
0.303375 0.391418 0.092133
0.333740 0.404755 0.088989
0.363892 0.416473 0.086700
0.393677 0.426758 0.084717
0.423218 0.435822 0.083191
0.452545 0.443848 0.083038
0.481628 0.450989 0.082916
0.510406 0.457428 0.083252
0.538910 0.463318 0.084045
0.566833 0.468628 0.084320
0.594116 0.473511 0.084625
0.620667 0.477905 0.084930
0.646484 0.481903 0.084717
0.671539 0.485687 0.084961
0.695892 0.489136 0.084808
0.719208 0.492340 0.084564
0.741241 0.495331 0.084869
0.761841 0.498138 0.085144
0.780884 0.500793 0.085419
0.798309 0.503204 0.085693
0.814484 0.505402 0.085968
0.829559 0.507568 0.086273
0.844116 0.509674 0.086609
0.073517 0.273193 0.083069
0.085175 0.282257 0.086700
0.098969 0.291748 0.090546
0.115417 0.302582 0.094269
0.135223 0.314819 0.098267
0.159241 0.328979 0.101379
0.186157 0.344635 0.103210
0.215515 0.361053 0.103973
0.246155 0.377899 0.103180
0.277222 0.394226 0.100769
0.308044 0.409607 0.097931
0.338776 0.423645 0.094513
0.369141 0.436127 0.091461
0.399261 0.447205 0.089142
0.429138 0.456970 0.087219
0.458801 0.465607 0.086548
0.488220 0.473267 0.086395
0.517334 0.480255 0.086761
0.546051 0.486481 0.087067
0.574249 0.492249 0.087708
0.601685 0.497345 0.088501
0.628418 0.502014 0.088806
0.654449 0.506348 0.088531
0.679718 0.510345 0.088837
0.704132 0.514038 0.088623
0.727600 0.517517 0.088409
0.749725 0.520721 0.088257
0.770386 0.523621 0.088501
0.789368 0.526306 0.088318
0.806671 0.528778 0.088531
0.822662 0.531128 0.088806
0.837585 0.533264 0.088654
0.851959 0.535400 0.088959
0.076538 0.287872 0.086914
0.088470 0.297089 0.090729
0.102295 0.306824 0.094421
0.118256 0.317871 0.098816
0.138519 0.330475 0.102661
0.162292 0.344757 0.105957
0.189758 0.360474 0.108490
0.219330 0.377289 0.109558
0.250153 0.394531 0.109131
0.281464 0.411438 0.106873
0.312683 0.427429 0.103760
0.343658 0.442108 0.100159
0.374298 0.455353 0.096863
0.404633 0.467224 0.093781
0.434937 0.477692 0.091492
0.464813 0.486969 0.089996
0.494598 0.495270 0.089844
0.524048 0.502716 0.089691
0.553070 0.509369 0.090393
0.581390 0.515442 0.091125
0.609161 0.520996 0.091797
0.636078 0.525970 0.092499
0.662262 0.530518 0.092773
0.687683 0.534729 0.092529
0.712219 0.538574 0.092743
0.735718 0.542236 0.092499
0.757874 0.545593 0.092377
0.778473 0.548584 0.092133
0.797363 0.551422 0.091919
0.814575 0.553894 0.091705
0.830322 0.556213 0.091553
0.844940 0.558411 0.091370
0.858948 0.560425 0.091644
0.080170 0.302429 0.090881
0.091614 0.311890 0.094635
0.105469 0.322021 0.098541
0.121674 0.333221 0.102753
0.141754 0.345886 0.106873
0.165741 0.360443 0.110748
0.193146 0.376373 0.113525
0.223083 0.393433 0.114960
0.254120 0.410950 0.114868
0.285706 0.428253 0.112671
0.317200 0.444733 0.109711
0.348297 0.460144 0.105957
0.379181 0.474213 0.102325
0.409912 0.486725 0.098663
0.440430 0.497955 0.096069
0.470673 0.507935 0.094177
0.500824 0.516876 0.093170
0.530548 0.524841 0.093384
0.559845 0.532043 0.093689
0.588501 0.538513 0.094269
0.616394 0.544312 0.095398
0.643524 0.549530 0.096069
0.669830 0.554352 0.096252
0.695312 0.558685 0.096466
0.720001 0.562805 0.096680
0.743530 0.566559 0.096497
0.765656 0.569977 0.095886
0.786163 0.573120 0.095642
0.804840 0.575928 0.094971
0.821777 0.578491 0.094818
0.837097 0.580719 0.094696
0.851410 0.582947 0.094421
0.864990 0.584900 0.094330
0.083069 0.317017 0.094391
0.095093 0.326721 0.098358
0.108398 0.337097 0.102600
0.124725 0.348450 0.106964
0.144867 0.361389 0.111267
0.169189 0.376007 0.115387
0.196594 0.392120 0.118378
0.226685 0.409424 0.120361
0.258148 0.427185 0.120270
0.289825 0.444824 0.118591
0.321564 0.461884 0.115753
0.352997 0.477844 0.111816
0.384094 0.492554 0.108032
0.415009 0.505798 0.104095
0.445770 0.517792 0.100769
0.476379 0.528503 0.098602
0.506836 0.538086 0.097168
0.536865 0.546661 0.096527
0.566467 0.554352 0.096741
0.595306 0.561127 0.097382
0.623413 0.567230 0.098480
0.650757 0.572784 0.099091
0.677124 0.577667 0.099731
0.702698 0.582275 0.100311
0.727386 0.586517 0.100494
0.750916 0.590393 0.100281
0.773010 0.593964 0.099762
0.793335 0.597137 0.099518
0.811707 0.599976 0.098877
0.828308 0.602448 0.098297
0.843231 0.604675 0.098114
0.856903 0.606812 0.097473
0.869934 0.608765 0.097290
0.086273 0.331512 0.098206
0.098022 0.341522 0.102386
0.111755 0.352081 0.106445
0.127869 0.363708 0.111084
0.148071 0.376953 0.115601
0.172424 0.391541 0.119873
0.200409 0.407898 0.123383
0.230560 0.425323 0.125580
0.262085 0.443268 0.125854
0.294098 0.461273 0.124481
0.325928 0.478668 0.121490
0.357513 0.495209 0.117645
0.388824 0.510559 0.113708
0.419952 0.524536 0.109619
0.450958 0.537231 0.106110
0.481873 0.548584 0.103210
0.512573 0.558807 0.101471
0.542877 0.567963 0.100403
0.572815 0.576050 0.100250
0.601898 0.583344 0.100433
0.630219 0.589752 0.101410
0.657684 0.595520 0.102448
0.684143 0.600739 0.102966
0.709808 0.605469 0.103577
0.734436 0.609833 0.103760
0.757904 0.613800 0.103546
0.779816 0.617401 0.103394
0.799957 0.620636 0.102722
0.817963 0.623474 0.102234
0.834045 0.625977 0.101532
0.848480 0.628113 0.101013
0.861511 0.630096 0.100922
0.874023 0.632080 0.100281
0.089539 0.345825 0.102264
0.101196 0.356140 0.106354
0.114502 0.367065 0.110657
0.131226 0.378876 0.115112
0.151611 0.392212 0.120026
0.175812 0.407135 0.124512
0.203827 0.423492 0.128235
0.234406 0.441040 0.130615
0.266235 0.459198 0.131165
0.298340 0.477509 0.130157
0.330353 0.495361 0.127289
0.362061 0.512299 0.123627
0.393524 0.528229 0.119507
0.424866 0.542755 0.115265
0.456055 0.556152 0.111511
0.487122 0.568146 0.108002
0.518066 0.579041 0.105530
0.548706 0.588715 0.104126
0.578766 0.597321 0.103210
0.608154 0.604980 0.103363
0.636566 0.611755 0.103912
0.664154 0.617767 0.104828
0.690796 0.623138 0.105865
0.716492 0.628021 0.106354
0.741119 0.632538 0.106964
0.764465 0.636597 0.107086
0.786194 0.640228 0.106964
0.805969 0.643494 0.106323
0.823547 0.646301 0.105743
0.839203 0.648773 0.105255
0.852905 0.650940 0.104675
0.865417 0.652863 0.104156
0.877075 0.654663 0.103546
0.092499 0.360077 0.105835
0.104218 0.370636 0.110107
0.118042 0.381683 0.114227
0.134277 0.393829 0.119263
0.154755 0.407349 0.124023
0.179382 0.422455 0.128967
0.207672 0.438995 0.132812
0.238281 0.456635 0.135773
0.270264 0.474976 0.136536
0.302612 0.493500 0.135620
0.334778 0.511658 0.133118
0.366730 0.528992 0.129639
0.398285 0.545288 0.125427
0.429626 0.560547 0.121002
0.460968 0.574432 0.116730
0.492249 0.587036 0.113037
0.523315 0.598511 0.110260
0.554138 0.608734 0.107788
0.584442 0.617798 0.106812
0.613983 0.625824 0.106232
0.642670 0.632965 0.106323
0.670349 0.639160 0.107269
0.697052 0.644836 0.108215
0.722717 0.649811 0.108765
0.747345 0.654419 0.109222
0.770508 0.658569 0.109863
0.792023 0.662262 0.109650
0.811432 0.665619 0.109436
0.828552 0.668365 0.109253
0.843506 0.670807 0.108734
0.856628 0.672882 0.108185
0.868469 0.674835 0.107635
0.879486 0.676544 0.107147
0.095337 0.373871 0.109619
0.107239 0.384735 0.113739
0.120972 0.396118 0.118103
0.137482 0.408478 0.122955
0.158264 0.422272 0.128235
0.183075 0.437622 0.133301
0.211548 0.454224 0.137604
0.242371 0.472015 0.140442
0.274689 0.490509 0.141754
0.307159 0.509094 0.141113
0.339478 0.527496 0.138733
0.371429 0.545166 0.135406
0.403015 0.561981 0.131042
0.434418 0.577515 0.126465
0.465790 0.591949 0.122070
0.497070 0.605072 0.118164
0.528290 0.616974 0.114777
0.559174 0.627716 0.112000
0.589630 0.637238 0.109955
0.619385 0.645660 0.108978
0.648193 0.653198 0.108704
