Fujifilm Eterna 250D (8563) - Only color.cube
# Created by Benjamin (IWLTBAP) : http://luts.iwltbap.com
# Copyright: (C) Copyright 2010-2017 Triune Films and IWLTBAP SAS
# Cannot be resold, shared or otherwise redistributed
TITLE "Film Print Emulation LUTs Pack (Rec.709, sRGB, DCI-P3)"
LUT_3D_SIZE 5
0.001343 0.002960 0.005646
0.279114 0.082458 0.085541
0.486267 0.165710 0.131195
0.629456 0.191345 0.143311
0.778229 0.203278 0.149780
0.000000 0.261414 0.153992
0.266479 0.286621 0.129120
0.532043 0.326385 0.168854
0.721741 0.336456 0.181458
0.935211 0.339813 0.187042
0.000000 0.401550 0.204468
0.266815 0.451813 0.206085
0.564056 0.513733 0.214752
0.849396 0.548828 0.242401
0.999207 0.554413 0.250397
0.082123 0.515472 0.297394
0.301208 0.599365 0.294403
0.580627 0.691803 0.276825
0.863922 0.730988 0.260651
0.999298 0.764496 0.274963
0.173462 0.625732 0.385468
0.326447 0.713348 0.395874
0.593262 0.830872 0.373016
0.878052 0.927765 0.330505
0.999512 0.982971 0.298462
0.000305 0.034668 0.149597
0.213470 0.073273 0.236420
0.469147 0.164795 0.255341
0.632233 0.197754 0.263550
0.795013 0.211212 0.264526
0.000000 0.239441 0.228271
0.186493 0.274506 0.284698
0.499054 0.321747 0.303345
0.704254 0.335968 0.304077
0.934204 0.341583 0.303528
0.000000 0.378540 0.292084
0.156097 0.462708 0.338379
0.523621 0.531677 0.349731
0.825348 0.563995 0.363373
0.999268 0.569305 0.363037
0.000000 0.519989 0.367157
0.195068 0.623474 0.413696
0.533600 0.724426 0.412109
0.825714 0.758667 0.391266
0.999420 0.785797 0.396973
0.114960 0.637695 0.440063
0.268585 0.734161 0.485138
0.552032 0.861389 0.488434
0.834290 0.965607 0.458801
0.999664 1.000000 0.431580
0.000000 0.068115 0.277802
0.146301 0.117767 0.361542
0.436035 0.175781 0.390991
0.626617 0.207764 0.402130
0.799866 0.221832 0.404785
0.000000 0.304840 0.372620
0.097290 0.277222 0.412811
0.442230 0.303894 0.463318
0.677856 0.332489 0.464264
0.917755 0.344269 0.463837
0.000000 0.352142 0.343201
0.061615 0.413818 0.406525
0.471069 0.523682 0.511841
0.787415 0.576599 0.553406
0.999481 0.580139 0.551300
0.000000 0.481598 0.399414
0.059662 0.554901 0.453766
0.470795 0.721191 0.557922
0.782257 0.778992 0.579803
0.999664 0.819366 0.603455
0.002686 0.624207 0.482574
0.164459 0.708435 0.539551
0.497375 0.871857 0.615326
0.778595 1.000000 0.624207
0.999847 1.000000 0.607971
0.000000 0.114136 0.351044
0.170288 0.153076 0.438934
0.399292 0.191620 0.475464
0.568665 0.212128 0.508942
0.761719 0.223389 0.529541
0.000000 0.332031 0.472534
0.077087 0.282410 0.500153
0.404968 0.293579 0.569733
0.597473 0.307892 0.595612
0.844055 0.327423 0.615112
0.000000 0.429443 0.476990
0.021729 0.464203 0.525146
0.401398 0.501740 0.628357
0.695923 0.542358 0.693878
0.996643 0.569824 0.718475
0.000000 0.457275 0.437012
0.015228 0.495087 0.471069
0.400055 0.645203 0.599915
0.741211 0.772186 0.740662
0.999817 0.837494 0.826019
0.000000 0.578278 0.490295
0.035706 0.629272 0.527252
0.414001 0.784210 0.641022
0.723297 0.978180 0.775848
0.998901 1.000000 0.800018
0.000000 0.142975 0.456207
0.239990 0.175690 0.491028
0.399109 0.209076 0.512390
0.516663 0.218903 0.559174
0.661163 0.225922 0.609131
0.000000 0.319550 0.527191
0.099792 0.280029 0.564941
0.404510 0.292786 0.621185
0.559845 0.301636 0.662933
0.715973 0.307495 0.710724
0.000000 0.510010 0.598694
0.026031 0.521545 0.630096
0.367615 0.502777 0.699432
0.621948 0.510468 0.788971
0.850006 0.522156 0.846649
0.000000 0.538116 0.569061
0.011902 0.568665 0.599182
0.364410 0.641113 0.667328
0.638428 0.710693 0.798462
0.999512 0.811218 0.999817
0.000000 0.553101 0.510712
0.024445 0.575928 0.527771
0.355316 0.676422 0.607941
0.666412 0.887054 0.832489
0.977783 1.000000 0.999969
