Fujifilm Eterna 250D (8563) - Look.cube
# Created by Benjamin (IWLTBAP) : http://luts.iwltbap.com
# Copyright: (C) Copyright 2010-2017 Triune Films and IWLTBAP SAS
# Cannot be resold, shared or otherwise redistributed
TITLE "Film Print Emulation LUTs Pack (Rec.709, sRGB, DCI-P3)"
LUT_3D_SIZE 9
0.000000 0.000671 0.003326
0.045959 0.009766 0.016663
0.193268 0.043640 0.044922
0.315033 0.076202 0.061737
0.400696 0.094299 0.068420
0.470032 0.106354 0.073425
0.524780 0.113678 0.076477
0.573883 0.118774 0.078644
0.621033 0.123291 0.080780
0.000000 0.082397 0.056183
0.031372 0.079681 0.032410
0.177643 0.104370 0.052185
0.308929 0.128387 0.064667
0.409088 0.139832 0.071381
0.481445 0.148102 0.075653
0.545624 0.154572 0.079437
0.598022 0.160858 0.082581
0.649414 0.166870 0.085602
0.000000 0.186066 0.090027
0.008392 0.173035 0.076447
0.175629 0.207245 0.054382
0.341705 0.236816 0.087036
0.448456 0.248932 0.094971
0.528076 0.254974 0.100586
0.593842 0.257751 0.104523
0.648499 0.256897 0.106140
0.696716 0.259644 0.108521
0.000000 0.265656 0.101868
0.000000 0.253540 0.099915
0.171234 0.298004 0.088043
0.338654 0.322113 0.087402
0.478271 0.357574 0.128143
0.566742 0.365875 0.135010
0.631500 0.366455 0.137024
0.690765 0.366669 0.138672
0.741699 0.366455 0.139893
0.000000 0.329926 0.121063
0.000000 0.336517 0.119080
0.177155 0.376923 0.127106
0.343628 0.415985 0.128204
0.470612 0.422699 0.118103
0.589661 0.462677 0.156982
0.663361 0.468872 0.166626
0.725861 0.470184 0.169189
0.778503 0.469269 0.169800
0.007874 0.380157 0.166077
0.051666 0.406738 0.163422
0.189545 0.447693 0.163727
0.357544 0.494202 0.167847
0.474365 0.515259 0.158508
0.578461 0.516083 0.145569
0.666138 0.545715 0.169556
0.749664 0.562378 0.190735
0.809479 0.564941 0.196442
0.035461 0.432678 0.219971
0.087402 0.466492 0.220154
0.193909 0.506805 0.216400
0.370758 0.554047 0.201019
0.486908 0.586456 0.195282
0.588684 0.606232 0.185608
0.660614 0.608856 0.174225
0.737244 0.619812 0.178131
0.810455 0.636200 0.197449
0.070007 0.484406 0.272247
0.113953 0.521332 0.280792
0.208893 0.558502 0.278107
0.376556 0.602203 0.265045
0.492493 0.637848 0.240326
0.595093 0.665283 0.219666
0.668182 0.679535 0.205780
0.736755 0.684967 0.195526
0.796783 0.681854 0.183716
0.095917 0.528717 0.318420
0.128113 0.559174 0.327362
0.212036 0.597076 0.329773
0.381836 0.633698 0.327301
0.494171 0.677917 0.306580
0.596375 0.710144 0.281891
0.670959 0.731720 0.256958
0.738647 0.745697 0.236877
0.803986 0.752014 0.220398
0.000000 0.007080 0.026794
0.019592 0.007965 0.054169
0.163177 0.030975 0.074829
0.286346 0.065948 0.092590
0.389740 0.090393 0.101044
0.460419 0.103119 0.105835
0.524780 0.113678 0.110352
0.576538 0.119659 0.113068
0.623657 0.124146 0.115143
0.000000 0.041748 0.033112
0.019592 0.064850 0.076355
0.149292 0.089020 0.087189
0.281555 0.115143 0.099487
0.390930 0.131714 0.103485
0.470520 0.141602 0.107574
0.537994 0.151917 0.112244
0.597351 0.160706 0.116180
0.649414 0.166870 0.119446
0.000000 0.146149 0.092163
0.008392 0.168091 0.112396
0.140778 0.201477 0.104706
0.320679 0.227966 0.126587
0.431427 0.239349 0.126587
0.519104 0.247467 0.130829
0.587433 0.250366 0.134888
0.646423 0.253235 0.138397
0.695953 0.253784 0.140228
0.000000 0.249146 0.140594
0.000000 0.266785 0.158966
0.127747 0.304199 0.137634
0.314148 0.326782 0.132996
0.462891 0.355255 0.158203
0.562592 0.366302 0.168884
0.630096 0.367584 0.171204
0.693146 0.368439 0.173462
0.744324 0.367462 0.174225
0.000000 0.321411 0.180450
0.000000 0.353638 0.200500
0.120789 0.390442 0.183716
0.323700 0.427277 0.174500
0.452637 0.436188 0.160828
0.578094 0.462463 0.185760
0.662811 0.474396 0.202698
0.727997 0.475159 0.205231
0.781677 0.474152 0.205933
0.000000 0.390930 0.224823
0.000000 0.429230 0.244812
0.115295 0.469482 0.241821
0.332886 0.508423 0.225616
0.462280 0.529419 0.207855
0.569061 0.533020 0.194397
0.657867 0.546600 0.204407
0.745056 0.566162 0.223755
0.813263 0.574921 0.234528
0.000000 0.440643 0.266907
0.048981 0.480835 0.285919
0.141449 0.523712 0.292999
0.343475 0.571960 0.281342
0.470306 0.600616 0.259247
0.580078 0.617218 0.238434
0.658356 0.621948 0.226013
0.726135 0.617828 0.215485
0.802826 0.639496 0.237488
0.043274 0.491547 0.307190
0.091736 0.528595 0.323547
0.165833 0.570404 0.333496
0.351837 0.613617 0.327423
0.476746 0.649963 0.311707
0.583038 0.676697 0.293121
0.662079 0.688812 0.274963
0.731049 0.694611 0.258453
0.798401 0.689056 0.244385
0.084717 0.535980 0.343964
0.113617 0.566162 0.360443
0.173981 0.604156 0.371613
0.363312 0.644745 0.370514
0.482056 0.684540 0.356262
0.585358 0.717957 0.337769
0.663574 0.740692 0.319611
0.733154 0.754150 0.303314
0.799438 0.760864 0.288971
0.000000 0.014984 0.066742
0.000000 0.016541 0.078613
0.130798 0.029907 0.170471
0.280701 0.069305 0.162262
0.387634 0.094513 0.173889
0.464508 0.109100 0.179718
0.529907 0.119476 0.180847
0.583221 0.125854 0.181793
0.631378 0.130280 0.180847
0.000000 0.123016 0.159210
0.000000 0.057434 0.135651
0.083893 0.079071 0.209747
0.270935 0.115021 0.177063
0.380219 0.131927 0.187927
0.466705 0.145081 0.190521
0.536438 0.156830 0.191895
0.600433 0.166687 0.194427
0.650940 0.171814 0.193756
0.000000 0.131805 0.116394
0.000000 0.146698 0.162659
0.050507 0.185333 0.214722
0.303223 0.231659 0.229095
0.415924 0.242889 0.231415
0.510864 0.250488 0.229248
0.579926 0.254089 0.227448
0.642090 0.256683 0.226044
0.696442 0.257111 0.223389
0.000000 0.223297 0.168671
0.000000 0.228760 0.191895
0.035492 0.306488 0.242981
0.284485 0.335602 0.243866
0.448517 0.365875 0.273499
0.550323 0.374512 0.271179
0.622803 0.374786 0.266693
0.688171 0.374939 0.262329
0.742554 0.373199 0.258911
0.000000 0.305267 0.217651
0.000000 0.335571 0.250061
0.016815 0.404999 0.286285
0.287079 0.438843 0.282410
0.426025 0.446442 0.272858
0.569336 0.474640 0.297424
0.653564 0.484100 0.302612
0.720459 0.484375 0.298035
0.777649 0.481079 0.292877
0.000000 0.381012 0.261932
0.000000 0.420349 0.292114
0.014862 0.478912 0.322449
0.295441 0.520752 0.320831
0.434113 0.538055 0.307922
0.551849 0.543518 0.297333
0.651672 0.558105 0.306305
0.739685 0.578522 0.323395
0.806488 0.583527 0.326843
0.000000 0.438385 0.299500
0.000000 0.480469 0.327454
0.085175 0.530670 0.356934
0.307098 0.582794 0.357941
0.446747 0.610474 0.345428
0.561584 0.628479 0.334412
0.645294 0.630981 0.320587
0.722412 0.626007 0.312439
0.800964 0.650696 0.330994
0.007904 0.494720 0.336639
0.054291 0.530609 0.362885
0.114319 0.579529 0.389801
0.317749 0.625305 0.393707
0.454437 0.659729 0.382263
0.566498 0.685547 0.369934
0.649567 0.697937 0.355408
0.723450 0.704773 0.342987
0.789917 0.700134 0.332855
0.058044 0.538971 0.373993
0.089172 0.569122 0.395264
0.140594 0.610596 0.418304
0.333435 0.655273 0.429352
0.460815 0.695374 0.416229
0.570343 0.727295 0.404846
0.652374 0.749512 0.388916
0.721863 0.760590 0.375275
0.790314 0.766296 0.363495
0.000000 0.025238 0.148865
0.000000 0.027588 0.168915
0.070923 0.047058 0.254852
0.254395 0.071045 0.254517
0.381073 0.102631 0.248138
0.460876 0.113312 0.263641
0.528076 0.124817 0.268280
0.583405 0.132050 0.269012
0.631561 0.136719 0.268402
0.000000 0.160950 0.266815
0.000000 0.059875 0.192719
0.013062 0.077301 0.280609
0.223022 0.098022 0.289276
0.374329 0.126404 0.274017
0.462830 0.149200 0.274780
0.533386 0.161713 0.280426
0.595184 0.171051 0.282135
0.648865 0.177734 0.284241
0.000000 0.203033 0.242767
0.000000 0.196960 0.249756
0.013062 0.189423 0.327942
0.245483 0.206940 0.332947
0.410675 0.236816 0.312866
0.501251 0.251587 0.319885
0.570068 0.254303 0.318970
0.635559 0.258698 0.319427
0.688721 0.260254 0.317688
0.000000 0.193726 0.192322
0.000000 0.203796 0.213867
0.013062 0.276306 0.292175
0.258270 0.320404 0.319214
0.432678 0.369446 0.364014
0.537201 0.376862 0.365875
0.611053 0.378693 0.363586
0.677429 0.378937 0.359192
0.735229 0.378937 0.356598
0.000000 0.276489 0.233276
0.000000 0.284485 0.245453
0.013062 0.347198 0.298248
0.243378 0.438324 0.364532
0.404938 0.447113 0.361572
0.565460 0.486359 0.401337
0.640625 0.488281 0.397491
0.709900 0.489136 0.393097
0.769745 0.489441 0.389954
0.000000 0.355774 0.281738
0.000000 0.383392 0.307159
0.005615 0.436737 0.349121
0.254913 0.525421 0.398956
0.409760 0.543518 0.396057
0.534393 0.547974 0.388184
0.650269 0.572693 0.410370
0.735260 0.589722 0.424896
0.795959 0.591522 0.422760
0.000000 0.431000 0.324463
0.000000 0.466797 0.351990
0.004730 0.518188 0.390717
0.262970 0.587402 0.430756
0.420471 0.619232 0.429840
0.540405 0.634521 0.421021
0.629852 0.636322 0.410614
0.718018 0.637451 0.408936
0.799103 0.663452 0.430115
0.000000 0.489807 0.362122
0.004730 0.521210 0.386597
0.070526 0.570374 0.423767
0.277985 0.632416 0.457733
0.429230 0.668488 0.458069
0.546265 0.693420 0.450287
0.633484 0.706177 0.441162
0.708618 0.710907 0.429291
0.778198 0.709656 0.419586
0.037872 0.542023 0.398163
0.066742 0.568024 0.421417
0.120087 0.612183 0.452942
0.300598 0.664185 0.483734
0.437195 0.704376 0.483154
0.551514 0.736115 0.476715
0.637848 0.757507 0.466858
0.709198 0.768097 0.456390
0.778442 0.774139 0.446320
0.000000 0.031555 0.195587
0.000000 0.041748 0.231110
0.049652 0.062805 0.301605
0.218445 0.080536 0.324615
0.355560 0.101807 0.330353
0.456268 0.118866 0.332336
0.529327 0.127991 0.334137
0.583954 0.136261 0.341370
0.632202 0.140656 0.339935
0.000000 0.164368 0.317383
0.000000 0.063934 0.226562
0.000000 0.078613 0.329773
0.201874 0.097046 0.348053
0.327179 0.113312 0.355560
0.448059 0.142151 0.354858
0.534454 0.158295 0.356445
0.593994 0.174652 0.353668
0.647156 0.181152 0.356781
0.000000 0.235718 0.309204
0.000000 0.222076 0.307037
0.000000 0.180481 0.348328
0.218445 0.202942 0.401917
0.346802 0.211517 0.403900
0.481598 0.234985 0.400696
0.570648 0.247772 0.398956
0.630798 0.257202 0.393311
0.686279 0.261292 0.396820
0.000000 0.252502 0.290985
0.000000 0.259613 0.306580
0.000000 0.305725 0.358063
0.225006 0.314911 0.425476
0.386536 0.338806 0.437378
0.529785 0.375946 0.434113
0.601440 0.379333 0.441772
0.670807 0.380554 0.442596
0.729645 0.381897 0.440857
0.000000 0.251129 0.253113
0.000000 0.255646 0.264374
0.000000 0.314728 0.321869
0.197540 0.384125 0.385010
0.395172 0.441833 0.431458
0.550140 0.490082 0.482269
0.629852 0.492096 0.481201
0.699921 0.492554 0.479126
0.759369 0.491730 0.475769
0.000000 0.326385 0.283203
0.000000 0.338165 0.294403
0.000000 0.367493 0.320953
0.171906 0.477722 0.412384
0.389709 0.541260 0.466919
0.515442 0.547699 0.468079
0.652008 0.588745 0.509338
0.725006 0.596100 0.513123
0.786255 0.594482 0.507446
0.000000 0.405548 0.335358
0.000000 0.426208 0.354645
0.000000 0.460480 0.384766
0.188538 0.551575 0.445404
0.398499 0.621338 0.493561
0.524963 0.639008 0.496582
0.615997 0.639709 0.489441
0.724365 0.656158 0.508545
0.799988 0.677887 0.527435
0.000000 0.471924 0.377655
0.000000 0.495911 0.397736
0.000000 0.535004 0.429169
0.233582 0.611847 0.478424
0.406616 0.671692 0.515533
0.530396 0.699097 0.517853
0.620056 0.710999 0.513947
0.696228 0.716278 0.508057
0.767334 0.713623 0.499329
0.000000 0.528717 0.414001
0.000000 0.553131 0.433777
0.054932 0.590607 0.461578
0.259155 0.649628 0.503448
0.413391 0.706238 0.533356
0.535431 0.741333 0.538086
0.622375 0.760223 0.533264
0.695770 0.773010 0.526825
0.767365 0.778625 0.519989
0.000000 0.044739 0.233459
0.000000 0.059265 0.283691
0.067291 0.073639 0.340912
0.210083 0.092102 0.359100
0.320831 0.103546 0.377258
0.422699 0.119507 0.385315
0.509369 0.131317 0.396454
0.581329 0.136810 0.402588
0.638885 0.135956 0.404022
0.000000 0.125580 0.317719
0.000000 0.065643 0.259033
0.000000 0.080048 0.368713
0.190765 0.098389 0.384583
0.304169 0.115631 0.399902
0.410004 0.135223 0.410950
0.499115 0.152649 0.418732
0.586853 0.170380 0.424316
0.652618 0.177460 0.430847
0.000000 0.256805 0.359558
0.000000 0.240082 0.376160
0.000000 0.178040 0.375397
0.207672 0.200531 0.445587
0.328766 0.207977 0.453827
0.436829 0.216766 0.462158
0.529480 0.230774 0.464966
0.617432 0.244904 0.469116
0.689880 0.253326 0.470062
0.000000 0.302338 0.364777
0.000000 0.308838 0.375488
0.000000 0.332092 0.407990
0.153320 0.311035 0.477631
0.355865 0.330627 0.498383
0.477783 0.344635 0.500977
0.581543 0.364014 0.505951
0.668854 0.375793 0.509399
0.727966 0.380310 0.503357
0.000000 0.301727 0.335571
0.000000 0.314758 0.350586
0.000000 0.357452 0.394836
0.157501 0.415558 0.458984
0.356842 0.417511 0.504364
0.522705 0.464874 0.531311
0.617157 0.492310 0.537567
0.686798 0.493011 0.544037
0.754730 0.494476 0.546539
0.000000 0.311249 0.311462
0.000000 0.320740 0.321533
0.000000 0.353729 0.356567
0.161041 0.424164 0.408997
0.343292 0.504120 0.473846
0.528015 0.555847 0.540283
0.644470 0.593658 0.578918
0.712280 0.597473 0.579926
0.778442 0.597198 0.578796
0.000000 0.376068 0.328918
0.000000 0.387604 0.339966
0.000000 0.404846 0.356171
0.096405 0.492920 0.429291
0.352600 0.585083 0.510956
0.504547 0.631866 0.553070
0.599030 0.633850 0.552917
0.722717 0.668823 0.591217
0.800110 0.688171 0.606262
0.000000 0.451233 0.382111
0.000000 0.468872 0.397827
0.000000 0.498840 0.420868
0.141144 0.558350 0.463226
0.366669 0.646973 0.535034
0.515259 0.697388 0.574188
0.608337 0.711395 0.577179
0.682983 0.715332 0.574097
0.763458 0.716461 0.571747
0.000000 0.509155 0.421600
0.000000 0.526947 0.435516
0.000000 0.557983 0.457458
0.203033 0.615326 0.500122
0.377289 0.687500 0.552490
0.517670 0.739563 0.589142
0.611908 0.764679 0.593170
0.684753 0.774323 0.590332
0.757416 0.779724 0.585907
0.000000 0.061066 0.275970
0.000000 0.068939 0.341644
0.094666 0.084259 0.377197
0.210571 0.102997 0.387604
0.310913 0.114136 0.409180
0.388397 0.120178 0.425568
0.474548 0.131470 0.437714
0.550049 0.138367 0.449158
0.614288 0.141968 0.455566
0.000000 0.086517 0.306335
0.000000 0.071564 0.302948
0.032318 0.084717 0.402161
0.192719 0.104919 0.413635
0.297974 0.122528 0.433746
0.386688 0.135345 0.449585
0.464172 0.147125 0.462463
0.549530 0.161896 0.474335
0.620972 0.172485 0.482971
0.000000 0.271667 0.412506
0.000000 0.249451 0.446686
0.000000 0.172394 0.407928
0.208344 0.200684 0.479431
0.323639 0.206390 0.492523
0.418823 0.212372 0.504425
0.488861 0.212799 0.512360
0.574982 0.225464 0.520264
0.651276 0.237457 0.526520
0.000000 0.337402 0.422394
0.000000 0.347382 0.438080
0.000000 0.347900 0.451721
0.078125 0.305481 0.514069
0.343445 0.328369 0.542938
0.447998 0.331940 0.547607
0.528503 0.336304 0.553162
0.618317 0.350891 0.561707
0.702545 0.363708 0.568726
0.000000 0.362610 0.417389
0.000000 0.372375 0.428131
0.000000 0.394836 0.452484
0.132385 0.435730 0.503815
0.322083 0.419128 0.553894
0.469269 0.435211 0.574707
0.569031 0.453949 0.586456
0.667175 0.475952 0.599701
0.749237 0.487488 0.601532
0.000000 0.350891 0.377930
0.000000 0.362610 0.389679
0.000000 0.387146 0.413666
0.100281 0.453979 0.480011
0.308807 0.493317 0.519958
0.469116 0.512390 0.563934
0.639008 0.590698 0.622925
0.697632 0.595612 0.632080
0.763641 0.597504 0.637604
0.000000 0.367004 0.361938
0.000000 0.374756 0.371613
0.000000 0.387146 0.382111
0.121368 0.445923 0.415833
0.316010 0.546295 0.504303
0.482697 0.608398 0.573914
0.602020 0.637024 0.615326
0.721558 0.682129 0.665131
0.785217 0.687439 0.667328
0.000000 0.427094 0.374084
0.000000 0.434723 0.381378
0.000000 0.454376 0.398285
0.034698 0.504425 0.439331
0.319733 0.601929 0.528625
0.490845 0.677155 0.600189
0.590973 0.703400 0.627563
0.664093 0.706604 0.628510
0.778107 0.733459 0.657318
0.000000 0.489929 0.421844
0.000000 0.504608 0.432343
0.000000 0.525757 0.449036
0.137695 0.571716 0.483521
0.329651 0.646729 0.545959
0.489380 0.719330 0.610016
0.594757 0.756775 0.642822
0.669617 0.769806 0.648834
0.743042 0.778992 0.649017
0.000000 0.071075 0.327820
0.000000 0.076660 0.384491
0.123993 0.092590 0.399597
0.223114 0.109344 0.409729
0.312653 0.123718 0.426117
0.377045 0.127930 0.447327
0.442627 0.131958 0.466400
0.514862 0.138184 0.482147
0.577972 0.140259 0.493500
0.000000 0.073120 0.306335
0.000000 0.077148 0.349152
0.078125 0.093842 0.427094
0.207794 0.112213 0.438873
0.296906 0.128052 0.452789
0.378510 0.140869 0.473572
0.440552 0.147827 0.493195
0.511444 0.156555 0.512024
0.586945 0.168182 0.529572
0.000000 0.283173 0.485168
0.000000 0.215515 0.438629
0.000000 0.174896 0.437775
0.210388 0.199341 0.504608
0.322601 0.205200 0.515503
0.411377 0.209198 0.531708
0.473602 0.211334 0.545288
0.540741 0.214722 0.559509
0.611603 0.220093 0.569244
0.000000 0.364655 0.467285
0.000000 0.369690 0.476715
0.000000 0.351074 0.477295
0.032349 0.301727 0.537598
0.333801 0.326019 0.568420
0.441681 0.330658 0.580719
0.508270 0.329010 0.589752
0.575500 0.329315 0.599579
0.653442 0.339539 0.611115
0.000000 0.398010 0.469513
0.000000 0.411743 0.482697
0.000000 0.427246 0.501465
0.142822 0.448944 0.536377
0.292877 0.419556 0.583160
0.456543 0.433411 0.612701
0.533081 0.433899 0.618530
0.613800 0.447266 0.632568
0.695496 0.460358 0.645569
0.000000 0.413818 0.458649
0.000000 0.424500 0.471924
0.000000 0.440399 0.485229
0.098328 0.484680 0.529205
0.298767 0.508881 0.555725
0.428162 0.507812 0.595398
0.563141 0.534882 0.643860
0.660370 0.561005 0.664948
0.750488 0.584900 0.684143
0.000000 0.399231 0.416840
0.000000 0.408966 0.426849
0.000000 0.421753 0.437775
0.089569 0.476013 0.491089
0.288940 0.530609 0.537445
0.443451 0.585754 0.573456
0.563477 0.622345 0.623505
0.711212 0.680542 0.702789
0.768646 0.684692 0.712891
0.000000 0.418549 0.399933
0.000000 0.428375 0.410492
0.000000 0.436371 0.417572
0.104156 0.469940 0.432770
0.280151 0.559540 0.510284
0.458954 0.642517 0.597717
0.578217 0.690704 0.650757
0.650452 0.695923 0.667511
0.779053 0.745483 0.724609
0.000000 0.466949 0.409973
0.000000 0.479950 0.421173
0.000000 0.496582 0.435211
0.065063 0.531342 0.463898
0.289185 0.603668 0.532074
0.456970 0.683807 0.608887
0.578827 0.736298 0.663300
0.650360 0.758270 0.685242
0.723877 0.765198 0.690857
0.000000 0.077637 0.392639
0.045471 0.086975 0.408020
0.154633 0.100708 0.418976
0.239594 0.115692 0.428619
0.314392 0.130890 0.434326
0.370636 0.134796 0.457428
0.423340 0.136200 0.479370
0.487579 0.140717 0.498047
0.548615 0.143402 0.519623
0.000000 0.076172 0.343262
0.000000 0.082886 0.405823
0.112915 0.101868 0.451599
0.222260 0.118744 0.460419
0.303070 0.133606 0.464111
0.373932 0.145325 0.487305
0.431213 0.152557 0.509613
0.491608 0.158447 0.530670
0.554047 0.164368 0.551666
0.000000 0.256927 0.489380
0.000000 0.193939 0.443024
0.000000 0.177368 0.484436
0.221191 0.196747 0.521027
0.326782 0.203979 0.527496
0.408508 0.208160 0.545532
0.462982 0.209534 0.560211
0.524445 0.212738 0.578979
0.583740 0.214233 0.595001
0.000000 0.387299 0.503052
0.000000 0.385010 0.507477
0.000000 0.342377 0.492310
0.024445 0.299377 0.558319
0.326355 0.322083 0.582214
0.438629 0.327301 0.598907
0.499329 0.327789 0.609985
0.561005 0.326813 0.621246
0.620331 0.326813 0.636017
0.000000 0.432892 0.512695
0.000000 0.443176 0.524323
0.000000 0.455475 0.540955
0.151520 0.455994 0.557404
0.268768 0.420105 0.605408
0.440125 0.429810 0.632812
0.523621 0.432373 0.643829
0.584808 0.431396 0.652985
0.655823 0.439178 0.668671
0.000000 0.454346 0.509735
0.000000 0.462799 0.518066
0.000000 0.479309 0.531097
0.121399 0.510559 0.563171
0.297516 0.521210 0.576141
0.392242 0.500916 0.610687
0.538452 0.523071 0.664856
0.617371 0.536072 0.679382
0.699432 0.553223 0.700470
0.000000 0.454803 0.489319
0.000000 0.464996 0.499237
0.000000 0.483582 0.513580
0.071564 0.515167 0.542206
0.279999 0.548401 0.567352
0.412262 0.568085 0.589142
0.512207 0.578583 0.621399
0.662750 0.636536 0.709106
0.766541 0.679688 0.738495
0.000000 0.445099 0.452362
0.000000 0.452271 0.461884
0.000000 0.464844 0.471924
0.096710 0.496857 0.501617
0.273895 0.539276 0.532623
0.418060 0.607880 0.581329
0.536957 0.670471 0.651611
0.624725 0.689331 0.683228
0.777588 0.754486 0.768005
0.000000 0.466797 0.436615
0.000000 0.473785 0.443878
0.000000 0.484711 0.454071
0.099518 0.497894 0.451843
0.260620 0.565643 0.511902
0.425598 0.648254 0.599579
0.563507 0.715729 0.668793
0.640533 0.745270 0.702484
0.705780 0.751251 0.718079
