Fujifilm Eterna Vivid 160T (8543) - Only color.cube
# Created by Benjamin (IWLTBAP) : http://luts.iwltbap.com
# Copyright: (C) Copyright 2010-2017 Triune Films and IWLTBAP SAS
# Cannot be resold, shared or otherwise redistributed
TITLE "Film Print Emulation LUTs Pack (Rec.709, sRGB, DCI-P3)"
LUT_3D_SIZE 33
0.000793 0.000000 0.000000
0.022766 0.000000 0.000000
0.049469 0.002106 0.001709
0.073029 0.009064 0.003693
0.097107 0.012390 0.007355
0.118500 0.016449 0.011475
0.139679 0.018127 0.012939
0.159149 0.019684 0.013062
0.178223 0.019684 0.015778
0.196503 0.018921 0.017120
0.213867 0.018127 0.017181
0.230743 0.018127 0.018433
0.247528 0.017334 0.020599
0.263947 0.017334 0.022461
0.280182 0.018860 0.024323
0.296722 0.019653 0.028015
0.313507 0.021210 0.029877
0.330383 0.022003 0.031708
0.347748 0.023560 0.034485
0.364746 0.024353 0.036346
0.382294 0.025909 0.038208
0.399719 0.026672 0.040039
0.417267 0.028229 0.042847
0.435059 0.029022 0.044708
0.452850 0.029785 0.046570
0.470551 0.031342 0.048370
0.488129 0.032104 0.050140
0.505066 0.032104 0.051880
0.521332 0.034454 0.053589
0.536926 0.034424 0.055267
0.551819 0.035217 0.056885
0.566193 0.036743 0.058502
0.580353 0.037506 0.059296
0.000641 0.018829 0.000397
0.029205 0.024353 0.003540
0.054108 0.029846 0.009796
0.077850 0.035339 0.014008
0.101318 0.039948 0.015503
0.123505 0.044250 0.019287
0.145264 0.047638 0.019379
0.165680 0.048950 0.020508
0.185547 0.050232 0.020538
0.203766 0.050873 0.021515
0.222229 0.050873 0.023376
0.239563 0.050232 0.024323
0.256653 0.048920 0.026184
0.273590 0.049561 0.028015
0.290405 0.048920 0.030792
0.307190 0.048889 0.032623
0.324402 0.048248 0.034485
0.341675 0.048889 0.036346
0.359283 0.048889 0.040039
0.376923 0.048218 0.041901
0.394836 0.048859 0.043762
0.412720 0.049500 0.045624
0.430695 0.050140 0.047455
0.448730 0.050110 0.049225
0.466766 0.050751 0.050995
0.484772 0.051392 0.053558
0.502319 0.052002 0.055237
0.519470 0.053223 0.056885
0.535828 0.053833 0.058472
0.551239 0.054443 0.060059
0.566010 0.055664 0.060852
0.580353 0.056244 0.062378
0.594574 0.057434 0.063141
0.000336 0.040649 0.008240
0.034088 0.046234 0.015106
0.057037 0.052734 0.019043
0.082489 0.058136 0.022278
0.106018 0.063812 0.023254
0.128876 0.069641 0.024200
0.150696 0.073700 0.024231
0.171844 0.076630 0.026123
0.192047 0.078979 0.026154
0.211304 0.079895 0.027069
0.230103 0.080353 0.028015
0.248108 0.080353 0.028961
0.265747 0.079895 0.031708
0.283173 0.079437 0.033569
0.300629 0.078491 0.036346
0.318085 0.077057 0.038177
0.335724 0.076569 0.040955
0.353577 0.075134 0.043762
0.371521 0.074127 0.045624
0.389709 0.072632 0.047424
0.407928 0.072144 0.049225
0.426300 0.072632 0.050995
0.444641 0.072113 0.052704
0.463013 0.072632 0.055206
0.481323 0.073120 0.056854
0.499512 0.073608 0.058472
0.517242 0.073578 0.060059
0.534332 0.074066 0.061584
0.550598 0.074554 0.063110
0.565979 0.075043 0.063873
0.580841 0.076477 0.065338
0.595154 0.076965 0.066071
0.609344 0.077911 0.067505
0.004669 0.059845 0.021118
0.038788 0.068024 0.024017
0.061859 0.073639 0.026825
0.086548 0.081696 0.029663
0.110565 0.087433 0.029694
0.133545 0.093231 0.030670
0.155731 0.098328 0.030701
0.177795 0.102478 0.030731
0.198700 0.105408 0.030762
0.218414 0.107544 0.032623
0.237885 0.108948 0.033569
0.256653 0.109650 0.035431
0.274811 0.109283 0.038177
0.292908 0.108917 0.040039
0.310944 0.107849 0.042816
0.329071 0.106079 0.044678
0.347321 0.104614 0.046539
0.365631 0.102783 0.048340
0.384308 0.101288 0.050995
0.402985 0.100159 0.053528
0.421692 0.098633 0.056030
0.440582 0.098236 0.056061
0.459259 0.097839 0.058472
0.477936 0.097443 0.060028
0.496460 0.097046 0.063080
0.514832 0.096649 0.064575
0.532654 0.097046 0.066040
0.549744 0.097412 0.066772
0.566040 0.097809 0.068207
0.581512 0.098175 0.069580
0.596313 0.098572 0.070282
0.610687 0.099701 0.070953
0.624817 0.100433 0.072296
0.018127 0.080261 0.030426
0.044250 0.087799 0.033234
0.066864 0.094788 0.036041
0.091187 0.101715 0.037018
0.114380 0.108948 0.037079
0.138367 0.115753 0.037140
0.161316 0.121246 0.037170
0.183563 0.126221 0.037201
0.204834 0.130432 0.037231
0.225616 0.133331 0.038177
0.245453 0.135345 0.040039
0.264923 0.136749 0.040985
0.283936 0.137299 0.042847
0.302673 0.137299 0.045624
0.321289 0.136444 0.048340
0.340088 0.135590 0.050995
0.359131 0.133881 0.053558
0.377991 0.132416 0.055206
0.397247 0.130341 0.058441
0.416687 0.128571 0.060028
0.435944 0.127350 0.061584
0.455200 0.126129 0.063843
0.474304 0.124878 0.065308
0.493286 0.124878 0.066772
0.512177 0.123962 0.068878
0.530670 0.123322 0.070251
0.548615 0.123016 0.071594
0.565735 0.122986 0.072266
0.582123 0.123291 0.073608
0.597656 0.123627 0.074890
0.612579 0.123932 0.075531
0.626892 0.123901 0.076172
0.640991 0.124847 0.076782
0.026245 0.099396 0.037781
0.049255 0.107117 0.041534
0.071594 0.114380 0.043427
0.095276 0.121857 0.044434
0.119537 0.128937 0.045410
0.142792 0.136475 0.044525
0.166504 0.142822 0.044556
0.189178 0.148376 0.044586
0.210938 0.153503 0.044647
0.232147 0.157440 0.044647
0.252777 0.160339 0.045624
0.272797 0.162476 0.048340
0.292542 0.163879 0.049255
0.312012 0.164581 0.051849
0.331604 0.164581 0.055206
0.351044 0.163879 0.056854
0.370667 0.162689 0.059265
0.390442 0.161255 0.061584
0.410431 0.159790 0.063843
0.430237 0.158356 0.066040
0.450195 0.156860 0.067474
0.469910 0.156128 0.069550
0.489441 0.154877 0.070923
0.508850 0.154114 0.073578
0.527985 0.153381 0.074860
0.546692 0.152344 0.076141
0.564728 0.152100 0.076782
0.582092 0.151581 0.078003
0.598572 0.151062 0.079224
0.614258 0.150818 0.079834
0.629181 0.151062 0.080444
0.643433 0.151550 0.081024
0.657471 0.151825 0.082184
0.033997 0.117310 0.046112
0.054932 0.124634 0.048828
0.077332 0.132446 0.051483
0.100220 0.140076 0.052399
0.123962 0.147858 0.052460
0.147369 0.155731 0.053345
0.171173 0.162720 0.051697
0.194458 0.169220 0.051727
0.216888 0.174988 0.050903
0.238495 0.179962 0.051788
0.259766 0.183746 0.053528
0.280457 0.186829 0.054382
0.300873 0.188629 0.056030
0.321167 0.190033 0.057678
0.341278 0.191040 0.060822
0.361511 0.191010 0.063080
0.381836 0.190826 0.064575
0.402466 0.190002 0.068176
0.422974 0.189178 0.069550
0.443665 0.188171 0.071594
0.464081 0.187134 0.074219
0.484314 0.186127 0.075500
0.504272 0.185303 0.076752
0.524078 0.184448 0.079193
0.543518 0.183624 0.080414
0.562408 0.182770 0.082184
0.580688 0.181946 0.083344
0.598358 0.181305 0.083923
0.614990 0.180664 0.085052
0.630798 0.180237 0.085602
0.645569 0.180237 0.086182
0.659943 0.180664 0.086731
0.674103 0.180847 0.086731
0.039948 0.134399 0.053070
0.060333 0.141968 0.057220
0.081970 0.149628 0.059662
0.105286 0.157166 0.061249
0.128540 0.165283 0.061310
0.152252 0.173462 0.061340
0.175934 0.181427 0.059845
0.199585 0.188660 0.059113
0.222198 0.195190 0.059143
0.244415 0.200958 0.059174
0.266296 0.205414 0.059204
0.287537 0.209076 0.060791
0.308746 0.212097 0.062317
0.329529 0.214233 0.064575
0.350433 0.215790 0.066040
0.371277 0.216827 0.068176
0.392456 0.217163 0.070251
0.413666 0.217316 0.072937
0.434998 0.217133 0.074860
0.456207 0.216797 0.076752
0.477112 0.216248 0.078613
0.498047 0.215546 0.080994
0.518463 0.215179 0.082184
0.538544 0.214325 0.083893
0.558289 0.213776 0.085602
0.577515 0.213074 0.087250
0.596100 0.212158 0.088348
0.614014 0.211456 0.088898
0.630859 0.210907 0.089996
0.646759 0.210541 0.090515
0.661713 0.210541 0.091064
0.676178 0.210724 0.092133
0.690369 0.211090 0.092133
0.045868 0.150879 0.060333
0.066315 0.158112 0.064148
0.087891 0.165497 0.066376
0.109863 0.173431 0.068542
0.133240 0.181854 0.068604
0.156586 0.190460 0.068634
0.180573 0.198853 0.067291
0.204285 0.206909 0.066620
0.227386 0.214081 0.065918
0.250031 0.220306 0.065948
0.272278 0.225647 0.066711
0.294159 0.229919 0.066711
0.315826 0.233582 0.068848
0.337341 0.236420 0.069550
0.358948 0.238770 0.071594
0.380463 0.240601 0.073578
0.402130 0.241821 0.074860
0.424042 0.242706 0.076782
0.446014 0.243469 0.079224
0.467834 0.243774 0.081604
0.489319 0.243744 0.082764
0.510559 0.243744 0.085052
0.531525 0.243439 0.086731
0.551849 0.243134 0.088379
0.571991 0.242645 0.089996
0.591553 0.242188 0.092102
0.610626 0.241577 0.093140
0.628754 0.241119 0.093689
0.645721 0.240509 0.094727
0.661774 0.240479 0.095245
0.677032 0.240479 0.095734
0.691620 0.240631 0.096771
0.706085 0.240936 0.097290
0.052826 0.166168 0.066315
0.071930 0.173401 0.070526
0.093140 0.180756 0.073242
0.114868 0.188629 0.075226
0.137543 0.197327 0.075256
0.161041 0.206146 0.075287
0.185089 0.215118 0.074707
0.208679 0.223663 0.073425
0.232300 0.231689 0.072815
0.255219 0.238647 0.072845
0.277832 0.244446 0.072876
0.300171 0.249512 0.073547
0.322327 0.253723 0.074829
0.344452 0.257294 0.075500
0.366425 0.260254 0.076141
0.388672 0.262756 0.078003
0.410980 0.264801 0.079224
0.433563 0.266418 0.081024
0.456085 0.267792 0.082764
0.478271 0.268860 0.085052
0.500366 0.269501 0.087280
0.522095 0.270172 0.088379
0.543365 0.270447 0.090515
0.564148 0.270416 0.092621
0.584564 0.270294 0.093689
0.604523 0.270142 0.095734
0.623993 0.269989 0.096771
0.642273 0.269714 0.098267
0.659607 0.269440 0.098785
0.675873 0.269592 0.099762
0.691315 0.269714 0.100250
0.706177 0.270233 0.100769
0.720825 0.270782 0.101257
0.057343 0.180939 0.072510
0.077240 0.187805 0.076416
0.097870 0.195160 0.078918
0.119171 0.203003 0.081329
0.141510 0.211761 0.082520
0.165192 0.220978 0.082550
0.189148 0.230408 0.081421
0.213165 0.239868 0.080872
0.236664 0.248322 0.080292
0.260040 0.255890 0.079132
0.283051 0.262634 0.079163
0.305908 0.268250 0.079163
0.328461 0.273041 0.079773
0.351074 0.277100 0.080994
0.373474 0.280731 0.081573
0.396240 0.283783 0.082184
0.419159 0.286530 0.083923
0.442200 0.288788 0.085052
0.465057 0.290771 0.086731
0.487885 0.292480 0.087830
0.510345 0.293823 0.090027
0.532410 0.294922 0.091614
0.554016 0.295624 0.093689
0.575073 0.296234 0.095764
0.595917 0.296600 0.096771
0.616394 0.296814 0.098785
0.636047 0.297058 0.099762
0.654724 0.297180 0.100769
0.672241 0.297302 0.102234
0.688812 0.297638 0.103180
0.704559 0.298126 0.103668
0.719635 0.298584 0.104156
0.734344 0.299438 0.105103
0.063995 0.194763 0.078247
0.083435 0.201660 0.081879
0.103027 0.208862 0.084778
0.123627 0.216858 0.087555
0.145386 0.225647 0.088684
0.169037 0.235046 0.089783
0.192932 0.245056 0.088745
0.217041 0.254883 0.087677
0.240936 0.264160 0.086609
0.264648 0.272522 0.084961
0.287903 0.279846 0.084961
0.311218 0.286194 0.084991
0.334137 0.291565 0.084991
0.357056 0.296295 0.085571
0.380096 0.300385 0.086151
0.403198 0.304047 0.087250
0.426605 0.307281 0.087830
0.450012 0.310272 0.088898
0.473419 0.312683 0.090515
0.496552 0.314911 0.091583
0.519470 0.316711 0.093170
0.541809 0.318268 0.094238
0.563660 0.319489 0.096283
0.585175 0.320587 0.097778
0.606445 0.321350 0.099304
0.627197 0.321991 0.101257
0.647064 0.322540 0.102692
0.665985 0.323059 0.103668
0.683960 0.323517 0.104614
0.700836 0.324249 0.106018
0.716797 0.324921 0.106506
0.732056 0.325867 0.107422
0.747040 0.326752 0.107910
0.069305 0.208130 0.083588
0.087830 0.214905 0.087524
0.107086 0.221954 0.090240
0.127411 0.229919 0.093414
0.149414 0.238770 0.095490
0.172607 0.248779 0.096497
0.196655 0.259155 0.095520
0.220886 0.269592 0.095062
0.245148 0.279602 0.093536
0.269043 0.288605 0.092010
0.292572 0.296692 0.090454
0.316193 0.303589 0.090454
0.339508 0.309631 0.090454
0.362823 0.314972 0.089966
0.386200 0.319550 0.091034
0.409790 0.323700 0.091553
0.433441 0.327362 0.092102
0.457275 0.330566 0.092651
0.481049 0.333618 0.094208
0.504608 0.336334 0.094727
0.527802 0.338501 0.095764
0.550354 0.340454 0.097290
0.572540 0.342072 0.099304
0.594360 0.343597 0.100281
0.615997 0.344818 0.101257
0.637085 0.345825 0.103210
0.657318 0.346802 0.104614
0.676605 0.347809 0.105560
0.694824 0.348602 0.107422
0.712036 0.349487 0.107910
0.728241 0.350494 0.108826
0.743561 0.351654 0.109741
0.758881 0.352661 0.110626
0.074768 0.220947 0.088074
0.093109 0.227600 0.092316
0.110992 0.234863 0.096436
0.130829 0.242920 0.098938
0.152893 0.251862 0.101898
0.176086 0.261963 0.103333
0.200134 0.272949 0.103363
0.224640 0.283936 0.101959
0.248993 0.294617 0.099579
0.273224 0.304321 0.098633
0.297241 0.313171 0.096161
0.320984 0.320892 0.095642
0.344666 0.327515 0.095673
0.368317 0.333130 0.095184
0.392029 0.338257 0.096191
0.415985 0.342743 0.095734
0.440033 0.346771 0.096252
0.464203 0.350647 0.097260
0.488251 0.354004 0.097260
0.512115 0.356903 0.098785
0.535461 0.359619 0.099274
0.558319 0.362000 0.100281
0.580872 0.363983 0.101746
0.603119 0.365753 0.102722
0.624969 0.367371 0.104156
0.646393 0.368835 0.105103
0.666901 0.370148 0.106506
0.686462 0.371368 0.107910
0.705139 0.372559 0.109283
0.722565 0.373749 0.110199
0.738953 0.375031 0.110657
0.754547 0.376312 0.111542
0.770142 0.377594 0.112885
0.079956 0.233276 0.093872
0.097809 0.240143 0.096924
0.115112 0.247284 0.101349
0.134979 0.255310 0.105194
0.156311 0.264709 0.107971
0.179535 0.275055 0.109802
0.203735 0.286346 0.109833
0.228180 0.297882 0.108978
0.252777 0.309174 0.107178
0.277191 0.319885 0.104431
0.301514 0.329346 0.102539
0.325714 0.337646 0.101135
0.349762 0.344910 0.100159
0.373596 0.351196 0.100189
0.397766 0.356750 0.100189
0.422028 0.361755 0.100708
0.446350 0.366272 0.101196
0.470764 0.370209 0.101685
0.495209 0.373901 0.102203
0.519226 0.377289 0.102692
0.542847 0.380463 0.103180
0.565918 0.383057 0.103668
0.588745 0.385468 0.104156
0.611328 0.387512 0.105560
0.633636 0.389435 0.106506
0.655182 0.391174 0.107452
0.676056 0.392914 0.108826
0.696075 0.394470 0.109741
0.714935 0.395935 0.110657
0.732635 0.397308 0.112000
0.749176 0.398865 0.112885
0.765198 0.400299 0.113312
0.781006 0.401733 0.114197
0.085602 0.245636 0.097931
0.102020 0.252563 0.102783
0.119415 0.259857 0.106567
0.138000 0.267975 0.110657
0.159454 0.277405 0.114197
0.182709 0.288086 0.115936
0.206909 0.299683 0.116821
0.231659 0.311829 0.115570
0.256653 0.323853 0.113892
0.281372 0.335052 0.111725
0.305939 0.345306 0.109070
0.330353 0.354340 0.106812
0.354645 0.362335 0.105438
0.378906 0.369110 0.104980
0.403412 0.375122 0.104980
0.427765 0.380676 0.105469
0.452545 0.385590 0.105957
0.477112 0.389984 0.106415
0.501831 0.394012 0.105988
0.526154 0.397797 0.106445
0.549866 0.401123 0.106934
0.573334 0.404053 0.107422
0.596527 0.406738 0.107880
0.619415 0.409210 0.108337
0.641907 0.411438 0.108826
0.663788 0.413391 0.109741
0.685089 0.415344 0.111084
0.705383 0.417267 0.111969
0.724487 0.418976 0.112427
0.742340 0.420715 0.113312
0.759247 0.422241 0.114624
0.775574 0.423828 0.115509
0.791718 0.425415 0.116364
0.089935 0.257874 0.103729
0.106110 0.264709 0.107452
0.122742 0.272003 0.111542
0.141479 0.280365 0.115906
0.162750 0.290070 0.120087
0.185852 0.300995 0.122559
0.210236 0.313171 0.123779
0.235107 0.325684 0.123016
0.260345 0.338257 0.121429
0.285126 0.350220 0.118591
0.310059 0.361206 0.115662
0.334900 0.370972 0.113098
0.359558 0.379608 0.111359
0.384094 0.387115 0.110016
0.408783 0.393768 0.109131
0.433594 0.399719 0.109619
0.458496 0.404938 0.110077
0.483459 0.409821 0.110535
0.508331 0.414093 0.110992
0.532867 0.418213 0.111023
0.556915 0.421814 0.111023
0.580658 0.425049 0.111908
0.604187 0.428101 0.111481
0.627380 0.430756 0.111938
0.650208 0.433258 0.112396
0.672455 0.435638 0.112854
0.693939 0.437866 0.113739
0.714600 0.439911 0.114197
0.733917 0.441895 0.115051
0.752014 0.443695 0.116364
0.769196 0.445496 0.116791
0.785797 0.447296 0.117645
0.802185 0.448944 0.118500
0.094788 0.269989 0.108368
0.110382 0.276855 0.112396
0.126556 0.284424 0.117157
0.145111 0.292908 0.121704
0.166229 0.302765 0.125336
0.188934 0.314087 0.128448
0.213501 0.326447 0.130035
0.238495 0.339600 0.130035
0.263977 0.352661 0.128540
0.289185 0.365173 0.125854
0.314362 0.376862 0.122711
0.339417 0.387482 0.119049
0.364319 0.396881 0.116547
0.389252 0.405090 0.114441
0.414154 0.412231 0.114014
0.439331 0.418701 0.113586
0.464508 0.424377 0.114471
0.489655 0.429626 0.114929
0.514740 0.434357 0.115356
0.539581 0.438629 0.115814
0.563843 0.442596 0.115814
0.587891 0.446106 0.115845
0.611694 0.449463 0.116272
0.635284 0.452423 0.115875
0.658234 0.455292 0.116302
0.680939 0.457825 0.116760
0.702850 0.460358 0.117188
0.723663 0.462585 0.117188
0.743134 0.464661 0.117615
0.761536 0.466797 0.118896
0.778992 0.468719 0.119324
0.795776 0.470612 0.120148
0.812469 0.472290 0.120575
0.099426 0.281891 0.113281
0.114227 0.289215 0.117981
0.130005 0.296936 0.122498
0.148224 0.305603 0.126495
0.169006 0.315674 0.131104
0.191956 0.327209 0.134796
0.216370 0.339813 0.136627
0.241852 0.353271 0.137024
0.267395 0.366882 0.135620
0.292938 0.380219 0.133087
0.318390 0.392639 0.129364
0.343750 0.404022 0.125519
0.368805 0.414093 0.122742
0.394135 0.422943 0.120331
0.419464 0.430725 0.118713
0.444977 0.437683 0.118286
0.470337 0.443878 0.118317
0.495819 0.449493 0.118744
0.521240 0.454651 0.119598
0.546234 0.459290 0.120026
0.570862 0.463531 0.120453
0.595184 0.467377 0.120850
0.619385 0.470978 0.120453
0.643097 0.474243 0.120880
0.666534 0.477295 0.120911
0.689484 0.480103 0.120514
0.711609 0.482758 0.120941
0.732635 0.485199 0.121368
0.752350 0.487640 0.121368
0.770905 0.489716 0.121796
0.788513 0.491638 0.122192
0.805542 0.493561 0.122620
0.822388 0.495483 0.123047
0.103607 0.293884 0.117981
0.117676 0.301453 0.122498
0.133911 0.309296 0.127258
0.151733 0.318329 0.131836
0.172150 0.328491 0.136597
0.195160 0.340210 0.140137
0.219543 0.353271 0.142548
0.244843 0.366974 0.143250
0.270782 0.381134 0.142242
0.296631 0.394989 0.139526
0.322235 0.408203 0.136353
0.347900 0.420227 0.132385
0.373322 0.431061 0.128632
0.398926 0.440643 0.125946
0.424591 0.449127 0.123596
0.450348 0.456635 0.122803
0.476166 0.463409 0.122437
0.502014 0.469513 0.123260
0.527618 0.475037 0.123260
0.552856 0.480133 0.124084
0.577728 0.484558 0.125275
0.602386 0.488647 0.125671
0.626923 0.492523 0.125305
0.650879 0.496002 0.125702
0.674561 0.499207 0.125336
0.697876 0.502411 0.125336
0.720184 0.505188 0.124969
0.741425 0.507751 0.125366
0.761322 0.510101 0.125000
0.779968 0.512329 0.125397
0.797699 0.514435 0.125793
0.814697 0.516327 0.125427
0.831879 0.518219 0.125824
0.107330 0.306183 0.122894
0.121613 0.313751 0.127625
0.137482 0.321777 0.132202
0.154694 0.331055 0.137299
0.175262 0.341461 0.141815
0.198090 0.353271 0.145538
0.222656 0.366516 0.148193
0.248260 0.380676 0.149475
0.274139 0.395325 0.149170
0.300171 0.409760 0.146606
0.326172 0.423492 0.142975
0.351929 0.436127 0.138855
0.377594 0.447723 0.134979
0.403503 0.458099 0.131317
0.429596 0.467255 0.128693
0.455658 0.475464 0.127167
0.481781 0.482727 0.126801
0.507935 0.489258 0.126801
0.533844 0.495178 0.127594
0.559326 0.500549 0.128387
0.584595 0.505463 0.129150
0.609558 0.509796 0.129913
0.634277 0.513855 0.130310
0.658569 0.517639 0.130310
0.682556 0.521027 0.130341
0.705994 0.524323 0.129974
0.728546 0.527283 0.129974
0.749847 0.529999 0.129608
0.769836 0.532562 0.129639
0.788605 0.534729 0.129272
0.806366 0.536804 0.128906
0.823395 0.538788 0.128906
0.840546 0.540619 0.129303
0.111847 0.318237 0.127655
0.125458 0.326019 0.132202
0.140961 0.334412 0.136932
0.158325 0.343689 0.141815
0.178528 0.354248 0.146515
0.201202 0.366516 0.150726
0.225586 0.379883 0.153870
0.251343 0.394318 0.155426
0.277466 0.409363 0.155121
0.303680 0.424225 0.152985
0.329926 0.438507 0.149841
0.355865 0.451874 0.145660
0.381805 0.464203 0.141296
0.408020 0.475189 0.137146
0.434326 0.485107 0.134277
0.460754 0.493927 0.132111
0.487305 0.501770 0.130981
0.513763 0.508850 0.131012
0.540009 0.515198 0.131409
0.565765 0.520966 0.132141
0.591217 0.526184 0.133636
0.616547 0.530792 0.134369
0.641479 0.535095 0.134735
0.665985 0.539001 0.134735
0.690277 0.542694 0.135132
0.713867 0.546112 0.134766
0.736572 0.549225 0.134064
0.757874 0.552032 0.134064
0.777924 0.554565 0.132996
0.796722 0.556854 0.132996
0.814178 0.558868 0.133026
0.831207 0.560852 0.132660
0.848145 0.562683 0.132294
0.115356 0.330322 0.131836
0.129456 0.338379 0.136566
0.144135 0.347015 0.141479
0.161438 0.356384 0.146515
0.181519 0.367249 0.151337
0.204254 0.379517 0.155701
0.228638 0.393250 0.159027
0.254517 0.408020 0.161102
0.280884 0.423340 0.160797
0.307129 0.438507 0.159058
0.333527 0.453400 0.156067
0.359772 0.467407 0.152069
0.385956 0.480347 0.147949
0.412384 0.492065 0.143341
0.439026 0.502625 0.139618
0.465759 0.512115 0.137177
0.492706 0.520599 0.135773
0.519440 0.528290 0.134705
0.545868 0.535126 0.135071
0.571869 0.541229 0.135803
0.597717 0.546722 0.137238
0.623383 0.551727 0.137939
0.648376 0.556122 0.138641
0.673157 0.560242 0.139343
0.697601 0.564148 0.139709
0.721436 0.567566 0.139374
0.744110 0.570862 0.138702
0.765564 0.573730 0.138367
0.785492 0.576324 0.137665
0.804047 0.578583 0.136963
0.821350 0.580597 0.136993
0.837982 0.582550 0.135925
0.854553 0.584351 0.135956
0.119080 0.342377 0.136566
0.132599 0.350708 0.141449
0.147705 0.359497 0.145844
0.164703 0.369232 0.151001
0.184662 0.380341 0.155975
0.207245 0.392731 0.160461
0.231964 0.406708 0.163971
0.257812 0.421692 0.166260
0.284088 0.437225 0.166565
0.310669 0.452820 0.165161
0.337189 0.468109 0.162292
0.363556 0.482666 0.158173
0.389984 0.496246 0.153961
0.416626 0.508606 0.149567
0.443573 0.519867 0.145691
0.470642 0.529999 0.142700
0.497742 0.539154 0.140686
0.524780 0.547363 0.139313
0.551605 0.554626 0.139313
0.577911 0.561218 0.139313
0.604095 0.567017 0.140717
0.629883 0.572266 0.141754
0.655151 0.576996 0.142426
0.680115 0.581299 0.143127
0.704712 0.585358 0.143127
0.728546 0.588959 0.143127
0.751251 0.592255 0.142822
0.772675 0.595245 0.142151
0.792389 0.597870 0.141479
0.810669 0.600189 0.140808
0.827637 0.602173 0.140137
0.843689 0.604004 0.140137
0.859924 0.605865 0.139465
0.122986 0.354248 0.141144
0.136200 0.362854 0.145844
0.150757 0.372009 0.150696
0.168152 0.381958 0.155365
0.187958 0.393280 0.160461
0.210205 0.406036 0.165375
0.234955 0.420074 0.169037
0.261047 0.435211 0.171509
0.287537 0.450989 0.172058
0.314148 0.467133 0.170990
0.340912 0.482819 0.168243
0.367371 0.497742 0.164307
0.394043 0.511871 0.160278
0.420898 0.524780 0.155792
0.447998 0.536743 0.151794
0.475250 0.547546 0.147980
0.502625 0.557343 0.145050
0.529999 0.566132 0.143738
0.556915 0.573914 0.142731
0.583649 0.580933 0.142761
0.610046 0.587097 0.143433
0.636078 0.592651 0.144440
0.661560 0.597565 0.145447
0.686798 0.602051 0.146118
0.711487 0.606262 0.146759
0.735321 0.610077 0.146790
0.757935 0.613434 0.146790
0.779144 0.616486 0.146149
0.798645 0.619080 0.145508
0.816559 0.621429 0.144836
0.833069 0.623505 0.144196
0.848663 0.625305 0.143860
0.863983 0.626953 0.143219
0.126251 0.366150 0.145172
0.139709 0.375061 0.150055
0.154449 0.384399 0.154449
0.171112 0.394745 0.159882
0.190826 0.406281 0.164795
0.213470 0.419281 0.169861
0.238190 0.433441 0.173676
0.264252 0.448822 0.176605
0.290955 0.464844 0.177399
0.317841 0.481262 0.176605
0.344604 0.497223 0.173981
0.371216 0.512573 0.170471
0.398071 0.527069 0.166321
0.425018 0.540710 0.161743
0.452271 0.553253 0.157318
0.479736 0.564545 0.153351
0.507355 0.574982 0.150238
0.534851 0.584290 0.147705
0.562073 0.592651 0.146729
0.588989 0.600037 0.146088
0.615723 0.606628 0.146088
0.641968 0.612366 0.147064
0.667633 0.617706 0.148041
0.692932 0.622437 0.148712
0.717804 0.626770 0.149353
0.741516 0.630707 0.149994
0.764130 0.634247 0.149689
0.785156 0.637360 0.149689
0.804321 0.639984 0.149384
0.821625 0.642365 0.148773
0.837585 0.644348 0.148132
0.852539 0.646210 0.147491
0.867310 0.647827 0.147186
0.129730 0.377716 0.149414
0.142883 0.386963 0.153809
0.157623 0.396667 0.158691
0.174225 0.407227 0.163666
0.194214 0.419067 0.169006
0.216705 0.432281 0.174194
0.241547 0.446747 0.178406
0.267700 0.462280 0.181244
0.294556 0.478577 0.182526
0.321594 0.494934 0.182007
0.348541 0.511169 0.179474
0.375244 0.526947 0.176361
0.402130 0.542023 0.171844
0.429199 0.556030 0.167450
0.456482 0.569000 0.162903
0.484039 0.580994 0.158813
0.511749 0.591919 0.155212
0.539337 0.601746 0.152130
0.566742 0.610596 0.149963
0.593994 0.618530 0.148987
0.620911 0.625580 0.148682
