Fujifilm Eterna 250D (8563) - Only contrast.cube
# Created by Benjamin (IWLTBAP) : http://luts.iwltbap.com
# Copyright: (C) Copyright 2010-2017 Triune Films and IWLTBAP SAS
# Cannot be resold, shared or otherwise redistributed
TITLE "Film Print Emulation LUTs Pack (Rec.709, sRGB, DCI-P3)"
LUT_3D_SIZE 9
0.003357 0.003357 0.003357
0.064423 0.003326 0.003326
0.166473 0.003021 0.003021
0.294861 0.002533 0.002533
0.420074 0.002075 0.002075
0.529388 0.001709 0.001709
0.619324 0.001495 0.001495
0.688171 0.001434 0.001434
0.737610 0.001465 0.001465
0.003326 0.064423 0.003326
0.064545 0.064545 0.003326
0.166870 0.064392 0.002991
0.295349 0.064056 0.002502
0.420471 0.063751 0.002045
0.529663 0.063538 0.001678
0.619446 0.063477 0.001465
0.688171 0.063568 0.001404
0.737335 0.063812 0.001434
0.003021 0.166473 0.003021
0.064392 0.166870 0.002991
0.166992 0.166992 0.002686
0.295563 0.166962 0.002197
0.420563 0.166931 0.001740
0.529663 0.167023 0.001373
0.619263 0.167236 0.001160
0.687866 0.167603 0.001068
0.736755 0.168121 0.001129
0.002533 0.294861 0.002533
0.064056 0.295349 0.002502
0.166962 0.295563 0.002197
0.295593 0.295593 0.001709
0.420471 0.295624 0.001251
0.529449 0.295776 0.000885
0.618896 0.296082 0.000671
0.687408 0.296509 0.000580
0.736023 0.297089 0.000641
0.002075 0.420074 0.002075
0.063751 0.420471 0.002045
0.166931 0.420563 0.001740
0.295624 0.420471 0.001251
0.420441 0.420441 0.000763
0.529297 0.420471 0.000427
0.618591 0.420685 0.000183
0.686981 0.421021 0.000122
0.735291 0.421478 0.000183
0.001709 0.529388 0.001709
0.063538 0.529663 0.001678
0.167023 0.529663 0.001373
0.295776 0.529449 0.000885
0.420471 0.529297 0.000427
0.529266 0.529266 0.000061
0.618347 0.529327 0.000000
0.686646 0.529572 0.000000
0.734680 0.529938 0.000000
0.001495 0.619324 0.001495
0.063477 0.619446 0.001465
0.167236 0.619263 0.001160
0.296082 0.618896 0.000671
0.420685 0.618591 0.000183
0.529327 0.618347 0.000000
0.618286 0.618286 0.000000
0.686462 0.618317 0.000000
0.734192 0.618530 0.000000
0.001434 0.688171 0.001434
0.063568 0.688171 0.001404
0.167603 0.687866 0.001068
0.296509 0.687408 0.000580
0.421021 0.686981 0.000122
0.529572 0.686646 0.000000
0.618317 0.686462 0.000000
0.686401 0.686401 0.000000
0.733856 0.686493 0.000000
0.001465 0.737610 0.001465
0.063812 0.737335 0.001434
0.168121 0.736755 0.001129
0.297089 0.736023 0.000641
0.421478 0.735291 0.000183
0.529938 0.734680 0.000000
0.618530 0.734192 0.000000
0.686493 0.733856 0.000000
0.733612 0.733612 0.010040
0.003326 0.003326 0.064423
0.064545 0.003326 0.064545
0.166870 0.002991 0.064392
0.295349 0.002502 0.064056
0.420471 0.002045 0.063751
0.529663 0.001678 0.063538
0.619446 0.001465 0.063477
0.688171 0.001404 0.063568
0.737335 0.001434 0.063812
0.003326 0.064545 0.064545
0.064667 0.064667 0.064667
0.167297 0.064514 0.064514
0.295837 0.064178 0.064178
0.420837 0.063873 0.063873
0.529938 0.063690 0.063690
0.619537 0.063629 0.063629
0.688171 0.063721 0.063721
0.737061 0.063934 0.063934
0.002991 0.166870 0.064392
0.064514 0.167297 0.064514
0.167419 0.167419 0.064362
0.296051 0.167358 0.064026
0.420929 0.167328 0.063721
0.529907 0.167419 0.063507
0.619354 0.167664 0.063477
0.687866 0.168030 0.063568
0.736450 0.168518 0.063782
0.002502 0.295349 0.064056
0.064178 0.295837 0.064178
0.167358 0.296051 0.064026
0.296051 0.296051 0.063690
0.420868 0.296112 0.063385
0.529724 0.296265 0.063202
0.618988 0.296570 0.063141
0.687408 0.296997 0.063232
0.735718 0.297577 0.063477
0.002045 0.420471 0.063751
0.063873 0.420837 0.063873
0.167328 0.420929 0.063721
0.296112 0.420868 0.063385
0.420807 0.420807 0.063080
0.529572 0.420868 0.062897
0.618683 0.421051 0.062866
0.686951 0.421387 0.062958
0.734985 0.421844 0.063202
0.001678 0.529663 0.063538
0.063690 0.529938 0.063690
0.167419 0.529907 0.063507
0.296265 0.529724 0.063202
0.420868 0.529572 0.062897
0.529510 0.529510 0.062714
0.618439 0.529602 0.062683
0.686646 0.529816 0.062775
0.734375 0.530182 0.063019
0.001465 0.619446 0.063477
0.063629 0.619537 0.063629
0.167664 0.619354 0.063477
0.296570 0.618988 0.063141
0.421051 0.618683 0.062866
0.529602 0.618439 0.062683
0.618378 0.618378 0.062622
0.686432 0.618408 0.062744
0.733887 0.618622 0.062988
0.001404 0.688171 0.063568
0.063721 0.688171 0.063721
0.168030 0.687866 0.063568
0.296997 0.687408 0.063232
0.421387 0.686951 0.062958
0.529816 0.686646 0.062775
0.618408 0.686432 0.062744
0.686401 0.686401 0.062866
0.733551 0.686493 0.063110
0.001434 0.737335 0.063812
0.063934 0.737061 0.063934
0.168518 0.736450 0.063782
0.297577 0.735718 0.063477
0.421844 0.734985 0.063202
0.530182 0.734375 0.063019
0.618622 0.733887 0.062988
0.686493 0.733551 0.063110
0.733368 0.733368 0.063385
0.003021 0.003021 0.166473
0.064392 0.002991 0.166870
0.166992 0.002686 0.166992
0.295563 0.002197 0.166962
0.420563 0.001740 0.166931
0.529663 0.001373 0.167023
0.619263 0.001160 0.167236
0.687866 0.001068 0.167603
0.736755 0.001129 0.168121
0.002991 0.064392 0.166870
0.064514 0.064514 0.167297
0.167419 0.064362 0.167419
0.296051 0.064026 0.167358
0.420929 0.063721 0.167328
0.529907 0.063507 0.167419
0.619354 0.063477 0.167664
0.687866 0.063568 0.168030
0.736450 0.063782 0.168518
0.002686 0.166992 0.166992
0.064362 0.167419 0.167419
0.167542 0.167542 0.167542
0.296234 0.167480 0.167480
0.421021 0.167450 0.167450
0.529907 0.167542 0.167542
0.619171 0.167786 0.167786
0.687561 0.168152 0.168152
0.735870 0.168640 0.168640
0.002197 0.295563 0.166962
0.064026 0.296051 0.167358
0.167480 0.296234 0.167480
0.296265 0.296265 0.167419
0.420929 0.296295 0.167419
0.529694 0.296448 0.167511
0.618805 0.296753 0.167725
0.687103 0.297180 0.168091
0.735107 0.297760 0.168610
0.001740 0.420563 0.166931
0.063721 0.420929 0.167328
0.167450 0.421021 0.167450
0.296295 0.420929 0.167419
0.420898 0.420898 0.167389
0.529541 0.420929 0.167480
0.618469 0.421112 0.167725
0.686646 0.421448 0.168091
0.734406 0.421936 0.168610
0.001373 0.529663 0.167023
0.063507 0.529907 0.167419
0.167542 0.529907 0.167542
0.296448 0.529694 0.167511
0.420929 0.529541 0.167480
0.529480 0.529480 0.167572
0.618256 0.529572 0.167816
0.686340 0.529785 0.168182
0.733765 0.530151 0.168701
0.001160 0.619263 0.167236
0.063477 0.619354 0.167664
0.167786 0.619171 0.167786
0.296753 0.618805 0.167725
0.421112 0.618469 0.167725
0.529572 0.618256 0.167816
0.618164 0.618164 0.168030
0.686127 0.618225 0.168427
0.733307 0.618408 0.168945
0.001068 0.687866 0.167603
0.063568 0.687866 0.168030
0.168152 0.687561 0.168152
0.297180 0.687103 0.168091
0.421448 0.686646 0.168091
0.529785 0.686340 0.168182
0.618225 0.686127 0.168427
0.686096 0.686096 0.168793
0.732941 0.686188 0.169312
0.001129 0.736755 0.168121
0.063782 0.736450 0.168518
0.168640 0.735870 0.168640
0.297760 0.735107 0.168610
0.421936 0.734406 0.168610
0.530151 0.733765 0.168701
0.618408 0.733307 0.168945
0.686188 0.732941 0.169312
0.732758 0.732758 0.169861
0.002533 0.002533 0.294861
0.064056 0.002502 0.295349
0.166962 0.002197 0.295563
0.295593 0.001709 0.295593
0.420471 0.001251 0.295624
0.529449 0.000885 0.295776
0.618896 0.000671 0.296082
0.687408 0.000580 0.296509
0.736023 0.000641 0.297089
0.002502 0.064056 0.295349
0.064178 0.064178 0.295837
0.167358 0.064026 0.296051
0.296051 0.063690 0.296051
0.420868 0.063385 0.296112
0.529724 0.063202 0.296265
0.618988 0.063141 0.296570
0.687408 0.063232 0.296997
0.735718 0.063477 0.297577
0.002197 0.166962 0.295563
0.064026 0.167358 0.296051
0.167480 0.167480 0.296234
0.296265 0.167419 0.296265
0.420929 0.167419 0.296295
0.529694 0.167511 0.296448
0.618805 0.167725 0.296753
0.687103 0.168091 0.297180
0.735107 0.168610 0.297760
0.001709 0.295593 0.295593
0.063690 0.296051 0.296051
0.167419 0.296265 0.296265
0.296265 0.296265 0.296265
0.420868 0.296326 0.296326
0.529510 0.296478 0.296478
0.618439 0.296753 0.296753
0.686615 0.297211 0.297211
0.734344 0.297791 0.297791
0.001251 0.420471 0.295624
0.063385 0.420868 0.296112
0.167419 0.420929 0.296295
0.296326 0.420868 0.296326
0.420807 0.420807 0.296356
0.529358 0.420837 0.296509
0.618103 0.421051 0.296814
0.686188 0.421356 0.297241
0.733643 0.421844 0.297821
0.000885 0.529449 0.295776
0.063202 0.529724 0.296265
0.167511 0.529694 0.296448
0.296478 0.529510 0.296478
0.420837 0.529358 0.296509
0.529297 0.529297 0.296692
0.617889 0.529388 0.296967
0.685852 0.529602 0.297424
0.733002 0.529968 0.298004
0.000671 0.618896 0.296082
0.063141 0.618988 0.296570
0.167725 0.618805 0.296753
0.296753 0.618439 0.296753
0.421051 0.618103 0.296814
0.529388 0.617889 0.296967
0.617798 0.617798 0.297272
0.685669 0.617859 0.297699
0.732544 0.618042 0.298279
0.000580 0.687408 0.296509
0.063232 0.687408 0.296997
0.168091 0.687103 0.297180
0.297211 0.686615 0.297211
0.421356 0.686188 0.297241
0.529602 0.685852 0.297424
0.617859 0.685669 0.297699
0.685608 0.685608 0.298157
0.732178 0.685699 0.298737
0.000641 0.736023 0.297089
0.063477 0.735718 0.297577
0.168610 0.735107 0.297760
0.297791 0.734344 0.297791
0.421844 0.733643 0.297821
0.529968 0.733002 0.298004
0.618042 0.732544 0.298279
0.685699 0.732178 0.298737
0.731995 0.731995 0.299316
0.002075 0.002075 0.420074
0.063751 0.002045 0.420471
0.166931 0.001740 0.420563
0.295624 0.001251 0.420471
0.420441 0.000763 0.420441
0.529297 0.000427 0.420471
0.618591 0.000183 0.420685
0.686981 0.000122 0.421021
0.735291 0.000183 0.421478
0.002045 0.063751 0.420471
0.063873 0.063873 0.420837
0.167328 0.063721 0.420929
0.296112 0.063385 0.420868
0.420807 0.063080 0.420807
0.529572 0.062897 0.420868
0.618683 0.062866 0.421051
0.686951 0.062958 0.421387
0.734985 0.063202 0.421844
0.001740 0.166931 0.420563
0.063721 0.167328 0.420929
0.167450 0.167450 0.421021
0.296295 0.167419 0.420929
0.420898 0.167389 0.420898
0.529541 0.167480 0.420929
0.618469 0.167725 0.421112
0.686646 0.168091 0.421448
0.734406 0.168610 0.421936
0.001251 0.295624 0.420471
0.063385 0.296112 0.420868
0.167419 0.296295 0.420929
0.296326 0.296326 0.420868
0.420807 0.296356 0.420807
0.529358 0.296509 0.420837
0.618103 0.296814 0.421051
0.686188 0.297241 0.421356
0.733643 0.297821 0.421844
0.000763 0.420441 0.420441
0.063080 0.420807 0.420807
0.167389 0.420898 0.420898
0.296356 0.420807 0.420807
0.420746 0.420746 0.420746
0.529175 0.420807 0.420807
0.617767 0.420990 0.420990
0.685760 0.421326 0.421326
0.732910 0.421783 0.421783
0.000427 0.529297 0.420471
0.062897 0.529572 0.420868
0.167480 0.529541 0.420929
0.296509 0.529358 0.420837
0.420807 0.529175 0.420807
0.529144 0.529144 0.420837
0.617554 0.529205 0.421051
0.685425 0.529449 0.421356
0.732300 0.529816 0.421844
0.000183 0.618591 0.420685
0.062866 0.618683 0.421051
0.167725 0.618469 0.421112
0.296814 0.618103 0.421051
0.420990 0.617767 0.420990
0.529205 0.617554 0.421051
0.617462 0.617462 0.421234
0.685242 0.617523 0.421570
0.731812 0.617706 0.422028
0.000122 0.686981 0.421021
0.062958 0.686951 0.421387
0.168091 0.686646 0.421448
0.297241 0.686188 0.421356
0.421326 0.685760 0.421326
0.529449 0.685425 0.421356
0.617523 0.685242 0.421570
0.685181 0.685181 0.421906
0.731476 0.685272 0.422363
0.000183 0.735291 0.421478
0.063202 0.734985 0.421844
0.168610 0.734406 0.421936
0.297821 0.733643 0.421844
0.421783 0.732910 0.421783
0.529816 0.732300 0.421844
0.617706 0.731812 0.422028
0.685272 0.731476 0.422363
0.731262 0.731262 0.422852
0.001709 0.001709 0.529388
0.063538 0.001678 0.529663
0.167023 0.001373 0.529663
0.295776 0.000885 0.529449
0.420471 0.000427 0.529297
0.529266 0.000061 0.529266
0.618347 0.000000 0.529327
0.686646 0.000000 0.529572
0.734680 0.000000 0.529938
0.001678 0.063538 0.529663
0.063690 0.063690 0.529938
0.167419 0.063507 0.529907
0.296265 0.063202 0.529724
0.420868 0.062897 0.529572
0.529510 0.062714 0.529510
0.618439 0.062683 0.529602
0.686646 0.062775 0.529816
0.734375 0.063019 0.530182
0.001373 0.167023 0.529663
0.063507 0.167419 0.529907
0.167542 0.167542 0.529907
0.296448 0.167511 0.529694
0.420929 0.167480 0.529541
0.529480 0.167572 0.529480
0.618256 0.167816 0.529572
0.686340 0.168182 0.529785
0.733765 0.168701 0.530151
0.000885 0.295776 0.529449
0.063202 0.296265 0.529724
0.167511 0.296448 0.529694
0.296478 0.296478 0.529510
0.420837 0.296509 0.529358
0.529297 0.296692 0.529297
0.617889 0.296967 0.529388
0.685852 0.297424 0.529602
0.733002 0.298004 0.529968
0.000427 0.420471 0.529297
0.062897 0.420868 0.529572
0.167480 0.420929 0.529541
0.296509 0.420837 0.529358
0.420807 0.420807 0.529175
0.529144 0.420837 0.529144
0.617554 0.421051 0.529205
0.685425 0.421356 0.529449
0.732300 0.421844 0.529816
0.000061 0.529266 0.529266
0.062714 0.529510 0.529510
0.167572 0.529480 0.529480
0.296692 0.529297 0.529297
0.420837 0.529144 0.529144
0.529083 0.529083 0.529083
0.617340 0.529175 0.529175
0.685089 0.529388 0.529388
0.731659 0.529755 0.529755
0.000000 0.618347 0.529327
0.062683 0.618439 0.529602
0.167816 0.618256 0.529572
0.296967 0.617889 0.529388
0.421051 0.617554 0.529205
0.529175 0.617340 0.529175
0.617249 0.617249 0.529266
0.684906 0.617279 0.529480
0.731171 0.617493 0.529846
0.000000 0.686646 0.529572
0.062775 0.686646 0.529816
0.168182 0.686340 0.529785
0.297424 0.685852 0.529602
0.421356 0.685425 0.529449
0.529388 0.685089 0.529388
0.617279 0.684906 0.529480
0.684845 0.684845 0.529694
0.730835 0.684967 0.530090
0.000000 0.734680 0.529938
0.063019 0.734375 0.530182
0.168701 0.733765 0.530151
0.298004 0.733002 0.529968
0.421844 0.732300 0.529816
0.529755 0.731659 0.529755
0.617493 0.731171 0.529846
0.684967 0.730835 0.530090
0.730652 0.730652 0.530457
0.001495 0.001495 0.619324
0.063477 0.001465 0.619446
0.167236 0.001160 0.619263
0.296082 0.000671 0.618896
0.420685 0.000183 0.618591
0.529327 0.000000 0.618347
0.618286 0.000000 0.618286
0.686462 0.000000 0.618317
0.734192 0.000000 0.618530
0.001465 0.063477 0.619446
0.063629 0.063629 0.619537
0.167664 0.063477 0.619354
0.296570 0.063141 0.618988
0.421051 0.062866 0.618683
0.529602 0.062683 0.618439
0.618378 0.062622 0.618378
0.686432 0.062744 0.618408
0.733887 0.062988 0.618622
0.001160 0.167236 0.619263
0.063477 0.167664 0.619354
0.167786 0.167786 0.619171
0.296753 0.167725 0.618805
0.421112 0.167725 0.618469
0.529572 0.167816 0.618256
0.618164 0.168030 0.618164
0.686127 0.168427 0.618225
0.733307 0.168945 0.618408
0.000671 0.296082 0.618896
0.063141 0.296570 0.618988
0.167725 0.296753 0.618805
0.296753 0.296753 0.618439
0.421051 0.296814 0.618103
0.529388 0.296967 0.617889
0.617798 0.297272 0.617798
0.685669 0.297699 0.617859
0.732544 0.298279 0.618042
0.000183 0.420685 0.618591
0.062866 0.421051 0.618683
0.167725 0.421112 0.618469
0.296814 0.421051 0.618103
0.420990 0.420990 0.617767
0.529205 0.421051 0.617554
0.617462 0.421234 0.617462
0.685242 0.421570 0.617523
0.731812 0.422028 0.617706
0.000000 0.529327 0.618347
0.062683 0.529602 0.618439
0.167816 0.529572 0.618256
0.296967 0.529388 0.617889
0.421051 0.529205 0.617554
0.529175 0.529175 0.617340
0.617249 0.529266 0.617249
0.684906 0.529480 0.617279
0.731171 0.529846 0.617493
0.000000 0.618286 0.618286
0.062622 0.618378 0.618378
0.168030 0.618164 0.618164
0.297272 0.617798 0.617798
0.421234 0.617462 0.617462
0.529266 0.617249 0.617249
0.617157 0.617157 0.617157
0.684723 0.617218 0.617218
0.730713 0.617401 0.617401
0.000000 0.686462 0.618317
0.062744 0.686432 0.618408
0.168427 0.686127 0.618225
0.297699 0.685669 0.617859
0.421570 0.685242 0.617523
0.529480 0.684906 0.617279
0.617218 0.684723 0.617218
0.684662 0.684662 0.617279
0.730347 0.684784 0.617462
0.000000 0.734192 0.618530
0.062988 0.733887 0.618622
0.168945 0.733307 0.618408
0.298279 0.732544 0.618042
0.422028 0.731812 0.617706
0.529846 0.731171 0.617493
0.617401 0.730713 0.617401
0.684784 0.730347 0.617462
0.730164 0.730164 0.617676
0.001434 0.001434 0.688171
0.063568 0.001404 0.688171
0.167603 0.001068 0.687866
0.296509 0.000580 0.687408
0.421021 0.000122 0.686981
0.529572 0.000000 0.686646
0.618317 0.000000 0.686462
0.686401 0.000000 0.686401
0.733856 0.000000 0.686493
0.001404 0.063568 0.688171
0.063721 0.063721 0.688171
0.168030 0.063568 0.687866
0.296997 0.063232 0.687408
0.421387 0.062958 0.686951
0.529816 0.062775 0.686646
0.618408 0.062744 0.686432
0.686401 0.062866 0.686401
0.733551 0.063110 0.686493
0.001068 0.167603 0.687866
0.063568 0.168030 0.687866
0.168152 0.168152 0.687561
0.297180 0.168091 0.687103
0.421448 0.168091 0.686646
0.529785 0.168182 0.686340
0.618225 0.168427 0.686127
0.686096 0.168793 0.686096
0.732941 0.169312 0.686188
0.000580 0.296509 0.687408
0.063232 0.296997 0.687408
0.168091 0.297180 0.687103
0.297211 0.297211 0.686615
0.421356 0.297241 0.686188
0.529602 0.297424 0.685852
0.617859 0.297699 0.685669
0.685608 0.298157 0.685608
0.732178 0.298737 0.685699
0.000122 0.421021 0.686981
0.062958 0.421387 0.686951
0.168091 0.421448 0.686646
0.297241 0.421356 0.686188
0.421326 0.421326 0.685760
0.529449 0.421356 0.685425
0.617523 0.421570 0.685242
0.685181 0.421906 0.685181
0.731476 0.422363 0.685272
0.000000 0.529572 0.686646
0.062775 0.529816 0.686646
0.168182 0.529785 0.686340
0.297424 0.529602 0.685852
0.421356 0.529449 0.685425
0.529388 0.529388 0.685089
0.617279 0.529480 0.684906
0.684845 0.529694 0.684845
0.730835 0.530090 0.684967
0.000000 0.618317 0.686462
0.062744 0.618408 0.686432
0.168427 0.618225 0.686127
0.297699 0.617859 0.685669
0.421570 0.617523 0.685242
0.529480 0.617279 0.684906
0.617218 0.617218 0.684723
0.684662 0.617279 0.684662
0.730347 0.617462 0.684784
0.000000 0.686401 0.686401
0.062866 0.686401 0.686401
0.168793 0.686096 0.686096
0.298157 0.685608 0.685608
0.421906 0.685181 0.685181
0.529694 0.684845 0.684845
0.617279 0.684662 0.684662
0.684631 0.684631 0.684631
0.730011 0.684723 0.684723
0.000000 0.733856 0.686493
0.063110 0.733551 0.686493
0.169312 0.732941 0.686188
0.298737 0.732178 0.685699
0.422363 0.731476 0.685272
0.530090 0.730835 0.684967
0.617462 0.730347 0.684784
0.684723 0.730011 0.684723
0.729828 0.729828 0.684845
0.001465 0.001465 0.737610
0.063812 0.001434 0.737335
0.168121 0.001129 0.736755
0.297089 0.000641 0.736023
0.421478 0.000183 0.735291
0.529938 0.000000 0.734680
0.618530 0.000000 0.734192
0.686493 0.000000 0.733856
0.733673 0.000000 0.733673
0.001434 0.063812 0.737335
0.063934 0.063934 0.737061
0.168518 0.063782 0.736450
0.297577 0.063477 0.735718
0.421844 0.063202 0.734985
0.530182 0.063019 0.734375
0.618622 0.062988 0.733887
0.686493 0.063110 0.733551
0.733368 0.063385 0.733368
0.001129 0.168121 0.736755
0.063782 0.168518 0.736450
0.168640 0.168640 0.735870
0.297760 0.168610 0.735107
0.421936 0.168610 0.734406
0.530151 0.168701 0.733765
0.618408 0.168945 0.733307
0.686188 0.169312 0.732941
0.732758 0.169861 0.732758
0.000641 0.297089 0.736023
0.063477 0.297577 0.735718
0.168610 0.297760 0.735107
0.297791 0.297791 0.734344
0.421844 0.297821 0.733643
0.529968 0.298004 0.733002
0.618042 0.298279 0.732544
0.685699 0.298737 0.732178
0.731995 0.299316 0.731995
0.000183 0.421478 0.735291
0.063202 0.421844 0.734985
0.168610 0.421936 0.734406
0.297821 0.421844 0.733643
0.421783 0.421783 0.732910
0.529816 0.421844 0.732300
0.617706 0.422028 0.731812
0.685272 0.422363 0.731476
0.731262 0.422852 0.731262
0.000000 0.529938 0.734680
0.063019 0.530182 0.734375
0.168701 0.530151 0.733765
0.298004 0.529968 0.733002
0.421844 0.529816 0.732300
0.529755 0.529755 0.731659
0.617493 0.529846 0.731171
0.684967 0.530090 0.730835
0.730652 0.530457 0.730652
0.000000 0.618530 0.734192
0.062988 0.618622 0.733887
0.168945 0.618408 0.733307
0.298279 0.618042 0.732544
0.422028 0.617706 0.731812
0.529846 0.617493 0.731171
0.617401 0.617401 0.730713
0.684784 0.617462 0.730347
0.730164 0.617676 0.730164
0.000000 0.686493 0.733856
0.063110 0.686493 0.733551
0.169312 0.686188 0.732941
0.298737 0.685699 0.732178
0.422363 0.685272 0.731476
0.530090 0.684967 0.730835
0.617462 0.684784 0.730347
0.684723 0.684723 0.730011
0.729828 0.684845 0.729828
0.000000 0.733673 0.733673
0.063385 0.733368 0.733368
0.169861 0.732758 0.732758
0.299316 0.731995 0.731995
0.422852 0.731262 0.731262
0.530457 0.730652 0.730652
0.617676 0.730164 0.730164
0.684845 0.729828 0.729828
0.729645 0.729645 0.729645
