Fujifilm Eterna Vivid 160T (8543) - Only contrast.cube
# Created by Benjamin (IWLTBAP) : http://luts.iwltbap.com
# Copyright: (C) Copyright 2010-2017 Triune Films and IWLTBAP SAS
# Cannot be resold, shared or otherwise redistributed
TITLE "Film Print Emulation LUTs Pack (Rec.709, sRGB, DCI-P3)"
LUT_3D_SIZE 9
0.000244 0.000244 0.000244
0.089294 0.000183 0.000183
0.218231 0.000000 0.000000
0.368378 0.000000 0.000000
0.513214 0.000000 0.000000
0.651642 0.000000 0.000000
0.779388 0.000000 0.000000
0.890076 0.000000 0.000000
0.967438 0.000000 0.000000
0.000183 0.089294 0.000183
0.089417 0.089417 0.000122
0.218628 0.089264 0.000000
0.368805 0.088959 0.000000
0.513580 0.088684 0.000000
0.651947 0.088470 0.000000
0.779602 0.088348 0.000000
0.890106 0.088318 0.000000
0.967255 0.088562 0.000000
0.000000 0.218231 0.000000
0.089264 0.218628 0.000000
0.218750 0.218750 0.000000
0.368927 0.218750 0.000000
0.513672 0.218750 0.000000
0.651978 0.218842 0.000000
0.779541 0.218964 0.000000
0.889862 0.219238 0.000000
0.966797 0.219727 0.000000
0.000000 0.368378 0.000000
0.088959 0.368805 0.000000
0.218750 0.368927 0.000000
0.368927 0.368927 0.000000
0.513611 0.368958 0.000000
0.651855 0.369049 0.000000
0.779358 0.369202 0.000000
0.889465 0.369476 0.000000
0.966217 0.369965 0.000000
0.000000 0.513214 0.000000
0.088684 0.513580 0.000000
0.218750 0.513672 0.000000
0.368958 0.513611 0.000000
0.513580 0.513580 0.000000
0.651794 0.513611 0.000000
0.779205 0.513702 0.000000
0.889130 0.513916 0.000000
0.965668 0.514374 0.000000
0.000000 0.651642 0.000000
0.088470 0.651947 0.000000
0.218842 0.651978 0.000000
0.369049 0.651855 0.000000
0.513611 0.651794 0.000000
0.651764 0.651764 0.000000
0.779083 0.651794 0.000000
0.888824 0.651947 0.000000
0.965149 0.652344 0.000000
0.000000 0.779388 0.000000
0.088348 0.779602 0.000000
0.218964 0.779541 0.000000
0.369202 0.779358 0.000000
0.513702 0.779205 0.000000
0.651794 0.779083 0.000000
0.779053 0.779053 0.000000
0.888611 0.779114 0.000000
0.964722 0.779449 0.000000
0.000000 0.890076 0.000000
0.088318 0.890106 0.000000
0.219238 0.889862 0.000000
0.369476 0.889465 0.000000
0.513916 0.889130 0.000000
0.651947 0.888824 0.000000
0.779114 0.888611 0.000000
0.888489 0.888489 0.000000
0.964417 0.888611 0.000000
0.000000 0.967438 0.000000
0.088562 0.967255 0.000000
0.219727 0.966797 0.000000
0.369965 0.966217 0.000000
0.514374 0.965668 0.000000
0.652344 0.965149 0.000000
0.779449 0.964722 0.000000
0.888611 0.964417 0.000000
0.964325 0.964233 0.010559
0.000183 0.000183 0.089294
0.089417 0.000122 0.089417
0.218628 0.000000 0.089264
0.368805 0.000000 0.088959
0.513580 0.000000 0.088684
0.651947 0.000000 0.088470
0.779602 0.000000 0.088348
0.890106 0.000000 0.088318
0.967255 0.000000 0.088562
0.000122 0.089417 0.089417
0.089539 0.089539 0.089539
0.219025 0.089386 0.089386
0.369202 0.089081 0.089081
0.513947 0.088806 0.088806
0.652252 0.088593 0.088593
0.779816 0.088470 0.088470
0.890137 0.088470 0.088470
0.967072 0.088684 0.088684
0.000000 0.218628 0.089264
0.089386 0.219025 0.089386
0.219147 0.219147 0.089203
0.369324 0.219147 0.088928
0.514008 0.219177 0.088654
0.652252 0.219238 0.088440
0.779755 0.219391 0.088318
0.889893 0.219635 0.088318
0.966614 0.220123 0.088531
0.000000 0.368805 0.088959
0.089081 0.369202 0.089081
0.219147 0.369324 0.088928
0.369324 0.369324 0.088623
0.513947 0.369354 0.088379
0.652161 0.369446 0.088165
0.779572 0.369598 0.088013
0.889496 0.369873 0.088013
0.966034 0.370361 0.088257
0.000000 0.513580 0.088684
0.088806 0.513947 0.088806
0.219177 0.514008 0.088654
0.369354 0.513947 0.088379
0.513916 0.513916 0.088104
0.652069 0.513947 0.087921
0.779419 0.514038 0.087799
0.889160 0.514252 0.087769
0.965485 0.514709 0.088013
0.000000 0.651947 0.088470
0.088593 0.652252 0.088593
0.219238 0.652252 0.088440
0.369446 0.652161 0.088165
0.513947 0.652069 0.087921
0.652039 0.652039 0.087708
0.779297 0.652069 0.087585
0.888855 0.652252 0.087585
0.964966 0.652649 0.087830
0.000000 0.779602 0.088348
0.088470 0.779816 0.088470
0.219391 0.779755 0.088318
0.369598 0.779572 0.088013
0.514038 0.779419 0.087799
0.652069 0.779297 0.087585
0.779236 0.779236 0.087463
0.888611 0.779327 0.087463
0.964539 0.779633 0.087708
0.000000 0.890106 0.088318
0.088470 0.890137 0.088470
0.219635 0.889893 0.088318
0.369873 0.889496 0.088013
0.514252 0.889160 0.087769
0.652252 0.888855 0.087585
0.779327 0.888611 0.087463
0.888489 0.888489 0.087494
0.964233 0.888611 0.087738
0.000000 0.967255 0.088562
0.088684 0.967072 0.088684
0.220123 0.966614 0.088531
0.370361 0.966034 0.088257
0.514709 0.965485 0.088013
0.652649 0.964966 0.087830
0.779633 0.964539 0.087708
0.888611 0.964233 0.087738
0.964172 0.964172 0.087982
0.000000 0.000000 0.218231
0.089264 0.000000 0.218628
0.218750 0.000000 0.218750
0.368927 0.000000 0.218750
0.513672 0.000000 0.218750
0.651978 0.000000 0.218842
0.779541 0.000000 0.218964
0.889862 0.000000 0.219238
0.966797 0.000000 0.219727
0.000000 0.089264 0.218628
0.089386 0.089386 0.219025
0.219147 0.089203 0.219147
0.369324 0.088928 0.219147
0.514008 0.088654 0.219177
0.652252 0.088440 0.219238
0.779755 0.088318 0.219391
0.889893 0.088318 0.219635
0.966614 0.088531 0.220123
0.000000 0.218750 0.218750
0.089203 0.219147 0.219147
0.219269 0.219269 0.219269
0.369476 0.219269 0.219269
0.514099 0.219299 0.219299
0.652283 0.219360 0.219360
0.779694 0.219482 0.219482
0.889618 0.219757 0.219757
0.966156 0.220245 0.220245
0.000000 0.368927 0.218750
0.088928 0.369324 0.219147
0.219269 0.369476 0.219269
0.369476 0.369476 0.219238
0.514008 0.369507 0.219269
0.652161 0.369568 0.219330
0.779480 0.369720 0.219482
0.889221 0.369995 0.219757
0.965576 0.370483 0.220245
0.000000 0.513672 0.218750
0.088654 0.514008 0.219177
0.219299 0.514099 0.219299
0.369507 0.514008 0.219269
0.514008 0.514008 0.219299
0.652100 0.514008 0.219360
0.779327 0.514099 0.219513
0.888885 0.514343 0.219757
0.964996 0.514771 0.220276
0.000000 0.651978 0.218842
0.088440 0.652252 0.219238
0.219360 0.652283 0.219360
0.369568 0.652161 0.219330
0.514008 0.652100 0.219360
0.652039 0.652039 0.219421
0.779205 0.652100 0.219574
0.888580 0.652252 0.219849
0.964508 0.652649 0.220337
0.000000 0.779541 0.218964
0.088318 0.779755 0.219391
0.219482 0.779694 0.219482
0.369720 0.779480 0.219482
0.514099 0.779327 0.219513
0.652100 0.779205 0.219574
0.779175 0.779175 0.219727
0.888336 0.779266 0.220001
0.964081 0.779572 0.220490
0.000000 0.889862 0.219238
0.088318 0.889893 0.219635
0.219757 0.889618 0.219757
0.369995 0.889221 0.219757
0.514343 0.888885 0.219757
0.652252 0.888580 0.219849
0.779266 0.888336 0.220001
0.888214 0.888214 0.220276
0.963776 0.888336 0.220764
0.000000 0.966797 0.219727
0.088531 0.966614 0.220123
0.220245 0.966156 0.220245
0.370483 0.965576 0.220245
0.514771 0.964996 0.220276
0.652649 0.964508 0.220337
0.779572 0.964081 0.220490
0.888336 0.963776 0.220764
0.963684 0.963684 0.221283
0.000000 0.000000 0.368378
0.088959 0.000000 0.368805
0.218750 0.000000 0.368927
0.368927 0.000000 0.368927
0.513611 0.000000 0.368958
0.651855 0.000000 0.369049
0.779358 0.000000 0.369202
0.889465 0.000000 0.369476
0.966217 0.000000 0.369965
0.000000 0.088959 0.368805
0.089081 0.089081 0.369202
0.219147 0.088928 0.369324
0.369324 0.088623 0.369324
0.513947 0.088379 0.369354
0.652161 0.088165 0.369446
0.779572 0.088013 0.369598
0.889496 0.088013 0.369873
0.966034 0.088257 0.370361
0.000000 0.218750 0.368927
0.088928 0.219147 0.369324
0.219269 0.219269 0.369476
0.369476 0.219238 0.369476
0.514008 0.219269 0.369507
0.652161 0.219330 0.369568
0.779480 0.219482 0.369720
0.889221 0.219757 0.369995
0.965576 0.220245 0.370483
0.000000 0.368927 0.368927
0.088623 0.369324 0.369324
0.219238 0.369476 0.369476
0.369446 0.369446 0.369446
0.513947 0.369476 0.369476
0.652039 0.369568 0.369568
0.779297 0.369720 0.369720
0.888855 0.369995 0.369995
0.964966 0.370483 0.370483
0.000000 0.513611 0.368958
0.088379 0.513947 0.369354
0.219269 0.514008 0.369507
0.369476 0.513947 0.369476
0.513947 0.513947 0.369507
0.651978 0.513947 0.369598
0.779144 0.514038 0.369751
0.888489 0.514282 0.370026
0.964417 0.514709 0.370514
0.000000 0.651855 0.369049
0.088165 0.652161 0.369446
0.219330 0.652161 0.369568
0.369568 0.652039 0.369568
0.513947 0.651978 0.369598
0.651947 0.651947 0.369659
0.779022 0.651978 0.369812
0.888184 0.652130 0.370087
0.963898 0.652527 0.370605
0.000000 0.779358 0.369202
0.088013 0.779572 0.369598
0.219482 0.779480 0.369720
0.369720 0.779297 0.369720
0.514038 0.779144 0.369751
0.651978 0.779022 0.369812
0.778961 0.778961 0.369965
0.887939 0.779053 0.370239
0.963470 0.779358 0.370758
0.000000 0.889465 0.369476
0.088013 0.889496 0.369873
0.219757 0.889221 0.369995
0.369995 0.888855 0.369995
0.514282 0.888489 0.370026
0.652130 0.888184 0.370087
0.779053 0.887939 0.370239
0.887817 0.887817 0.370514
0.963165 0.887939 0.371033
0.000000 0.966217 0.369965
0.088257 0.966034 0.370361
0.220245 0.965576 0.370483
0.370483 0.964966 0.370483
0.514709 0.964417 0.370514
0.652527 0.963898 0.370605
0.779358 0.963470 0.370758
0.887939 0.963165 0.371033
0.963104 0.963104 0.371521
0.000000 0.000000 0.513214
0.088684 0.000000 0.513580
0.218750 0.000000 0.513672
0.368958 0.000000 0.513611
0.513580 0.000000 0.513580
0.651794 0.000000 0.513611
0.779205 0.000000 0.513702
0.889130 0.000000 0.513916
0.965668 0.000000 0.514374
0.000000 0.088684 0.513580
0.088806 0.088806 0.513947
0.219177 0.088654 0.514008
0.369354 0.088379 0.513947
0.513916 0.088104 0.513916
0.652069 0.087921 0.513947
0.779419 0.087799 0.514038
0.889160 0.087769 0.514252
0.965485 0.088013 0.514709
0.000000 0.218750 0.513672
0.088654 0.219177 0.514008
0.219299 0.219299 0.514099
0.369507 0.219269 0.514008
0.514008 0.219299 0.514008
0.652100 0.219360 0.514008
0.779327 0.219513 0.514099
0.888885 0.219757 0.514343
0.964996 0.220276 0.514771
0.000000 0.368958 0.513611
0.088379 0.369354 0.513947
0.219269 0.369507 0.514008
0.369476 0.369476 0.513947
0.513947 0.369507 0.513947
0.651978 0.369598 0.513947
0.779144 0.369751 0.514038
0.888489 0.370026 0.514282
0.964417 0.370514 0.514709
0.000000 0.513580 0.513580
0.088104 0.513916 0.513916
0.219299 0.514008 0.514008
0.369507 0.513947 0.513947
0.513916 0.513916 0.513916
0.651886 0.513947 0.513947
0.778961 0.514038 0.514038
0.888123 0.514252 0.514252
0.963867 0.514709 0.514709
0.000000 0.651794 0.513611
0.087921 0.652069 0.513947
0.219360 0.652100 0.514008
0.369598 0.651978 0.513947
0.513947 0.651886 0.513947
0.651855 0.651855 0.513947
0.778839 0.651886 0.514038
0.887817 0.652069 0.514282
0.963348 0.652466 0.514709
0.000000 0.779205 0.513702
0.087799 0.779419 0.514038
0.219513 0.779327 0.514099
0.369751 0.779144 0.514038
0.514038 0.778961 0.514038
0.651886 0.778839 0.514038
0.778809 0.778809 0.514160
0.887573 0.778900 0.514374
0.962921 0.779205 0.514832
0.000000 0.889130 0.513916
0.087769 0.889160 0.514252
0.219757 0.888885 0.514343
0.370026 0.888489 0.514282
0.514252 0.888123 0.514252
0.652069 0.887817 0.514282
0.778900 0.887573 0.514374
0.887482 0.887482 0.514587
0.962616 0.887573 0.515045
0.000000 0.965668 0.514374
0.088013 0.965485 0.514709
0.220276 0.964996 0.514771
0.370514 0.964417 0.514709
0.514709 0.963867 0.514709
0.652466 0.963348 0.514709
0.779205 0.962921 0.514832
0.887573 0.962616 0.515045
0.962555 0.962555 0.515503
0.000000 0.000000 0.651642
0.088470 0.000000 0.651947
0.218842 0.000000 0.651978
0.369049 0.000000 0.651855
0.513611 0.000000 0.651794
0.651764 0.000000 0.651764
0.779083 0.000000 0.651794
0.888824 0.000000 0.651947
0.965149 0.000000 0.652344
0.000000 0.088470 0.651947
0.088593 0.088593 0.652252
0.219238 0.088440 0.652252
0.369446 0.088165 0.652161
0.513947 0.087921 0.652069
0.652039 0.087708 0.652039
0.779297 0.087585 0.652069
0.888855 0.087585 0.652252
0.964966 0.087830 0.652649
0.000000 0.218842 0.651978
0.088440 0.219238 0.652252
0.219360 0.219360 0.652283
0.369568 0.219330 0.652161
0.514008 0.219360 0.652100
0.652039 0.219421 0.652039
0.779205 0.219574 0.652100
0.888580 0.219849 0.652252
0.964508 0.220337 0.652649
0.000000 0.369049 0.651855
0.088165 0.369446 0.652161
0.219330 0.369568 0.652161
0.369568 0.369568 0.652039
0.513947 0.369598 0.651978
0.651947 0.369659 0.651947
0.779022 0.369812 0.651978
0.888184 0.370087 0.652130
0.963898 0.370605 0.652527
0.000000 0.513611 0.651794
0.087921 0.513947 0.652069
0.219360 0.514008 0.652100
0.369598 0.513947 0.651978
0.513947 0.513947 0.651886
0.651855 0.513947 0.651855
0.778839 0.514038 0.651886
0.887817 0.514282 0.652069
0.963348 0.514709 0.652466
0.000000 0.651764 0.651764
0.087708 0.652039 0.652039
0.219421 0.652039 0.652039
0.369659 0.651947 0.651947
0.513947 0.651855 0.651855
0.651825 0.651825 0.651825
0.778748 0.651855 0.651855
0.887512 0.652039 0.652039
0.962860 0.652435 0.652435
0.000000 0.779083 0.651794
0.087585 0.779297 0.652069
0.219574 0.779205 0.652100
0.369812 0.779022 0.651978
0.514038 0.778839 0.651886
0.651855 0.778748 0.651855
0.778687 0.778687 0.651917
0.887268 0.778778 0.652069
0.962433 0.779083 0.652466
0.000000 0.888824 0.651947
0.087585 0.888855 0.652252
0.219849 0.888580 0.652252
0.370087 0.888184 0.652130
0.514282 0.887817 0.652069
0.652039 0.887512 0.652039
0.778778 0.887268 0.652069
0.887146 0.887146 0.652252
0.962128 0.887268 0.652649
0.000000 0.965149 0.652344
0.087830 0.964966 0.652649
0.220337 0.964508 0.652649
0.370605 0.963898 0.652527
0.514709 0.963348 0.652466
0.652435 0.962860 0.652435
0.779083 0.962433 0.652466
0.887268 0.962128 0.652649
0.962036 0.962036 0.653046
0.000000 0.000000 0.779388
0.088348 0.000000 0.779602
0.218964 0.000000 0.779541
0.369202 0.000000 0.779358
0.513702 0.000000 0.779205
0.651794 0.000000 0.779083
0.779053 0.000000 0.779053
0.888611 0.000000 0.779114
0.964722 0.000000 0.779449
0.000000 0.088348 0.779602
0.088470 0.088470 0.779816
0.219391 0.088318 0.779755
0.369598 0.088013 0.779572
0.514038 0.087799 0.779419
0.652069 0.087585 0.779297
0.779236 0.087463 0.779236
0.888611 0.087463 0.779327
0.964539 0.087708 0.779633
0.000000 0.218964 0.779541
0.088318 0.219391 0.779755
0.219482 0.219482 0.779694
0.369720 0.219482 0.779480
0.514099 0.219513 0.779327
0.652100 0.219574 0.779205
0.779175 0.219727 0.779175
0.888336 0.220001 0.779266
0.964081 0.220490 0.779572
0.000000 0.369202 0.779358
0.088013 0.369598 0.779572
0.219482 0.369720 0.779480
0.369720 0.369720 0.779297
0.514038 0.369751 0.779144
0.651978 0.369812 0.779022
0.778961 0.369965 0.778961
0.887939 0.370239 0.779053
0.963470 0.370758 0.779358
0.000000 0.513702 0.779205
0.087799 0.514038 0.779419
0.219513 0.514099 0.779327
0.369751 0.514038 0.779144
0.514038 0.514038 0.778961
0.651886 0.514038 0.778839
0.778809 0.514160 0.778809
0.887573 0.514374 0.778900
0.962921 0.514832 0.779205
0.000000 0.651794 0.779083
0.087585 0.652069 0.779297
0.219574 0.652100 0.779205
0.369812 0.651978 0.779022
0.514038 0.651886 0.778839
0.651855 0.651855 0.778748
0.778687 0.651917 0.778687
0.887268 0.652069 0.778778
0.962433 0.652466 0.779083
0.000000 0.779053 0.779053
0.087463 0.779236 0.779236
0.219727 0.779175 0.779175
0.369965 0.778961 0.778961
0.514160 0.778809 0.778809
0.651917 0.778687 0.778687
0.778656 0.778656 0.778656
0.887024 0.778748 0.778748
0.962006 0.779053 0.779053
0.000000 0.888611 0.779114
0.087463 0.888611 0.779327
0.220001 0.888336 0.779266
0.370239 0.887939 0.779053
0.514374 0.887573 0.778900
0.652069 0.887268 0.778778
0.778748 0.887024 0.778748
0.886902 0.886902 0.778809
0.961700 0.887024 0.779144
0.000000 0.964722 0.779449
0.087708 0.964539 0.779633
0.220490 0.964081 0.779572
0.370758 0.963470 0.779358
0.514832 0.962921 0.779205
0.652466 0.962433 0.779083
0.779053 0.962006 0.779053
0.887024 0.961700 0.779144
0.961609 0.961609 0.779449
0.000000 0.000000 0.890076
0.088318 0.000000 0.890106
0.219238 0.000000 0.889862
0.369476 0.000000 0.889465
0.513916 0.000000 0.889130
0.651947 0.000000 0.888824
0.779114 0.000000 0.888611
0.888489 0.000000 0.888489
0.964417 0.000000 0.888611
0.000000 0.088318 0.890106
0.088470 0.088470 0.890137
0.219635 0.088318 0.889893
0.369873 0.088013 0.889496
0.514252 0.087769 0.889160
0.652252 0.087585 0.888855
0.779327 0.087463 0.888611
0.888489 0.087494 0.888489
0.964233 0.087738 0.888611
0.000000 0.219238 0.889862
0.088318 0.219635 0.889893
0.219757 0.219757 0.889618
0.369995 0.219757 0.889221
0.514343 0.219757 0.888885
0.652252 0.219849 0.888580
0.779266 0.220001 0.888336
0.888214 0.220276 0.888214
0.963776 0.220764 0.888336
0.000000 0.369476 0.889465
0.088013 0.369873 0.889496
0.219757 0.369995 0.889221
0.369995 0.369995 0.888855
0.514282 0.370026 0.888489
0.652130 0.370087 0.888184
0.779053 0.370239 0.887939
0.887817 0.370514 0.887817
0.963165 0.371033 0.887939
0.000000 0.513916 0.889130
0.087769 0.514252 0.889160
0.219757 0.514343 0.888885
0.370026 0.514282 0.888489
0.514252 0.514252 0.888123
0.652069 0.514282 0.887817
0.778900 0.514374 0.887573
0.887482 0.514587 0.887482
0.962616 0.515045 0.887573
0.000000 0.651947 0.888824
0.087585 0.652252 0.888855
0.219849 0.652252 0.888580
0.370087 0.652130 0.888184
0.514282 0.652069 0.887817
0.652039 0.652039 0.887512
0.778778 0.652069 0.887268
0.887146 0.652252 0.887146
0.962128 0.652649 0.887268
0.000000 0.779114 0.888611
0.087463 0.779327 0.888611
0.220001 0.779266 0.888336
0.370239 0.779053 0.887939
0.514374 0.778900 0.887573
0.652069 0.778778 0.887268
0.778748 0.778748 0.887024
0.886902 0.778809 0.886902
0.961700 0.779144 0.887024
0.000000 0.888489 0.888489
0.087494 0.888489 0.888489
0.220276 0.888214 0.888214
0.370514 0.887817 0.887817
0.514587 0.887482 0.887482
0.652252 0.887146 0.887146
0.778809 0.886902 0.886902
0.886810 0.886810 0.886810
0.961395 0.886902 0.886902
0.000000 0.964417 0.888611
0.087738 0.964233 0.888611
0.220764 0.963776 0.888336
0.371033 0.963165 0.887939
0.515045 0.962616 0.887573
0.652649 0.962128 0.887268
0.779144 0.961700 0.887024
0.886902 0.961395 0.886902
0.961334 0.961334 0.887024
0.000000 0.000000 0.967407
0.088562 0.000000 0.967255
0.219727 0.000000 0.966797
0.369965 0.000000 0.966217
0.514374 0.000000 0.965668
0.652344 0.000000 0.965149
0.779449 0.000000 0.964722
0.888611 0.000000 0.964417
0.964355 0.000000 0.964355
0.000000 0.088562 0.967255
0.088684 0.088684 0.967072
0.220123 0.088531 0.966614
0.370361 0.088257 0.966034
0.514709 0.088013 0.965485
0.652649 0.087830 0.964966
0.779633 0.087708 0.964539
0.888611 0.087738 0.964233
0.964172 0.087982 0.964172
0.000000 0.219727 0.966797
0.088531 0.220123 0.966614
0.220245 0.220245 0.966156
0.370483 0.220245 0.965576
0.514771 0.220276 0.964996
0.652649 0.220337 0.964508
0.779572 0.220490 0.964081
0.888336 0.220764 0.963776
0.963684 0.221283 0.963684
0.000000 0.369965 0.966217
0.088257 0.370361 0.966034
0.220245 0.370483 0.965576
0.370483 0.370483 0.964966
0.514709 0.370514 0.964417
0.652527 0.370605 0.963898
0.779358 0.370758 0.963470
0.887939 0.371033 0.963165
0.963104 0.371521 0.963104
0.000000 0.514374 0.965668
0.088013 0.514709 0.965485
0.220276 0.514771 0.964996
0.370514 0.514709 0.964417
0.514709 0.514709 0.963867
0.652466 0.514709 0.963348
0.779205 0.514832 0.962921
0.887573 0.515045 0.962616
0.962555 0.515503 0.962555
0.000000 0.652344 0.965149
0.087830 0.652649 0.964966
0.220337 0.652649 0.964508
0.370605 0.652527 0.963898
0.514709 0.652466 0.963348
0.652435 0.652435 0.962860
0.779083 0.652466 0.962433
0.887268 0.652649 0.962128
0.962036 0.653046 0.962036
0.000000 0.779449 0.964722
0.087708 0.779633 0.964539
0.220490 0.779572 0.964081
0.370758 0.779358 0.963470
0.514832 0.779205 0.962921
0.652466 0.779083 0.962433
0.779053 0.779053 0.962006
0.887024 0.779144 0.961700
0.961609 0.779449 0.961609
0.000000 0.888611 0.964417
0.087738 0.888611 0.964233
0.220764 0.888336 0.963776
0.371033 0.887939 0.963165
0.515045 0.887573 0.962616
0.652649 0.887268 0.962128
0.779144 0.887024 0.961700
0.886902 0.886902 0.961395
0.961334 0.887024 0.961334
0.000000 0.964355 0.964355
0.087982 0.964172 0.964172
0.221283 0.963684 0.963684
0.371521 0.963104 0.963104
0.515503 0.962555 0.962555
0.653046 0.962036 0.962036
0.779449 0.961609 0.961609
0.887024 0.961334 0.961334
0.961273 0.961273 0.961273
