Fujifilm Eterna 250D (8563) - Look.cube
# Created by Benjamin (IWLTBAP) : http://luts.iwltbap.com
# Copyright: (C) Copyright 2010-2017 Triune Films and IWLTBAP SAS
# Cannot be resold, shared or otherwise redistributed
TITLE "Film Print Emulation LUTs Pack (Rec.709, sRGB, DCI-P3)"
LUT_3D_SIZE 33
0.000000 0.000671 0.003326
0.008453 0.000580 0.002869
0.016937 0.003448 0.009766
0.025391 0.005737 0.018951
0.045959 0.009766 0.016663
0.074951 0.017242 0.020691
0.117676 0.024139 0.029877
0.156250 0.031525 0.037170
0.193268 0.043640 0.044922
0.220673 0.051025 0.049835
0.255707 0.060730 0.055145
0.284424 0.068085 0.058350
0.315033 0.076202 0.061737
0.342804 0.082825 0.064362
0.364288 0.087555 0.065948
0.383148 0.091095 0.067200
0.400696 0.094299 0.068420
0.419556 0.097839 0.069916
0.434723 0.100189 0.070801
0.452148 0.103119 0.071960
0.470032 0.106354 0.073425
0.486389 0.109100 0.074554
0.500061 0.110840 0.075104
0.513031 0.112366 0.075928
0.524780 0.113678 0.076477
0.537933 0.115143 0.077026
0.549530 0.116241 0.077576
0.562744 0.117889 0.078400
0.573883 0.118774 0.078644
0.585205 0.119843 0.079193
0.596313 0.120697 0.079437
0.609863 0.122437 0.080231
0.621033 0.123291 0.080780
0.000000 0.006287 0.011810
0.007843 0.010193 0.005890
0.016937 0.010773 0.005737
0.025391 0.012482 0.010925
0.033875 0.015350 0.021851
0.062469 0.022247 0.016663
0.098663 0.029144 0.025299
0.134949 0.034332 0.032074
0.175690 0.045166 0.040497
0.209534 0.055084 0.047028
0.239685 0.063263 0.052185
0.269470 0.071198 0.056244
0.299103 0.078979 0.059387
0.328888 0.086578 0.062408
0.353943 0.092285 0.064697
0.374023 0.096252 0.066254
0.392883 0.100006 0.067505
0.411804 0.103638 0.069031
0.429504 0.106720 0.070221
0.444458 0.109070 0.071106
0.463196 0.112579 0.072540
0.479523 0.115204 0.073425
0.494843 0.117554 0.074554
0.508545 0.119293 0.075104
0.522736 0.121368 0.076202
0.535828 0.122864 0.076752
0.549530 0.124695 0.077576
0.563080 0.126495 0.078400
0.574158 0.127411 0.078644
0.587830 0.129150 0.079437
0.598846 0.130035 0.079987
0.612579 0.131744 0.080780
0.626190 0.133636 0.081543
0.000000 0.032318 0.025238
0.002106 0.024048 0.017639
0.015686 0.030457 0.013580
0.025391 0.029572 0.014923
0.039612 0.031891 0.018951
0.063049 0.037628 0.020691
0.096588 0.043945 0.028168
0.134949 0.052124 0.035187
0.170868 0.061432 0.042297
0.205200 0.068726 0.047852
0.233948 0.073181 0.051788
0.263794 0.078033 0.055176
0.293518 0.085327 0.058716
0.323242 0.092865 0.061768
0.352539 0.100250 0.064362
0.373627 0.104706 0.065948
0.394043 0.108734 0.067505
0.414124 0.112793 0.069305
0.431671 0.116058 0.070496
0.449249 0.119202 0.071686
0.467010 0.122284 0.072845
0.481964 0.124481 0.073975
0.500702 0.128143 0.075378
0.513580 0.129669 0.075928
0.529724 0.132263 0.077026
0.543457 0.134094 0.077850
0.557098 0.135681 0.078644
0.568329 0.136749 0.079193
0.581787 0.138519 0.079987
0.595215 0.140045 0.080780
0.606720 0.141083 0.081299
0.620209 0.142944 0.082062
0.631409 0.143768 0.082306
0.000000 0.057434 0.041748
0.000000 0.046875 0.035461
0.008850 0.046448 0.024353
0.023529 0.052460 0.021240
0.033875 0.059052 0.024719
0.070496 0.058533 0.027588
0.101440 0.065460 0.034180
0.139008 0.072845 0.040497
0.172699 0.080933 0.046204
0.208740 0.087830 0.051392
0.241516 0.094116 0.055511
0.270813 0.099670 0.058685
0.300903 0.105377 0.061401
0.326355 0.108215 0.063049
0.356384 0.113647 0.065613
0.380432 0.116730 0.067200
0.400208 0.119476 0.068420
0.419342 0.123230 0.069916
0.438263 0.126648 0.071381
0.455872 0.129944 0.072540
0.472168 0.132538 0.073700
0.488800 0.135284 0.074829
0.505127 0.137939 0.075928
0.521423 0.140717 0.077026
0.536804 0.143097 0.078125
0.550598 0.144867 0.078918
0.562988 0.146271 0.079712
0.576141 0.147827 0.080231
0.589264 0.149384 0.081024
0.603027 0.151245 0.082062
0.614288 0.152222 0.082306
0.627869 0.153900 0.083344
0.639252 0.155029 0.083832
0.000000 0.082397 0.056183
0.000000 0.075653 0.052979
0.004211 0.065887 0.041718
0.016663 0.074799 0.036774
0.031372 0.079681 0.032410
0.044067 0.088287 0.027588
0.111572 0.088654 0.040955
0.144867 0.096954 0.047028
0.177643 0.104370 0.052185
0.215515 0.110352 0.056244
0.248718 0.118225 0.059723
0.280273 0.124512 0.062744
0.308929 0.128387 0.064667
0.333130 0.129517 0.065948
0.363739 0.135529 0.068390
0.390564 0.139008 0.070496
0.409088 0.139832 0.071381
0.429535 0.142975 0.072815
0.446503 0.143951 0.073669
0.464233 0.146240 0.074799
0.481445 0.148102 0.075653
0.497620 0.149750 0.076752
0.514008 0.151215 0.077576
0.530090 0.152649 0.078644
0.545624 0.154572 0.079437
0.558990 0.156647 0.080505
0.572693 0.158020 0.081024
0.586334 0.159882 0.082062
0.598022 0.160858 0.082581
0.611023 0.162506 0.083344
0.622559 0.163483 0.083832
0.636108 0.165253 0.084595
0.649414 0.166870 0.085602
0.000000 0.109711 0.068909
0.000000 0.101868 0.065063
0.001404 0.092773 0.058502
0.010498 0.093536 0.049896
0.024506 0.105072 0.044647
0.039215 0.117523 0.035645
0.099457 0.118286 0.036194
0.151306 0.121246 0.052185
0.187042 0.130615 0.058350
0.222656 0.137756 0.061401
0.256989 0.141663 0.063721
0.289398 0.148682 0.066864
0.314575 0.151459 0.068085
0.341217 0.154694 0.069916
0.371277 0.159485 0.072235
0.398132 0.162506 0.074249
0.419617 0.164429 0.075378
0.438782 0.165649 0.076477
0.458344 0.167175 0.077576
0.476013 0.169495 0.078918
0.490875 0.169495 0.079437
0.508331 0.171814 0.080475
0.524353 0.172302 0.081268
0.540527 0.173737 0.082306
0.556793 0.176117 0.083588
0.568054 0.175629 0.083588
0.583954 0.177826 0.084839
0.597473 0.178894 0.085571
0.608826 0.178589 0.085602
0.621979 0.179504 0.086334
0.635681 0.181793 0.087280
0.646637 0.182373 0.087799
0.658051 0.182373 0.088013
0.000000 0.136261 0.077637
0.000000 0.128723 0.075653
0.000000 0.117065 0.071564
0.006287 0.117279 0.063293
0.017731 0.125000 0.056305
0.032349 0.137146 0.044556
0.083221 0.143494 0.040161
0.139771 0.148865 0.042755
0.193756 0.157349 0.060059
0.231598 0.166138 0.067474
0.264618 0.169739 0.069305
0.295013 0.174957 0.071381
0.323425 0.178467 0.073395
0.351135 0.182678 0.075378
0.379791 0.186920 0.077576
0.406097 0.189056 0.079163
0.431183 0.191589 0.081024
0.452423 0.194824 0.082550
0.469574 0.193817 0.083069
0.486694 0.195404 0.084076
0.503815 0.196838 0.085083
0.520386 0.197693 0.086060
0.536804 0.198517 0.086792
0.550568 0.198120 0.087036
0.568695 0.201172 0.088715
0.581635 0.200623 0.089203
0.595551 0.200775 0.089691
0.609131 0.201721 0.090393
0.620087 0.201996 0.090607
0.633728 0.203094 0.091553
0.645355 0.203369 0.091766
0.658417 0.204865 0.092712
0.672180 0.207001 0.093842
0.000000 0.159973 0.083801
0.000000 0.157959 0.084259
0.000000 0.146973 0.080994
0.003296 0.139740 0.074432
0.012390 0.149628 0.066345
0.025482 0.161835 0.052094
0.074158 0.167358 0.048431
0.132050 0.175629 0.048309
0.190186 0.180328 0.052917
0.235138 0.191010 0.067169
0.274902 0.200806 0.076202
0.303406 0.203430 0.077820
0.334595 0.208679 0.080231
0.359467 0.209381 0.081024
0.387573 0.214264 0.083588
0.414795 0.218201 0.085815
0.441284 0.219360 0.087280
0.461090 0.221161 0.088501
0.481628 0.223175 0.090149
0.498169 0.222931 0.090607
0.515167 0.225067 0.092010
0.532684 0.225433 0.092712
0.548859 0.226898 0.093842
0.564880 0.227264 0.094727
0.580231 0.226898 0.095184
0.595093 0.228729 0.096283
0.610107 0.229675 0.097382
0.621613 0.229553 0.097595
0.635071 0.229218 0.098022
0.645874 0.228363 0.097809
0.659760 0.230865 0.099335
0.672607 0.231110 0.099762
0.684235 0.231842 0.100372
0.000000 0.186066 0.090027
0.000000 0.181335 0.089600
0.000000 0.167023 0.085632
0.001038 0.167236 0.084656
0.008392 0.173035 0.076447
0.019257 0.185150 0.061859
0.071289 0.193542 0.056213
0.126312 0.202240 0.055847
0.175629 0.207245 0.054382
0.235535 0.210449 0.061066
0.273193 0.221924 0.074524
0.312836 0.233032 0.084839
0.341705 0.236816 0.087036
0.367584 0.239594 0.088959
0.394135 0.242065 0.090393
0.422211 0.247009 0.093140
0.448456 0.248932 0.094971
0.470581 0.250275 0.096283
0.491516 0.251465 0.097595
0.512085 0.253998 0.099548
0.528076 0.254974 0.100586
0.543884 0.254730 0.101227
0.559875 0.255493 0.102051
0.576477 0.256470 0.103088
0.593842 0.257751 0.104523
0.607758 0.257416 0.104919
0.620880 0.255402 0.104523
0.636902 0.258789 0.106537
0.648499 0.256897 0.106140
0.660492 0.257965 0.106934
0.674072 0.259644 0.107910
0.685730 0.259308 0.108124
0.696716 0.259644 0.108521
0.000000 0.206085 0.093445
0.000000 0.201080 0.093018
0.000000 0.190063 0.090454
0.000000 0.186066 0.090027
0.005280 0.193115 0.084991
0.014404 0.205444 0.069153
0.068024 0.216431 0.063629
0.123535 0.226105 0.063019
0.171478 0.231873 0.061768
0.213562 0.235748 0.060669
0.279572 0.242859 0.071075
0.312378 0.256500 0.082550
0.347961 0.263855 0.092926
0.375854 0.265564 0.095856
0.403076 0.270905 0.099121
0.430511 0.273163 0.100800
0.459625 0.277557 0.103912
0.481812 0.280823 0.106140
0.502075 0.280914 0.106934
0.521393 0.282257 0.108307
0.539093 0.283020 0.109283
0.554077 0.282562 0.109680
0.571930 0.284363 0.111023
0.587769 0.284088 0.111603
0.603973 0.285797 0.112915
0.619904 0.285614 0.113464
0.634155 0.286072 0.114014
0.647583 0.286163 0.114594
0.660950 0.285522 0.114777
0.672974 0.285889 0.115326
0.684509 0.284943 0.115143
0.698120 0.286438 0.116241
0.709106 0.286163 0.116425
0.000000 0.227905 0.095490
0.000000 0.221375 0.095490
0.000000 0.210022 0.093445
0.000000 0.208344 0.093842
0.002808 0.212128 0.090118
0.010498 0.225525 0.076874
0.064484 0.237701 0.071106
0.120178 0.245819 0.069855
0.167175 0.254272 0.069550
0.216675 0.261841 0.069275
0.261444 0.267334 0.069336
0.314880 0.273712 0.078918
0.346649 0.286255 0.091309
0.381622 0.294159 0.101868
0.411926 0.298920 0.107513
0.440247 0.302490 0.110443
0.464813 0.304901 0.112335
0.490570 0.308533 0.114777
0.511169 0.308441 0.115509
0.530365 0.310516 0.116974
0.548706 0.310852 0.117859
0.564514 0.310944 0.118408
0.581085 0.311127 0.119110
0.597168 0.312683 0.120331
0.614044 0.312317 0.120880
0.630188 0.314026 0.122070
0.644257 0.313171 0.122253
0.657654 0.313019 0.122589
0.672852 0.313690 0.123291
0.684540 0.313538 0.123444
0.696014 0.312408 0.123444
0.707977 0.313171 0.123962
0.719604 0.312592 0.123962
0.000000 0.246216 0.099915
0.000000 0.240417 0.097931
0.000000 0.231445 0.096710
0.000000 0.231262 0.096710
0.000763 0.232300 0.095734
0.007324 0.245850 0.084564
0.061096 0.256866 0.078522
0.118195 0.266418 0.078094
0.170502 0.276550 0.078339
0.215271 0.284912 0.078430
0.258972 0.291046 0.078522
0.301788 0.293457 0.078003
0.348450 0.301971 0.088470
0.380493 0.314514 0.100800
0.414429 0.322601 0.111206
0.445648 0.328674 0.118042
0.471008 0.331635 0.120514
0.496490 0.334686 0.122955
0.519348 0.336365 0.124298
0.540222 0.338562 0.126007
0.558044 0.337921 0.126312
0.574951 0.339508 0.127502
0.590729 0.339325 0.127808
0.607391 0.340027 0.128632
0.622955 0.339264 0.128815
0.638947 0.340668 0.129944
0.654114 0.339813 0.130096
0.667572 0.340424 0.130585
0.680847 0.339661 0.130737
0.694305 0.340424 0.131378
0.706726 0.339417 0.131226
0.718567 0.340027 0.131714
0.730957 0.338867 0.131714
0.000000 0.265656 0.101868
0.000000 0.257996 0.101868
0.000000 0.250366 0.099121
0.000000 0.250214 0.099121
0.000000 0.253540 0.099915
0.004669 0.264893 0.091461
0.063232 0.277710 0.087555
0.123962 0.287750 0.087677
0.171234 0.298004 0.088043
0.215179 0.305573 0.087799
0.259949 0.313751 0.088135
0.300385 0.319946 0.088440
0.338654 0.322113 0.087402
0.381653 0.330780 0.098236
0.414368 0.343719 0.110626
0.448059 0.351532 0.121033
0.478271 0.357574 0.128143
0.506287 0.360870 0.130920
0.527527 0.363068 0.132660
0.547913 0.364166 0.133759
0.566742 0.365875 0.135010
0.583344 0.365753 0.135315
0.599030 0.366089 0.135773
0.614746 0.365875 0.136230
0.631500 0.366455 0.137024
0.648163 0.366516 0.137482
0.664093 0.367035 0.138214
0.677948 0.367676 0.138824
0.690765 0.366669 0.138672
0.705811 0.367676 0.139587
0.717468 0.366516 0.139282
0.729889 0.367035 0.139740
0.741699 0.366455 0.139893
0.000000 0.284485 0.105286
0.000000 0.274445 0.104553
0.000000 0.272797 0.104156
0.000000 0.270721 0.103394
0.000000 0.273895 0.104919
0.002411 0.284027 0.097198
0.057190 0.295990 0.095673
0.123749 0.306946 0.096741
0.171539 0.316711 0.097290
0.215668 0.327179 0.098236
0.261505 0.336548 0.098389
0.301300 0.343109 0.098328
0.338013 0.347137 0.097321
0.374359 0.343201 0.093597
0.412079 0.357483 0.106354
0.442780 0.368561 0.117523
0.479919 0.379578 0.129456
0.512604 0.386475 0.138214
0.534607 0.389648 0.140320
0.555115 0.390564 0.141510
0.574188 0.389984 0.141968
0.590820 0.391296 0.142975
0.606415 0.390839 0.143127
0.622131 0.391235 0.143707
0.639740 0.391846 0.144440
0.656189 0.392700 0.145142
0.671936 0.393097 0.145721
0.687347 0.393341 0.146301
0.700562 0.392822 0.146454
0.715576 0.394196 0.147430
0.727386 0.393494 0.147278
0.739594 0.392242 0.147003
0.751556 0.392761 0.147583
0.000000 0.301239 0.108246
0.000000 0.291748 0.108246
0.000000 0.289429 0.107513
0.000000 0.289062 0.107147
0.000000 0.292755 0.108246
0.000488 0.302399 0.104218
0.057709 0.314850 0.105133
0.124817 0.328552 0.107269
0.171326 0.338196 0.107544
0.217407 0.347443 0.108002
0.257416 0.357269 0.108490
0.303711 0.366272 0.108551
0.337036 0.369690 0.106812
0.369781 0.372498 0.105469
0.406372 0.369293 0.101624
0.441833 0.383850 0.114319
0.475037 0.395813 0.126312
0.508148 0.404755 0.136719
0.540924 0.412048 0.146027
0.561554 0.413818 0.147858
0.580963 0.415558 0.149109
0.598999 0.417053 0.150360
0.615051 0.417603 0.151062
0.631683 0.417969 0.151733
0.647736 0.416901 0.151733
0.664734 0.418518 0.152832
0.680420 0.418701 0.153381
0.696106 0.418884 0.153778
0.709473 0.419373 0.154327
0.722656 0.418152 0.154053
0.737030 0.418030 0.154449
0.747772 0.417297 0.154175
0.761444 0.419128 0.155243
0.000000 0.314514 0.112915
0.000000 0.308746 0.110779
0.000000 0.307068 0.110443
0.000000 0.308136 0.111145
0.000000 0.311920 0.112213
0.000000 0.324677 0.114319
0.054718 0.332672 0.114441
0.127106 0.347595 0.116882
0.176208 0.359253 0.118134
0.220612 0.371246 0.119415
0.264587 0.380768 0.120148
0.305847 0.387421 0.118866
0.342072 0.393402 0.117493
0.372467 0.396118 0.115479
0.402008 0.398499 0.113617
0.438263 0.396912 0.110474
0.474457 0.412109 0.123657
0.508240 0.424713 0.135193
0.538940 0.433472 0.144592
0.565002 0.437866 0.151611
0.589020 0.441498 0.156708
0.607025 0.441864 0.157379
0.622986 0.442322 0.158020
0.639587 0.442566 0.158661
0.655762 0.443146 0.159454
0.673340 0.444611 0.160614
0.687836 0.443237 0.160492
0.702301 0.442963 0.160614
0.718018 0.445038 0.161896
0.731079 0.443542 0.161499
0.744354 0.443237 0.161621
0.757446 0.441742 0.161255
0.769928 0.443604 0.162262
0.000000 0.329926 0.121063
0.000000 0.327820 0.120087
0.000000 0.326141 0.115692
0.000000 0.329559 0.116058
0.000000 0.336517 0.119080
0.000000 0.341217 0.121063
0.064178 0.353577 0.125122
0.126129 0.365234 0.126038
0.177155 0.376923 0.127106
0.223541 0.388519 0.128479
0.268036 0.400146 0.129791
0.308685 0.409363 0.129913
0.343628 0.415985 0.128204
0.375549 0.420013 0.126099
0.406799 0.423645 0.124420
0.433228 0.425049 0.122131
0.470612 0.422699 0.118103
0.501984 0.436249 0.130249
0.534607 0.448364 0.140930
0.562317 0.455414 0.149414
0.589661 0.462677 0.156982
0.612793 0.467316 0.162781
0.632141 0.468658 0.165771
0.647980 0.469055 0.166260
0.663361 0.468872 0.166626
0.680634 0.469574 0.167511
0.696625 0.470215 0.168365
0.712494 0.470612 0.168945
0.725861 0.470184 0.169189
0.741028 0.470642 0.169800
0.754547 0.470490 0.169922
0.766327 0.468658 0.169312
0.778503 0.469269 0.169800
0.000000 0.341125 0.132385
0.000000 0.342804 0.130585
0.000000 0.344818 0.127167
0.000793 0.348511 0.126221
0.006317 0.352325 0.125916
0.018921 0.361023 0.129639
0.065796 0.368256 0.133118
0.127228 0.383423 0.135315
0.182129 0.397125 0.137482
0.225861 0.406921 0.137878
0.267975 0.417175 0.138580
0.313080 0.429230 0.140167
0.345795 0.434174 0.137360
0.377808 0.441101 0.135986
0.407349 0.444031 0.133331
0.437622 0.447296 0.131653
0.465790 0.446472 0.128662
0.499390 0.446411 0.125275
0.533417 0.463531 0.138641
0.559662 0.471985 0.146454
0.586914 0.479858 0.154724
0.611938 0.484772 0.161774
0.632141 0.487793 0.166504
0.653351 0.493134 0.171356
0.671539 0.493774 0.173737
0.688934 0.495087 0.174774
0.705048 0.495789 0.175598
0.720581 0.496063 0.176178
0.733673 0.494385 0.175812
0.749359 0.496796 0.177216
0.762299 0.496094 0.177216
0.775208 0.494537 0.176971
0.788513 0.495361 0.177673
0.000000 0.354065 0.142822
0.000000 0.357758 0.141174
0.006317 0.361633 0.139740
0.014984 0.365051 0.135681
0.025238 0.372070 0.135101
0.040222 0.380157 0.138000
0.073120 0.387756 0.141724
0.130890 0.401886 0.144928
0.185272 0.414856 0.146606
0.228790 0.424133 0.146637
0.273804 0.437714 0.148560
0.315735 0.448120 0.149323
0.350159 0.454681 0.147919
0.383026 0.460022 0.145416
0.410278 0.463593 0.142517
0.438629 0.469147 0.141174
0.467590 0.470978 0.138947
0.497864 0.470703 0.136169
0.529694 0.471985 0.133362
0.557434 0.485626 0.143463
0.582794 0.494507 0.150909
0.608582 0.502350 0.158813
0.631378 0.506958 0.165161
0.651642 0.509949 0.170044
0.671692 0.513672 0.174652
0.693695 0.516327 0.179932
0.710785 0.518250 0.181519
0.728424 0.519928 0.182617
0.741364 0.519196 0.182739
0.756042 0.519348 0.183167
0.769836 0.518616 0.183167
0.783051 0.519348 0.183838
0.795319 0.519928 0.184265
0.001556 0.367401 0.153625
0.008667 0.372650 0.154633
0.016541 0.376617 0.151794
0.026031 0.382111 0.150208
0.040222 0.391083 0.150177
0.056183 0.400787 0.151245
0.080994 0.409851 0.153351
0.133087 0.419495 0.154114
0.185822 0.431213 0.155121
0.233093 0.443878 0.156647
0.278839 0.456543 0.158112
0.319153 0.466644 0.158569
0.352844 0.474854 0.158081
0.386414 0.481171 0.156036
0.415527 0.488403 0.154327
0.441498 0.488708 0.150085
0.471954 0.494110 0.148865
0.501282 0.497192 0.147247
0.529541 0.495178 0.143707
0.554779 0.493500 0.139526
0.580231 0.505981 0.148407
0.605804 0.516144 0.155121
0.628204 0.521057 0.162140
0.647369 0.525604 0.166748
0.667572 0.529907 0.171844
0.689911 0.534363 0.177551
0.711761 0.537506 0.183075
0.734039 0.541962 0.188385
0.748688 0.542908 0.189240
0.762054 0.541290 0.188812
0.776917 0.542236 0.189667
0.791077 0.543091 0.190399
0.801910 0.543488 0.190735
0.007874 0.380157 0.166077
0.018127 0.387848 0.166992
0.026001 0.391541 0.165100
0.038635 0.399139 0.164612
0.051666 0.406738 0.163422
0.067291 0.417633 0.163177
0.088287 0.425812 0.162201
0.138580 0.436584 0.163422
0.189545 0.447693 0.163727
0.238373 0.462280 0.165985
0.279144 0.473022 0.166504
0.322784 0.486481 0.168427
0.357544 0.494202 0.167847
0.389282 0.502197 0.166809
0.418518 0.506989 0.163696
0.447906 0.510986 0.160797
0.474365 0.515259 0.158508
0.503204 0.518066 0.156250
0.529388 0.521057 0.154327
0.553406 0.520111 0.151306
0.578461 0.516083 0.145569
0.601868 0.526337 0.151642
0.623444 0.534546 0.156860
0.644104 0.540405 0.163025
0.666138 0.545715 0.169556
0.690094 0.550873 0.176636
0.709717 0.554657 0.181396
0.730347 0.559296 0.186340
0.749664 0.562378 0.190735
0.770020 0.565155 0.195404
0.783539 0.566010 0.196228
0.796570 0.565796 0.196442
0.809479 0.564941 0.196442
0.017334 0.395294 0.179169
0.024445 0.399048 0.178497
0.037048 0.406647 0.178284
0.050354 0.414337 0.176941
0.062225 0.421417 0.174683
0.074158 0.429413 0.172852
0.097107 0.440643 0.172394
0.144226 0.450836 0.172394
0.192078 0.461517 0.172699
0.241821 0.476196 0.174103
0.286316 0.489502 0.175354
0.326996 0.501007 0.176392
0.362946 0.510925 0.176514
0.394318 0.520691 0.176514
0.423126 0.525665 0.173553
0.450012 0.531372 0.170868
0.476868 0.535278 0.168030
0.506500 0.539703 0.165924
0.531097 0.539825 0.162506
0.556763 0.543793 0.161011
0.580200 0.542816 0.157928
0.603546 0.540222 0.153229
0.621063 0.544373 0.154114
0.641907 0.553345 0.159393
0.663940 0.560394 0.166382
0.684174 0.565674 0.172180
0.706757 0.571228 0.178680
0.730347 0.575745 0.185486
0.749786 0.579681 0.190094
0.766449 0.582367 0.193451
0.785004 0.585358 0.197449
0.802887 0.587341 0.201263
0.816895 0.588928 0.203125
0.022858 0.406555 0.191284
0.036255 0.416718 0.194733
0.046875 0.421844 0.192535
0.060455 0.429352 0.190247
0.071564 0.436615 0.189026
0.084717 0.446167 0.187775
0.110077 0.457367 0.187775
0.141144 0.464111 0.186493
0.191437 0.476318 0.187866
0.244415 0.490112 0.187225
0.288422 0.504700 0.186584
0.329590 0.515198 0.184814
0.363495 0.525421 0.184357
0.400055 0.535461 0.184509
0.425323 0.541718 0.182434
0.453613 0.547546 0.179749
0.480408 0.553070 0.177063
0.508606 0.557953 0.174744
0.535248 0.561829 0.172516
0.559021 0.564850 0.170288
0.581146 0.565063 0.167267
0.603302 0.565277 0.164490
0.624542 0.560883 0.159393
0.639496 0.561829 0.155304
0.659241 0.570923 0.160217
0.680420 0.577789 0.167755
0.702667 0.584564 0.174774
0.726166 0.591217 0.181946
0.745514 0.595581 0.186890
0.763916 0.598175 0.191467
0.782501 0.601776 0.195709
0.799683 0.604309 0.199371
0.816284 0.605865 0.202728
0.030731 0.421661 0.207214
0.044006 0.429169 0.207611
0.055573 0.436432 0.207611
0.068939 0.445007 0.207214
0.080048 0.451599 0.203796
0.091309 0.460175 0.202850
0.115356 0.470428 0.202271
0.144775 0.480896 0.202850
0.194733 0.490753 0.202057
0.244415 0.503876 0.199829
0.292267 0.518463 0.197357
0.333160 0.529236 0.194061
0.369659 0.542206 0.193512
0.399017 0.549957 0.192108
0.428345 0.556610 0.190674
0.455841 0.565399 0.189270
0.485168 0.571198 0.186646
0.513306 0.576538 0.184113
0.538696 0.581421 0.181854
0.561401 0.583282 0.178680
0.584137 0.586090 0.176361
0.605743 0.587402 0.173767
0.625031 0.586243 0.170380
0.642487 0.586334 0.167755
0.661133 0.583771 0.162628
0.676941 0.587646 0.161804
0.698486 0.595551 0.169678
0.718597 0.601532 0.175812
0.741638 0.608276 0.183075
0.761047 0.612885 0.188171
0.779633 0.615875 0.193024
0.797180 0.620270 0.196747
0.814301 0.622589 0.200653
0.035461 0.432678 0.219971
0.054291 0.443634 0.221039
0.068390 0.454895 0.224670
0.076660 0.459808 0.222778
0.087402 0.466492 0.220154
0.101471 0.477295 0.220337
0.122375 0.488434 0.220154
0.142853 0.493713 0.215881
0.193909 0.506805 0.216400
0.249329 0.517426 0.211670
0.294678 0.530212 0.206604
0.335754 0.544800 0.204010
0.370758 0.554047 0.201019
0.403778 0.564484 0.200592
0.433228 0.572815 0.199463
0.459167 0.580383 0.197876
0.486908 0.586456 0.195282
0.514679 0.592865 0.192749
0.541016 0.598145 0.190155
0.566895 0.602386 0.187805
0.588684 0.606232 0.185608
0.610107 0.607269 0.182556
0.627258 0.610535 0.180634
0.644623 0.608704 0.176941
0.660614 0.608856 0.174225
0.681580 0.605255 0.169464
0.694855 0.604156 0.164093
0.714539 0.612213 0.170166
0.737244 0.619812 0.178131
0.755219 0.625488 0.182617
0.773804 0.629089 0.187958
0.792847 0.633728 0.192932
0.810455 0.636200 0.197449
0.050995 0.450256 0.234741
0.062225 0.458496 0.237366
0.073639 0.466217 0.237518
0.084259 0.473755 0.237671
0.096313 0.482758 0.236877
0.106415 0.488983 0.234253
0.126556 0.502502 0.234741
0.145050 0.508636 0.231598
0.196350 0.520966 0.230957
0.248383 0.529907 0.227234
0.295410 0.542389 0.220642
0.338959 0.557281 0.217896
0.372955 0.567413 0.215424
0.405975 0.576782 0.213654
0.434387 0.585785 0.211761
0.459900 0.592590 0.208893
0.487793 0.600708 0.206360
0.517792 0.607452 0.203217
0.542755 0.613342 0.199127
0.567871 0.618042 0.196198
0.590637 0.621002 0.192749
0.610840 0.624695 0.190369
0.630280 0.626160 0.187500
0.648163 0.629181 0.185638
0.663818 0.627899 0.182007
0.682587 0.630951 0.180664
0.702789 0.627777 0.176727
0.718170 0.627380 0.172241
0.731323 0.629089 0.170410
0.751495 0.636658 0.177551
0.769409 0.641266 0.183289
0.789185 0.646790 0.189026
0.806152 0.650726 0.193146
0.052338 0.458344 0.247009
0.067291 0.469788 0.250519
0.079102 0.478058 0.251129
0.091309 0.488647 0.253998
0.101868 0.495575 0.251892
0.113617 0.503876 0.250519
0.124969 0.512238 0.248993
0.153076 0.524994 0.248840
0.200104 0.533234 0.245758
0.251434 0.543732 0.246521
0.297882 0.556000 0.239166
0.338837 0.569122 0.235138
0.374298 0.578583 0.230499
0.406677 0.589447 0.227631
0.436859 0.598694 0.225006
0.464630 0.606354 0.221741
0.489166 0.613800 0.217896
0.519196 0.621979 0.214020
0.546295 0.628052 0.209625
0.569427 0.633484 0.205505
0.593109 0.636902 0.201019
