Fujifilm Eterna 500T (8573) - Only contrast.cube
# Created by Benjamin (IWLTBAP) : http://luts.iwltbap.com
# Copyright: (C) Copyright 2010-2017 Triune Films and IWLTBAP SAS
# Cannot be resold, shared or otherwise redistributed
TITLE "Film Print Emulation LUTs Pack (Rec.709, sRGB, DCI-P3)"
LUT_3D_SIZE 5
0.000732 0.000732 0.000732
0.214752 0.000000 0.000000
0.490906 0.000000 0.000000
0.742096 0.000000 0.000000
0.970093 0.000000 0.000000
0.000000 0.214752 0.000000
0.215179 0.215179 0.000000
0.491211 0.215179 0.000000
0.742279 0.215363 0.000000
0.969208 0.215698 0.000000
0.000000 0.490906 0.000000
0.215179 0.491211 0.000000
0.491119 0.491119 0.000000
0.742065 0.491180 0.000000
0.967957 0.491394 0.000000
0.000000 0.742096 0.000000
0.215363 0.742279 0.000000
0.491180 0.742065 0.000000
0.742004 0.742004 0.000000
0.966858 0.742157 0.000000
0.000000 0.970093 0.000000
0.215698 0.969208 0.000000
0.491394 0.967957 0.000000
0.742157 0.966858 0.000000
0.965942 0.965881 0.000000
0.000000 0.000000 0.214752
0.215179 0.000000 0.215179
0.491211 0.000000 0.215179
0.742279 0.000000 0.215363
0.969208 0.000000 0.215698
0.000000 0.215179 0.215179
0.215576 0.215576 0.215576
0.491486 0.215576 0.215576
0.742432 0.215729 0.215729
0.968323 0.216064 0.216064
0.000000 0.491211 0.215179
0.215576 0.491486 0.215576
0.491364 0.491364 0.215546
0.742188 0.491394 0.215729
0.967041 0.491638 0.216064
0.000000 0.742279 0.215363
0.215729 0.742432 0.215729
0.491394 0.742188 0.215729
0.742126 0.742126 0.215881
0.965912 0.742279 0.216248
0.000000 0.969208 0.215698
0.216064 0.968323 0.216064
0.491638 0.967041 0.216064
0.742279 0.965912 0.216248
0.964966 0.964966 0.216614
0.000000 0.000000 0.490906
0.215179 0.000000 0.491211
0.491119 0.000000 0.491119
0.742065 0.000000 0.491180
0.967957 0.000000 0.491394
0.000000 0.215179 0.491211
0.215576 0.215576 0.491486
0.491364 0.215546 0.491364
0.742188 0.215729 0.491394
0.967041 0.216064 0.491638
0.000000 0.491119 0.491119
0.215546 0.491364 0.491364
0.491241 0.491241 0.491241
0.741974 0.491272 0.491272
0.965729 0.491486 0.491486
0.000000 0.742065 0.491180
0.215729 0.742188 0.491394
0.491272 0.741974 0.491272
0.741913 0.741913 0.491302
0.964600 0.742065 0.491516
0.000000 0.967957 0.491394
0.216064 0.967041 0.491638
0.491486 0.965729 0.491486
0.742065 0.964600 0.491516
0.963684 0.963684 0.491730
0.000000 0.000000 0.742096
0.215363 0.000000 0.742279
0.491180 0.000000 0.742065
0.742004 0.000000 0.742004
0.966858 0.000000 0.742157
0.000000 0.215363 0.742279
0.215729 0.215729 0.742432
0.491394 0.215729 0.742188
0.742126 0.215881 0.742126
0.965912 0.216248 0.742279
0.000000 0.491180 0.742065
0.215729 0.491394 0.742188
0.491272 0.491272 0.741974
0.741913 0.491302 0.741913
0.964600 0.491516 0.742065
0.000000 0.742004 0.742004
0.215881 0.742126 0.742126
0.491302 0.741913 0.741913
0.741882 0.741882 0.741882
0.963470 0.742035 0.742035
0.000000 0.966858 0.742157
0.216248 0.965912 0.742279
0.491516 0.964600 0.742065
0.742035 0.963470 0.742035
0.962524 0.962524 0.742218
0.000000 0.000000 0.970062
0.215698 0.000000 0.969208
0.491394 0.000000 0.967957
0.742157 0.000000 0.966858
0.965942 0.000000 0.965942
0.000000 0.215698 0.969208
0.216064 0.216064 0.968323
0.491638 0.216064 0.967041
0.742279 0.216248 0.965912
0.964966 0.216614 0.964966
0.000000 0.491394 0.967957
0.216064 0.491638 0.967041
0.491486 0.491486 0.965729
0.742065 0.491516 0.964600
0.963684 0.491730 0.963684
0.000000 0.742157 0.966858
0.216248 0.742279 0.965912
0.491516 0.742065 0.964600
0.742035 0.742035 0.963470
0.962524 0.742218 0.962524
0.000000 0.965942 0.965942
0.216614 0.964966 0.964966
0.491730 0.963684 0.963684
0.742218 0.962524 0.962524
0.961609 0.961609 0.961609
