Fujifilm Eterna 500T (8573) - Look.cube
# Created by Benjamin (IWLTBAP) : http://luts.iwltbap.com
# Copyright: (C) Copyright 2010-2017 Triune Films and IWLTBAP SAS
# Cannot be resold, shared or otherwise redistributed
TITLE "Film Print Emulation LUTs Pack (Rec.709, sRGB, DCI-P3)"
LUT_3D_SIZE 33
0.000244 0.000000 0.001984
0.006409 0.000000 0.001465
0.022369 0.002747 0.003174
0.043243 0.004852 0.000580
0.063873 0.007172 0.000000
0.084259 0.008453 0.000000
0.106873 0.009674 0.000000
0.130157 0.009796 0.000000
0.150604 0.012085 0.000000
0.177582 0.011627 0.000000
0.199707 0.009125 0.000000
0.225037 0.004028 0.000000
0.248871 0.000000 0.000000
0.269867 0.000000 0.000000
0.290039 0.000000 0.000000
0.310883 0.000000 0.000000
0.331238 0.000000 0.000000
0.350525 0.000000 0.000000
0.369843 0.000000 0.000000
0.390839 0.000000 0.000000
0.410675 0.000000 0.000000
0.429871 0.000000 0.000000
0.450104 0.000000 0.000000
0.471344 0.000000 0.000000
0.491760 0.000000 0.000000
0.516418 0.000000 0.000000
0.537781 0.000000 0.000000
0.559509 0.000000 0.000000
0.582764 0.000000 0.000000
0.606232 0.000000 0.002167
0.630554 0.000000 0.006378
0.658386 0.000000 0.012146
0.681519 0.000000 0.013489
0.000000 0.007050 0.005463
0.004120 0.006561 0.004608
0.020416 0.009827 0.006165
0.042511 0.011505 0.003052
0.063232 0.013580 0.000000
0.084534 0.014954 0.000000
0.107086 0.016235 0.000000
0.130280 0.016449 0.000000
0.152740 0.017731 0.000000
0.179260 0.017975 0.000000
0.199371 0.018524 0.000000
0.223724 0.014832 0.000000
0.248444 0.008209 0.000000
0.270538 0.003571 0.000000
0.293274 0.000000 0.000000
0.316101 0.000000 0.000000
0.336456 0.000000 0.000000
0.355286 0.000000 0.000000
0.374603 0.000000 0.000000
0.395569 0.000000 0.000000
0.414795 0.000000 0.000000
0.433777 0.000000 0.000000
0.453949 0.000000 0.000000
0.474762 0.000000 0.000000
0.495544 0.000000 0.000000
0.519470 0.000000 0.000000
0.540771 0.000000 0.000000
0.562195 0.000000 0.000000
0.584595 0.000000 0.000000
0.608215 0.000000 0.000458
0.632477 0.000000 0.004700
0.659607 0.000000 0.011047
0.683319 0.000000 0.011810
0.000000 0.022400 0.015106
0.001587 0.021912 0.014221
0.018555 0.025085 0.015320
0.044891 0.027313 0.012115
0.069214 0.029938 0.007874
0.095032 0.032013 0.000000
0.120178 0.033356 0.000000
0.148499 0.034485 0.000000
0.178772 0.035828 0.000000
0.201447 0.037445 0.000000
0.225189 0.037537 0.000000
0.252991 0.031860 0.000000
0.278564 0.025726 0.000000
0.304443 0.017792 0.000000
0.328461 0.005768 0.000000
0.350189 0.004364 0.000000
0.370789 0.003723 0.000000
0.391724 0.002625 0.000000
0.411926 0.001709 0.000000
0.433502 0.000000 0.000000
0.453979 0.000000 0.000000
0.474640 0.000000 0.000000
0.497437 0.000000 0.000000
0.519501 0.000000 0.000000
0.541138 0.000000 0.000000
0.562714 0.000000 0.000000
0.584839 0.000000 0.000000
0.605743 0.000000 0.000000
0.627533 0.000000 0.000000
0.651154 0.000000 0.000000
0.676514 0.000000 0.000000
0.705231 0.000000 0.000000
0.727936 0.000000 0.000000
0.000000 0.041168 0.027740
0.000000 0.041626 0.026581
0.005920 0.046661 0.027161
0.042603 0.050293 0.026581
0.069519 0.052917 0.022217
0.096405 0.054962 0.015411
0.125763 0.057098 0.007263
0.157318 0.058685 0.000000
0.189880 0.061676 0.000000
0.217041 0.062042 0.000000
0.242279 0.063324 0.000000
0.267792 0.062042 0.000000
0.294708 0.057892 0.000000
0.321198 0.054169 0.000000
0.347351 0.050018 0.000000
0.372040 0.045380 0.000000
0.397064 0.038177 0.000000
0.419189 0.034882 0.000000
0.440155 0.032959 0.000000
0.463837 0.021423 0.000000
0.485748 0.017303 0.000000
0.510437 0.015289 0.000000
0.531067 0.013000 0.000000
0.552856 0.009552 0.000000
0.575745 0.003479 0.000000
0.597931 0.001984 0.000000
0.619812 0.000214 0.000000
0.641815 0.000000 0.000000
0.664154 0.000000 0.000000
0.687134 0.000000 0.000000
0.711945 0.000000 0.000000
0.741943 0.000000 0.000000
0.766541 0.002136 0.000000
0.000000 0.057587 0.042450
0.000000 0.058533 0.041168
0.000000 0.070343 0.039459
0.035675 0.075104 0.037109
0.066437 0.079041 0.033936
0.093628 0.080475 0.029388
0.125275 0.083221 0.021942
0.157684 0.084930 0.014038
0.193817 0.086517 0.007111
0.221924 0.086914 0.000000
0.248840 0.087830 0.000000
0.274597 0.088959 0.000000
0.300720 0.088470 0.000000
0.326813 0.087616 0.000000
0.354095 0.085876 0.000000
0.380859 0.082428 0.000000
0.407471 0.078339 0.000000
0.430786 0.077118 0.000000
0.453918 0.074219 0.000000
0.477570 0.069550 0.000000
0.505310 0.060394 0.000000
0.525757 0.059601 0.000000
0.547607 0.056274 0.000000
0.570801 0.050720 0.000000
0.596130 0.038025 0.000000
0.618835 0.032928 0.000000
0.641907 0.027435 0.000000
0.664581 0.022400 0.000000
0.688293 0.015778 0.000000
0.712280 0.011475 0.000000
0.737823 0.007477 0.000000
0.767151 0.015564 0.000000
0.790375 0.033112 0.000000
0.000000 0.077057 0.059479
0.000000 0.077820 0.058380
0.000000 0.088715 0.050446
0.031433 0.094208 0.046753
0.068329 0.098877 0.045502
0.095154 0.101074 0.041168
0.120148 0.103333 0.033936
0.154083 0.105408 0.026581
0.191681 0.107391 0.020020
0.224060 0.109314 0.013428
0.250763 0.111237 0.005798
0.277161 0.112610 0.000000
0.304138 0.113831 0.000000
0.330200 0.114258 0.000000
0.358276 0.112854 0.000000
0.386261 0.111237 0.000000
0.414551 0.108093 0.000000
0.440216 0.105957 0.000000
0.465454 0.103149 0.000000
0.488434 0.101807 0.000000
0.515533 0.099213 0.000000
0.537964 0.097626 0.000000
0.560303 0.096588 0.000000
0.584564 0.091156 0.000000
0.607941 0.087769 0.000000
0.628845 0.088074 0.000000
0.652832 0.083252 0.000000
0.677429 0.077911 0.000000
0.702026 0.073486 0.000000
0.725372 0.073090 0.000000
0.750397 0.074554 0.000000
0.782257 0.081085 0.000000
0.805969 0.096985 0.000000
0.000000 0.094452 0.072083
0.000000 0.095215 0.070679
0.000000 0.105621 0.067627
0.040100 0.112915 0.061920
0.072266 0.118683 0.060974
0.097931 0.122284 0.055328
0.122345 0.124084 0.046753
0.152222 0.126282 0.039764
0.185272 0.129883 0.032745
0.217804 0.132812 0.026367
0.246246 0.135712 0.019928
0.274841 0.137543 0.012604
0.302917 0.139282 0.004791
0.330872 0.140350 0.000000
0.358765 0.140717 0.000000
0.387115 0.140045 0.000000
0.415375 0.138733 0.000000
0.443848 0.136536 0.000000
0.470367 0.133850 0.000000
0.496399 0.132355 0.000000
0.523315 0.131165 0.000000
0.546783 0.129944 0.000000
0.570038 0.128174 0.000000
0.593445 0.126556 0.000000
0.615875 0.125854 0.000000
0.638092 0.125580 0.000000
0.660797 0.125000 0.000000
0.685394 0.123016 0.000000
0.710907 0.119629 0.000000
0.737396 0.115051 0.000000
0.763885 0.114685 0.000000
0.790802 0.128998 0.000000
0.814423 0.147247 0.000000
0.000000 0.113007 0.083191
0.000000 0.113678 0.082275
0.000000 0.124268 0.079346
0.045929 0.132141 0.073456
0.081848 0.138611 0.073212
0.108765 0.142578 0.069641
0.131561 0.143982 0.064453
0.157135 0.147217 0.054840
0.186340 0.151093 0.045776
0.212250 0.155365 0.038635
0.241882 0.159332 0.031769
0.270630 0.162506 0.023987
0.300568 0.164917 0.016022
0.329498 0.166473 0.008484
0.358063 0.167450 0.000732
0.386658 0.168152 0.000000
0.414398 0.168152 0.000000
0.442871 0.166840 0.000000
0.471283 0.164825 0.000000
0.502563 0.162598 0.000000
0.526459 0.162323 0.000000
0.550629 0.161621 0.000000
0.574738 0.160858 0.000000
0.598602 0.159485 0.000000
0.621460 0.159943 0.000000
0.645081 0.159302 0.000000
0.668030 0.159790 0.000000
0.692230 0.159149 0.000000
0.716248 0.159454 0.000000
0.741882 0.158875 0.000000
0.769379 0.157928 0.000000
0.798553 0.167725 0.000000
0.822571 0.183624 0.000000
0.000000 0.132416 0.090759
0.000000 0.132965 0.089905
0.000000 0.143921 0.086914
0.049500 0.151245 0.084381
0.089600 0.158234 0.084015
0.115509 0.163849 0.079437
0.136841 0.167694 0.072998
0.160767 0.169678 0.067047
0.189423 0.172180 0.061096
0.214386 0.176147 0.050568
0.240570 0.180939 0.043335
0.268311 0.187439 0.035065
0.298065 0.192993 0.026459
0.328613 0.195770 0.017822
0.358643 0.197418 0.009155
0.387726 0.198181 0.000458
0.415680 0.198395 0.000000
0.442535 0.199341 0.000000
0.470917 0.197845 0.000000
0.501984 0.196930 0.000000
0.527954 0.196198 0.000000
0.552185 0.196289 0.000000
0.577026 0.195618 0.000000
0.601624 0.195099 0.000000
0.625671 0.194885 0.000000
0.649933 0.194092 0.000000
0.674103 0.194519 0.000000
0.699066 0.194458 0.000000
0.723297 0.195435 0.000000
0.749390 0.195374 0.000000
0.776428 0.196014 0.000000
0.807465 0.202698 0.000000
0.836090 0.218201 0.000000
0.000000 0.151550 0.097992
0.000000 0.152039 0.097015
0.000000 0.162384 0.096130
0.051361 0.170898 0.090973
0.093872 0.179108 0.090454
0.121857 0.186707 0.087677
0.142212 0.194641 0.079712
0.170502 0.196838 0.073822
0.194000 0.197693 0.069702
0.218658 0.199921 0.066040
0.243805 0.204956 0.059174
0.269989 0.210388 0.046875
0.296143 0.215912 0.036896
0.327972 0.219452 0.027618
0.359070 0.222290 0.018280
0.389648 0.224274 0.008423
0.418396 0.224976 0.000000
0.446106 0.225891 0.000000
0.473633 0.225800 0.000000
0.504181 0.225555 0.000000
0.529999 0.225067 0.000000
0.555054 0.224762 0.000000
0.579041 0.225006 0.000000
0.603485 0.225403 0.000000
0.628967 0.224457 0.000000
0.654785 0.223267 0.000000
0.679626 0.223602 0.000000
0.705078 0.223633 0.000000
0.731140 0.223602 0.000000
0.757507 0.223907 0.000000
0.784668 0.224823 0.000000
0.815643 0.232697 0.000000
0.843842 0.248871 0.000000
0.000000 0.170013 0.102295
0.000000 0.170502 0.101288
0.000000 0.181366 0.101044
0.060577 0.193817 0.096893
0.098938 0.204010 0.094177
0.127716 0.211609 0.090240
0.150299 0.216553 0.084015
0.178009 0.220459 0.079407
0.201813 0.220886 0.076752
0.226959 0.222595 0.074127
0.250763 0.225220 0.070099
0.275146 0.230286 0.062836
0.300720 0.235870 0.049377
0.328186 0.241058 0.039459
0.360016 0.245819 0.028778
0.391174 0.248993 0.017670
0.421356 0.251251 0.007660
0.450195 0.252563 0.000000
0.477020 0.253021 0.000000
0.507660 0.253418 0.000000
0.533752 0.253510 0.000000
0.558899 0.253296 0.000000
0.584564 0.252655 0.000000
0.608398 0.252747 0.000000
0.633453 0.252258 0.000000
0.658905 0.251862 0.000000
0.684570 0.251434 0.000000
0.711273 0.250763 0.000000
0.736725 0.251404 0.000000
0.763550 0.252045 0.000000
0.791962 0.253265 0.000000
0.821960 0.262421 0.000000
0.851227 0.277954 0.000000
0.000000 0.192749 0.106476
0.000000 0.193054 0.105286
0.000977 0.205109 0.105408
0.057220 0.214813 0.100555
0.101471 0.225769 0.096680
0.130585 0.233948 0.093323
0.154144 0.239227 0.090210
0.182037 0.243439 0.086823
0.213135 0.245789 0.083160
0.237579 0.245209 0.082458
0.260406 0.247070 0.079102
0.283386 0.250397 0.073151
0.307800 0.255402 0.064972
0.334473 0.261597 0.050629
0.362396 0.266968 0.040558
0.391754 0.272339 0.030548
0.422699 0.275940 0.019257
0.452271 0.278473 0.008209
0.480621 0.280304 0.000000
0.511597 0.280945 0.000000
0.538330 0.281494 0.000000
0.564178 0.281769 0.000000
0.589264 0.281769 0.000000
0.614197 0.281464 0.000000
0.639252 0.281006 0.000000
0.664246 0.280792 0.000000
0.690216 0.279877 0.000000
0.716675 0.279205 0.000000
0.742981 0.279083 0.000000
0.769775 0.279968 0.000000
0.798370 0.281097 0.000000
0.831879 0.289948 0.000000
0.858643 0.306091 0.000000
0.000000 0.211945 0.111145
0.000122 0.212250 0.109924
0.005890 0.225098 0.111115
0.056763 0.236298 0.105225
0.107422 0.247131 0.103333
0.135223 0.256927 0.096741
0.159729 0.263336 0.094604
0.185059 0.267426 0.093658
0.219116 0.270752 0.092010
0.249573 0.270233 0.090820
0.271881 0.269836 0.088318
0.294128 0.272064 0.082672
0.318146 0.276062 0.074524
0.342926 0.281738 0.065613
0.367889 0.288208 0.052826
0.395782 0.294189 0.042053
0.423584 0.299225 0.031036
0.454468 0.304016 0.020569
0.483032 0.306732 0.009888
0.514954 0.308838 0.000000
0.542328 0.311066 0.000000
0.569031 0.312103 0.000000
0.594116 0.313202 0.000000
0.619629 0.313019 0.000000
0.645844 0.311005 0.000000
0.670959 0.310455 0.000000
0.696289 0.309509 0.000000
0.722534 0.308838 0.000000
0.749084 0.308716 0.000000
0.775604 0.309418 0.000000
0.804810 0.309631 0.000000
0.840637 0.321655 0.000000
0.865326 0.338501 0.000000
0.001984 0.231384 0.116394
0.004883 0.231445 0.115265
0.020447 0.244476 0.122192
0.067200 0.255280 0.120178
0.116272 0.268463 0.111023
0.145782 0.277802 0.104706
0.174072 0.284912 0.106140
0.193176 0.290771 0.105072
0.220642 0.296295 0.098389
0.261322 0.295715 0.099243
0.285065 0.295471 0.096802
0.306030 0.295502 0.092407
0.328064 0.297943 0.085388
0.352570 0.303314 0.076508
0.377380 0.309235 0.066986
0.401581 0.318848 0.054840
0.427765 0.325073 0.041992
0.455627 0.330444 0.030365
0.485657 0.335388 0.020142
0.518463 0.339050 0.009399
0.546234 0.341614 0.000000
0.573151 0.343536 0.000000
0.599335 0.344879 0.000000
0.624969 0.345367 0.000000
0.651276 0.344910 0.000000
0.677887 0.343719 0.000000
0.703461 0.343170 0.000000
0.730225 0.342346 0.000000
0.756195 0.342590 0.000000
0.782990 0.342529 0.000000
0.811981 0.342773 0.000000
0.847870 0.350403 0.000000
0.871979 0.367706 0.000000
0.017853 0.250183 0.128326
0.022858 0.250092 0.127716
0.043457 0.264862 0.135773
0.085449 0.275116 0.135468
0.131592 0.288605 0.127502
0.161774 0.298553 0.120636
0.185913 0.306793 0.119537
0.203430 0.315643 0.119202
0.235931 0.321808 0.111694
0.274231 0.323822 0.106628
0.299713 0.325928 0.104431
0.319580 0.325928 0.100677
0.339966 0.327209 0.094330
0.361969 0.329742 0.087921
0.386078 0.334869 0.078491
0.410034 0.339966 0.068085
0.434418 0.345856 0.054779
0.458984 0.352356 0.040222
0.488251 0.358063 0.029236
0.521118 0.363129 0.017944
0.549622 0.367554 0.006805
0.577026 0.370667 0.000000
0.604340 0.373322 0.000000
0.630646 0.375061 0.000000
0.656342 0.375763 0.000000
0.682739 0.375519 0.000000
0.709656 0.374420 0.000000
0.736237 0.373962 0.000000
0.762451 0.374084 0.000000
0.790314 0.373169 0.000000
0.819092 0.373138 0.000000
0.854645 0.381012 0.000000
0.877350 0.398590 0.000000
0.032166 0.269867 0.139404
0.038666 0.269714 0.139130
0.055542 0.285858 0.144226
0.095367 0.296204 0.146027
0.147034 0.308838 0.145020
0.179382 0.322968 0.138550
0.198547 0.330902 0.136230
0.215332 0.337341 0.132294
0.248474 0.343445 0.122803
0.286255 0.348145 0.112976
0.313049 0.351501 0.112427
0.334503 0.354370 0.109314
0.353119 0.354340 0.102905
0.373383 0.355835 0.095215
0.394440 0.357056 0.087555
0.418793 0.361664 0.079437
0.443512 0.367584 0.069061
0.467865 0.373718 0.055023
0.492035 0.379883 0.038757
0.524231 0.385193 0.027039
0.551880 0.390442 0.014557
0.580292 0.395508 0.003082
0.608124 0.399261 0.000000
0.635193 0.402130 0.000000
0.661713 0.404816 0.000000
0.688232 0.406342 0.000000
0.714844 0.406097 0.000000
0.741577 0.405975 0.000000
0.768921 0.405853 0.000000
0.797333 0.404480 0.000000
0.826019 0.404419 0.000000
0.861603 0.412231 0.000000
0.885254 0.428223 0.000000
0.044861 0.289703 0.146118
0.049591 0.289520 0.146576
0.067688 0.306976 0.151154
0.103821 0.321655 0.155029
0.157135 0.334503 0.156586
0.191864 0.343353 0.155609
0.210449 0.351715 0.151031
0.228607 0.358978 0.145386
0.261536 0.365753 0.138641
0.297028 0.371979 0.131805
0.326233 0.377411 0.126404
0.349731 0.380829 0.120300
0.368866 0.382599 0.112152
0.385193 0.382080 0.100616
0.405334 0.382568 0.092529
0.427673 0.384827 0.085022
0.451874 0.389038 0.077148
0.476379 0.394958 0.066772
0.504181 0.400726 0.051422
0.528931 0.406677 0.036987
0.555176 0.412415 0.021942
0.582764 0.417694 0.009644
0.611267 0.422821 0.000000
0.638977 0.427795 0.000000
0.666046 0.431305 0.000000
0.693085 0.433929 0.000000
0.720642 0.435577 0.000000
0.747650 0.437744 0.000000
0.775085 0.438232 0.000000
0.803101 0.436096 0.000000
0.835876 0.434784 0.000000
0.868011 0.446381 0.000000
0.891113 0.462006 0.000000
0.058105 0.309570 0.151886
0.062805 0.309387 0.152313
0.083679 0.331177 0.160492
0.114716 0.342590 0.168518
0.172424 0.355835 0.169098
0.203979 0.364716 0.169586
0.220978 0.372803 0.168610
0.240967 0.381104 0.158844
0.269501 0.388428 0.153839
0.306763 0.395172 0.144531
0.338318 0.400879 0.137909
0.364288 0.406067 0.130524
0.383575 0.407990 0.122894
0.400787 0.408905 0.112091
0.417267 0.409485 0.096680
0.437866 0.409882 0.088776
0.460144 0.412323 0.080353
0.483490 0.416138 0.071198
0.511475 0.421478 0.060608
0.535583 0.427429 0.044006
0.560425 0.433472 0.030365
0.585327 0.442627 0.015869
0.613678 0.448730 0.005371
0.641510 0.454651 0.000000
0.669647 0.460144 0.000000
0.697357 0.463806 0.000000
0.725311 0.466553 0.000000
0.753326 0.469116 0.000000
0.781403 0.470276 0.000000
0.809265 0.470001 0.000000
0.841858 0.469513 0.000000
0.873779 0.476471 0.000000
0.896698 0.491241 0.000000
0.076630 0.332245 0.163147
0.079865 0.332214 0.162720
0.104828 0.350739 0.175629
0.133148 0.362274 0.179565
0.188538 0.375244 0.178101
0.213501 0.387146 0.176544
0.229065 0.396210 0.176727
0.244720 0.403839 0.176392
0.276245 0.410980 0.172302
0.316620 0.417938 0.156738
0.349792 0.424591 0.146393
0.377319 0.430237 0.140900
0.399567 0.433960 0.136230
0.417053 0.435852 0.125702
0.433136 0.436829 0.109802
0.449585 0.437439 0.094299
0.469055 0.436890 0.083649
0.491547 0.442871 0.073639
0.518707 0.446777 0.062866
0.542969 0.451935 0.047119
0.566833 0.457764 0.034637
0.590973 0.463562 0.022064
0.615509 0.470032 0.011230
0.643799 0.476501 0.005981
0.672363 0.482513 0.000366
0.701019 0.488190 0.000000
0.729584 0.492584 0.000000
0.758087 0.495911 0.000000
0.786957 0.498260 0.000000
0.815308 0.498932 0.000000
0.848328 0.498688 0.000000
0.880066 0.505432 0.000000
0.902405 0.519714 0.000000
0.096680 0.350739 0.176666
0.099976 0.350708 0.176422
0.126831 0.369751 0.186829
0.153625 0.381958 0.190552
0.196381 0.398041 0.184204
0.221436 0.410400 0.182465
0.236938 0.419312 0.184509
0.251099 0.426727 0.187286
0.284546 0.433777 0.183655
0.324768 0.444550 0.172821
0.361267 0.451324 0.156616
0.390167 0.457397 0.155762
0.413483 0.461884 0.151062
0.433380 0.464966 0.141968
0.448608 0.465149 0.126007
0.464294 0.465668 0.108063
0.481293 0.466064 0.090576
0.504242 0.466156 0.075836
0.526825 0.469177 0.064758
0.550629 0.473511 0.050598
0.574646 0.478516 0.039124
0.598236 0.484131 0.027374
0.622253 0.490692 0.016388
0.647339 0.497314 0.007965
0.675659 0.504059 0.005432
0.704590 0.510681 0.001923
0.733612 0.516266 0.000000
0.762268 0.521057 0.000000
0.791870 0.524750 0.000000
0.821106 0.526123 0.000000
0.854706 0.526245 0.000000
0.886108 0.533295 0.000000
0.906738 0.547180 0.000000
0.118500 0.368744 0.187347
0.121063 0.368683 0.187103
0.147766 0.388733 0.197510
0.168518 0.402985 0.197235
0.203461 0.420410 0.188812
0.228607 0.432800 0.185211
0.244293 0.446320 0.190094
0.257690 0.453827 0.196320
0.288910 0.460754 0.194702
0.331482 0.467163 0.186981
0.370728 0.473328 0.179810
0.401978 0.479919 0.175903
0.427460 0.485718 0.172241
0.448059 0.489258 0.160065
0.464996 0.490662 0.145996
0.480438 0.491150 0.127899
0.497559 0.491638 0.105896
0.516815 0.491760 0.087311
0.535858 0.493134 0.070801
0.558777 0.495728 0.059998
0.582703 0.500305 0.045532
0.606262 0.505493 0.033447
0.629730 0.511200 0.022644
0.653961 0.518188 0.015228
0.680298 0.524933 0.010376
0.708069 0.531891 0.007996
0.737488 0.538452 0.004883
0.766418 0.543976 0.000000
0.795746 0.548859 0.000000
0.825989 0.552551 0.000000
0.859406 0.553650 0.000000
0.890778 0.564728 0.000000
0.911285 0.577606 0.000000
0.140900 0.386475 0.198273
0.143005 0.386414 0.198120
0.160095 0.409088 0.204193
0.180359 0.424011 0.204407
0.210266 0.446381 0.189545
0.236816 0.458618 0.191376
0.252441 0.468445 0.201752
0.265686 0.476776 0.206909
0.291138 0.484192 0.204987
0.334869 0.490448 0.197083
0.378906 0.495941 0.192932
0.412537 0.502350 0.189514
0.439880 0.508240 0.188202
0.462524 0.513275 0.181946
0.480438 0.515167 0.169922
0.499695 0.516541 0.148376
0.515900 0.516998 0.127289
0.531189 0.517487 0.102295
0.548187 0.518066 0.078949
0.567596 0.519531 0.059967
0.590851 0.522858 0.049469
0.614471 0.527283 0.036163
0.638153 0.532745 0.025879
0.662048 0.538788 0.018127
0.686432 0.546051 0.015411
0.713257 0.553040 0.013153
0.741852 0.562378 0.010681
0.771393 0.571045 0.007080
0.800140 0.576843 0.001465
0.831390 0.581299 0.000000
0.863312 0.584534 0.000000
0.895355 0.591980 0.000000
0.915710 0.604156 0.000000
0.153168 0.405640 0.204987
0.155151 0.405579 0.204803
0.177124 0.429413 0.211639
0.191528 0.449310 0.213165
0.221497 0.466064 0.207977
0.246490 0.479034 0.208618
0.260254 0.489471 0.213715
0.275513 0.497803 0.217133
0.300751 0.505646 0.216675
0.343475 0.512512 0.209686
0.386658 0.518311 0.202332
0.421814 0.524689 0.198273
0.451904 0.530670 0.202118
0.475800 0.535980 0.199066
0.497681 0.539978 0.188202
0.516632 0.541626 0.171906
0.531921 0.542236 0.147064
0.547211 0.542999 0.123627
0.562256 0.543365 0.096375
0.578705 0.543579 0.060333
0.599365 0.545654 0.037842
0.622620 0.549591 0.033508
0.646057 0.554688 0.026855
0.670227 0.564026 0.019684
0.694611 0.571167 0.018494
0.719513 0.578552 0.017944
0.747467 0.585571 0.015778
0.776276 0.593170 0.012756
0.806244 0.599762 0.008972
0.839600 0.605225 0.002838
0.869507 0.609497 0.000000
0.900940 0.618134 0.000000
0.921509 0.628998 0.000000
0.170502 0.424622 0.212280
0.172058 0.424683 0.211792
0.190674 0.453888 0.223022
0.205505 0.468811 0.232422
0.233948 0.485260 0.231598
0.255005 0.498901 0.224609
0.267029 0.509033 0.224396
0.286224 0.517609 0.226959
0.321747 0.525391 0.227020
0.363525 0.532532 0.222015
0.403229 0.539093 0.214813
0.438110 0.545715 0.214600
0.466248 0.552338 0.217407
0.489258 0.561890 0.214325
0.513062 0.568115 0.203278
0.531708 0.570221 0.189423
0.548218 0.571838 0.171631
0.563049 0.572632 0.144867
0.578247 0.572968 0.119019
0.593445 0.573700 0.086365
0.609985 0.573944 0.036499
0.631409 0.576904 0.024689
0.654480 0.581207 0.022339
0.678650 0.586487 0.022736
0.703003 0.593384 0.022400
0.728333 0.600586 0.021790
0.754089 0.608002 0.020721
0.782715 0.615814 0.018280
0.812866 0.622955 0.015106
0.847046 0.629150 0.010437
0.876709 0.634491 0.004120
0.907867 0.643036 0.000000
0.927826 0.653076 0.000000
0.182678 0.448090 0.221954
0.184265 0.448151 0.221436
0.204498 0.473328 0.239990
0.217133 0.488922 0.247955
0.242950 0.505371 0.247711
0.262390 0.518494 0.243317
0.279877 0.528442 0.237854
0.307526 0.536804 0.237061
0.346039 0.544678 0.236877
0.387512 0.551788 0.233215
0.425385 0.560242 0.233734
0.454803 0.570251 0.232697
0.479156 0.578186 0.228851
0.505066 0.585663 0.223602
0.525055 0.592590 0.215820
0.544739 0.595581 0.203278
0.562164 0.597870 0.186798
0.578430 0.598907 0.166992
0.593781 0.598755 0.140625
0.609131 0.599426 0.107788
0.625183 0.600098 0.069366
0.642090 0.601379 0.028503
0.664673 0.605499 0.025269
0.688293 0.610291 0.025604
0.712341 0.616302 0.026184
0.738342 0.623535 0.025726
0.763794 0.630707 0.024811
0.790405 0.638153 0.023407
0.819550 0.646118 0.021057
0.853912 0.652924 0.017242
0.883789 0.658813 0.011780
0.914825 0.667725 0.006561
0.932404 0.675842 0.006866
0.196625 0.466522 0.237183
0.197632 0.466644 0.236237
0.215057 0.493073 0.253082
0.225189 0.509888 0.255219
0.249878 0.526581 0.257935
0.268097 0.538361 0.260254
0.295441 0.547394 0.255737
0.331604 0.555939 0.251129
0.370148 0.567780 0.249603
0.407654 0.575592 0.244598
0.439117 0.583435 0.242798
0.467682 0.591644 0.240143
0.491913 0.599487 0.239899
0.517853 0.607269 0.235077
0.538055 0.614441 0.227020
0.556427 0.620392 0.215332
0.574768 0.623718 0.200500
0.591125 0.625092 0.181549
0.607178 0.625366 0.156128
0.623383 0.626068 0.129333
0.639435 0.626343 0.089478
0.656525 0.626892 0.046021
0.675232 0.629547 0.028442
0.698395 0.634613 0.028687
0.722473 0.640381 0.029175
0.748108 0.646790 0.029602
0.774017 0.653748 0.029022
0.800476 0.660919 0.027924
0.828888 0.668823 0.026215
0.861115 0.676331 0.023499
0.891022 0.683075 0.019012
0.921173 0.695190 0.014893
0.936798 0.701447 0.016724
0.207642 0.484680 0.251465
0.208923 0.484680 0.251068
0.223083 0.513275 0.260651
0.233185 0.530334 0.264221
0.256439 0.547607 0.268494
0.277588 0.560913 0.271240
0.310455 0.571136 0.271912
0.353973 0.578857 0.267944
0.388641 0.587433 0.260071
0.421997 0.595978 0.256104
0.452454 0.604187 0.251312
0.480621 0.612549 0.249176
0.508636 0.620361 0.248779
0.531219 0.628235 0.246307
0.551514 0.635834 0.238953
0.569580 0.642456 0.227448
0.586853 0.647919 0.212860
0.603699 0.650879 0.193176
0.619720 0.651733 0.169708
0.635956 0.652710 0.139771
0.652710 0.653961 0.106903
