Fujifilm Eterna Vivid 160T (8543) - Only contrast.cube
# Created by Benjamin (IWLTBAP) : http://luts.iwltbap.com
# Copyright: (C) Copyright 2010-2017 Triune Films and IWLTBAP SAS
# Cannot be resold, shared or otherwise redistributed
TITLE "Film Print Emulation LUTs Pack (Rec.709, sRGB, DCI-P3)"
LUT_3D_SIZE 5
0.000244 0.000244 0.000244
0.218231 0.000000 0.000000
0.513214 0.000000 0.000000
0.779388 0.000000 0.000000
0.967438 0.000000 0.000000
0.000000 0.218231 0.000000
0.218750 0.218750 0.000000
0.513672 0.218750 0.000000
0.779541 0.218964 0.000000
0.966797 0.219727 0.000000
0.000000 0.513214 0.000000
0.218750 0.513672 0.000000
0.513580 0.513580 0.000000
0.779205 0.513702 0.000000
0.965668 0.514374 0.000000
0.000000 0.779388 0.000000
0.218964 0.779541 0.000000
0.513702 0.779205 0.000000
0.779053 0.779053 0.000000
0.964722 0.779449 0.000000
0.000000 0.967438 0.000000
0.219727 0.966797 0.000000
0.514374 0.965668 0.000000
0.779449 0.964722 0.000000
0.964325 0.964233 0.010559
0.000000 0.000000 0.218231
0.218750 0.000000 0.218750
0.513672 0.000000 0.218750
0.779541 0.000000 0.218964
0.966797 0.000000 0.219727
0.000000 0.218750 0.218750
0.219269 0.219269 0.219269
0.514099 0.219299 0.219299
0.779694 0.219482 0.219482
0.966156 0.220245 0.220245
0.000000 0.513672 0.218750
0.219299 0.514099 0.219299
0.514008 0.514008 0.219299
0.779327 0.514099 0.219513
0.964996 0.514771 0.220276
0.000000 0.779541 0.218964
0.219482 0.779694 0.219482
0.514099 0.779327 0.219513
0.779175 0.779175 0.219727
0.964081 0.779572 0.220490
0.000000 0.966797 0.219727
0.220245 0.966156 0.220245
0.514771 0.964996 0.220276
0.779572 0.964081 0.220490
0.963684 0.963684 0.221283
0.000000 0.000000 0.513214
0.218750 0.000000 0.513672
0.513580 0.000000 0.513580
0.779205 0.000000 0.513702
0.965668 0.000000 0.514374
0.000000 0.218750 0.513672
0.219299 0.219299 0.514099
0.514008 0.219299 0.514008
0.779327 0.219513 0.514099
0.964996 0.220276 0.514771
0.000000 0.513580 0.513580
0.219299 0.514008 0.514008
0.513916 0.513916 0.513916
0.778961 0.514038 0.514038
0.963867 0.514709 0.514709
0.000000 0.779205 0.513702
0.219513 0.779327 0.514099
0.514038 0.778961 0.514038
0.778809 0.778809 0.514160
0.962921 0.779205 0.514832
0.000000 0.965668 0.514374
0.220276 0.964996 0.514771
0.514709 0.963867 0.514709
0.779205 0.962921 0.514832
0.962555 0.962555 0.515503
0.000000 0.000000 0.779388
0.218964 0.000000 0.779541
0.513702 0.000000 0.779205
0.779053 0.000000 0.779053
0.964722 0.000000 0.779449
0.000000 0.218964 0.779541
0.219482 0.219482 0.779694
0.514099 0.219513 0.779327
0.779175 0.219727 0.779175
0.964081 0.220490 0.779572
0.000000 0.513702 0.779205
0.219513 0.514099 0.779327
0.514038 0.514038 0.778961
0.778809 0.514160 0.778809
0.962921 0.514832 0.779205
0.000000 0.779053 0.779053
0.219727 0.779175 0.779175
0.514160 0.778809 0.778809
0.778656 0.778656 0.778656
0.962006 0.779053 0.779053
0.000000 0.964722 0.779449
0.220490 0.964081 0.779572
0.514832 0.962921 0.779205
0.779053 0.962006 0.779053
0.961609 0.961609 0.779449
0.000000 0.000000 0.967407
0.219727 0.000000 0.966797
0.514374 0.000000 0.965668
0.779449 0.000000 0.964722
0.964355 0.000000 0.964355
0.000000 0.219727 0.966797
0.220245 0.220245 0.966156
0.514771 0.220276 0.964996
0.779572 0.220490 0.964081
0.963684 0.221283 0.963684
0.000000 0.514374 0.965668
0.220276 0.514771 0.964996
0.514709 0.514709 0.963867
0.779205 0.514832 0.962921
0.962555 0.515503 0.962555
0.000000 0.779449 0.964722
0.220490 0.779572 0.964081
0.514832 0.779205 0.962921
0.779053 0.779053 0.962006
0.961609 0.779449 0.961609
0.000000 0.964355 0.964355
0.221283 0.963684 0.963684
0.515503 0.962555 0.962555
0.779449 0.961609 0.961609
0.961273 0.961273 0.961273
