Fujifilm Eterna 250D (8563) - Only contrast.cube
# Created by Benjamin (IWLTBAP) : http://luts.iwltbap.com
# Copyright: (C) Copyright 2010-2017 Triune Films and IWLTBAP SAS
# Cannot be resold, shared or otherwise redistributed
TITLE "Film Print Emulation LUTs Pack (Rec.709, sRGB, DCI-P3)"
LUT_3D_SIZE 33
0.003357 0.003357 0.003357
0.017853 0.003357 0.003357
0.031128 0.003357 0.003357
0.046417 0.003357 0.003357
0.064423 0.003326 0.003326
0.085785 0.003296 0.003296
0.110291 0.003235 0.003235
0.137268 0.003143 0.003143
0.166473 0.003021 0.003021
0.197113 0.002930 0.002930
0.229187 0.002808 0.002808
0.261963 0.002686 0.002686
0.294861 0.002533 0.002533
0.327423 0.002411 0.002411
0.359375 0.002289 0.002289
0.390228 0.002197 0.002197
0.420074 0.002075 0.002075
0.448883 0.001984 0.001984
0.476624 0.001892 0.001892
0.503479 0.001801 0.001801
0.529388 0.001709 0.001709
0.554199 0.001648 0.001648
0.577576 0.001587 0.001587
0.599274 0.001526 0.001526
0.619324 0.001495 0.001495
0.638092 0.001465 0.001465
0.655762 0.001434 0.001434
0.672424 0.001434 0.001434
0.688171 0.001434 0.001434
0.703217 0.001404 0.001404
0.717407 0.001434 0.001434
0.729797 0.001434 0.001434
0.737610 0.001465 0.001465
0.003357 0.017853 0.003357
0.017853 0.017853 0.003357
0.031128 0.017853 0.003357
0.046417 0.017853 0.003357
0.064453 0.017822 0.003326
0.085846 0.017792 0.003296
0.110382 0.017700 0.003235
0.137390 0.017609 0.003143
0.166565 0.017517 0.003021
0.197235 0.017395 0.002930
0.229309 0.017273 0.002808
0.262085 0.017151 0.002686
0.295013 0.016998 0.002533
0.327545 0.016876 0.002411
0.359497 0.016754 0.002289
0.390350 0.016632 0.002197
0.420197 0.016541 0.002075
0.448975 0.016418 0.001984
0.476715 0.016327 0.001892
0.503540 0.016235 0.001801
0.529449 0.016144 0.001709
0.554260 0.016083 0.001648
0.577637 0.016022 0.001587
0.599335 0.015961 0.001526
0.619385 0.015930 0.001495
0.638092 0.015869 0.001465
0.655792 0.015869 0.001434
0.672455 0.015839 0.001434
0.688202 0.015808 0.001434
0.703247 0.015808 0.001434
0.717377 0.015808 0.001434
0.729767 0.015808 0.001434
0.737549 0.015869 0.001495
0.003357 0.031128 0.003357
0.017853 0.031128 0.003357
0.031128 0.031128 0.003387
0.046448 0.031128 0.003357
0.064484 0.031097 0.003357
0.085907 0.031036 0.003296
0.110443 0.030945 0.003235
0.137482 0.030853 0.003143
0.166687 0.030762 0.003052
0.197357 0.030640 0.002930
0.229462 0.030518 0.002808
0.262207 0.030396 0.002686
0.295135 0.030273 0.002563
0.327667 0.030121 0.002411
0.359619 0.029999 0.002289
0.390442 0.029907 0.002197
0.420288 0.029785 0.002075
0.449066 0.029694 0.001984
0.476807 0.029602 0.001892
0.503632 0.029510 0.001801
0.529541 0.029419 0.001740
0.554352 0.029358 0.001648
0.577698 0.029297 0.001587
0.599365 0.029236 0.001556
0.619415 0.029205 0.001495
0.638123 0.029175 0.001465
0.655792 0.029144 0.001465
0.672455 0.029114 0.001434
0.688202 0.029114 0.001434
0.703247 0.029114 0.001434
0.717377 0.029114 0.001434
0.729736 0.029114 0.001434
0.737488 0.029175 0.001495
0.003357 0.046417 0.003357
0.017853 0.046417 0.003357
0.031128 0.046448 0.003357
0.046448 0.046448 0.003357
0.064514 0.046448 0.003326
0.085968 0.046387 0.003296
0.110535 0.046356 0.003235
0.137573 0.046265 0.003143
0.166779 0.046173 0.003021
0.197479 0.046082 0.002930
0.229584 0.045959 0.002808
0.262329 0.045868 0.002686
0.295258 0.045746 0.002533
0.327789 0.045624 0.002411
0.359711 0.045532 0.002289
0.390564 0.045441 0.002197
0.420380 0.045349 0.002075
0.449158 0.045258 0.001984
0.476868 0.045166 0.001892
0.503723 0.045105 0.001801
0.529602 0.045044 0.001709
0.554413 0.044983 0.001648
0.577759 0.044952 0.001587
0.599396 0.044922 0.001526
0.619446 0.044891 0.001495
0.638153 0.044861 0.001465
0.655823 0.044861 0.001434
0.672455 0.044861 0.001434
0.688202 0.044891 0.001434
0.703247 0.044891 0.001404
0.717377 0.044922 0.001404
0.729706 0.044952 0.001434
0.737427 0.045013 0.001465
0.003326 0.064423 0.003326
0.017822 0.064453 0.003326
0.031097 0.064484 0.003357
0.046448 0.064514 0.003326
0.064545 0.064545 0.003326
0.085999 0.064545 0.003265
0.110596 0.064484 0.003204
0.137634 0.064453 0.003113
0.166870 0.064392 0.002991
0.197571 0.064301 0.002899
0.229675 0.064240 0.002777
0.262451 0.064148 0.002655
0.295349 0.064056 0.002502
0.327881 0.063965 0.002380
0.359802 0.063873 0.002258
0.390656 0.063812 0.002167
0.420471 0.063751 0.002045
0.449219 0.063690 0.001953
0.476929 0.063629 0.001862
0.503754 0.063599 0.001770
0.529663 0.063538 0.001678
0.554443 0.063507 0.001617
0.577789 0.063507 0.001556
0.599426 0.063477 0.001495
0.619446 0.063477 0.001465
0.638153 0.063507 0.001434
0.655792 0.063507 0.001404
0.672455 0.063538 0.001404
0.688171 0.063568 0.001404
0.703217 0.063599 0.001373
0.717346 0.063660 0.001404
0.729645 0.063721 0.001404
0.737335 0.063812 0.001434
0.003296 0.085785 0.003296
0.017792 0.085846 0.003296
0.031036 0.085907 0.003296
0.046387 0.085968 0.003296
0.064545 0.085999 0.003265
0.086029 0.086029 0.003204
0.110626 0.085999 0.003143
0.137695 0.085999 0.003052
0.166931 0.085938 0.002960
0.197632 0.085907 0.002838
0.229736 0.085846 0.002716
0.262512 0.085754 0.002594
0.295441 0.085693 0.002472
0.327972 0.085632 0.002350
0.359894 0.085571 0.002228
0.390686 0.085541 0.002106
0.420532 0.085480 0.001984
0.449280 0.085449 0.001892
0.476990 0.085419 0.001801
0.503815 0.085388 0.001709
0.529694 0.085388 0.001648
0.554443 0.085358 0.001556
0.577789 0.085358 0.001495
0.599426 0.085388 0.001465
0.619415 0.085419 0.001404
0.638123 0.085449 0.001373
0.655762 0.085480 0.001373
0.672394 0.085541 0.001343
0.688141 0.085602 0.001343
0.703156 0.085632 0.001343
0.717285 0.085724 0.001343
0.729584 0.085785 0.001343
0.737213 0.085907 0.001404
0.003235 0.110291 0.003235
0.017700 0.110382 0.003235
0.030945 0.110443 0.003235
0.046356 0.110535 0.003235
0.064484 0.110596 0.003204
0.085999 0.110626 0.003143
0.110626 0.110626 0.003082
0.137726 0.110626 0.002991
0.166962 0.110596 0.002869
0.197693 0.110565 0.002777
0.229797 0.110535 0.002655
0.262573 0.110474 0.002533
0.295502 0.110443 0.002380
0.328033 0.110382 0.002258
0.359924 0.110352 0.002136
0.390747 0.110321 0.002045
0.420563 0.110291 0.001923
0.449310 0.110291 0.001831
0.476990 0.110260 0.001740
0.503815 0.110260 0.001648
0.529694 0.110260 0.001556
0.554443 0.110291 0.001495
0.577759 0.110321 0.001434
0.599396 0.110352 0.001373
0.619385 0.110382 0.001343
0.638092 0.110443 0.001312
0.655701 0.110504 0.001282
0.672333 0.110565 0.001282
0.688049 0.110626 0.001251
0.703094 0.110718 0.001251
0.717194 0.110809 0.001251
0.729462 0.110901 0.001282
0.737091 0.111023 0.001312
0.003143 0.137268 0.003143
0.017609 0.137390 0.003143
0.030853 0.137482 0.003143
0.046265 0.137573 0.003143
0.064453 0.137634 0.003113
0.085999 0.137695 0.003052
0.110626 0.137726 0.002991
0.137726 0.137726 0.002899
0.166992 0.137726 0.002808
0.197723 0.137695 0.002686
0.229828 0.137665 0.002563
0.262634 0.137634 0.002441
0.295532 0.137604 0.002289
0.328064 0.137573 0.002167
0.359955 0.137573 0.002045
0.390778 0.137543 0.001953
0.420563 0.137543 0.001831
0.449310 0.137543 0.001740
0.476990 0.137543 0.001648
0.503815 0.137573 0.001556
0.529663 0.137573 0.001465
0.554443 0.137604 0.001404
0.577728 0.137634 0.001343
0.599335 0.137695 0.001282
0.619324 0.137756 0.001251
0.638000 0.137817 0.001221
0.655640 0.137909 0.001190
0.672272 0.137970 0.001190
0.687988 0.138062 0.001190
0.703003 0.138153 0.001160
0.717102 0.138275 0.001160
0.729340 0.138367 0.001190
0.736938 0.138519 0.001221
0.003021 0.166473 0.003021
0.017517 0.166565 0.003021
0.030762 0.166687 0.003052
0.046173 0.166779 0.003021
0.064392 0.166870 0.002991
0.085938 0.166931 0.002960
0.110596 0.166962 0.002869
0.137726 0.166992 0.002808
0.166992 0.166992 0.002686
0.197723 0.166992 0.002563
0.229858 0.166992 0.002441
0.262634 0.166962 0.002319
0.295563 0.166962 0.002197
0.328064 0.166931 0.002075
0.359985 0.166931 0.001953
0.390778 0.166931 0.001831
0.420563 0.166931 0.001740
0.449310 0.166931 0.001617
0.476990 0.166962 0.001526
0.503784 0.166992 0.001465
0.529663 0.167023 0.001373
0.554382 0.167053 0.001312
0.577698 0.167114 0.001251
0.599274 0.167175 0.001190
0.619263 0.167236 0.001160
0.637939 0.167328 0.001129
0.655548 0.167419 0.001099
0.672180 0.167511 0.001068
0.687866 0.167603 0.001068
0.702881 0.167725 0.001068
0.716980 0.167816 0.001068
0.729218 0.167969 0.001068
0.736755 0.168121 0.001129
0.002930 0.197113 0.002930
0.017395 0.197235 0.002930
0.030640 0.197357 0.002930
0.046082 0.197479 0.002930
0.064301 0.197571 0.002899
0.085907 0.197632 0.002838
0.110565 0.197693 0.002777
0.137695 0.197723 0.002686
0.166992 0.197723 0.002563
0.197754 0.197754 0.002472
0.229889 0.197723 0.002350
0.262665 0.197723 0.002228
0.295563 0.197723 0.002075
0.328094 0.197723 0.001953
0.359985 0.197723 0.001831
0.390778 0.197723 0.001709
0.420563 0.197754 0.001617
0.449280 0.197754 0.001526
0.476959 0.197784 0.001434
0.503754 0.197815 0.001343
0.529602 0.197876 0.001251
0.554352 0.197906 0.001190
0.577637 0.197968 0.001129
0.599213 0.198059 0.001068
0.619171 0.198120 0.001038
0.637848 0.198212 0.001007
0.655457 0.198334 0.000977
0.672058 0.198425 0.000977
0.687775 0.198547 0.000946
0.702789 0.198669 0.000946
0.716858 0.198792 0.000946
0.729065 0.198914 0.000977
0.736572 0.199097 0.001007
0.002808 0.229187 0.002808
0.017273 0.229309 0.002808
0.030518 0.229462 0.002808
0.045959 0.229584 0.002808
0.064240 0.229675 0.002777
0.085846 0.229736 0.002716
0.110535 0.229797 0.002655
0.137665 0.229828 0.002563
0.166992 0.229858 0.002441
0.197723 0.229889 0.002350
0.229889 0.229889 0.002228
0.262665 0.229889 0.002075
0.295593 0.229889 0.001953
0.328094 0.229889 0.001831
0.359985 0.229889 0.001709
0.390747 0.229919 0.001587
0.420532 0.229919 0.001495
0.449249 0.229950 0.001404
0.476929 0.229980 0.001312
0.503723 0.230042 0.001221
0.529572 0.230072 0.001129
0.554291 0.230133 0.001068
0.577545 0.230194 0.001007
0.599121 0.230286 0.000946
0.619080 0.230377 0.000916
0.637756 0.230469 0.000885
0.655365 0.230591 0.000854
0.671967 0.230682 0.000854
0.687653 0.230804 0.000824
0.702667 0.230927 0.000824
0.716736 0.231049 0.000824
0.728912 0.231201 0.000854
0.736389 0.231384 0.000885
0.002686 0.261963 0.002686
0.017151 0.262085 0.002686
0.030396 0.262207 0.002686
0.045868 0.262329 0.002686
0.064148 0.262451 0.002655
0.085754 0.262512 0.002594
0.110474 0.262573 0.002533
0.137634 0.262634 0.002441
0.166962 0.262634 0.002319
0.197723 0.262665 0.002228
0.229889 0.262665 0.002075
0.262665 0.262665 0.001953
0.295593 0.262665 0.001831
0.328094 0.262665 0.001709
0.359955 0.262665 0.001587
0.390747 0.262695 0.001465
0.420502 0.262726 0.001373
0.449219 0.262756 0.001282
0.476898 0.262787 0.001160
0.503662 0.262817 0.001099
0.529510 0.262878 0.001007
0.554230 0.262939 0.000946
0.577484 0.263000 0.000885
0.599060 0.263092 0.000824
0.618988 0.263153 0.000793
0.637665 0.263275 0.000763
0.655243 0.263367 0.000732
0.671844 0.263489 0.000702
0.687531 0.263611 0.000702
0.702545 0.263733 0.000702
0.716583 0.263855 0.000702
0.728760 0.264008 0.000732
0.736206 0.264191 0.000763
0.002533 0.294861 0.002533
0.016998 0.295013 0.002533
0.030273 0.295135 0.002563
0.045746 0.295258 0.002533
0.064056 0.295349 0.002502
0.085693 0.295441 0.002472
0.110443 0.295502 0.002380
0.137604 0.295532 0.002289
0.166962 0.295563 0.002197
0.197723 0.295563 0.002075
0.229889 0.295593 0.001953
0.262665 0.295593 0.001831
0.295593 0.295593 0.001709
0.328094 0.295593 0.001587
0.359955 0.295593 0.001465
0.390717 0.295593 0.001343
0.420471 0.295624 0.001251
0.449188 0.295654 0.001129
0.476837 0.295685 0.001038
0.503632 0.295746 0.000946
0.529449 0.295776 0.000885
0.554169 0.295837 0.000793
0.577423 0.295929 0.000732
0.598969 0.295990 0.000702
0.618896 0.296082 0.000671
0.637543 0.296173 0.000641
0.655151 0.296295 0.000610
0.671722 0.296387 0.000580
0.687408 0.296509 0.000580
0.702393 0.296631 0.000580
0.716461 0.296783 0.000580
0.728607 0.296906 0.000580
0.736023 0.297089 0.000641
0.002411 0.327423 0.002411
0.016876 0.327545 0.002411
0.030121 0.327667 0.002411
0.045624 0.327789 0.002411
0.063965 0.327881 0.002380
0.085632 0.327972 0.002350
0.110382 0.328033 0.002258
0.137573 0.328064 0.002167
0.166931 0.328064 0.002075
0.197723 0.328094 0.001953
0.229889 0.328094 0.001831
0.262665 0.328094 0.001709
0.295593 0.328094 0.001587
0.328094 0.328094 0.001465
0.359955 0.328094 0.001343
0.390717 0.328094 0.001221
0.420471 0.328125 0.001099
0.449158 0.328156 0.001007
0.476807 0.328186 0.000916
0.503571 0.328217 0.000824
0.529419 0.328247 0.000763
0.554108 0.328308 0.000671
0.577332 0.328369 0.000610
0.598877 0.328461 0.000580
0.618805 0.328522 0.000519
0.637451 0.328644 0.000488
0.655029 0.328735 0.000488
0.671631 0.328857 0.000458
0.687286 0.328949 0.000458
0.702271 0.329071 0.000458
0.716339 0.329193 0.000458
0.728455 0.329346 0.000458
0.735809 0.329529 0.000519
0.002289 0.359375 0.002289
0.016754 0.359497 0.002289
0.029999 0.359619 0.002289
0.045532 0.359711 0.002289
0.063873 0.359802 0.002258
0.085571 0.359894 0.002228
0.110352 0.359924 0.002136
0.137573 0.359955 0.002045
0.166931 0.359985 0.001953
0.197723 0.359985 0.001831
0.229889 0.359985 0.001709
0.262665 0.359955 0.001587
0.295593 0.359955 0.001465
0.328094 0.359955 0.001343
0.359955 0.359955 0.001221
0.390686 0.359955 0.001099
0.420441 0.359955 0.000977
0.449127 0.359985 0.000885
0.476776 0.360016 0.000793
0.503540 0.360046 0.000702
0.529358 0.360077 0.000641
0.554047 0.360107 0.000549
0.577271 0.360168 0.000488
0.598816 0.360260 0.000458
0.618713 0.360321 0.000427
0.637360 0.360413 0.000397
0.654938 0.360504 0.000366
0.671509 0.360626 0.000336
0.687195 0.360718 0.000336
0.702148 0.360840 0.000336
0.716187 0.360962 0.000336
0.728302 0.361084 0.000336
0.735626 0.361267 0.000397
0.002197 0.390228 0.002197
0.016632 0.390350 0.002197
0.029907 0.390442 0.002197
0.045441 0.390564 0.002197
0.063812 0.390656 0.002167
0.085541 0.390686 0.002106
0.110321 0.390747 0.002045
0.137543 0.390778 0.001953
0.166931 0.390778 0.001831
0.197723 0.390778 0.001709
0.229919 0.390747 0.001587
0.262695 0.390747 0.001465
0.295593 0.390717 0.001343
0.328094 0.390717 0.001221
0.359955 0.390686 0.001099
0.390686 0.390686 0.000977
0.420441 0.390686 0.000885
0.449127 0.390717 0.000793
0.476746 0.390717 0.000671
0.503510 0.390747 0.000610
0.529327 0.390778 0.000519
0.554016 0.390808 0.000458
0.577209 0.390869 0.000397
0.598755 0.390930 0.000336
0.618652 0.390991 0.000305
0.637268 0.391083 0.000275
0.654846 0.391174 0.000244
0.671417 0.391266 0.000244
0.687073 0.391357 0.000214
0.702057 0.391479 0.000214
0.716095 0.391602 0.000214
0.728149 0.391724 0.000244
0.735474 0.391876 0.000275
0.002075 0.420074 0.002075
0.016541 0.420197 0.002075
0.029785 0.420288 0.002075
0.045349 0.420380 0.002075
0.063751 0.420471 0.002045
0.085480 0.420532 0.001984
0.110291 0.420563 0.001923
0.137543 0.420563 0.001831
0.166931 0.420563 0.001740
0.197754 0.420563 0.001617
0.229919 0.420532 0.001495
0.262726 0.420502 0.001373
0.295624 0.420471 0.001251
0.328125 0.420471 0.001099
0.359955 0.420441 0.000977
0.390686 0.420441 0.000885
0.420441 0.420441 0.000763
0.449097 0.420441 0.000671
0.476746 0.420441 0.000580
0.503479 0.420471 0.000488
0.529297 0.420471 0.000427
0.553986 0.420502 0.000336
0.577179 0.420563 0.000275
0.598694 0.420624 0.000244
0.618591 0.420685 0.000183
0.637177 0.420746 0.000153
0.654755 0.420837 0.000153
0.671326 0.420929 0.000122
0.686981 0.421021 0.000122
0.701935 0.421112 0.000122
0.715973 0.421204 0.000122
0.728027 0.421326 0.000122
0.735291 0.421478 0.000183
0.001984 0.448883 0.001984
0.016418 0.448975 0.001984
0.029694 0.449066 0.001984
0.045258 0.449158 0.001984
0.063690 0.449219 0.001953
0.085449 0.449280 0.001892
0.110291 0.449310 0.001831
0.137543 0.449310 0.001740
0.166931 0.449310 0.001617
0.197754 0.449280 0.001526
0.229950 0.449249 0.001404
0.262756 0.449219 0.001282
0.295654 0.449188 0.001129
0.328156 0.449158 0.001007
0.359985 0.449127 0.000885
0.390717 0.449127 0.000793
0.420441 0.449097 0.000671
0.449097 0.449097 0.000580
0.476746 0.449097 0.000488
0.503479 0.449127 0.000397
0.529266 0.449127 0.000305
0.553955 0.449158 0.000244
0.577118 0.449188 0.000183
0.598633 0.449249 0.000122
0.618500 0.449310 0.000092
0.637115 0.449371 0.000061
0.654663 0.449432 0.000031
0.671234 0.449524 0.000031
0.686890 0.449615 0.000031
0.701843 0.449707 0.000031
0.715851 0.449799 0.000031
0.727905 0.449921 0.000031
0.735138 0.450043 0.000092
0.001892 0.476624 0.001892
0.016327 0.476715 0.001892
0.029602 0.476807 0.001892
0.045166 0.476868 0.001892
0.063629 0.476929 0.001862
0.085419 0.476990 0.001801
0.110260 0.476990 0.001740
0.137543 0.476990 0.001648
0.166962 0.476990 0.001526
0.197784 0.476959 0.001434
0.229980 0.476929 0.001312
0.262787 0.476898 0.001160
0.295685 0.476837 0.001038
0.328186 0.476807 0.000916
0.360016 0.476776 0.000793
0.390717 0.476746 0.000671
0.420441 0.476746 0.000580
0.449097 0.476746 0.000488
0.476746 0.476746 0.000397
0.503479 0.476746 0.000305
0.529266 0.476746 0.000214
0.553925 0.476776 0.000153
0.577087 0.476807 0.000092
0.598572 0.476837 0.000031
0.618469 0.476868 0.000000
0.637054 0.476929 0.000000
0.654602 0.477020 0.000000
0.671143 0.477081 0.000000
0.686798 0.477173 0.000000
0.701752 0.477234 0.000000
0.715759 0.477325 0.000000
0.727783 0.477448 0.000000
0.734985 0.477570 0.000000
0.001801 0.503479 0.001801
0.016235 0.503540 0.001801
0.029510 0.503632 0.001801
0.045105 0.503723 0.001801
0.063599 0.503754 0.001770
0.085388 0.503815 0.001709
0.110260 0.503815 0.001648
0.137573 0.503815 0.001556
0.166992 0.503784 0.001465
0.197815 0.503754 0.001343
0.230042 0.503723 0.001221
0.262817 0.503662 0.001099
0.295746 0.503632 0.000946
0.328217 0.503571 0.000824
0.360046 0.503540 0.000702
0.390747 0.503510 0.000610
0.420471 0.503479 0.000488
0.449127 0.503479 0.000397
0.476746 0.503479 0.000305
0.503479 0.503479 0.000214
0.529266 0.503479 0.000153
0.553894 0.503479 0.000061
0.577057 0.503510 0.000000
0.598541 0.503540 0.000000
0.618408 0.503571 0.000000
0.636993 0.503632 0.000000
0.654541 0.503693 0.000000
0.671082 0.503754 0.000000
0.686737 0.503845 0.000000
0.701691 0.503906 0.000000
0.715668 0.503998 0.000000
0.727661 0.504089 0.000000
0.734833 0.504242 0.000000
0.001709 0.529388 0.001709
0.016144 0.529449 0.001709
0.029419 0.529541 0.001740
0.045044 0.529602 0.001709
0.063538 0.529663 0.001678
0.085388 0.529694 0.001648
0.110260 0.529694 0.001556
0.137573 0.529663 0.001465
0.167023 0.529663 0.001373
0.197876 0.529602 0.001251
0.230072 0.529572 0.001129
0.262878 0.529510 0.001007
0.295776 0.529449 0.000885
0.328247 0.529419 0.000763
0.360077 0.529358 0.000641
0.390778 0.529327 0.000519
0.420471 0.529297 0.000427
0.449127 0.529266 0.000305
0.476746 0.529266 0.000214
0.503479 0.529266 0.000153
0.529266 0.529266 0.000061
0.553894 0.529266 0.000000
0.577026 0.529266 0.000000
0.598511 0.529297 0.000000
0.618347 0.529327 0.000000
0.636932 0.529388 0.000000
0.654480 0.529449 0.000000
0.671021 0.529510 0.000000
0.686646 0.529572 0.000000
0.701599 0.529633 0.000000
0.715576 0.529724 0.000000
0.727539 0.529816 0.000000
0.734680 0.529938 0.000000
0.001648 0.554199 0.001648
0.016083 0.554260 0.001648
0.029358 0.554352 0.001648
0.044983 0.554413 0.001648
0.063507 0.554443 0.001617
0.085358 0.554443 0.001556
0.110291 0.554443 0.001495
0.137604 0.554443 0.001404
0.167053 0.554382 0.001312
0.197906 0.554352 0.001190
0.230133 0.554291 0.001068
0.262939 0.554230 0.000946
0.295837 0.554169 0.000793
0.328308 0.554108 0.000671
0.360107 0.554047 0.000549
0.390808 0.554016 0.000458
0.420502 0.553986 0.000336
0.449158 0.553955 0.000244
0.476776 0.553925 0.000153
0.503479 0.553894 0.000061
0.529266 0.553894 0.000000
0.553894 0.553894 0.000000
0.577026 0.553894 0.000000
0.598480 0.553894 0.000000
0.618317 0.553925 0.000000
0.636902 0.553986 0.000000
0.654419 0.554016 0.000000
0.670959 0.554077 0.000000
0.686584 0.554138 0.000000
0.701538 0.554199 0.000000
0.715515 0.554260 0.000000
0.727448 0.554352 0.000000
0.734558 0.554443 0.000000
0.001587 0.577576 0.001587
0.016022 0.577637 0.001587
0.029297 0.577698 0.001587
0.044952 0.577759 0.001587
0.063507 0.577789 0.001556
0.085358 0.577789 0.001495
0.110321 0.577759 0.001434
0.137634 0.577728 0.001343
0.167114 0.577698 0.001251
0.197968 0.577637 0.001129
0.230194 0.577545 0.001007
0.263000 0.577484 0.000885
0.295929 0.577423 0.000732
0.328369 0.577332 0.000610
0.360168 0.577271 0.000488
0.390869 0.577209 0.000397
0.420563 0.577179 0.000275
0.449188 0.577118 0.000183
0.476807 0.577087 0.000092
0.503510 0.577057 0.000000
0.529266 0.577026 0.000000
0.553894 0.577026 0.000000
0.577026 0.577026 0.000000
0.598450 0.577026 0.000000
0.618286 0.577026 0.000000
0.636871 0.577057 0.000000
0.654388 0.577087 0.000000
0.670898 0.577148 0.000000
0.686523 0.577179 0.000000
0.701477 0.577240 0.000000
0.715454 0.577301 0.000000
0.727356 0.577362 0.000000
0.734406 0.577454 0.000000
0.001526 0.599274 0.001526
0.015961 0.599335 0.001526
0.029236 0.599365 0.001556
0.044922 0.599396 0.001526
0.063477 0.599426 0.001495
0.085388 0.599426 0.001465
0.110352 0.599396 0.001373
0.137695 0.599335 0.001282
0.167175 0.599274 0.001190
0.198059 0.599213 0.001068
0.230286 0.599121 0.000946
0.263092 0.599060 0.000824
0.295990 0.598969 0.000702
0.328461 0.598877 0.000580
0.360260 0.598816 0.000458
0.390930 0.598755 0.000336
0.420624 0.598694 0.000244
0.449249 0.598633 0.000122
0.476837 0.598572 0.000031
0.503540 0.598541 0.000000
0.529297 0.598511 0.000000
0.553894 0.598480 0.000000
0.577026 0.598450 0.000000
0.598450 0.598450 0.000000
0.618286 0.598450 0.000000
0.636841 0.598480 0.000000
0.654358 0.598480 0.000000
0.670868 0.598511 0.000000
0.686493 0.598541 0.000000
0.701416 0.598602 0.000000
0.715393 0.598633 0.000000
0.727264 0.598694 0.000000
0.734314 0.598785 0.000000
0.001495 0.619324 0.001495
0.015930 0.619385 0.001495
0.029205 0.619415 0.001495
0.044891 0.619446 0.001495
0.063477 0.619446 0.001465
0.085419 0.619415 0.001404
0.110382 0.619385 0.001343
0.137756 0.619324 0.001251
0.167236 0.619263 0.001160
0.198120 0.619171 0.001038
0.230377 0.619080 0.000916
0.263153 0.618988 0.000793
0.296082 0.618896 0.000671
0.328522 0.618805 0.000519
0.360321 0.618713 0.000427
0.390991 0.618652 0.000305
0.420685 0.618591 0.000183
0.449310 0.618500 0.000092
0.476868 0.618469 0.000000
0.503571 0.618408 0.000000
0.529327 0.618347 0.000000
0.553925 0.618317 0.000000
0.577026 0.618286 0.000000
0.598450 0.618286 0.000000
0.618286 0.618286 0.000000
0.636810 0.618286 0.000000
0.654327 0.618286 0.000000
0.670837 0.618317 0.000000
0.686462 0.618317 0.000000
0.701385 0.618347 0.000000
0.715332 0.618408 0.000000
0.727203 0.618439 0.000000
0.734192 0.618530 0.000000
0.001465 0.638092 0.001465
0.015869 0.638092 0.001465
0.029175 0.638123 0.001465
0.044861 0.638153 0.001465
0.063507 0.638153 0.001434
0.085449 0.638123 0.001373
0.110443 0.638092 0.001312
0.137817 0.638000 0.001221
0.167328 0.637939 0.001129
0.198212 0.637848 0.001007
0.230469 0.637756 0.000885
0.263275 0.637665 0.000763
0.296173 0.637543 0.000641
0.328644 0.637451 0.000488
0.360413 0.637360 0.000397
0.391083 0.637268 0.000275
0.420746 0.637177 0.000153
0.449371 0.637115 0.000061
0.476929 0.637054 0.000000
0.503632 0.636993 0.000000
0.529388 0.636932 0.000000
0.553986 0.636902 0.000000
0.577057 0.636871 0.000000
0.598480 0.636841 0.000000
0.618286 0.636810 0.000000
0.636810 0.636810 0.000000
0.654327 0.636810 0.000000
0.670837 0.636841 0.000000
0.686432 0.636841 0.000000
0.701355 0.636871 0.000000
0.715302 0.636902 0.000000
0.727142 0.636932 0.000000
0.734100 0.637024 0.000000
0.001434 0.655762 0.001434
0.015869 0.655792 0.001434
0.029144 0.655792 0.001465
0.044861 0.655823 0.001434
0.063507 0.655792 0.001404
0.085480 0.655762 0.001373
0.110504 0.655701 0.001282
0.137909 0.655640 0.001190
0.167419 0.655548 0.001099
0.198334 0.655457 0.000977
0.230591 0.655365 0.000854
0.263367 0.655243 0.000732
0.296295 0.655151 0.000610
0.328735 0.655029 0.000488
0.360504 0.654938 0.000366
0.391174 0.654846 0.000244
0.420837 0.654755 0.000153
0.449432 0.654663 0.000031
0.477020 0.654602 0.000000
0.503693 0.654541 0.000000
0.529449 0.654480 0.000000
