Fujifilm Eterna Vivid 160T (8543) - Look.cube
# Created by Benjamin (IWLTBAP) : http://luts.iwltbap.com
# Copyright: (C) Copyright 2010-2017 Triune Films and IWLTBAP SAS
# Cannot be resold, shared or otherwise redistributed
TITLE "Film Print Emulation LUTs Pack (Rec.709, sRGB, DCI-P3)"
LUT_3D_SIZE 9
0.000793 0.000000 0.000000
0.068146 0.009308 0.008118
0.141357 0.013000 0.011108
0.218506 0.011353 0.013824
0.297607 0.013855 0.019348
0.379791 0.016693 0.024384
0.461731 0.018951 0.029724
0.539124 0.021912 0.034302
0.604675 0.023834 0.038177
0.014893 0.053680 0.019745
0.082214 0.076172 0.023956
0.169708 0.094360 0.024017
0.261871 0.100677 0.027649
0.352234 0.097504 0.034119
0.442291 0.091827 0.039948
0.528931 0.088928 0.044617
0.606567 0.088196 0.048157
0.669373 0.089630 0.050262
0.031769 0.113220 0.039337
0.098419 0.143951 0.044708
0.195099 0.178741 0.042633
0.300354 0.201172 0.044678
0.403137 0.210876 0.049133
0.503174 0.213165 0.055145
0.595459 0.211945 0.060547
0.674377 0.209503 0.064362
0.735809 0.209991 0.066376
0.048126 0.172211 0.055786
0.113312 0.207306 0.065125
0.215698 0.255859 0.063416
0.328735 0.292175 0.060913
0.439392 0.313538 0.062225
0.546234 0.326965 0.065216
0.642975 0.334656 0.069519
0.724609 0.339203 0.074097
0.787048 0.344086 0.076538
0.062805 0.229828 0.071564
0.125977 0.268524 0.084473
0.233551 0.326660 0.085693
0.352753 0.376068 0.077393
0.468170 0.405792 0.076385
0.578735 0.425507 0.077271
0.678955 0.438782 0.078094
0.763092 0.448730 0.080292
0.826660 0.456879 0.083038
0.076538 0.287872 0.086914
0.138519 0.330475 0.102661
0.250153 0.394531 0.109131
0.374298 0.455353 0.096863
0.494598 0.495270 0.089844
0.609161 0.520996 0.091797
0.712219 0.538574 0.092743
0.797363 0.551422 0.091919
0.858948 0.560425 0.091644
0.089539 0.345825 0.102264
0.151611 0.392212 0.120026
0.266235 0.459198 0.131165
0.393524 0.528229 0.119507
0.518066 0.579041 0.105530
0.636566 0.611755 0.103912
0.741119 0.632538 0.106964
0.823547 0.646301 0.105743
0.877075 0.654663 0.103546
0.100555 0.400146 0.116608
0.165344 0.451019 0.136292
0.284119 0.520355 0.151337
0.412689 0.593048 0.141571
0.537506 0.650696 0.123383
0.657959 0.689911 0.113373
0.762756 0.713531 0.114502
0.839691 0.727966 0.117035
0.883850 0.735748 0.117218
0.111420 0.448303 0.130341
0.181732 0.505096 0.151489
0.307404 0.576630 0.168640
0.434601 0.648621 0.158905
0.555115 0.707642 0.138519
0.673950 0.750641 0.121857
0.777496 0.777039 0.118958
0.848969 0.791992 0.122681
0.887848 0.799408 0.125305
0.004211 0.006409 0.052826
0.054138 0.018005 0.081818
0.135681 0.025635 0.098297
0.223022 0.024933 0.099487
0.308777 0.022888 0.096771
0.394287 0.020935 0.096161
0.476562 0.020050 0.096771
0.552765 0.021362 0.098846
0.617065 0.022552 0.102417
0.021271 0.064178 0.080719
0.080200 0.086670 0.101868
0.177612 0.108612 0.117584
0.278931 0.114349 0.120514
0.373016 0.110168 0.118805
0.462860 0.102814 0.117432
0.548004 0.097778 0.117249
0.623474 0.096710 0.118927
0.684540 0.097992 0.122009
0.037903 0.125793 0.101807
0.102722 0.159119 0.119904
0.209534 0.199188 0.131683
0.321960 0.221924 0.132660
0.427826 0.230682 0.132019
0.526672 0.232574 0.132935
0.616974 0.231171 0.134277
0.693512 0.230072 0.135834
0.753418 0.231171 0.138275
0.052246 0.184937 0.115997
0.117279 0.225159 0.134857
0.229248 0.280151 0.144379
0.349060 0.317871 0.140656
0.462769 0.338531 0.138031
0.568817 0.351166 0.138123
0.664154 0.358917 0.139587
0.743866 0.364655 0.142151
0.805115 0.370544 0.146545
0.063904 0.242340 0.129150
0.128967 0.288239 0.148407
0.244904 0.353668 0.159241
0.371216 0.405457 0.150665
0.489716 0.435364 0.145477
0.599945 0.454163 0.143646
0.699127 0.467468 0.142273
0.781189 0.477722 0.143646
0.843292 0.485931 0.148071
0.076385 0.301544 0.142242
0.140289 0.351746 0.162323
0.258484 0.422699 0.175812
0.390259 0.486298 0.164673
0.513519 0.526917 0.152954
0.627625 0.551971 0.151154
0.729492 0.569031 0.150330
0.812134 0.581543 0.149689
0.871094 0.590271 0.150787
0.088562 0.361023 0.156738
0.151306 0.414978 0.176758
0.270782 0.488586 0.193909
0.407104 0.560364 0.184296
0.534119 0.611725 0.165466
0.651886 0.643829 0.159149
0.755157 0.664093 0.160797
0.834473 0.677551 0.161194
0.884430 0.685730 0.160980
0.100800 0.416962 0.174164
0.163818 0.475494 0.195984
0.284851 0.550415 0.216217
0.423248 0.625244 0.209473
0.550049 0.683105 0.187408
0.669556 0.722229 0.172638
0.773773 0.746124 0.170532
0.847992 0.760376 0.173035
0.889984 0.768158 0.175629
0.111389 0.466827 0.197906
0.179565 0.531799 0.222015
0.303864 0.607147 0.243195
0.440887 0.680359 0.238251
0.563477 0.739746 0.218262
0.681396 0.783417 0.198669
0.785400 0.810944 0.188141
0.856110 0.825592 0.187164
0.894409 0.833069 0.192749
0.008942 0.013672 0.100464
0.035980 0.021088 0.135345
0.115967 0.035156 0.174103
0.214600 0.042297 0.198212
0.308289 0.040955 0.202393
0.399658 0.038300 0.198273
0.485321 0.035004 0.196106
0.562958 0.031677 0.198242
0.627594 0.030518 0.203217
0.029236 0.076508 0.141693
0.062866 0.092407 0.174011
0.162048 0.117889 0.215302
0.278168 0.127838 0.238708
0.379791 0.122223 0.239685
0.473846 0.117401 0.235291
0.561005 0.114166 0.233673
0.637329 0.112610 0.236115
0.698517 0.113068 0.241211
0.048981 0.142944 0.178253
0.092285 0.169861 0.203552
0.204010 0.214844 0.238800
0.330566 0.244537 0.259583
0.442963 0.252991 0.263306
0.545105 0.254761 0.263031
0.635803 0.254303 0.263489
0.712097 0.254059 0.265686
0.771667 0.255707 0.270782
0.064362 0.205475 0.198120
0.114380 0.240387 0.221039
0.230194 0.299316 0.253418
0.360657 0.344879 0.269653
0.479309 0.367035 0.272095
0.589325 0.378937 0.272675
0.685364 0.386688 0.273956
0.764526 0.392883 0.276886
0.825439 0.399384 0.283905
0.075470 0.264618 0.209564
0.127869 0.305878 0.233276
0.244873 0.375153 0.267365
0.381317 0.434265 0.281036
0.503998 0.466553 0.280304
0.617981 0.485992 0.278076
0.718872 0.499451 0.276184
0.800934 0.509674 0.278015
0.862915 0.518127 0.285828
0.084717 0.323364 0.223328
0.137451 0.370056 0.247406
0.255066 0.445374 0.282257
0.398041 0.516663 0.293915
0.525574 0.559937 0.286865
0.642120 0.585999 0.283020
0.745544 0.603180 0.280487
0.828705 0.615417 0.280304
0.887970 0.624237 0.284973
0.093994 0.381226 0.239594
0.146423 0.433197 0.263916
0.264252 0.512024 0.299500
0.412750 0.591583 0.311737
0.543915 0.645599 0.298157
0.662933 0.678833 0.289398
0.767517 0.699341 0.288818
0.848206 0.712891 0.290344
0.898956 0.721375 0.293915
0.103607 0.435791 0.260193
0.158234 0.494049 0.287323
0.275116 0.574432 0.324341
0.425964 0.656403 0.339508
0.557861 0.717255 0.325043
0.678070 0.757751 0.310211
0.784149 0.782898 0.305756
0.860687 0.797424 0.308075
0.903839 0.805603 0.313721
0.113708 0.485474 0.288940
0.173340 0.550781 0.321198
0.291748 0.631531 0.360413
0.442230 0.712067 0.380371
0.570892 0.774933 0.372711
0.688904 0.819916 0.356934
0.794525 0.849243 0.343475
0.868896 0.864441 0.339325
0.909088 0.871765 0.347229
0.013672 0.020111 0.147888
0.027740 0.022583 0.178162
0.097473 0.038147 0.222656
0.203247 0.056824 0.265930
0.299957 0.058472 0.291992
0.395203 0.055786 0.300812
0.485352 0.055756 0.299347
0.565796 0.055542 0.297852
0.631500 0.055939 0.301331
0.036194 0.087952 0.196594
0.053528 0.098572 0.230133
0.138306 0.121521 0.280365
0.264771 0.139343 0.327667
0.373627 0.131927 0.349792
0.472656 0.122040 0.353058
0.563202 0.122040 0.350342
0.641449 0.127502 0.350281
0.703522 0.132385 0.353790
0.057007 0.157379 0.242157
0.078125 0.177704 0.271790
0.177399 0.219543 0.321045
0.321014 0.259521 0.369263
0.442230 0.270477 0.391144
0.549255 0.269012 0.393677
0.642700 0.269165 0.392120
0.720154 0.272797 0.393494
0.780640 0.277893 0.398590
0.073700 0.222137 0.276001
0.102020 0.250458 0.301208
0.209503 0.306000 0.345123
0.358612 0.363037 0.386688
0.482788 0.390961 0.404877
0.597321 0.402008 0.408966
0.697266 0.408966 0.411011
0.777771 0.416016 0.415741
0.839233 0.423248 0.423340
0.087433 0.284027 0.294006
0.124573 0.320129 0.318298
0.233734 0.384552 0.361298
0.383026 0.451935 0.401123
0.509308 0.490753 0.417114
0.627319 0.511841 0.420898
0.733673 0.525055 0.423065
0.817810 0.535645 0.428528
0.880035 0.544250 0.437073
0.097595 0.344788 0.304932
0.139252 0.386566 0.330261
0.245117 0.456421 0.374298
0.397369 0.534546 0.415924
0.530914 0.584381 0.430786
0.650482 0.613190 0.434814
0.758423 0.631531 0.435852
0.844818 0.644257 0.439056
0.905914 0.653473 0.446045
0.105469 0.402466 0.319489
0.147583 0.449829 0.346375
0.250641 0.523010 0.391052
0.407867 0.609558 0.434387
0.548431 0.671173 0.447327
0.670349 0.707336 0.448700
0.777985 0.729370 0.450836
0.862518 0.743652 0.454132
0.916748 0.752563 0.459747
0.113281 0.456329 0.341003
0.156952 0.509338 0.370483
0.256683 0.583710 0.414795
0.416473 0.672455 0.459625
0.561035 0.742310 0.473877
0.684296 0.786224 0.472687
0.792999 0.813416 0.472809
0.874176 0.829071 0.476959
0.920441 0.837433 0.483704
0.121765 0.505005 0.369659
0.169647 0.563507 0.402832
0.270172 0.638519 0.447876
0.429474 0.725311 0.494446
0.572113 0.797607 0.512878
0.693085 0.846283 0.513000
0.801422 0.877960 0.510193
0.881592 0.895081 0.511627
0.924896 0.902435 0.518677
0.019196 0.025757 0.197113
0.027039 0.026611 0.222595
0.085083 0.038116 0.264801
0.194153 0.064697 0.313629
0.293365 0.073822 0.351227
0.387512 0.070709 0.376068
0.480408 0.068542 0.390289
0.564667 0.070251 0.395874
0.632324 0.074005 0.398010
0.042572 0.097748 0.251892
0.053314 0.104736 0.282684
0.122314 0.123077 0.328430
0.250610 0.148010 0.381439
0.364441 0.148682 0.421692
0.465820 0.134186 0.443054
0.560272 0.122894 0.452545
0.641571 0.122894 0.456024
0.704926 0.129211 0.457306
0.063110 0.169708 0.298218
0.075012 0.186859 0.328430
0.152405 0.220734 0.377197
0.301971 0.265198 0.437317
0.432739 0.285889 0.482178
0.544830 0.283936 0.502625
0.643066 0.276917 0.507263
0.723511 0.277313 0.507782
0.784760 0.284576 0.509460
0.079376 0.235565 0.334686
0.093414 0.260071 0.362671
0.176849 0.306213 0.409485
0.339325 0.368073 0.468933
0.476868 0.406921 0.509949
0.594147 0.421173 0.526978
0.698181 0.426910 0.530273
0.781525 0.434357 0.532593
0.844025 0.443054 0.537659
0.093719 0.297913 0.364807
0.114105 0.330292 0.390869
0.205902 0.385773 0.434235
0.370361 0.457428 0.489594
0.508698 0.507507 0.525604
0.626831 0.532990 0.540161
0.737610 0.545776 0.543671
0.825714 0.555847 0.548492
0.889069 0.564636 0.555786
0.107361 0.360107 0.383453
0.137421 0.399414 0.408295
0.228851 0.461060 0.449371
0.388824 0.539612 0.504456
0.532501 0.598541 0.540985
0.652100 0.632446 0.556244
0.764221 0.652222 0.559601
0.855743 0.664948 0.563232
0.919464 0.674286 0.570251
0.118713 0.419708 0.395233
0.154022 0.465057 0.422028
0.238739 0.529480 0.462738
0.395874 0.613647 0.518921
0.547699 0.683838 0.556763
0.672333 0.725250 0.571899
0.782898 0.750122 0.577789
0.872528 0.765472 0.581604
0.931213 0.774780 0.586914
0.126007 0.473785 0.412445
0.162781 0.524017 0.442078
0.243469 0.589386 0.482788
0.400726 0.675171 0.538971
0.557892 0.754089 0.578491
0.686005 0.803741 0.593262
0.797150 0.833588 0.599701
0.882874 0.850922 0.605652
0.933167 0.859741 0.611755
0.132019 0.521301 0.437653
0.171387 0.575684 0.469940
0.253357 0.641632 0.510925
0.411102 0.725891 0.566498
0.567413 0.807281 0.607880
0.694183 0.862030 0.624084
0.804321 0.896027 0.629761
0.889130 0.915100 0.635010
0.936066 0.923035 0.641571
0.025208 0.032776 0.246277
0.030670 0.032074 0.268707
0.078400 0.039703 0.307861
0.187469 0.067535 0.357178
0.290131 0.085144 0.399536
0.383209 0.086182 0.432312
0.474091 0.082092 0.456116
0.560181 0.080353 0.474640
0.631195 0.080872 0.487518
0.048828 0.105865 0.307739
0.056091 0.111084 0.335571
0.113190 0.125000 0.374725
0.239319 0.151764 0.424866
0.356262 0.162933 0.472473
0.458496 0.155273 0.506714
0.553375 0.140930 0.528046
0.637787 0.131134 0.542450
0.705292 0.128815 0.552277
0.069519 0.181244 0.355927
0.078186 0.196594 0.385193
0.139221 0.224701 0.428101
0.284912 0.267426 0.485809
0.420258 0.296326 0.540131
0.535553 0.303986 0.578613
0.637482 0.297241 0.598724
0.723114 0.290558 0.608887
0.788971 0.290894 0.615509
0.085236 0.248413 0.389587
0.093781 0.271332 0.418213
0.154236 0.309357 0.461823
0.313599 0.366882 0.524414
0.464081 0.413055 0.581055
0.586182 0.436493 0.617981
0.693390 0.445099 0.635223
0.781281 0.451263 0.642426
0.847046 0.458710 0.647736
0.098022 0.311096 0.420715
0.108337 0.340637 0.448517
0.172729 0.386444 0.489716
0.339355 0.454559 0.552063
0.498291 0.514099 0.607605
0.622009 0.548309 0.640259
0.732483 0.564392 0.653076
0.823822 0.574829 0.658264
0.889984 0.583679 0.663727
0.110687 0.372375 0.448303
0.127747 0.408691 0.474579
0.199921 0.462463 0.513641
0.366364 0.537537 0.574097
0.527130 0.605072 0.627625
0.650513 0.647095 0.658020
0.761536 0.670044 0.668518
0.857605 0.683075 0.671753
0.925812 0.692291 0.677612
0.125427 0.432678 0.468262
0.153229 0.476593 0.494812
0.227966 0.535980 0.532501
0.384186 0.613586 0.589569
0.544403 0.687469 0.642273
0.672058 0.735809 0.672791
0.782623 0.764832 0.685516
0.877777 0.782196 0.688721
0.942596 0.791992 0.693359
0.141052 0.488495 0.485840
0.173340 0.537811 0.513611
0.243378 0.598328 0.549988
0.391876 0.675446 0.605011
0.552856 0.755402 0.658722
0.685242 0.811798 0.689758
0.797760 0.846161 0.704163
0.887939 0.866486 0.711304
0.943665 0.876617 0.716522
0.152344 0.536713 0.506012
0.183136 0.588928 0.535431
0.252350 0.649292 0.572357
0.401215 0.725220 0.627167
0.561584 0.807098 0.681488
0.693359 0.868469 0.713745
0.805115 0.906586 0.728058
0.893219 0.928711 0.736237
0.944336 0.938599 0.742889
0.030884 0.039917 0.294189
0.034790 0.038483 0.315460
0.075684 0.042847 0.351166
0.182037 0.068085 0.398285
0.287262 0.091492 0.442688
0.381866 0.099152 0.482056
0.471161 0.097351 0.511871
0.554718 0.093811 0.535034
0.625793 0.091278 0.552948
0.054565 0.112427 0.362671
0.060211 0.116302 0.388062
0.108795 0.128510 0.421692
0.230957 0.154388 0.467194
0.348999 0.171600 0.515411
0.452972 0.173248 0.558685
0.547852 0.163940 0.589111
0.631500 0.153351 0.609772
0.700439 0.148254 0.625153
0.076019 0.191681 0.413452
0.082855 0.206512 0.442291
0.133362 0.231659 0.479797
0.272919 0.271637 0.531708
0.409760 0.303802 0.586365
0.526001 0.320374 0.634430
0.629639 0.322418 0.667480
0.716797 0.318573 0.687408
0.785614 0.317688 0.700806
0.091217 0.261047 0.446442
0.098083 0.283600 0.475830
0.144073 0.317139 0.514954
0.294464 0.369049 0.572723
0.451141 0.417297 0.633575
0.575806 0.447815 0.682220
0.684998 0.464417 0.714600
0.775696 0.473145 0.733215
0.845001 0.479736 0.744568
0.103241 0.324219 0.474304
0.110840 0.352997 0.503357
0.154266 0.392792 0.541718
0.310059 0.453430 0.601929
0.482239 0.515320 0.667450
0.613556 0.556274 0.715393
0.724701 0.579376 0.743744
0.816895 0.592773 0.758087
0.885742 0.601837 0.766327
0.114685 0.384674 0.502045
0.124146 0.419312 0.530548
0.175934 0.466736 0.568665
0.337280 0.535187 0.629395
0.511414 0.605286 0.694366
0.644440 0.654602 0.740082
0.755524 0.683502 0.764374
0.849762 0.699402 0.774109
0.919922 0.709778 0.780212
0.126099 0.443329 0.526520
0.142792 0.485046 0.555664
0.207458 0.540405 0.594299
0.366455 0.613068 0.652679
0.535370 0.687042 0.713867
0.668518 0.741669 0.757233
0.779053 0.775848 0.781158
0.874084 0.795929 0.789520
0.943268 0.806824 0.793671
0.139496 0.497833 0.548096
0.167511 0.546387 0.578430
0.237701 0.605896 0.616119
0.385284 0.677673 0.669708
0.548065 0.753601 0.728180
0.682861 0.814026 0.771332
0.795624 0.853058 0.796082
0.887848 0.876740 0.807312
0.949249 0.888611 0.811432
0.155823 0.545654 0.568146
0.190399 0.599030 0.599609
0.259155 0.658783 0.635864
0.399292 0.727966 0.686829
0.557709 0.803986 0.744446
0.691315 0.867889 0.788300
0.803802 0.910339 0.812805
0.893799 0.936127 0.825897
0.948700 0.948456 0.833252
0.036438 0.045380 0.340729
0.038910 0.043182 0.361603
0.074524 0.045105 0.393738
0.177612 0.067596 0.437561
0.283264 0.093719 0.481293
0.379425 0.107452 0.525146
0.470306 0.111084 0.562622
0.552216 0.108765 0.590027
0.620697 0.104706 0.609161
0.060425 0.118683 0.415283
0.064545 0.123047 0.437866
0.106628 0.134613 0.468018
0.224335 0.158752 0.509766
0.342438 0.178711 0.555237
0.447235 0.187714 0.603088
0.544464 0.186737 0.642944
0.628754 0.180878 0.670471
0.696747 0.175964 0.689026
0.081665 0.202484 0.469238
0.087250 0.217621 0.496674
0.128540 0.241272 0.529938
0.261566 0.278625 0.577240
0.400909 0.312561 0.629364
0.516907 0.334290 0.680939
0.622375 0.345673 0.723694
0.711792 0.349548 0.752838
0.781372 0.351776 0.771332
0.096436 0.273834 0.503235
0.102722 0.296356 0.532684
0.139069 0.327698 0.568024
0.280060 0.375793 0.620483
0.441132 0.425385 0.680939
0.566467 0.459534 0.734222
0.676147 0.482422 0.775909
0.768555 0.496826 0.804016
0.839203 0.506012 0.821228
0.108307 0.337341 0.528564
0.115295 0.365906 0.558624
0.148743 0.403198 0.595032
0.292847 0.458893 0.651062
0.470184 0.520691 0.718414
0.604706 0.564728 0.773834
0.716522 0.593079 0.812469
0.809296 0.611053 0.836670
0.879211 0.622253 0.850677
0.119324 0.397308 0.553040
0.127594 0.431427 0.583527
0.166199 0.475525 0.621216
0.315430 0.538330 0.679291
0.495819 0.607269 0.747894
0.635040 0.659637 0.803680
0.749084 0.693268 0.839844
0.842255 0.713715 0.860077
0.911499 0.726227 0.870911
0.130127 0.454346 0.576996
0.140442 0.494568 0.608002
0.189941 0.545715 0.646637
0.343811 0.613922 0.705139
0.520386 0.686157 0.771332
0.659698 0.744171 0.824829
0.774384 0.783386 0.859467
0.867950 0.807007 0.877472
0.935699 0.819824 0.885468
0.139740 0.506561 0.597809
0.156189 0.552307 0.629578
0.217468 0.609100 0.669250
0.368439 0.678864 0.725677
0.538666 0.752106 0.788177
0.677673 0.814240 0.839600
0.792175 0.857635 0.873047
0.884613 0.884338 0.891632
0.947937 0.897675 0.898560
0.149475 0.551208 0.614868
0.174286 0.602417 0.648590
0.246277 0.662598 0.689423
0.392303 0.731415 0.743408
0.554077 0.803284 0.802216
0.688904 0.866730 0.851501
0.801575 0.911957 0.883850
0.893005 0.940643 0.902893
0.951111 0.954742 0.912170
0.040497 0.049713 0.384766
0.043091 0.047607 0.404114
0.075684 0.048065 0.433685
0.175079 0.067657 0.474182
0.280640 0.094177 0.516205
0.377045 0.111938 0.561646
0.469330 0.120331 0.605103
0.553009 0.122314 0.638611
0.620728 0.118774 0.660431
0.065277 0.126556 0.461517
0.068787 0.131531 0.482208
0.105011 0.142975 0.510651
0.218445 0.166443 0.549866
0.337463 0.188690 0.592255
0.442383 0.201813 0.640778
0.541718 0.208008 0.687561
0.629608 0.209839 0.723114
0.698730 0.208282 0.745880
0.087128 0.213715 0.518188
0.091888 0.229614 0.543488
0.124695 0.252625 0.574402
0.250824 0.288666 0.618866
0.393829 0.324463 0.668549
0.510162 0.349579 0.720276
0.616516 0.367554 0.768768
0.709503 0.379913 0.806091
0.781433 0.387268 0.830109
0.101562 0.286011 0.553162
0.107178 0.308624 0.581573
0.137268 0.338959 0.614197
0.269257 0.384552 0.662811
0.432220 0.435059 0.721771
0.559204 0.472076 0.776978
0.668732 0.498352 0.823608
0.763367 0.517761 0.858551
0.835571 0.530029 0.880341
0.112976 0.348724 0.577332
0.119904 0.377045 0.607361
0.149017 0.413269 0.642151
0.283142 0.466156 0.694672
0.460449 0.527588 0.760986
0.597656 0.574432 0.820129
0.709351 0.605347 0.864197
0.803528 0.626892 0.894501
0.874237 0.639984 0.912140
0.123779 0.407379 0.597900
0.131836 0.441376 0.629639
0.163269 0.483978 0.666992
0.300934 0.543579 0.722809
0.483704 0.611389 0.791534
0.627777 0.665710 0.852051
0.742981 0.702118 0.894470
0.837097 0.725891 0.920715
0.906311 0.739441 0.934631
0.133911 0.463257 0.619720
0.143646 0.502716 0.652557
0.182037 0.551483 0.691010
0.325317 0.616241 0.748077
0.506409 0.686890 0.815125
0.651825 0.746124 0.873657
0.769165 0.788422 0.915009
0.864136 0.815186 0.940063
0.931488 0.828888 0.951904
0.143494 0.513916 0.639313
0.154816 0.558105 0.671906
0.202820 0.611420 0.710907
0.348755 0.678986 0.767761
0.526245 0.750702 0.832245
0.671692 0.813538 0.888855
0.787933 0.859436 0.929047
0.882263 0.889160 0.953888
0.946075 0.903534 0.964966
0.151581 0.556854 0.653595
0.166016 0.605133 0.687012
0.227203 0.662354 0.727875
0.376099 0.731293 0.784729
0.546173 0.801880 0.845856
0.685699 0.864960 0.899689
0.798676 0.911835 0.938049
0.891693 0.942932 0.962036
0.952484 0.958496 0.972992
