Fujifilm Eterna 250D (8563) - Only contrast.cube
# Created by Benjamin (IWLTBAP) : http://luts.iwltbap.com
# Copyright: (C) Copyright 2010-2017 Triune Films and IWLTBAP SAS
# Cannot be resold, shared or otherwise redistributed
TITLE "Film Print Emulation LUTs Pack (Rec.709, sRGB, DCI-P3)"
LUT_3D_SIZE 5
0.003357 0.003357 0.003357
0.166473 0.003021 0.003021
0.420074 0.002075 0.002075
0.619324 0.001495 0.001495
0.737610 0.001465 0.001465
0.003021 0.166473 0.003021
0.166992 0.166992 0.002686
0.420563 0.166931 0.001740
0.619263 0.167236 0.001160
0.736755 0.168121 0.001129
0.002075 0.420074 0.002075
0.166931 0.420563 0.001740
0.420441 0.420441 0.000763
0.618591 0.420685 0.000183
0.735291 0.421478 0.000183
0.001495 0.619324 0.001495
0.167236 0.619263 0.001160
0.420685 0.618591 0.000183
0.618286 0.618286 0.000000
0.734192 0.618530 0.000000
0.001465 0.737610 0.001465
0.168121 0.736755 0.001129
0.421478 0.735291 0.000183
0.618530 0.734192 0.000000
0.733612 0.733612 0.010040
0.003021 0.003021 0.166473
0.166992 0.002686 0.166992
0.420563 0.001740 0.166931
0.619263 0.001160 0.167236
0.736755 0.001129 0.168121
0.002686 0.166992 0.166992
0.167542 0.167542 0.167542
0.421021 0.167450 0.167450
0.619171 0.167786 0.167786
0.735870 0.168640 0.168640
0.001740 0.420563 0.166931
0.167450 0.421021 0.167450
0.420898 0.420898 0.167389
0.618469 0.421112 0.167725
0.734406 0.421936 0.168610
0.001160 0.619263 0.167236
0.167786 0.619171 0.167786
0.421112 0.618469 0.167725
0.618164 0.618164 0.168030
0.733307 0.618408 0.168945
0.001129 0.736755 0.168121
0.168640 0.735870 0.168640
0.421936 0.734406 0.168610
0.618408 0.733307 0.168945
0.732758 0.732758 0.169861
0.002075 0.002075 0.420074
0.166931 0.001740 0.420563
0.420441 0.000763 0.420441
0.618591 0.000183 0.420685
0.735291 0.000183 0.421478
0.001740 0.166931 0.420563
0.167450 0.167450 0.421021
0.420898 0.167389 0.420898
0.618469 0.167725 0.421112
0.734406 0.168610 0.421936
0.000763 0.420441 0.420441
0.167389 0.420898 0.420898
0.420746 0.420746 0.420746
0.617767 0.420990 0.420990
0.732910 0.421783 0.421783
0.000183 0.618591 0.420685
0.167725 0.618469 0.421112
0.420990 0.617767 0.420990
0.617462 0.617462 0.421234
0.731812 0.617706 0.422028
0.000183 0.735291 0.421478
0.168610 0.734406 0.421936
0.421783 0.732910 0.421783
0.617706 0.731812 0.422028
0.731262 0.731262 0.422852
0.001495 0.001495 0.619324
0.167236 0.001160 0.619263
0.420685 0.000183 0.618591
0.618286 0.000000 0.618286
0.734192 0.000000 0.618530
0.001160 0.167236 0.619263
0.167786 0.167786 0.619171
0.421112 0.167725 0.618469
0.618164 0.168030 0.618164
0.733307 0.168945 0.618408
0.000183 0.420685 0.618591
0.167725 0.421112 0.618469
0.420990 0.420990 0.617767
0.617462 0.421234 0.617462
0.731812 0.422028 0.617706
0.000000 0.618286 0.618286
0.168030 0.618164 0.618164
0.421234 0.617462 0.617462
0.617157 0.617157 0.617157
0.730713 0.617401 0.617401
0.000000 0.734192 0.618530
0.168945 0.733307 0.618408
0.422028 0.731812 0.617706
0.617401 0.730713 0.617401
0.730164 0.730164 0.617676
0.001465 0.001465 0.737610
0.168121 0.001129 0.736755
0.421478 0.000183 0.735291
0.618530 0.000000 0.734192
0.733673 0.000000 0.733673
0.001129 0.168121 0.736755
0.168640 0.168640 0.735870
0.421936 0.168610 0.734406
0.618408 0.168945 0.733307
0.732758 0.169861 0.732758
0.000183 0.421478 0.735291
0.168610 0.421936 0.734406
0.421783 0.421783 0.732910
0.617706 0.422028 0.731812
0.731262 0.422852 0.731262
0.000000 0.618530 0.734192
0.168945 0.618408 0.733307
0.422028 0.617706 0.731812
0.617401 0.617401 0.730713
0.730164 0.617676 0.730164
0.000000 0.733673 0.733673
0.169861 0.732758 0.732758
0.422852 0.731262 0.731262
0.617676 0.730164 0.730164
0.729645 0.729645 0.729645
