Fujifilm Eterna 500T (8573) - Only color.cube
# Created by Benjamin (IWLTBAP) : http://luts.iwltbap.com
# Copyright: (C) Copyright 2010-2017 Triune Films and IWLTBAP SAS
# Cannot be resold, shared or otherwise redistributed
TITLE "Film Print Emulation LUTs Pack (Rec.709, sRGB, DCI-P3)"
LUT_3D_SIZE 33
0.000244 0.000000 0.001984
0.007324 0.000000 0.001892
0.049133 0.012512 0.004181
0.070343 0.023376 0.001038
0.092957 0.030762 0.000763
0.115021 0.033997 0.000549
0.140198 0.036438 0.000305
0.166412 0.036469 0.000122
0.185944 0.041229 0.000000
0.208923 0.040497 0.000000
0.230042 0.035736 0.000000
0.253326 0.019501 0.000000
0.274658 0.000000 0.000000
0.293549 0.000000 0.000000
0.311951 0.000000 0.000000
0.331207 0.000000 0.000000
0.349640 0.000000 0.000000
0.367340 0.000000 0.000000
0.384857 0.000000 0.000000
0.402985 0.000000 0.000000
0.421570 0.000000 0.000000
0.439789 0.000000 0.000000
0.459137 0.000000 0.000000
0.479797 0.000000 0.000000
0.499054 0.000000 0.000000
0.522888 0.000000 0.000000
0.543549 0.000000 0.000000
0.565796 0.000000 0.000000
0.589874 0.000000 0.000000
0.614105 0.000000 0.000549
0.638367 0.000000 0.021362
0.665985 0.000000 0.041626
0.689117 0.000000 0.044647
0.000000 0.030548 0.016022
0.000000 0.029755 0.012451
0.046234 0.036224 0.019714
0.069305 0.040314 0.003204
0.092133 0.043396 0.000671
0.115204 0.046387 0.000427
0.140411 0.047852 0.000214
0.166412 0.048553 0.000031
0.187775 0.050659 0.000000
0.210449 0.050690 0.000000
0.229675 0.051392 0.000000
0.252167 0.045776 0.000000
0.274323 0.033356 0.000000
0.294128 0.017883 0.000000
0.315033 0.000000 0.000000
0.335907 0.000000 0.000000
0.354401 0.000000 0.000000
0.371613 0.000000 0.000000
0.388947 0.000000 0.000000
0.407257 0.000000 0.000000
0.425476 0.000000 0.000000
0.443481 0.000000 0.000000
0.462952 0.000000 0.000000
0.483093 0.000000 0.000000
0.502563 0.000000 0.000000
0.525787 0.000000 0.000000
0.546600 0.000000 0.000000
0.568573 0.000000 0.000000
0.591736 0.000000 0.000000
0.616058 0.000000 0.000000
0.640289 0.000000 0.014282
0.667236 0.000000 0.038635
0.690948 0.000000 0.040649
0.000000 0.056274 0.047058
0.000000 0.055634 0.045074
0.043121 0.059601 0.047241
0.071869 0.062286 0.040405
0.098755 0.065643 0.027039
0.126617 0.068298 0.000183
0.155365 0.070282 0.000000
0.184082 0.071594 0.000000
0.209991 0.073547 0.000000
0.231689 0.076019 0.000000
0.253387 0.076080 0.000000
0.278351 0.068604 0.000000
0.301361 0.060760 0.000000
0.325256 0.050751 0.000000
0.347107 0.026917 0.000000
0.367004 0.021210 0.000000
0.385620 0.018738 0.000000
0.403717 0.012115 0.000000
0.422668 0.007111 0.000000
0.443237 0.000000 0.000000
0.462952 0.000000 0.000000
0.482941 0.000000 0.000000
0.504364 0.000000 0.000000
0.525848 0.000000 0.000000
0.546967 0.000000 0.000000
0.569122 0.000000 0.000000
0.591980 0.000000 0.000000
0.613586 0.000000 0.000000
0.635345 0.000000 0.000000
0.658905 0.000000 0.000000
0.684082 0.000000 0.000000
0.713409 0.000000 0.000031
0.736481 0.000000 0.000031
0.000000 0.080078 0.068604
0.000000 0.080658 0.067139
0.005066 0.086639 0.067902
0.069366 0.090759 0.067383
0.098846 0.093536 0.061188
0.128174 0.095795 0.047638
0.161377 0.097992 0.024475
0.191528 0.099304 0.000000
0.220520 0.102234 0.000000
0.246002 0.102661 0.000000
0.268768 0.103485 0.000000
0.291595 0.102692 0.000000
0.316223 0.098572 0.000000
0.340485 0.095123 0.000000
0.364258 0.090637 0.000000
0.386688 0.085785 0.000000
0.408539 0.076904 0.000000
0.429657 0.072662 0.000000
0.449524 0.070129 0.000000
0.472504 0.055542 0.000000
0.493408 0.050110 0.000000
0.517090 0.046539 0.000000
0.536896 0.042847 0.000000
0.558929 0.036560 0.000000
0.582520 0.017151 0.000000
0.605621 0.008820 0.000000
0.627655 0.000000 0.000000
0.649658 0.000000 0.000000
0.671783 0.000000 0.000000
0.694824 0.000000 0.000000
0.720276 0.000000 0.000000
0.750427 0.000000 0.000000
0.774384 0.009613 0.000000
0.000000 0.098083 0.084442
0.000000 0.098907 0.083221
0.000000 0.109314 0.081360
0.062042 0.113556 0.079041
0.095490 0.117218 0.075897
0.124908 0.118713 0.071198
0.160950 0.121155 0.060577
0.191711 0.122589 0.044830
0.224335 0.124329 0.023682
0.250488 0.124695 0.000000
0.274567 0.125702 0.000000
0.297699 0.126709 0.000000
0.321838 0.126404 0.000000
0.345581 0.125397 0.000000
0.370514 0.123749 0.000000
0.394196 0.120667 0.000000
0.418488 0.116821 0.000000
0.440552 0.115723 0.000000
0.462830 0.113159 0.000000
0.485687 0.109406 0.000000
0.511993 0.101074 0.000000
0.531738 0.100250 0.000000
0.553528 0.097290 0.000000
0.577362 0.091553 0.000000
0.603729 0.077087 0.000000
0.626648 0.070312 0.000000
0.649689 0.063751 0.000000
0.672211 0.056946 0.000000
0.696014 0.047241 0.000000
0.720612 0.039703 0.000000
0.746307 0.031708 0.000000
0.774963 0.047211 0.000092
0.797119 0.071045 0.000305
0.000000 0.115234 0.100739
0.000000 0.115936 0.099701
0.000000 0.125946 0.092072
0.057739 0.131531 0.088806
0.097473 0.136536 0.087769
0.126587 0.139008 0.083649
0.155212 0.141388 0.076050
0.188568 0.143738 0.067749
0.222137 0.145813 0.058228
0.252350 0.147827 0.044037
0.276276 0.150116 0.018463
0.300049 0.151550 0.000000
0.324921 0.152924 0.000000
0.348694 0.153473 0.000000
0.374359 0.151825 0.000000
0.398773 0.150177 0.000000
0.425201 0.146820 0.000000
0.449585 0.144531 0.000000
0.474060 0.141602 0.000000
0.495972 0.140137 0.000000
0.521973 0.137115 0.000000
0.543732 0.135590 0.000000
0.566620 0.134369 0.000000
0.591705 0.128998 0.000000
0.615753 0.125366 0.000000
0.636627 0.125702 0.000000
0.660553 0.121307 0.000000
0.685028 0.116394 0.000061
0.710175 0.112732 0.000122
0.733887 0.112335 0.000244
0.758728 0.113434 0.000336
0.789520 0.119141 0.000488
0.811829 0.134827 0.000671
0.000000 0.131714 0.113739
0.000000 0.132660 0.112305
0.000000 0.143738 0.109406
0.066406 0.151459 0.103607
0.101593 0.157806 0.102692
0.129730 0.161896 0.097473
0.157593 0.163788 0.089111
0.187012 0.166199 0.081909
0.216034 0.170166 0.075500
0.246643 0.173523 0.067871
0.272095 0.176575 0.057495
0.297882 0.178833 0.042206
0.323761 0.180573 0.014130
0.349213 0.181793 0.000000
0.374817 0.182281 0.000000
0.399506 0.181580 0.000000
0.425964 0.180176 0.000000
0.453064 0.177734 0.000000
0.478821 0.174744 0.000000
0.503479 0.173218 0.000000
0.529419 0.171967 0.000000
0.552734 0.170441 0.000000
0.576660 0.168610 0.000000
0.600952 0.166779 0.000000
0.623718 0.165985 0.000000
0.645844 0.165741 0.000122
0.668427 0.165222 0.000214
0.693115 0.163055 0.000336
0.719330 0.159241 0.000427
0.745972 0.154297 0.000519
0.771912 0.153717 0.000610
0.797577 0.169342 0.000793
0.819702 0.188934 0.000977
0.000000 0.151611 0.125153
0.000000 0.152161 0.124268
0.000000 0.163727 0.121155
0.072784 0.172485 0.115448
0.111877 0.179535 0.115570
0.142120 0.183899 0.111847
0.167725 0.185303 0.106445
0.191132 0.188782 0.097046
0.216949 0.192596 0.088043
0.241516 0.196747 0.081421
0.268158 0.200378 0.074280
0.294006 0.203522 0.064209
0.321564 0.205811 0.050293
0.347931 0.207245 0.029541
0.374084 0.208282 0.000000
0.399078 0.208893 0.000000
0.424988 0.208893 0.000000
0.452087 0.207703 0.000000
0.479767 0.205688 0.000000
0.509430 0.203644 0.000000
0.532440 0.203430 0.000000
0.556702 0.202820 0.000000
0.581451 0.201996 0.000000
0.606293 0.200745 0.000061
0.629272 0.201141 0.000183
0.652863 0.200531 0.000305
0.675568 0.201141 0.000427
0.700165 0.200531 0.000549
0.724762 0.200714 0.000671
0.750458 0.200073 0.000763
0.777161 0.199219 0.000885
0.804901 0.208374 0.001038
0.827271 0.222656 0.001190
0.000000 0.172546 0.133209
0.000000 0.173035 0.131958
0.000000 0.184967 0.129059
0.076569 0.192596 0.126740
0.120209 0.199371 0.126434
0.149750 0.204590 0.121643
0.173096 0.208038 0.115265
0.193970 0.210052 0.109039
0.219879 0.212219 0.103485
0.243378 0.215881 0.092712
0.266937 0.220367 0.085785
0.291901 0.226135 0.077667
0.319244 0.230957 0.068054
0.347107 0.233307 0.054169
0.374573 0.234833 0.032532
0.400024 0.235535 0.000000
0.426270 0.235687 0.000000
0.451752 0.236511 0.000000
0.479401 0.235199 0.000000
0.508850 0.234344 0.000000
0.533875 0.233673 0.000000
0.558258 0.233826 0.000031
0.583862 0.233154 0.000153
0.609375 0.232819 0.000275
0.633453 0.232635 0.000397
0.657654 0.231781 0.000519
0.681732 0.232269 0.000641
0.707245 0.232086 0.000763
0.731934 0.232910 0.000885
0.757812 0.232880 0.000977
0.784058 0.233337 0.001099
0.813354 0.239014 0.001221
0.840240 0.252350 0.001373
0.000000 0.192657 0.140442
0.000000 0.193085 0.139648
0.000000 0.202881 0.138489
0.078705 0.210876 0.133514
0.124878 0.218597 0.133240
0.156921 0.225311 0.130402
0.178162 0.232178 0.122192
0.202148 0.234192 0.116302
0.224274 0.234863 0.112061
0.247223 0.236847 0.108154
0.269775 0.241211 0.101532
0.293365 0.245758 0.089417
0.317444 0.250549 0.079681
0.346497 0.253571 0.069550
0.374939 0.256165 0.055176
0.401703 0.257996 0.029724
0.428864 0.258636 0.000000
0.455231 0.259521 0.000000
0.482025 0.259369 0.000000
0.510956 0.259186 0.000000
0.535828 0.258759 0.000061
0.561218 0.258453 0.000183
0.585968 0.258728 0.000305
0.611328 0.259003 0.000427
0.636749 0.258118 0.000580
0.662476 0.257050 0.000702
0.687317 0.257355 0.000824
0.713409 0.257324 0.000946
0.739807 0.257294 0.001038
0.765778 0.257568 0.001160
0.791901 0.258301 0.001251
0.820892 0.265625 0.001404
0.847931 0.280853 0.001526
0.000000 0.209930 0.145203
0.000000 0.210327 0.144012
0.000000 0.220367 0.143646
0.088776 0.231415 0.139618
0.130829 0.240143 0.136963
0.163544 0.246765 0.132935
0.185211 0.251068 0.126648
0.208984 0.254395 0.121857
0.231781 0.254852 0.119171
0.254730 0.256378 0.116425
0.276062 0.258789 0.112671
0.298065 0.263367 0.105255
0.321686 0.268585 0.091797
0.346649 0.273560 0.082275
0.375793 0.278046 0.071045
0.402985 0.281128 0.054352
0.431641 0.283234 0.026917
0.459137 0.284485 0.000000
0.485260 0.284882 0.000000
0.514374 0.285278 0.000092
0.539490 0.285400 0.000214
0.565186 0.285126 0.000366
0.591766 0.284576 0.000488
0.616241 0.284698 0.000610
0.641235 0.284149 0.000732
0.666595 0.283752 0.000885
0.692291 0.283478 0.001007
0.719757 0.282776 0.001099
0.745422 0.283295 0.001221
0.771667 0.283966 0.001312
0.798828 0.285034 0.001434
0.826874 0.293854 0.001526
0.855408 0.309601 0.001617
0.000000 0.230408 0.149475
0.000000 0.230591 0.148315
0.000000 0.240906 0.148346
0.084808 0.249420 0.143585
0.133575 0.259125 0.139801
0.166565 0.266724 0.136261
0.188477 0.271606 0.133026
0.212738 0.275726 0.129730
0.242249 0.277832 0.125916
0.264160 0.277283 0.125092
0.284698 0.279114 0.122009
0.305542 0.282288 0.115601
0.328125 0.287048 0.107361
0.352325 0.292938 0.092987
0.377960 0.298157 0.083588
0.403442 0.303772 0.073212
0.432831 0.307404 0.057129
0.461182 0.310059 0.028931
0.488708 0.312012 0.000092
0.518158 0.312683 0.000244
0.544128 0.313263 0.000366
0.570648 0.313538 0.000519
0.596710 0.313538 0.000641
0.622040 0.313141 0.000763
0.647034 0.312744 0.000916
0.671875 0.312500 0.001038
0.698151 0.311676 0.001160
0.725281 0.311005 0.001251
0.751587 0.310883 0.001343
0.777710 0.311676 0.001465
0.804901 0.312897 0.001556
0.836304 0.321564 0.001648
0.862885 0.334808 0.001740
0.000000 0.246826 0.154846
0.000000 0.247162 0.153320
0.004700 0.258301 0.154877
0.084503 0.268799 0.148712
0.140381 0.279144 0.146973
0.171265 0.288391 0.139893
0.193115 0.294434 0.137543
0.215607 0.298553 0.136780
0.247620 0.301910 0.135223
0.274963 0.301392 0.134033
0.295074 0.300995 0.131165
0.315552 0.303253 0.125610
0.337555 0.307434 0.117065
0.360107 0.313202 0.107910
0.382782 0.319702 0.095276
0.407135 0.325500 0.084869
0.433655 0.329712 0.073944
0.463318 0.333527 0.059784
0.490967 0.335632 0.034882
0.521393 0.337158 0.000366
0.548187 0.338867 0.000519
0.575653 0.339569 0.000671
0.601746 0.340393 0.000824
0.627472 0.340271 0.000946
0.653625 0.338806 0.001068
0.678589 0.338348 0.001190
0.704407 0.337585 0.001312
0.731232 0.337036 0.001404
0.757599 0.337006 0.001495
0.783295 0.337494 0.001587
0.810944 0.337585 0.001648
0.844910 0.346649 0.001740
0.869598 0.361267 0.001831
0.000000 0.264008 0.160767
0.000305 0.264038 0.159668
0.045502 0.276459 0.167572
0.095764 0.286682 0.165375
0.150452 0.299408 0.155457
0.181244 0.308990 0.148254
0.205231 0.316345 0.149872
0.223389 0.322083 0.148743
0.248962 0.327148 0.141693
0.285431 0.326691 0.142944
0.307068 0.326477 0.140198
0.326477 0.326477 0.135773
0.346497 0.328613 0.128265
0.368927 0.332916 0.119446
0.390808 0.337372 0.109467
0.412720 0.344727 0.097565
0.437653 0.349609 0.084930
0.464386 0.354248 0.073334
0.493469 0.358643 0.059021
0.524658 0.362000 0.033997
0.552185 0.364349 0.000702
0.579895 0.366119 0.000854
0.607056 0.367432 0.001007
0.632782 0.367798 0.001129
0.659027 0.367401 0.001282
0.685547 0.366302 0.001373
0.711823 0.365784 0.001495
0.739014 0.364960 0.001587
0.764618 0.365143 0.001648
0.790375 0.365112 0.001740
0.817657 0.365295 0.001801
0.852173 0.372253 0.001862
0.876373 0.387939 0.001923
0.040955 0.281799 0.174103
0.048615 0.281677 0.173492
0.069794 0.295685 0.182007
0.115448 0.306122 0.181854
0.167572 0.319824 0.173523
0.194611 0.328949 0.166351
0.216339 0.335449 0.165009
0.233032 0.342163 0.164703
0.262665 0.346893 0.156525
0.297089 0.348663 0.150909
0.320679 0.350250 0.148621
0.338745 0.350250 0.144287
0.357300 0.351379 0.137878
0.377502 0.353577 0.131317
0.398315 0.358124 0.121338
0.420746 0.362732 0.111023
0.443909 0.368134 0.097626
0.467651 0.374146 0.083130
0.495880 0.379364 0.071991
0.527191 0.384003 0.054718
0.555695 0.388062 0.023468
0.583923 0.390869 0.001007
0.612152 0.393250 0.001160
0.638428 0.394867 0.001312
0.664032 0.395508 0.001434
0.690552 0.395325 0.001556
0.718201 0.394287 0.001648
0.744995 0.393799 0.001709
0.770691 0.393890 0.001801
0.797394 0.393036 0.001862
0.824341 0.392914 0.001892
0.859070 0.399994 0.001953
0.881958 0.415863 0.001984
0.057861 0.300568 0.185364
0.064575 0.300446 0.185120
0.082916 0.317017 0.190033
0.126373 0.326996 0.191742
0.182220 0.336914 0.191010
0.210083 0.347870 0.184845
0.228424 0.354523 0.182617
0.243988 0.360229 0.178864
0.273804 0.365845 0.168945
0.308228 0.370239 0.158142
0.332886 0.373291 0.157440
0.352325 0.375916 0.154114
0.369293 0.375916 0.146759
0.387299 0.377289 0.138763
0.405853 0.378357 0.130981
0.429077 0.382660 0.122314
0.452545 0.388000 0.112061
0.476318 0.393524 0.097656
0.499420 0.399231 0.081940
0.530090 0.403961 0.069183
0.557922 0.408691 0.048096
0.587311 0.413391 0.006500
0.615967 0.416687 0.001312
0.643005 0.419403 0.001465
0.669373 0.421814 0.001587
0.696198 0.423218 0.001709
0.723511 0.422943 0.001770
0.750305 0.422821 0.001862
0.776947 0.422729 0.001892
0.803986 0.421448 0.001953
0.830994 0.421326 0.001984
0.866028 0.428558 0.002014
0.890198 0.443848 0.002014
0.071106 0.320770 0.191589
0.076263 0.320679 0.192139
0.096161 0.335571 0.196259
0.136108 0.346741 0.199585
0.190765 0.357697 0.201080
0.221954 0.365692 0.200165
0.239532 0.373413 0.196228
0.255981 0.380066 0.191376
0.285553 0.386230 0.185242
0.318054 0.391876 0.178406
0.344788 0.396790 0.172943
0.366272 0.399963 0.166443
0.383514 0.401581 0.157196
0.397491 0.401062 0.144470
0.416260 0.401550 0.135986
0.437561 0.403656 0.128510
0.460693 0.407440 0.120117
0.484650 0.412811 0.109680
0.510895 0.417999 0.094391
0.534698 0.423523 0.080078
0.561310 0.428802 0.061676
0.589935 0.433807 0.034241
0.619110 0.438690 0.001465
0.646790 0.443573 0.001587
0.673676 0.447021 0.001709
0.701202 0.449524 0.001801
0.729401 0.451111 0.001892
0.756317 0.453094 0.001953
0.782928 0.453491 0.002014
0.809418 0.451477 0.002045
0.840515 0.450287 0.002045
0.872437 0.460571 0.002045
0.896362 0.473572 0.002045
0.085724 0.337524 0.196747
0.090942 0.337311 0.197266
0.113403 0.354767 0.204346
0.148560 0.364960 0.211182
0.203552 0.377167 0.211700
0.233490 0.385254 0.212189
0.249084 0.392670 0.211273
0.267090 0.400177 0.203094
0.292755 0.406738 0.198761
0.327087 0.412964 0.190674
0.355743 0.418060 0.184479
0.379456 0.422852 0.177307
0.395966 0.424683 0.169189
0.411926 0.425537 0.157288
0.427612 0.426056 0.140533
0.447174 0.426453 0.132355
0.468750 0.428680 0.123291
0.491455 0.432281 0.114075
0.517914 0.437286 0.103607
0.541199 0.443146 0.086914
0.566742 0.449036 0.073486
0.592560 0.457336 0.050201
0.621521 0.462677 0.017212
0.649323 0.467651 0.001678
0.677307 0.472198 0.001831
0.705627 0.475342 0.001892
0.734131 0.477722 0.001984
0.761841 0.480011 0.002045
0.788971 0.481049 0.002075
0.815277 0.480804 0.002075
0.846405 0.480316 0.002075
0.878357 0.486603 0.002045
0.902405 0.500519 0.002075
0.105804 0.355652 0.206482
0.109222 0.355682 0.206024
0.137360 0.372467 0.217377
0.169159 0.383026 0.221039
0.218842 0.394836 0.219818
0.242279 0.405548 0.218353
0.256409 0.413788 0.218567
0.270355 0.420715 0.218384
0.298889 0.427429 0.214691
0.335999 0.433807 0.201233
0.366241 0.440186 0.192261
0.390594 0.445709 0.187531
0.410736 0.449432 0.182861
0.427338 0.451202 0.172455
0.442627 0.452026 0.154755
0.458466 0.452637 0.138153
0.477478 0.452148 0.126862
0.498993 0.457611 0.116486
0.524841 0.460938 0.105713
0.548737 0.465363 0.089874
0.573364 0.470154 0.077545
0.598419 0.475067 0.062531
0.623291 0.480896 0.039337
0.651550 0.486847 0.019928
0.680023 0.492493 0.001892
0.709442 0.497833 0.002014
0.738373 0.501984 0.002075
0.766510 0.505157 0.002106
0.794250 0.507446 0.002106
0.820953 0.507996 0.002136
0.852905 0.507690 0.002106
0.884857 0.514130 0.002075
0.908813 0.528259 0.002106
0.127838 0.372467 0.218475
0.131683 0.372375 0.218262
0.162445 0.389771 0.227631
0.187775 0.400848 0.231079
0.226288 0.415466 0.225250
0.249512 0.426819 0.223846
0.263397 0.435059 0.225494
0.276123 0.442291 0.228149
0.306488 0.449097 0.224884
0.343445 0.458862 0.215149
0.376740 0.464691 0.201263
0.401794 0.469757 0.200531
0.423950 0.473541 0.196594
0.442871 0.476227 0.188354
0.457458 0.476379 0.172516
0.472778 0.476837 0.152924
0.489380 0.477234 0.134094
0.510956 0.477386 0.118835
0.532654 0.480042 0.107758
0.556671 0.484039 0.093353
0.581421 0.488708 0.082062
0.605957 0.493958 0.070038
0.630035 0.500153 0.052246
0.655060 0.506592 0.028503
0.683380 0.513062 0.017273
0.713135 0.519501 0.002075
0.742493 0.525024 0.002106
0.770599 0.529755 0.002136
0.798981 0.533386 0.002167
0.826477 0.534698 0.002167
0.859406 0.534790 0.002136
0.891205 0.541901 0.002106
0.913666 0.555054 0.002106
0.153015 0.388855 0.228058
0.156006 0.388855 0.227844
0.182770 0.407013 0.237396
0.200134 0.419922 0.237030
0.233063 0.436096 0.229523
0.255920 0.448120 0.226288
0.269897 0.460327 0.230743
0.282043 0.466736 0.236298
0.310608 0.472626 0.234955
0.349487 0.478149 0.227753
0.384949 0.483826 0.221375
0.412994 0.489929 0.217773
0.437225 0.495392 0.214752
0.456909 0.498779 0.204163
0.473419 0.500061 0.192047
0.488525 0.500549 0.174713
0.504578 0.501038 0.150696
0.522980 0.501190 0.130798
0.541504 0.502563 0.113708
0.565033 0.505035 0.102692
0.589813 0.509369 0.088776
0.614044 0.514374 0.076965
0.637482 0.519989 0.063385
0.661621 0.526886 0.049438
0.688080 0.533630 0.037506
0.716705 0.540558 0.028625
0.746399 0.547058 0.014648
0.774658 0.552185 0.002167
0.802643 0.556702 0.002167
0.831207 0.559998 0.002167
0.864014 0.560974 0.002136
0.896149 0.570953 0.002136
0.918884 0.583069 0.002136
0.176727 0.404907 0.237976
0.178680 0.404907 0.237976
0.193146 0.425568 0.243622
0.210846 0.439545 0.243866
0.239349 0.460388 0.230133
0.263245 0.470734 0.231934
0.277191 0.479309 0.241394
0.289185 0.486969 0.246307
0.312622 0.493927 0.244568
0.352570 0.499847 0.237122
0.391907 0.505157 0.233215
0.423096 0.511322 0.230225
0.449036 0.516968 0.229004
0.471008 0.521912 0.223267
0.488556 0.523865 0.212524
0.506592 0.525177 0.194122
0.522064 0.525635 0.174133
0.536774 0.526154 0.146851
0.554108 0.526733 0.122131
0.574158 0.528259 0.102722
0.598328 0.531525 0.092316
0.622253 0.535950 0.079590
0.645874 0.541443 0.067963
0.669678 0.547363 0.056030
0.694427 0.554169 0.049530
0.722015 0.560516 0.044586
0.750671 0.568970 0.038635
0.779480 0.577087 0.024811
0.806793 0.582581 0.002197
0.836456 0.586792 0.002197
0.867920 0.589844 0.002167
0.901154 0.597107 0.002167
0.923950 0.609619 0.002167
0.187317 0.422333 0.244415
0.189087 0.422333 0.244232
0.207886 0.444794 0.250702
0.221619 0.462921 0.252350
0.249451 0.477081 0.247223
0.271881 0.489044 0.247864
0.284241 0.498901 0.253052
0.298126 0.506836 0.256500
0.321533 0.514465 0.256134
0.360382 0.521210 0.248962
0.398560 0.526947 0.242096
0.431885 0.533264 0.238159
0.460632 0.539246 0.241913
0.484100 0.544556 0.238983
0.504730 0.548340 0.229004
0.522736 0.549957 0.214294
0.537506 0.550537 0.193115
0.553101 0.551239 0.170410
0.568573 0.551605 0.140442
0.585693 0.551819 0.103271
0.607086 0.553741 0.080872
0.630371 0.557373 0.076996
0.653778 0.561981 0.069427
0.677856 0.570465 0.058655
0.702881 0.577240 0.056091
0.728363 0.584229 0.055206
0.756226 0.590973 0.050598
0.784180 0.598450 0.043701
0.812622 0.605194 0.032776
0.844574 0.610809 0.005829
0.874207 0.615204 0.002197
0.907288 0.624115 0.002197
0.930664 0.635284 0.002197
0.201813 0.440155 0.251495
0.203247 0.440216 0.250916
0.220795 0.466736 0.262482
0.234863 0.479523 0.272186
0.260590 0.494904 0.271332
0.279541 0.507935 0.264221
0.290344 0.517792 0.264069
0.308014 0.526215 0.266846
0.340576 0.533966 0.266876
0.378632 0.541107 0.261658
0.414154 0.547485 0.254303
0.447357 0.553741 0.254120
0.474609 0.559723 0.257172
0.496887 0.568420 0.253967
0.519318 0.574188 0.242920
0.537231 0.576263 0.230011
0.554138 0.577789 0.214081
0.569397 0.578552 0.191040
0.585175 0.578827 0.165527
0.600983 0.579559 0.130096
0.617767 0.579895 0.079620
0.639191 0.582703 0.066498
0.662140 0.586853 0.062714
0.686432 0.591919 0.063507
0.711578 0.598755 0.062744
0.737244 0.606079 0.061981
0.762726 0.613708 0.060394
0.790314 0.621765 0.056183
0.818817 0.629150 0.049713
0.851959 0.635498 0.037811
0.881653 0.641022 0.012024
0.915100 0.649841 0.002228
0.938507 0.660187 0.002228
0.213043 0.461884 0.261292
0.214569 0.461884 0.260712
0.233978 0.483734 0.279816
0.245422 0.498352 0.287415
0.268646 0.514099 0.287323
0.286194 0.527069 0.283051
0.302185 0.536926 0.277863
0.327667 0.545227 0.277008
0.362732 0.552704 0.277039
0.399353 0.559265 0.273285
0.435272 0.566925 0.273865
0.463409 0.576263 0.272797
0.487396 0.583801 0.269043
0.511688 0.590973 0.263641
0.530792 0.597839 0.255646
0.550568 0.600861 0.242950
0.568512 0.603271 0.227783
0.585419 0.604248 0.210052
0.601318 0.604126 0.187378
0.616852 0.604828 0.152924
0.632904 0.605621 0.112457
0.649811 0.606934 0.071625
0.672302 0.611206 0.067322
0.696320 0.616150 0.068085
0.721100 0.622375 0.068817
0.747284 0.629791 0.068085
0.772125 0.637177 0.066620
0.797699 0.644836 0.064362
0.825348 0.653107 0.061218
0.858795 0.660095 0.054443
0.888977 0.666443 0.041870
0.923004 0.675903 0.023041
0.945648 0.683838 0.023987
0.226471 0.477509 0.276978
0.227509 0.477661 0.276062
0.243530 0.502319 0.292084
0.252655 0.518555 0.294006
0.274841 0.535034 0.296234
0.291290 0.546753 0.298279
0.316528 0.555145 0.294403
0.349518 0.562988 0.290466
0.384277 0.573853 0.289032
0.418396 0.581329 0.284485
0.448273 0.588867 0.282867
0.476074 0.596893 0.280334
0.499359 0.604858 0.279999
0.523895 0.612915 0.275452
0.543671 0.620331 0.267212
0.562561 0.626526 0.255127
0.581543 0.629974 0.240387
0.598633 0.631348 0.223053
0.614868 0.631653 0.200867
0.631073 0.632385 0.176392
0.647156 0.632721 0.133179
0.664154 0.633301 0.088989
0.682953 0.636078 0.071686
0.706757 0.641296 0.071686
0.731384 0.647217 0.072418
0.756897 0.653809 0.073120
0.782043 0.661011 0.072418
0.807251 0.668823 0.071014
0.834320 0.677063 0.068848
0.865906 0.684387 0.065125
0.896576 0.690765 0.057098
0.930359 0.702454 0.048828
0.953217 0.708618 0.052643
0.236816 0.494324 0.290649
0.237915 0.494324 0.290344
0.250824 0.521820 0.298492
0.259857 0.538818 0.301422
0.280670 0.555298 0.304901
0.299957 0.567444 0.307129
0.330292 0.577087 0.307709
0.369965 0.584442 0.304504
0.400330 0.592773 0.298187
0.432068 0.601257 0.294800
0.461182 0.609711 0.290710
0.488800 0.618408 0.288788
0.515045 0.626495 0.288483
0.536835 0.634613 0.286224
0.557495 0.642426 0.279205
0.576202 0.649292 0.267670
0.594177 0.654968 0.252747
0.611420 0.658051 0.233643
0.627380 0.658905 0.212555
0.643616 0.659943 0.186615
0.660370 0.661316 0.152313
