Fujifilm Eterna Vivid 160T (8543) - Only color.cube
# Created by Benjamin (IWLTBAP) : http://luts.iwltbap.com
# Copyright: (C) Copyright 2010-2017 Triune Films and IWLTBAP SAS
# Cannot be resold, shared or otherwise redistributed
TITLE "Film Print Emulation LUTs Pack (Rec.709, sRGB, DCI-P3)"
LUT_3D_SIZE 9
0.000793 0.000000 0.000000
0.097107 0.012390 0.007355
0.178223 0.019684 0.015778
0.247528 0.017334 0.020599
0.313507 0.021210 0.029877
0.382294 0.025909 0.038208
0.452850 0.029785 0.046570
0.521332 0.034454 0.053589
0.580353 0.037506 0.059296
0.018127 0.080261 0.030426
0.114380 0.108948 0.037079
0.204834 0.130432 0.037231
0.283936 0.137299 0.042847
0.359131 0.133881 0.053558
0.435944 0.127350 0.061584
0.512177 0.123962 0.068878
0.582123 0.123291 0.073608
0.640991 0.124847 0.076782
0.045868 0.150879 0.060333
0.133240 0.181854 0.068604
0.227386 0.214081 0.065918
0.315826 0.233582 0.068848
0.402130 0.241821 0.074860
0.489319 0.243744 0.082764
0.571991 0.242645 0.089996
0.645721 0.240509 0.094727
0.706085 0.240936 0.097290
0.069305 0.208130 0.083588
0.149414 0.238770 0.095490
0.245148 0.279602 0.093536
0.339508 0.309631 0.090454
0.433441 0.327362 0.092102
0.527802 0.338501 0.095764
0.615997 0.344818 0.101257
0.694824 0.348602 0.107422
0.758881 0.352661 0.110626
0.089935 0.257874 0.103729
0.162750 0.290070 0.120087
0.260345 0.338257 0.121429
0.359558 0.379608 0.111359
0.458496 0.404938 0.110077
0.556915 0.421814 0.111023
0.650208 0.433258 0.112396
0.733917 0.441895 0.115051
0.802185 0.448944 0.118500
0.107330 0.306183 0.122894
0.175262 0.341461 0.141815
0.274139 0.395325 0.149170
0.377594 0.447723 0.134979
0.481781 0.482727 0.126801
0.584595 0.505463 0.129150
0.682556 0.521027 0.130341
0.769836 0.532562 0.129639
0.840546 0.540619 0.129303
0.122986 0.354248 0.141144
0.187958 0.393280 0.160461
0.287537 0.450989 0.172058
0.394043 0.511871 0.160278
0.502625 0.557343 0.145050
0.610046 0.587097 0.143433
0.711487 0.606262 0.146759
0.798645 0.619080 0.145508
0.863983 0.626953 0.143219
0.135437 0.400146 0.156891
0.200836 0.443909 0.177094
0.302368 0.504913 0.192047
0.410431 0.570038 0.182281
0.519958 0.623260 0.164062
0.630188 0.660675 0.153717
0.733521 0.683777 0.154999
0.817169 0.698120 0.157745
0.873199 0.705872 0.158081
0.147461 0.441589 0.171204
0.215515 0.491425 0.192017
0.321716 0.555237 0.208435
0.429291 0.621338 0.199219
0.535706 0.677979 0.179504
0.645386 0.720886 0.162689
0.748779 0.747955 0.159790
0.828217 0.763702 0.163605
0.878784 0.771698 0.166199
0.000122 0.005646 0.079193
0.078094 0.028168 0.116455
0.172577 0.039825 0.136383
0.251251 0.039062 0.137848
0.322693 0.035980 0.134674
0.394531 0.032837 0.133942
0.465790 0.031250 0.134705
0.533478 0.033569 0.137238
0.591766 0.035126 0.141418
0.030396 0.093872 0.114716
0.111908 0.121460 0.140625
0.211914 0.145935 0.157990
0.298035 0.152130 0.160980
0.376434 0.147736 0.159210
0.453827 0.139679 0.157715
0.529266 0.134033 0.157745
0.597656 0.132843 0.159515
0.655426 0.134277 0.162476
0.054749 0.163788 0.140564
0.137970 0.196106 0.160339
0.239685 0.231781 0.172485
0.333893 0.251190 0.173340
0.423370 0.258484 0.172791
0.510223 0.259979 0.173889
0.591644 0.258850 0.175201
0.664093 0.257843 0.176544
0.723938 0.258789 0.179138
0.075104 0.219360 0.156128
0.153778 0.253845 0.175690
0.256622 0.299652 0.185181
0.356445 0.330994 0.181427
0.453796 0.348022 0.178894
0.547974 0.358582 0.178894
0.636047 0.364960 0.180450
0.714233 0.369812 0.182983
0.778259 0.374817 0.187225
0.091248 0.268341 0.169708
0.165771 0.306366 0.189087
0.269714 0.360779 0.199371
0.375031 0.404572 0.191284
0.477509 0.430267 0.186218
0.576080 0.446594 0.184509
0.669617 0.458160 0.183014
0.752655 0.467255 0.184540
0.821411 0.474487 0.188721
0.106964 0.317444 0.182892
0.177063 0.359161 0.202484
0.281128 0.419434 0.214905
0.391235 0.474823 0.204742
0.498596 0.510681 0.193420
0.601685 0.533020 0.191803
0.699738 0.548340 0.191101
0.785889 0.559601 0.190399
0.856018 0.567505 0.191620
0.121826 0.366974 0.197083
0.187744 0.412811 0.215729
0.291321 0.476837 0.231354
0.405609 0.540558 0.222534
0.516937 0.587097 0.205383
0.624451 0.616791 0.199432
0.725769 0.635956 0.200989
0.811096 0.648773 0.201447
0.874023 0.656677 0.201263
0.135895 0.414520 0.213440
0.199371 0.465363 0.233032
0.302979 0.531586 0.250610
0.419495 0.599518 0.244812
0.531189 0.654114 0.225464
0.641174 0.692383 0.212006
0.744904 0.716278 0.210114
0.827026 0.730804 0.212433
0.881775 0.738800 0.214752
0.147430 0.457733 0.234680
0.213654 0.515045 0.255585
0.318878 0.582916 0.273346
0.434784 0.651550 0.269104
0.543243 0.709839 0.252228
0.652527 0.754639 0.235352
0.757050 0.784119 0.226013
0.836945 0.800476 0.225281
0.888123 0.808960 0.230225
0.000732 0.021088 0.138672
0.052246 0.032837 0.175751
0.152161 0.053864 0.213135
0.244019 0.064240 0.234985
0.322357 0.062012 0.238617
0.399078 0.057983 0.234985
0.473541 0.053772 0.233124
0.542603 0.048676 0.234955
0.601440 0.046692 0.239288
0.042206 0.109467 0.182220
0.089905 0.127899 0.213104
0.197693 0.155609 0.249756
0.297424 0.165894 0.269592
0.382263 0.160187 0.270325
0.463470 0.155060 0.266632
0.540863 0.151764 0.265228
0.610596 0.150208 0.267365
0.669006 0.150726 0.271606
0.070465 0.180664 0.217010
0.126221 0.205902 0.239685
0.235046 0.245270 0.269775
0.341064 0.270020 0.286926
0.436523 0.277130 0.290100
0.526733 0.278503 0.289795
0.609314 0.278107 0.290192
0.682373 0.277832 0.291962
0.742737 0.279236 0.296143
0.091919 0.237152 0.234802
0.150513 0.266693 0.254608
0.257507 0.315491 0.281860
0.366180 0.353394 0.295319
0.468292 0.371918 0.297272
0.566498 0.381927 0.297791
0.656311 0.388489 0.298828
0.735382 0.393738 0.301178
0.800842 0.399323 0.306976
0.105988 0.286774 0.244781
0.164673 0.320953 0.265015
0.269714 0.378754 0.293427
0.383575 0.429352 0.304779
0.490143 0.457367 0.304108
0.592712 0.474548 0.302246
0.689148 0.486298 0.300659
0.773682 0.495422 0.302063
0.845459 0.502838 0.308472
0.117004 0.335541 0.256561
0.174194 0.374481 0.276947
0.278290 0.439026 0.305725
0.397919 0.501587 0.315338
0.509338 0.540161 0.309448
0.615265 0.563629 0.306366
0.715942 0.579224 0.304138
0.804474 0.590454 0.303986
0.878967 0.598572 0.307831
0.128052 0.383911 0.270386
0.182861 0.428467 0.290588
0.285919 0.497498 0.319885
0.410553 0.568695 0.329865
0.525757 0.618469 0.318695
0.634888 0.650024 0.311493
0.738464 0.669830 0.310974
0.827240 0.683167 0.312195
0.894928 0.691559 0.315186
0.138885 0.430725 0.287537
0.194214 0.481720 0.309937
0.294983 0.553284 0.340332
0.421967 0.628662 0.352753
0.538208 0.687439 0.340729
0.649353 0.728088 0.328583
0.755768 0.754120 0.324799
0.842621 0.769562 0.326660
0.902252 0.778351 0.331299
0.149780 0.474152 0.311310
0.207947 0.531952 0.337799
0.308868 0.605377 0.370117
0.436035 0.682312 0.386658
0.549896 0.745850 0.380219
0.659760 0.794067 0.367035
0.766846 0.827911 0.355896
0.853058 0.846527 0.352448
0.910370 0.855988 0.358887
0.014069 0.031219 0.188354
0.040436 0.035126 0.216949
0.132080 0.058014 0.256042
0.234406 0.084290 0.292358
0.315430 0.086426 0.313782
0.395386 0.082916 0.320953
0.473572 0.082886 0.319733
0.545166 0.082428 0.318481
0.605133 0.082855 0.321350
0.052094 0.122986 0.233459
0.077087 0.134918 0.262268
0.175018 0.159515 0.304199
0.286224 0.177277 0.343140
0.376984 0.169983 0.361328
0.462463 0.159943 0.364044
0.542847 0.159912 0.361786
0.614563 0.165314 0.361633
0.673920 0.170349 0.364563
0.081726 0.194489 0.272461
0.109070 0.213074 0.297211
0.211578 0.249146 0.337708
0.333099 0.282562 0.377563
0.435944 0.291565 0.395813
0.530487 0.290314 0.397919
0.615814 0.290405 0.396545
0.690399 0.293457 0.397675
0.752106 0.297699 0.402008
0.103790 0.251343 0.300659
0.137146 0.275116 0.321381
0.239716 0.321045 0.357574
0.364471 0.368500 0.392120
0.471405 0.392242 0.407440
0.573761 0.401581 0.410828
0.667847 0.407501 0.412506
0.749084 0.413513 0.416443
0.816650 0.419800 0.422974
0.120392 0.302856 0.315399
0.161377 0.332794 0.335358
0.260498 0.386749 0.370972
0.385101 0.444702 0.404266
0.494843 0.478760 0.417694
0.601410 0.497314 0.420898
0.704010 0.509033 0.422760
0.792175 0.518433 0.427368
0.867950 0.526184 0.434692
0.132263 0.353333 0.324341
0.176056 0.388428 0.345215
0.270050 0.448608 0.381744
0.397430 0.517487 0.416809
0.514221 0.562195 0.429382
0.623169 0.588470 0.432861
0.729126 0.605347 0.433685
0.823181 0.617188 0.436401
0.905518 0.625916 0.442413
0.140900 0.402100 0.336365
0.184052 0.442932 0.358612
0.274628 0.507294 0.395752
0.406403 0.585144 0.432556
0.529846 0.642761 0.443573
0.642029 0.677704 0.444763
0.749359 0.699493 0.446533
0.844910 0.713867 0.449402
0.922852 0.722900 0.454285
0.149323 0.448547 0.354156
0.192902 0.495239 0.378540
0.279663 0.561615 0.415863
0.413788 0.643982 0.454315
0.541138 0.712524 0.466644
0.655396 0.757599 0.465576
0.765198 0.786865 0.465607
0.859985 0.804474 0.469238
0.928986 0.814026 0.475189
0.158264 0.491394 0.377869
0.204803 0.543427 0.405701
0.290924 0.611938 0.444244
0.425079 0.695496 0.484772
0.551086 0.769775 0.500946
0.663879 0.824402 0.500946
0.774292 0.864197 0.498383
0.869995 0.887939 0.499695
0.936432 0.898865 0.505859
0.026764 0.039734 0.233978
0.039124 0.041199 0.255951
0.117645 0.058014 0.291382
0.226501 0.094696 0.331604
0.310028 0.105988 0.362610
0.388824 0.102325 0.383179
0.469208 0.099670 0.395111
0.544189 0.101532 0.399841
0.605988 0.106262 0.401581
0.061005 0.134033 0.280518
0.076630 0.141876 0.306091
0.158936 0.160980 0.343719
0.274536 0.185699 0.387787
0.369385 0.186279 0.421814
0.456482 0.172180 0.440094
0.540314 0.160889 0.448212
0.614716 0.160858 0.451263
0.675323 0.167175 0.452301
0.090118 0.205872 0.318939
0.105347 0.221039 0.343689
0.188721 0.250183 0.384247
0.317291 0.287262 0.435150
0.427765 0.304443 0.474152
0.526581 0.302765 0.492004
0.616180 0.296906 0.496094
0.693817 0.297241 0.496521
0.756439 0.303192 0.497925
0.110535 0.262573 0.348907
0.127258 0.282990 0.372101
0.211273 0.321289 0.411438
0.348511 0.372803 0.462524
0.466278 0.405823 0.498444
0.570923 0.418030 0.513489
0.668793 0.423035 0.516388
0.753052 0.429413 0.518433
0.822296 0.436951 0.522919
0.127777 0.314392 0.373871
0.150269 0.341339 0.395660
0.236694 0.387817 0.432526
0.374390 0.449524 0.480621
0.494415 0.493530 0.512299
0.601044 0.516144 0.525177
0.708008 0.527527 0.528229
0.801147 0.536560 0.532562
0.880463 0.544495 0.539032
0.143097 0.366119 0.389465
0.174225 0.399475 0.410400
0.256317 0.452698 0.445618
0.390106 0.522034 0.493683
0.515656 0.575073 0.525940
0.624756 0.606232 0.539490
0.735138 0.624725 0.542511
0.836517 0.636871 0.545685
0.927399 0.645813 0.552032
0.155121 0.416870 0.399414
0.190277 0.456238 0.422180
0.264740 0.513000 0.457123
0.396149 0.588898 0.506378
0.529266 0.654968 0.540009
0.643921 0.695465 0.553497
0.754486 0.720398 0.558716
0.857819 0.736115 0.562164
0.947571 0.745789 0.566864
0.162720 0.463898 0.414001
0.198486 0.508179 0.439301
0.268738 0.566833 0.474670
0.400360 0.646576 0.524200
0.538391 0.724426 0.559479
0.657074 0.776428 0.572662
0.769745 0.809601 0.578369
0.871765 0.830017 0.583740
0.950409 0.840790 0.589294
0.169006 0.505798 0.435486
0.206238 0.554443 0.463440
0.276947 0.614868 0.499390
0.409149 0.696075 0.548737
0.546936 0.780243 0.585876
0.664978 0.843628 0.600616
0.777435 0.889343 0.605743
0.880432 0.918518 0.610596
0.953674 0.931763 0.616791
0.036499 0.050690 0.275848
0.044495 0.049408 0.294617
0.109711 0.060333 0.326843
0.220673 0.098206 0.367584
0.307312 0.119537 0.402954
0.385193 0.120789 0.430847
0.463745 0.115906 0.451385
0.540222 0.113892 0.467468
0.604950 0.114563 0.478821
0.069977 0.142944 0.326691
0.080566 0.148499 0.349640
0.149323 0.163116 0.382202
0.265076 0.189178 0.424561
0.362488 0.199524 0.465668
0.450134 0.192322 0.495728
0.534180 0.178741 0.514496
0.611145 0.169250 0.527252
0.675720 0.166718 0.536011
0.098297 0.216064 0.366577
0.109314 0.229523 0.390930
0.176056 0.253540 0.427368
0.303131 0.289154 0.477386
0.416962 0.313110 0.525299
0.518311 0.319366 0.559723
0.610962 0.313751 0.577728
0.693420 0.308228 0.586914
0.760956 0.308563 0.592834
0.117554 0.273254 0.394592
0.127777 0.292389 0.418884
0.190460 0.323944 0.456451
0.327057 0.371796 0.511353
0.455109 0.411133 0.561920
0.563751 0.431335 0.595184
0.664215 0.438812 0.610992
0.752869 0.444122 0.617645
0.825928 0.450623 0.622620
0.132538 0.325348 0.420990
0.144073 0.349884 0.444946
0.207458 0.388367 0.480865
0.348572 0.446991 0.535950
0.485229 0.499359 0.585785
0.596527 0.529846 0.615692
0.702911 0.544220 0.627655
0.799072 0.553619 0.632507
0.881775 0.561646 0.637665
0.146484 0.376434 0.444702
0.164459 0.407379 0.467529
0.231720 0.453979 0.501892
0.371094 0.520203 0.555695
0.510864 0.581085 0.604004
0.623260 0.619934 0.632294
0.732391 0.641693 0.642181
0.838837 0.654236 0.645233
0.938171 0.663177 0.650818
0.162079 0.428131 0.462036
0.189514 0.466339 0.485321
0.255646 0.518829 0.518585
0.386230 0.588867 0.569519
0.526367 0.658447 0.617554
0.643738 0.706024 0.646271
0.754211 0.735535 0.658295
0.864838 0.753510 0.661438
0.958435 0.763977 0.665924
0.177734 0.476837 0.477478
0.208008 0.520447 0.501862
0.268646 0.574921 0.534088
0.392822 0.646851 0.583405
0.533844 0.725830 0.633026
0.656342 0.785248 0.662384
0.770355 0.824280 0.676270
0.878784 0.849213 0.683136
0.957947 0.862610 0.688385
0.188782 0.519440 0.495117
0.216949 0.566406 0.521118
0.276184 0.622070 0.554108
0.400757 0.695496 0.603607
0.541718 0.780121 0.654572
0.664215 0.851807 0.685608
0.778351 0.905182 0.699554
0.886230 0.941589 0.707733
0.957275 0.957336 0.714478
0.044464 0.060852 0.315643
0.049957 0.058563 0.333069
0.106354 0.064758 0.362549
0.215820 0.098969 0.401947
0.304962 0.127014 0.439819
0.384125 0.135498 0.474091
0.461212 0.133484 0.500214
0.535400 0.129669 0.520752
0.599976 0.126648 0.536682
0.078186 0.150055 0.372101
0.086182 0.154114 0.393311
0.144562 0.166595 0.421906
0.258087 0.191589 0.461151
0.356537 0.207520 0.503418
0.445343 0.208954 0.541901
0.529297 0.200439 0.569153
0.605286 0.190521 0.587677
0.671021 0.185852 0.601715
0.106567 0.225250 0.414795
0.114960 0.238098 0.439514
0.170258 0.259399 0.472168
0.293152 0.292633 0.517914
0.407959 0.319275 0.566742
0.509827 0.332977 0.610382
0.603668 0.334625 0.641357
0.687134 0.331451 0.660309
0.757416 0.330719 0.673157
0.124817 0.283875 0.443115
0.132782 0.302521 0.468689
0.180725 0.330383 0.503113
0.311127 0.373657 0.554504
0.443817 0.414825 0.609558
0.554504 0.441132 0.655396
0.656097 0.455627 0.686554
0.747040 0.463318 0.704865
0.823486 0.469147 0.716125
0.138397 0.336182 0.467316
0.146729 0.360138 0.492859
0.190491 0.393829 0.526825
0.324097 0.446045 0.580750
0.471100 0.500488 0.641357
0.588806 0.536987 0.687317
0.695068 0.557770 0.715332
0.791290 0.569916 0.729645
0.875793 0.578125 0.738068
0.150970 0.386993 0.491699
0.160767 0.416565 0.516876
0.210480 0.457733 0.550873
0.346863 0.518158 0.605713
0.496918 0.581268 0.666992
0.617615 0.627045 0.711670
0.726288 0.654633 0.736023
0.829224 0.670074 0.745972
0.928070 0.680267 0.752228
0.162964 0.437347 0.513306
0.179535 0.473816 0.539215
0.238159 0.522858 0.573883
0.371246 0.588470 0.627441
0.518280 0.658051 0.685852
0.640381 0.711945 0.728851
0.750580 0.746887 0.753143
0.859894 0.768066 0.761810
0.957916 0.779999 0.766235
0.176300 0.485138 0.532501
0.202881 0.528168 0.559662
0.263855 0.581818 0.593567
0.387207 0.649078 0.643463
0.529633 0.723999 0.699829
0.654144 0.787689 0.743103
0.768097 0.832611 0.768616
0.878632 0.862640 0.780457
0.957092 0.878998 0.785004
0.192017 0.527496 0.550385
0.223267 0.575592 0.578674
0.281860 0.631012 0.611755
0.399200 0.698242 0.659790
0.538269 0.776733 0.716003
0.662231 0.851074 0.760529
0.776947 0.910950 0.786224
0.887085 0.953827 0.800354
0.956329 0.963043 0.808777
0.052582 0.068451 0.353882
0.056122 0.065277 0.371216
0.104767 0.067993 0.398132
0.211914 0.098206 0.435486
0.301758 0.129425 0.473511
0.382019 0.144867 0.512024
0.460480 0.148529 0.545441
0.533142 0.146149 0.570007
0.595245 0.141846 0.587189
0.086517 0.156586 0.416382
0.091858 0.160950 0.435699
0.142151 0.172729 0.461914
0.252533 0.195709 0.498535
0.350952 0.213806 0.538849
0.440369 0.221710 0.581726
0.526306 0.220856 0.618286
0.602783 0.215668 0.644196
0.667450 0.211426 0.661896
0.113495 0.234650 0.462952
0.120087 0.247528 0.487000
0.165344 0.267395 0.516357
0.283813 0.298462 0.558594
0.400391 0.326508 0.605682
0.501709 0.344543 0.654205
0.596924 0.353973 0.695496
0.682251 0.357269 0.724457
0.752960 0.359100 0.743164
0.130707 0.294495 0.492737
0.137878 0.313171 0.518799
0.175903 0.339081 0.550323
0.299103 0.379364 0.597656
0.435181 0.421783 0.654236
0.546051 0.451385 0.705933
0.647644 0.471466 0.747864
0.739655 0.484192 0.777039
0.816620 0.492249 0.795349
0.144073 0.347137 0.515167
0.151459 0.371002 0.541962
0.185303 0.402710 0.574585
0.309784 0.450836 0.625977
0.460510 0.505219 0.690338
0.580688 0.544617 0.745728
0.686981 0.570160 0.785919
0.782959 0.586578 0.812195
0.866821 0.596924 0.828125
0.155823 0.397705 0.536865
0.164520 0.427032 0.564240
0.201630 0.465454 0.598297
0.328705 0.520996 0.652649
0.483124 0.583130 0.719543
0.608795 0.631866 0.776672
0.719757 0.664124 0.815735
0.820190 0.684143 0.839264
0.914124 0.696594 0.852509
0.167114 0.446899 0.558411
0.177155 0.482239 0.586273
0.222961 0.527557 0.621826
0.352386 0.589172 0.677490
0.504944 0.657227 0.743164
0.632050 0.714508 0.799225
0.745697 0.754761 0.838562
0.851807 0.780029 0.860779
0.952942 0.794250 0.871277
0.176514 0.492828 0.577087
0.192413 0.533508 0.605988
0.246796 0.584839 0.643127
0.372925 0.650177 0.697449
0.521210 0.722534 0.760468
0.649170 0.787903 0.815460
0.764435 0.838196 0.855103
0.874054 0.872894 0.879364
0.956390 0.891937 0.889160
0.185913 0.532532 0.592468
0.208954 0.578735 0.623688
0.271149 0.634705 0.662354
0.393250 0.701691 0.715027
0.535034 0.776031 0.775116
0.659943 0.849518 0.829102
0.774567 0.913483 0.869049
0.885895 0.959167 0.895172
0.955139 0.961243 0.909302
0.058105 0.074524 0.390564
0.061920 0.071564 0.406921
0.106323 0.072113 0.432159
0.209534 0.098602 0.467285
0.299469 0.130035 0.504211
0.380005 0.149567 0.544617
0.459686 0.158295 0.583618
0.533844 0.160217 0.614258
0.595306 0.156555 0.634705
0.092896 0.164520 0.456207
0.097595 0.169556 0.474304
0.140411 0.180939 0.499268
0.247589 0.202972 0.534058
0.346863 0.222748 0.572052
0.436188 0.233978 0.616302
0.523865 0.239288 0.660553
0.603607 0.240814 0.694977
0.669373 0.239563 0.717499
0.119812 0.244232 0.505981
0.125610 0.257690 0.528442
0.161407 0.276855 0.556061
0.274811 0.306732 0.596191
0.394379 0.336456 0.642487
0.495728 0.357300 0.692169
0.591583 0.372345 0.740601
0.680023 0.382812 0.779236
0.753021 0.389038 0.805023
0.136658 0.304657 0.537018
0.142883 0.323303 0.562531
0.174042 0.348541 0.591949
0.290253 0.386810 0.637054
0.427460 0.430054 0.693665
0.539520 0.462402 0.748993
0.640594 0.485565 0.797913
0.734314 0.502625 0.837433
0.812469 0.513550 0.864410
0.149109 0.356598 0.558716
0.156494 0.380463 0.585724
0.185516 0.411377 0.617706
0.301849 0.457245 0.667450
0.452118 0.511414 0.732727
0.574249 0.553375 0.794159
0.679871 0.581329 0.844177
0.776642 0.601166 0.883179
0.860138 0.613342 0.908600
0.160553 0.406342 0.577179
0.168823 0.435608 0.606079
0.198914 0.472931 0.641083
0.316711 0.525665 0.694763
0.472412 0.586914 0.764038
0.602051 0.637634 0.829712
0.713562 0.672699 0.883118
0.814148 0.696136 0.921814
0.905823 0.709717 0.944763
0.170929 0.454681 0.596954
0.180389 0.489380 0.627441
0.215973 0.532776 0.663940
0.337036 0.591370 0.719757
0.492523 0.657959 0.788788
0.624603 0.716461 0.855835
0.740295 0.760071 0.912933
0.846893 0.788971 0.954224
0.947296 0.804321 0.972198
0.180176 0.499359 0.614990
0.191101 0.538696 0.645691
0.234161 0.586945 0.683136
0.356476 0.650330 0.739624
0.510162 0.721130 0.807343
0.643402 0.787170 0.875549
0.759857 0.840363 0.935303
0.870789 0.879547 0.974152
0.955841 0.900757 0.976868
0.188049 0.537537 0.628418
0.201508 0.581207 0.660095
0.255157 0.634491 0.699707
0.379517 0.701569 0.756989
0.528015 0.774506 0.822540
0.656830 0.847321 0.890381
0.771362 0.913269 0.950745
0.884033 0.960693 0.977142
0.954285 0.959259 0.973755
