Fujifilm Eterna 500T (8573) - Only color.cube
# Created by Benjamin (IWLTBAP) : http://luts.iwltbap.com
# Copyright: (C) Copyright 2010-2017 Triune Films and IWLTBAP SAS
# Cannot be resold, shared or otherwise redistributed
TITLE "Film Print Emulation LUTs Pack (Rec.709, sRGB, DCI-P3)"
LUT_3D_SIZE 9
0.000244 0.000000 0.001984
0.092957 0.030762 0.000763
0.185944 0.041229 0.000000
0.274658 0.000000 0.000000
0.349640 0.000000 0.000000
0.421570 0.000000 0.000000
0.499054 0.000000 0.000000
0.589874 0.000000 0.000000
0.689117 0.000000 0.044647
0.000000 0.098083 0.084442
0.095490 0.117218 0.075897
0.224335 0.124329 0.023682
0.321838 0.126404 0.000000
0.418488 0.116821 0.000000
0.511993 0.101074 0.000000
0.603729 0.077087 0.000000
0.696014 0.047241 0.000000
0.797119 0.071045 0.000305
0.000000 0.172546 0.133209
0.120209 0.199371 0.126434
0.219879 0.212219 0.103485
0.319244 0.230957 0.068054
0.426270 0.235687 0.000000
0.533875 0.233673 0.000000
0.633453 0.232635 0.000397
0.731934 0.232910 0.000885
0.840240 0.252350 0.001373
0.000000 0.246826 0.154846
0.140381 0.279144 0.146973
0.247620 0.301910 0.135223
0.337555 0.307434 0.117065
0.433655 0.329712 0.073944
0.548187 0.338867 0.000519
0.653625 0.338806 0.001068
0.757599 0.337006 0.001495
0.869598 0.361267 0.001831
0.071106 0.320770 0.191589
0.190765 0.357697 0.201080
0.285553 0.386230 0.185242
0.383514 0.401581 0.157196
0.460693 0.407440 0.120117
0.561310 0.428802 0.061676
0.673676 0.447021 0.001709
0.782928 0.453491 0.002014
0.896362 0.473572 0.002045
0.153015 0.388855 0.228058
0.233063 0.436096 0.229523
0.310608 0.472626 0.234955
0.437225 0.495392 0.214752
0.504578 0.501038 0.150696
0.589813 0.509369 0.088776
0.688080 0.533630 0.037506
0.802643 0.556702 0.002167
0.918884 0.583069 0.002136
0.213043 0.461884 0.261292
0.268646 0.514099 0.287323
0.362732 0.552704 0.277039
0.487396 0.583801 0.269043
0.568512 0.603271 0.227783
0.632904 0.605621 0.112457
0.721100 0.622375 0.068817
0.825348 0.653107 0.061218
0.945648 0.683838 0.023987
0.249695 0.530762 0.304108
0.298157 0.593597 0.335602
0.424561 0.634613 0.317474
0.540955 0.668610 0.319275
0.622040 0.703217 0.278717
0.688538 0.719086 0.193695
0.766327 0.724945 0.083008
0.869690 0.749451 0.083618
0.975464 0.772705 0.082336
0.279938 0.604431 0.358032
0.379700 0.680786 0.367920
0.493805 0.718506 0.356354
0.602661 0.744232 0.381531
0.675751 0.772949 0.348206
0.737213 0.795685 0.284180
0.802399 0.798859 0.194427
0.891449 0.807953 0.096039
0.980347 0.830231 0.101105
0.027649 0.021545 0.096497
0.096863 0.041046 0.101013
0.175842 0.048492 0.092499
0.262268 0.031647 0.080048
0.360260 0.000000 0.067169
0.435089 0.000000 0.078339
0.518677 0.000000 0.086517
0.605469 0.000000 0.095215
0.702881 0.000000 0.115265
0.000000 0.111542 0.135590
0.097076 0.129303 0.148163
0.221130 0.138733 0.129578
0.325439 0.142334 0.112610
0.446411 0.110443 0.084076
0.564758 0.000000 0.068115
0.650848 0.000000 0.071777
0.735321 0.000000 0.079834
0.842896 0.000000 0.084808
0.000000 0.189941 0.188446
0.042023 0.222015 0.194580
0.209045 0.238831 0.186707
0.340881 0.244598 0.153870
0.449554 0.246948 0.127869
0.564392 0.241608 0.101318
0.683685 0.220367 0.067627
0.797943 0.196808 0.034027
0.922058 0.207642 0.004486
0.000000 0.264404 0.232391
0.060577 0.305145 0.233276
0.240509 0.326141 0.231293
0.347107 0.335236 0.213348
0.452606 0.354736 0.176392
0.568481 0.357727 0.142609
0.680969 0.353180 0.112183
0.808502 0.338226 0.066284
0.936768 0.357788 0.045288
0.000000 0.346100 0.261566
0.108368 0.388580 0.269562
0.252472 0.417999 0.247589
0.391815 0.434784 0.243408
0.479401 0.439117 0.226135
0.581848 0.465332 0.191498
0.695801 0.475891 0.153168
0.816528 0.470581 0.110840
0.951538 0.484192 0.083252
0.036743 0.421783 0.290283
0.158112 0.471283 0.310150
0.301270 0.499786 0.309265
0.439423 0.526184 0.291779
0.529480 0.539978 0.264954
0.612183 0.547455 0.226318
0.711304 0.574554 0.193085
0.831665 0.589447 0.154144
0.965027 0.607300 0.134338
0.142944 0.492554 0.332245
0.228973 0.546936 0.358643
0.328918 0.587921 0.338562
0.466003 0.617615 0.317047
0.586456 0.638275 0.332947
0.655884 0.646637 0.268677
0.744049 0.662537 0.222351
0.854584 0.688232 0.189911
0.974915 0.714813 0.181702
0.215363 0.560181 0.374512
0.251709 0.629364 0.397308
0.389740 0.666168 0.414246
0.533020 0.698334 0.403534
0.631897 0.727661 0.385864
0.710968 0.749939 0.338135
0.785065 0.757111 0.259003
0.887146 0.777252 0.206879
0.979828 0.797607 0.217773
0.167694 0.649506 0.458313
0.254608 0.724976 0.491669
0.407898 0.757324 0.510651
0.551819 0.779480 0.516357
0.655273 0.801392 0.501587
0.745056 0.827118 0.484039
0.821014 0.839783 0.436615
0.904785 0.849915 0.365936
0.977234 0.866547 0.366394
0.070007 0.000000 0.164215
0.120819 0.034668 0.161621
0.169006 0.059174 0.161743
0.237610 0.070435 0.163330
0.320557 0.071228 0.159210
0.417511 0.041199 0.153381
0.525391 0.000000 0.150024
0.611664 0.000000 0.160980
0.714783 0.000000 0.181915
0.028564 0.126221 0.220581
0.116699 0.141846 0.219727
0.207245 0.150726 0.220642
0.299866 0.155762 0.217285
0.396179 0.163940 0.209717
0.517670 0.144592 0.192200
0.646454 0.057526 0.171326
0.747589 0.000000 0.176910
0.853912 0.000000 0.188965
0.000000 0.210266 0.257294
0.000000 0.239838 0.286682
0.207794 0.256378 0.286285
0.324829 0.263092 0.267151
0.439545 0.267914 0.246307
0.581573 0.251709 0.221558
0.716827 0.216339 0.197540
0.831848 0.177551 0.182739
0.962982 0.184692 0.186157
0.000000 0.283325 0.300934
0.000000 0.320374 0.321594
0.153351 0.354584 0.328278
0.319611 0.366791 0.332977
0.459564 0.364227 0.287354
0.583008 0.362579 0.260040
0.709808 0.354858 0.234741
0.852173 0.333954 0.204498
0.981812 0.346008 0.201996
0.000000 0.363861 0.343750
0.000000 0.405548 0.367279
0.167603 0.444763 0.370270
0.365326 0.458862 0.393036
0.474060 0.470367 0.357819
0.586853 0.483459 0.319336
0.704376 0.484283 0.285156
0.840912 0.472870 0.248108
0.979370 0.483368 0.238312
0.000000 0.441010 0.386444
0.009430 0.493469 0.402557
0.218628 0.529907 0.406555
0.375183 0.552673 0.411224
0.512634 0.572876 0.391388
0.616302 0.575592 0.371948
0.720093 0.597778 0.336395
0.846924 0.601257 0.295654
0.977844 0.615540 0.284210
0.021240 0.518585 0.414673
0.032745 0.580841 0.439941
0.243713 0.615875 0.449738
0.430908 0.638184 0.468903
0.565582 0.659576 0.445312
0.661652 0.676971 0.414581
0.751465 0.687744 0.379852
0.862000 0.714752 0.338837
0.979401 0.732666 0.326660
0.031494 0.593231 0.452545
0.072113 0.660980 0.482086
0.300446 0.695068 0.502075
0.457672 0.727966 0.498199
0.585297 0.753296 0.479431
0.709595 0.773285 0.480927
0.790527 0.785339 0.426880
0.893158 0.802948 0.387848
0.978058 0.824127 0.381256
0.009735 0.674225 0.542175
0.026001 0.750702 0.578705
0.275482 0.784668 0.594574
0.471130 0.806305 0.608948
0.598877 0.828827 0.600891
0.711670 0.844788 0.591888
0.818054 0.863464 0.571716
0.904175 0.870300 0.521729
0.975891 0.885803 0.509094
0.107788 0.000000 0.195984
0.144775 0.000000 0.213409
0.190216 0.039490 0.221283
0.244751 0.073029 0.227692
0.302643 0.100464 0.230743
0.380096 0.114410 0.227966
0.481323 0.096252 0.226562
0.602570 0.029968 0.229584
0.723297 0.000000 0.238098
0.125854 0.117859 0.279358
0.169922 0.139771 0.294403
0.232269 0.145935 0.295898
0.294159 0.168884 0.295959
0.367615 0.193451 0.287567
0.469025 0.195892 0.282288
0.581146 0.188599 0.282349
0.700714 0.154419 0.276611
0.830444 0.106720 0.271942
0.000000 0.234131 0.353027
0.060425 0.256805 0.366760
0.227051 0.270813 0.353607
0.313202 0.280518 0.350800
0.430725 0.280243 0.346497
0.536682 0.287872 0.336609
0.649292 0.288940 0.329895
0.787415 0.257141 0.306061
0.934753 0.233612 0.299438
0.000000 0.305450 0.371490
0.000000 0.336700 0.395844
0.132965 0.370605 0.427368
0.324738 0.383148 0.417480
0.441254 0.387756 0.403839
0.567169 0.388641 0.380524
0.714478 0.376129 0.352478
0.865967 0.351990 0.328033
0.981659 0.354309 0.328308
0.000000 0.380157 0.413788
0.000000 0.422241 0.439423
0.000000 0.466217 0.460144
0.269043 0.485901 0.459381
0.441315 0.495697 0.465576
0.586609 0.489410 0.420471
0.717957 0.485870 0.392212
0.870941 0.474030 0.360229
0.980469 0.480560 0.352051
0.000000 0.460144 0.449646
0.000000 0.509094 0.480530
0.000000 0.552704 0.497467
0.266388 0.581116 0.501343
0.487305 0.586823 0.524048
0.609344 0.600555 0.493500
0.722351 0.611145 0.448578
0.856445 0.605347 0.410278
0.979309 0.615692 0.397400
0.000000 0.534515 0.491852
0.000000 0.594604 0.524292
0.022247 0.640289 0.529419
0.330444 0.665985 0.539124
0.489044 0.686981 0.531281
0.638092 0.703796 0.520844
0.750671 0.709717 0.501953
0.866241 0.729462 0.460480
0.978027 0.742615 0.446472
0.000000 0.608337 0.531464
0.000000 0.677826 0.560120
0.021484 0.724274 0.566711
0.344116 0.754486 0.581451
0.530487 0.774353 0.587433
0.680878 0.789948 0.576477
0.791809 0.806519 0.552277
0.896393 0.822906 0.519135
0.976685 0.839264 0.499237
0.000000 0.684662 0.608887
0.000000 0.763367 0.645782
0.042725 0.808289 0.650177
0.320496 0.835510 0.664734
0.510895 0.851044 0.675659
0.661407 0.862701 0.675110
0.790924 0.878906 0.655884
0.905487 0.884216 0.635864
0.974915 0.898773 0.613525
0.129883 0.000000 0.273987
0.157867 0.000000 0.287140
0.194061 0.016785 0.288971
0.249908 0.066650 0.285950
0.304382 0.107239 0.278229
0.371124 0.128113 0.283752
0.456390 0.137817 0.292450
0.566895 0.141937 0.301147
0.697754 0.122437 0.318756
0.157196 0.114624 0.328918
0.189484 0.151489 0.352600
0.247589 0.149048 0.358826
0.320953 0.166809 0.358765
0.386993 0.193268 0.359863
0.458618 0.214661 0.359436
0.539612 0.238068 0.356445
0.655884 0.230621 0.358978
0.778839 0.230164 0.376984
0.155151 0.239471 0.406189
0.133667 0.272156 0.445618
0.264496 0.283356 0.438568
0.349274 0.273529 0.430115
0.421448 0.295135 0.427490
0.503387 0.320007 0.417175
0.613525 0.325684 0.410339
0.727386 0.321472 0.407349
0.853516 0.329193 0.422821
0.002838 0.331665 0.473053
0.000000 0.362335 0.487183
0.206879 0.385254 0.497070
0.343353 0.396332 0.482025
0.434814 0.408142 0.478241
0.560944 0.406097 0.474762
0.674225 0.411102 0.462494
0.789062 0.412292 0.454865
0.943390 0.417450 0.451538
0.000000 0.400238 0.483704
0.000000 0.439941 0.512604
0.000000 0.477661 0.547333
0.257050 0.500122 0.555450
0.447449 0.510162 0.542999
0.574127 0.514374 0.531738
0.697632 0.514130 0.507935
0.863556 0.501312 0.478973
0.979370 0.503723 0.469360
0.000000 0.474854 0.519409
0.000000 0.524536 0.552277
0.000000 0.560669 0.572693
0.122681 0.602692 0.588806
0.404327 0.613983 0.586182
0.574158 0.623444 0.586212
0.719879 0.617035 0.546326
0.871765 0.611969 0.517212
0.978149 0.619843 0.504028
0.000000 0.548859 0.556305
0.000000 0.610352 0.587860
0.000000 0.648407 0.604584
0.069183 0.698334 0.626801
0.392822 0.713318 0.629791
0.609406 0.718018 0.637024
0.744019 0.728088 0.609619
0.870422 0.737915 0.568451
0.976685 0.746979 0.552887
0.000000 0.623016 0.590027
0.000000 0.692261 0.635101
0.000000 0.733795 0.650970
0.155457 0.779968 0.660919
0.453217 0.796112 0.668610
0.613281 0.814575 0.655121
0.770691 0.830261 0.650940
0.890839 0.837433 0.628906
0.975525 0.852325 0.607147
0.000000 0.699463 0.664581
0.000000 0.773834 0.708557
0.000000 0.813538 0.727081
0.084167 0.855652 0.740295
0.419281 0.868561 0.747009
0.611633 0.879608 0.748535
0.749268 0.895874 0.731567
0.897003 0.901337 0.730896
0.974030 0.911041 0.703735
0.137085 0.045471 0.341248
0.163269 0.061890 0.353912
0.203827 0.061310 0.360107
0.255829 0.080261 0.360962
0.317291 0.111786 0.356750
0.378571 0.142517 0.350098
0.449402 0.175140 0.343384
0.551208 0.189758 0.357025
0.668976 0.199707 0.385040
0.161102 0.107880 0.395569
0.208893 0.157562 0.435028
0.259338 0.155426 0.443634
0.324036 0.169434 0.444244
0.389893 0.201355 0.433533
0.450958 0.235138 0.417511
0.535675 0.253143 0.417969
0.633270 0.262390 0.425598
0.740265 0.286041 0.447479
0.211884 0.243439 0.464600
0.231567 0.276428 0.490082
0.294983 0.287018 0.495422
0.368500 0.276611 0.498535
0.452148 0.294891 0.493073
0.526855 0.321136 0.490479
0.605042 0.343811 0.488892
0.687897 0.362610 0.484222
0.806580 0.380829 0.498596
0.182373 0.337830 0.522369
0.133087 0.379333 0.572174
0.244843 0.401062 0.583435
0.371613 0.410706 0.570312
0.466553 0.408295 0.548126
0.546295 0.422455 0.547760
0.638641 0.442657 0.539673
0.752350 0.446381 0.531525
0.875153 0.466644 0.543365
0.003998 0.419952 0.580170
0.000000 0.463745 0.598297
0.075623 0.490784 0.625092
0.318207 0.510956 0.624908
0.466431 0.520111 0.603577
0.568512 0.532379 0.598969
0.698151 0.531891 0.592590
0.812592 0.535675 0.580902
0.943970 0.557434 0.588715
0.000000 0.490784 0.589203
0.000000 0.541077 0.624054
0.000000 0.574677 0.644043
0.086792 0.613495 0.689056
0.384430 0.627411 0.679321
0.577179 0.634460 0.663666
0.706146 0.638702 0.651062
0.849121 0.638580 0.629547
0.977081 0.641693 0.611694
0.000000 0.563049 0.623322
0.000000 0.623138 0.661804
0.000000 0.658966 0.679810
0.000000 0.707550 0.710266
0.292816 0.732758 0.713684
0.537445 0.742310 0.706238
0.709930 0.749847 0.701538
0.872986 0.743988 0.665985
0.975800 0.752502 0.654877
0.000000 0.635956 0.661469
0.000000 0.707092 0.700684
0.000000 0.743561 0.713531
0.000000 0.791565 0.741730
0.240021 0.827148 0.754242
0.526245 0.838928 0.755798
0.731171 0.846466 0.746246
0.885101 0.849945 0.729279
0.974396 0.862122 0.711731
0.000000 0.708649 0.723175
0.000000 0.783264 0.766937
0.000000 0.822876 0.782379
0.000000 0.863281 0.804077
0.210876 0.891571 0.816650
0.496063 0.902924 0.818909
0.704498 0.910706 0.817261
0.881531 0.917175 0.803925
0.973236 0.920654 0.784576
0.140259 0.091675 0.419006
0.162994 0.100708 0.434204
0.209900 0.110596 0.435760
0.257416 0.104034 0.432648
0.335175 0.122772 0.421082
0.396912 0.152466 0.414734
0.463531 0.188385 0.414368
0.541138 0.222717 0.406342
0.652832 0.243866 0.433258
0.150360 0.132416 0.473450
0.189117 0.198486 0.503082
0.249847 0.206207 0.511749
0.301758 0.196045 0.515778
0.391846 0.204834 0.513611
0.462738 0.233978 0.500488
0.536011 0.261536 0.492065
0.612366 0.294800 0.475067
0.717407 0.324921 0.496521
0.232574 0.244202 0.527130
0.255859 0.287262 0.556519
0.308960 0.301453 0.571991
0.372681 0.285583 0.582031
0.465454 0.295685 0.582764
0.532196 0.328308 0.566864
0.594452 0.361206 0.545074
0.680969 0.381012 0.542297
0.788147 0.408844 0.564423
0.256836 0.345337 0.577393
0.277344 0.381744 0.594727
0.339752 0.402527 0.605225
0.413391 0.408508 0.627106
0.492981 0.403046 0.624664
0.576569 0.421661 0.611542
0.660522 0.443237 0.610931
0.741272 0.466888 0.603973
0.829468 0.504333 0.612427
0.192627 0.429199 0.631561
0.079865 0.478455 0.694031
0.110229 0.504456 0.716644
0.349945 0.525177 0.717346
0.484772 0.537537 0.701447
0.597656 0.530731 0.674530
0.686584 0.545715 0.669098
0.777008 0.563416 0.651306
0.898895 0.585144 0.658630
0.000000 0.509369 0.685822
0.000000 0.558014 0.707275
0.000000 0.588348 0.722717
0.232422 0.620575 0.754395
0.438202 0.636047 0.746094
0.597687 0.644958 0.728333
0.704742 0.653351 0.719696
0.841980 0.652374 0.706085
0.968048 0.674561 0.710632
0.000000 0.580841 0.695343
0.000000 0.638062 0.734619
0.000000 0.670197 0.747467
0.000000 0.716217 0.792206
0.274811 0.742676 0.810638
0.523407 0.753815 0.798584
0.709229 0.759583 0.781250
0.852295 0.762451 0.766083
0.975739 0.776001 0.758026
0.000000 0.648804 0.723511
0.000000 0.718964 0.769012
0.000000 0.753784 0.785126
0.000000 0.798370 0.817657
0.000000 0.841248 0.845917
0.450500 0.854736 0.833160
0.678253 0.864563 0.824341
0.862335 0.867462 0.809174
0.973511 0.872772 0.800964
0.000000 0.718109 0.779266
0.000000 0.792114 0.821838
0.000000 0.828278 0.841888
0.000000 0.867523 0.869080
0.000000 0.903046 0.886261
0.406586 0.918884 0.883575
0.658020 0.926422 0.880737
0.829468 0.936005 0.863861
0.973053 0.932068 0.855103
0.169678 0.114990 0.479218
0.188629 0.116455 0.487518
0.232910 0.122742 0.491974
0.274933 0.117584 0.493378
0.352997 0.132843 0.488556
0.417725 0.165863 0.473236
0.483704 0.203857 0.454102
0.562134 0.236084 0.464844
0.655457 0.267639 0.487701
0.202911 0.136169 0.521240
0.194458 0.205139 0.576630
0.250061 0.226044 0.592285
0.302277 0.226746 0.588074
0.384979 0.211975 0.582886
0.472748 0.239624 0.561249
0.549164 0.269806 0.532471
0.627289 0.298676 0.528656
0.714874 0.343201 0.551666
0.200928 0.265472 0.610291
0.237579 0.311981 0.651703
0.304108 0.329926 0.659210
0.359558 0.331024 0.659271
0.430817 0.315521 0.658905
0.533203 0.332977 0.652557
0.605438 0.362427 0.635071
0.680145 0.391479 0.618408
0.763367 0.440948 0.610352
0.287018 0.349823 0.633392
0.301758 0.392639 0.673889
0.339233 0.416626 0.692474
0.419952 0.426849 0.704071
0.489624 0.412048 0.704865
0.598999 0.420166 0.705811
0.663055 0.450378 0.686371
0.729614 0.483978 0.659729
0.824615 0.519379 0.670959
0.299744 0.432159 0.671478
0.321198 0.477112 0.692505
0.329132 0.503174 0.712891
0.449646 0.523926 0.731812
0.542236 0.529144 0.742065
0.631378 0.520630 0.752136
0.714905 0.543945 0.741425
0.793091 0.563843 0.726685
0.881500 0.603363 0.733246
0.190887 0.517609 0.739716
0.025391 0.575714 0.805450
0.021423 0.603424 0.816711
0.285889 0.632660 0.845093
0.464813 0.650238 0.841888
0.606781 0.662354 0.821014
0.730560 0.649414 0.798370
0.823730 0.667450 0.780457
0.927155 0.697571 0.773254
0.000000 0.597076 0.786407
0.000000 0.653259 0.811127
0.000000 0.684143 0.820526
0.050446 0.726990 0.871490
0.352997 0.749817 0.874603
0.566010 0.762329 0.859955
0.729523 0.771515 0.845917
0.857086 0.770142 0.836365
0.974884 0.784973 0.828613
0.000000 0.665466 0.797302
0.000000 0.731934 0.834015
0.000000 0.765869 0.850800
0.000000 0.807343 0.884216
0.000000 0.847900 0.925354
0.435577 0.863190 0.922821
0.665802 0.874054 0.910248
0.858826 0.877655 0.889343
0.973724 0.885406 0.880432
0.000000 0.728699 0.832123
0.000000 0.802307 0.873657
0.000000 0.835632 0.889191
0.000000 0.873230 0.925293
0.000000 0.906586 0.960846
0.355164 0.926025 0.967804
0.633606 0.934174 0.946899
0.828369 0.943970 0.932953
0.972260 0.949463 0.917877
0.232513 0.125427 0.551636
0.240753 0.134674 0.571411
0.275024 0.130005 0.578857
0.335510 0.127136 0.584442
0.414948 0.152802 0.575775
0.479645 0.189789 0.556213
0.540863 0.229095 0.551941
0.605408 0.271362 0.550537
0.671906 0.325562 0.545258
0.247437 0.177551 0.601654
0.244995 0.281311 0.698761
0.286346 0.316101 0.714996
0.340668 0.320465 0.718964
0.398132 0.303955 0.714020
0.514984 0.307098 0.701263
0.602509 0.334869 0.669281
0.676971 0.370117 0.634460
0.761993 0.418121 0.646027
0.236450 0.328461 0.706543
0.258514 0.374451 0.758606
0.302368 0.399475 0.775970
0.386444 0.413269 0.776917
0.446472 0.412689 0.769867
0.529144 0.397766 0.768005
0.637939 0.417206 0.754028
0.719452 0.447571 0.717316
0.803680 0.495239 0.716797
0.294525 0.398132 0.740845
0.334045 0.440704 0.760437
0.368164 0.466766 0.769348
0.453308 0.482574 0.785675
0.519836 0.480499 0.797852
0.606079 0.466003 0.814575
0.691071 0.491119 0.801666
0.759735 0.523743 0.775726
0.843414 0.572418 0.760406
0.333771 0.464661 0.753876
0.358673 0.511810 0.778442
0.372101 0.537689 0.786865
0.467285 0.561371 0.815826
0.558990 0.579010 0.834747
0.625305 0.576477 0.831055
0.726898 0.575531 0.829346
0.811401 0.597961 0.811218
0.896240 0.637268 0.807220
0.343903 0.529053 0.764221
0.315826 0.590149 0.813629
0.251678 0.624115 0.857941
0.393616 0.649597 0.872437
0.532959 0.668671 0.878632
0.652222 0.679352 0.880585
0.758850 0.656433 0.877014
0.850891 0.680664 0.865295
0.935425 0.716522 0.855255
0.164612 0.611572 0.850250
0.024567 0.678162 0.900940
0.017334 0.709717 0.906860
0.128479 0.740509 0.948517
0.403992 0.761719 0.955231
0.585022 0.776855 0.949280
0.727264 0.791077 0.936005
0.861176 0.779114 0.911438
0.969879 0.802307 0.899475
0.008850 0.681122 0.875916
0.000000 0.749023 0.904266
0.000000 0.780670 0.916046
0.000000 0.814331 0.954926
0.136139 0.848236 0.976807
0.467987 0.864166 0.973877
0.684906 0.876617 0.974396
0.863708 0.885620 0.957458
0.973145 0.890259 0.952179
0.000000 0.744965 0.889343
0.000000 0.811981 0.924255
0.000000 0.841675 0.938446
0.000000 0.875549 0.978973
0.098511 0.905151 0.976654
0.407990 0.921600 0.973877
0.631836 0.934570 0.971893
0.825806 0.949432 0.970154
0.972137 0.947021 0.968933
