Fujifilm Eterna 400T (8583) - Only contrast.cube
# Created by Benjamin (IWLTBAP) : http://luts.iwltbap.com
# Copyright: (C) Copyright 2010-2017 Triune Films and IWLTBAP SAS
# Cannot be resold, shared or otherwise redistributed
TITLE "Film Print Emulation LUTs Pack (Rec.709, sRGB, DCI-P3)"
LUT_3D_SIZE 5
0.012634 0.012634 0.012634
0.167786 0.012085 0.012085
0.451508 0.010620 0.010620
0.666412 0.009644 0.009644
0.799561 0.009247 0.009247
0.012085 0.167786 0.012085
0.168549 0.168549 0.011505
0.452393 0.168365 0.010040
0.666534 0.168610 0.009064
0.799408 0.169403 0.008636
0.010620 0.451508 0.010620
0.168365 0.452393 0.010040
0.452393 0.452393 0.008575
0.665741 0.452850 0.007599
0.798370 0.453857 0.007172
0.009644 0.666412 0.009644
0.168610 0.666534 0.009064
0.452850 0.665741 0.007599
0.665466 0.665466 0.006622
0.797852 0.665680 0.006226
0.009247 0.799561 0.009247
0.169403 0.799408 0.008636
0.453857 0.798370 0.007172
0.665680 0.797852 0.006226
0.797943 0.797852 0.012634
0.012085 0.012085 0.167786
0.168549 0.011505 0.168549
0.452393 0.010040 0.168365
0.666534 0.009064 0.168610
0.799408 0.008636 0.169403
0.011505 0.168549 0.168549
0.169220 0.169220 0.169220
0.453247 0.168976 0.168976
0.666595 0.169220 0.169220
0.799225 0.169952 0.169952
0.010040 0.452393 0.168365
0.168976 0.453247 0.168976
0.453217 0.453217 0.168732
0.665802 0.453644 0.168915
0.798187 0.454620 0.169647
0.009064 0.666534 0.168610
0.169220 0.666595 0.169220
0.453644 0.665802 0.168915
0.665466 0.665466 0.169098
0.797668 0.665649 0.169800
0.008636 0.799408 0.169403
0.169952 0.799225 0.169952
0.454620 0.798187 0.169647
0.665649 0.797668 0.169800
0.797699 0.797699 0.170502
0.010620 0.010620 0.451508
0.168365 0.010040 0.452393
0.452393 0.008575 0.452393
0.665741 0.007599 0.452850
0.798370 0.007172 0.453857
0.010040 0.168365 0.452393
0.168976 0.168976 0.453247
0.453217 0.168732 0.453217
0.665802 0.168915 0.453644
0.798187 0.169647 0.454620
0.008575 0.452393 0.452393
0.168732 0.453217 0.453217
0.453156 0.453156 0.453156
0.664948 0.453552 0.453552
0.797180 0.454498 0.454498
0.007599 0.665741 0.452850
0.168915 0.665802 0.453644
0.453552 0.664948 0.453552
0.664612 0.664612 0.453949
0.796661 0.664734 0.454865
0.007172 0.798370 0.453857
0.169647 0.798187 0.454620
0.454498 0.797180 0.454498
0.664734 0.796661 0.454865
0.796661 0.796661 0.455750
0.009644 0.009644 0.666412
0.168610 0.009064 0.666534
0.452850 0.007599 0.665741
0.665466 0.006622 0.665466
0.797852 0.006226 0.665680
0.009064 0.168610 0.666534
0.169220 0.169220 0.666595
0.453644 0.168915 0.665802
0.665466 0.169098 0.665466
0.797668 0.169800 0.665649
0.007599 0.452850 0.665741
0.168915 0.453644 0.665802
0.453552 0.453552 0.664948
0.664612 0.453949 0.664612
0.796661 0.454865 0.664734
0.006622 0.665466 0.665466
0.169098 0.665466 0.665466
0.453949 0.664612 0.664612
0.664215 0.664215 0.664215
0.796143 0.664337 0.664337
0.006226 0.797852 0.665680
0.169800 0.797668 0.665649
0.454865 0.796661 0.664734
0.664337 0.796143 0.664337
0.796173 0.796173 0.664459
0.009247 0.009247 0.799530
0.169403 0.008636 0.799408
0.453857 0.007172 0.798370
0.665680 0.006226 0.797852
0.797913 0.005829 0.797913
0.008636 0.169403 0.799408
0.169952 0.169952 0.799225
0.454620 0.169647 0.798187
0.665649 0.169800 0.797668
0.797699 0.170502 0.797699
0.007172 0.453857 0.798370
0.169647 0.454620 0.798187
0.454498 0.454498 0.797180
0.664734 0.454865 0.796661
0.796661 0.455750 0.796661
0.006226 0.665680 0.797852
0.169800 0.665649 0.797668
0.454865 0.664734 0.796661
0.664337 0.664337 0.796143
0.796173 0.664459 0.796173
0.005829 0.797913 0.797913
0.170502 0.797699 0.797699
0.455750 0.796661 0.796661
0.664459 0.796173 0.796173
0.796204 0.796204 0.796204
