Fujifilm Eterna Vivid 160T (8543) - Only color.cube
# Created by Benjamin (IWLTBAP) : http://luts.iwltbap.com
# Copyright: (C) Copyright 2010-2017 Triune Films and IWLTBAP SAS
# Cannot be resold, shared or otherwise redistributed
TITLE "Film Print Emulation LUTs Pack (Rec.709, sRGB, DCI-P3)"
LUT_3D_SIZE 5
0.000793 0.000000 0.000000
0.178223 0.019684 0.015778
0.313507 0.021210 0.029877
0.452850 0.029785 0.046570
0.580353 0.037506 0.059296
0.045868 0.150879 0.060333
0.227386 0.214081 0.065918
0.402130 0.241821 0.074860
0.571991 0.242645 0.089996
0.706085 0.240936 0.097290
0.089935 0.257874 0.103729
0.260345 0.338257 0.121429
0.458496 0.404938 0.110077
0.650208 0.433258 0.112396
0.802185 0.448944 0.118500
0.122986 0.354248 0.141144
0.287537 0.450989 0.172058
0.502625 0.557343 0.145050
0.711487 0.606262 0.146759
0.863983 0.626953 0.143219
0.147461 0.441589 0.171204
0.321716 0.555237 0.208435
0.535706 0.677979 0.179504
0.748779 0.747955 0.159790
0.878784 0.771698 0.166199
0.000732 0.021088 0.138672
0.152161 0.053864 0.213135
0.322357 0.062012 0.238617
0.473541 0.053772 0.233124
0.601440 0.046692 0.239288
0.070465 0.180664 0.217010
0.235046 0.245270 0.269775
0.436523 0.277130 0.290100
0.609314 0.278107 0.290192
0.742737 0.279236 0.296143
0.105988 0.286774 0.244781
0.269714 0.378754 0.293427
0.490143 0.457367 0.304108
0.689148 0.486298 0.300659
0.845459 0.502838 0.308472
0.128052 0.383911 0.270386
0.285919 0.497498 0.319885
0.525757 0.618469 0.318695
0.738464 0.669830 0.310974
0.894928 0.691559 0.315186
0.149780 0.474152 0.311310
0.308868 0.605377 0.370117
0.549896 0.745850 0.380219
0.766846 0.827911 0.355896
0.910370 0.855988 0.358887
0.026764 0.039734 0.233978
0.117645 0.058014 0.291382
0.310028 0.105988 0.362610
0.469208 0.099670 0.395111
0.605988 0.106262 0.401581
0.090118 0.205872 0.318939
0.188721 0.250183 0.384247
0.427765 0.304443 0.474152
0.616180 0.296906 0.496094
0.756439 0.303192 0.497925
0.127777 0.314392 0.373871
0.236694 0.387817 0.432526
0.494415 0.493530 0.512299
0.708008 0.527527 0.528229
0.880463 0.544495 0.539032
0.155121 0.416870 0.399414
0.264740 0.513000 0.457123
0.529266 0.654968 0.540009
0.754486 0.720398 0.558716
0.947571 0.745789 0.566864
0.169006 0.505798 0.435486
0.276947 0.614868 0.499390
0.546936 0.780243 0.585876
0.777435 0.889343 0.605743
0.953674 0.931763 0.616791
0.044464 0.060852 0.315643
0.106354 0.064758 0.362549
0.304962 0.127014 0.439819
0.461212 0.133484 0.500214
0.599976 0.126648 0.536682
0.106567 0.225250 0.414795
0.170258 0.259399 0.472168
0.407959 0.319275 0.566742
0.603668 0.334625 0.641357
0.757416 0.330719 0.673157
0.138397 0.336182 0.467316
0.190491 0.393829 0.526825
0.471100 0.500488 0.641357
0.695068 0.557770 0.715332
0.875793 0.578125 0.738068
0.162964 0.437347 0.513306
0.238159 0.522858 0.573883
0.518280 0.658051 0.685852
0.750580 0.746887 0.753143
0.957916 0.779999 0.766235
0.192017 0.527496 0.550385
0.281860 0.631012 0.611755
0.538269 0.776733 0.716003
0.776947 0.910950 0.786224
0.956329 0.963043 0.808777
0.058105 0.074524 0.390564
0.106323 0.072113 0.432159
0.299469 0.130035 0.504211
0.459686 0.158295 0.583618
0.595306 0.156555 0.634705
0.119812 0.244232 0.505981
0.161407 0.276855 0.556061
0.394379 0.336456 0.642487
0.591583 0.372345 0.740601
0.753021 0.389038 0.805023
0.149109 0.356598 0.558716
0.185516 0.411377 0.617706
0.452118 0.511414 0.732727
0.679871 0.581329 0.844177
0.860138 0.613342 0.908600
0.170929 0.454681 0.596954
0.215973 0.532776 0.663940
0.492523 0.657959 0.788788
0.740295 0.760071 0.912933
0.947296 0.804321 0.972198
0.188049 0.537537 0.628418
0.255157 0.634491 0.699707
0.528015 0.774506 0.822540
0.771362 0.913269 0.950745
0.954285 0.959259 0.973755
