Fujifilm Eterna 400T (8583) - Only contrast.cube
# Created by Benjamin (IWLTBAP) : http://luts.iwltbap.com
# Copyright: (C) Copyright 2010-2017 Triune Films and IWLTBAP SAS
# Cannot be resold, shared or otherwise redistributed
TITLE "Film Print Emulation LUTs Pack (Rec.709, sRGB, DCI-P3)"
LUT_3D_SIZE 33
0.012634 0.012634 0.012634
0.021973 0.012634 0.012634
0.031799 0.012634 0.012634
0.045471 0.012604 0.012604
0.064209 0.012543 0.012543
0.082916 0.012482 0.012482
0.107697 0.012360 0.012360
0.134644 0.012238 0.012238
0.167786 0.012085 0.012085
0.197632 0.011932 0.011932
0.233337 0.011749 0.011749
0.273346 0.011536 0.011536
0.305634 0.011383 0.011383
0.341370 0.011200 0.011200
0.376007 0.011017 0.011017
0.413910 0.010834 0.010834
0.451508 0.010620 0.010620
0.483612 0.010468 0.010468
0.512634 0.010345 0.010345
0.537598 0.010223 0.010223
0.562744 0.010101 0.010101
0.590179 0.009979 0.009979
0.617126 0.009857 0.009857
0.642426 0.009766 0.009766
0.666412 0.009644 0.009644
0.685242 0.009583 0.009583
0.703644 0.009521 0.009521
0.720306 0.009460 0.009460
0.734589 0.009430 0.009430
0.750580 0.009399 0.009399
0.766388 0.009338 0.009338
0.782532 0.009308 0.009308
0.799561 0.009247 0.009247
0.012634 0.021973 0.012634
0.021973 0.021973 0.012634
0.031799 0.021942 0.012634
0.045563 0.021912 0.012604
0.064270 0.021851 0.012543
0.082977 0.021790 0.012482
0.107819 0.021698 0.012360
0.134796 0.021576 0.012238
0.167969 0.021393 0.012085
0.197784 0.021271 0.011932
0.233551 0.021088 0.011749
0.273560 0.020874 0.011536
0.305786 0.020721 0.011383
0.341553 0.020538 0.011200
0.376190 0.020355 0.011017
0.414124 0.020172 0.010834
0.451691 0.019958 0.010620
0.483765 0.019806 0.010468
0.512756 0.019684 0.010345
0.537689 0.019562 0.010223
0.562866 0.019470 0.010101
0.590332 0.019348 0.009979
0.617249 0.019226 0.009857
0.642548 0.019104 0.009766
0.666504 0.019012 0.009644
0.685303 0.018951 0.009583
0.703705 0.018890 0.009521
0.720367 0.018829 0.009460
0.734619 0.018799 0.009430
0.750641 0.018768 0.009399
0.766418 0.018707 0.009338
0.782593 0.018677 0.009308
0.799622 0.018616 0.009247
0.012634 0.031799 0.012634
0.021942 0.031799 0.012634
0.031799 0.031799 0.012634
0.045593 0.031799 0.012604
0.064331 0.031738 0.012543
0.083038 0.031677 0.012482
0.107941 0.031586 0.012360
0.134918 0.031464 0.012238
0.168121 0.031311 0.012085
0.197937 0.031158 0.011932
0.233734 0.031006 0.011749
0.273743 0.030792 0.011536
0.305939 0.030640 0.011383
0.341736 0.030487 0.011200
0.376373 0.030304 0.011017
0.414307 0.030121 0.010803
0.451843 0.029938 0.010620
0.483887 0.029785 0.010468
0.512878 0.029663 0.010315
0.537781 0.029572 0.010223
0.562958 0.029480 0.010101
0.590454 0.029358 0.009979
0.617340 0.029236 0.009857
0.642639 0.029144 0.009735
0.666565 0.029053 0.009644
0.685364 0.029022 0.009583
0.703766 0.028961 0.009521
0.720398 0.028931 0.009460
0.734650 0.028900 0.009430
0.750671 0.028870 0.009369
0.766479 0.028839 0.009338
0.782623 0.028809 0.009277
0.799652 0.028748 0.009247
0.012604 0.045471 0.012604
0.021912 0.045563 0.012604
0.031799 0.045593 0.012604
0.045624 0.045624 0.012573
0.064362 0.045624 0.012512
0.083069 0.045624 0.012421
0.108032 0.045593 0.012329
0.135040 0.045532 0.012207
0.168243 0.045441 0.012024
0.198059 0.045349 0.011902
0.233917 0.045258 0.011719
0.273926 0.045105 0.011505
0.306061 0.045013 0.011322
0.341888 0.044891 0.011139
0.376495 0.044769 0.010986
0.414490 0.044647 0.010773
0.451996 0.044525 0.010590
0.484009 0.044434 0.010437
0.512970 0.044342 0.010284
0.537872 0.044312 0.010193
0.563049 0.044281 0.010071
0.590546 0.044220 0.009949
0.617432 0.044159 0.009827
0.642700 0.044098 0.009705
0.666626 0.044067 0.009613
0.685394 0.044067 0.009552
0.703796 0.044067 0.009460
0.720398 0.044098 0.009430
0.734650 0.044128 0.009399
0.750702 0.044159 0.009338
0.766449 0.044159 0.009308
0.782654 0.044189 0.009247
0.799683 0.044189 0.009186
0.012543 0.064209 0.012543
0.021851 0.064270 0.012543
0.031738 0.064331 0.012543
0.045624 0.064362 0.012512
0.064362 0.064362 0.012421
0.083069 0.064362 0.012360
0.108093 0.064301 0.012268
0.135101 0.064270 0.012146
0.168365 0.064148 0.011963
0.198151 0.064087 0.011841
0.234039 0.063965 0.011627
0.274048 0.063812 0.011414
0.306152 0.063721 0.011261
0.342010 0.063599 0.011078
0.376617 0.063507 0.010895
0.414642 0.063354 0.010712
0.452118 0.063232 0.010529
0.484070 0.063141 0.010345
0.513031 0.063080 0.010223
0.537903 0.063049 0.010101
0.563080 0.062988 0.010010
0.590607 0.062927 0.009888
0.617462 0.062866 0.009766
0.642731 0.062836 0.009644
0.666656 0.062805 0.009552
0.685364 0.062805 0.009460
0.703796 0.062805 0.009399
0.720367 0.062805 0.009369
0.734619 0.062836 0.009308
0.750702 0.062866 0.009277
0.766449 0.062897 0.009216
0.782623 0.062897 0.009186
0.799652 0.062927 0.009125
0.012482 0.082916 0.012482
0.021790 0.082977 0.012482
0.031677 0.083038 0.012482
0.045624 0.083069 0.012421
0.064362 0.083069 0.012360
0.083069 0.083069 0.012299
0.108154 0.083038 0.012207
0.135162 0.082977 0.012054
0.168457 0.082886 0.011902
0.198242 0.082794 0.011749
0.234161 0.082672 0.011566
0.274170 0.082550 0.011353
0.306274 0.082458 0.011200
0.342133 0.082336 0.011017
0.376740 0.082245 0.010834
0.414764 0.082092 0.010651
0.452240 0.081970 0.010437
0.484161 0.081909 0.010284
0.513092 0.081848 0.010162
0.537933 0.081818 0.010040
0.563141 0.081787 0.009949
0.590668 0.081726 0.009796
0.617523 0.081696 0.009674
0.642792 0.081665 0.009583
0.666656 0.081635 0.009460
0.685364 0.081665 0.009399
0.703796 0.081665 0.009338
0.720337 0.081696 0.009277
0.734589 0.081757 0.009247
0.750671 0.081787 0.009216
0.766418 0.081848 0.009155
0.782623 0.081879 0.009125
0.799652 0.081909 0.009064
0.012360 0.107697 0.012360
0.021698 0.107819 0.012360
0.031586 0.107941 0.012360
0.045593 0.108032 0.012329
0.064301 0.108093 0.012268
0.083038 0.108154 0.012207
0.108154 0.108154 0.012085
0.135193 0.108154 0.011963
0.168488 0.108093 0.011780
0.198273 0.108093 0.011658
0.234253 0.108032 0.011475
0.274261 0.107941 0.011261
0.306305 0.107880 0.011078
0.342224 0.107819 0.010895
0.376801 0.107758 0.010742
0.414856 0.107697 0.010529
0.452301 0.107605 0.010345
0.484192 0.107574 0.010162
0.513092 0.107544 0.010040
0.537933 0.107574 0.009918
0.563141 0.107574 0.009827
0.590698 0.107574 0.009705
0.617523 0.107574 0.009583
0.642761 0.107574 0.009460
0.666656 0.107574 0.009369
0.685303 0.107635 0.009277
0.703735 0.107697 0.009216
0.720245 0.107758 0.009186
0.734497 0.107849 0.009125
0.750610 0.107910 0.009094
0.766327 0.108002 0.009033
0.782562 0.108063 0.009003
0.799591 0.108124 0.008942
0.012238 0.134644 0.012238
0.021576 0.134796 0.012238
0.031464 0.134918 0.012238
0.045532 0.135040 0.012207
0.064270 0.135101 0.012146
0.082977 0.135162 0.012054
0.108154 0.135193 0.011963
0.135223 0.135223 0.011841
0.168549 0.135193 0.011658
0.198334 0.135193 0.011536
0.234344 0.135132 0.011322
0.274353 0.135071 0.011108
0.306366 0.135040 0.010956
0.342285 0.135010 0.010773
0.376862 0.134979 0.010590
0.414948 0.134918 0.010406
0.452362 0.134857 0.010193
0.484192 0.134857 0.010040
0.513092 0.134857 0.009918
0.537903 0.134888 0.009796
0.563141 0.134918 0.009705
0.590698 0.134949 0.009552
0.617523 0.134979 0.009430
0.642761 0.135010 0.009338
0.666595 0.135071 0.009216
0.685242 0.135162 0.009155
0.703674 0.135223 0.009094
0.720154 0.135345 0.009033
0.734406 0.135468 0.009003
0.750549 0.135559 0.008972
0.766235 0.135681 0.008911
0.782471 0.135773 0.008881
0.799500 0.135864 0.008820
0.012085 0.167786 0.012085
0.021393 0.167969 0.012085
0.031311 0.168121 0.012085
0.045441 0.168243 0.012024
0.064148 0.168365 0.011963
0.082886 0.168457 0.011902
0.108093 0.168488 0.011780
0.135193 0.168549 0.011658
0.168549 0.168549 0.011505
0.198303 0.168549 0.011353
0.234375 0.168518 0.011169
0.274384 0.168488 0.010956
0.306366 0.168488 0.010803
0.342285 0.168457 0.010620
0.376892 0.168427 0.010437
0.414978 0.168396 0.010223
0.452393 0.168365 0.010040
0.484161 0.168365 0.009888
0.513062 0.168365 0.009735
0.537842 0.168427 0.009644
0.563080 0.168457 0.009521
0.590668 0.168488 0.009399
0.617462 0.168518 0.009277
0.642700 0.168579 0.009155
0.666534 0.168610 0.009064
0.685120 0.168701 0.009003
0.703583 0.168793 0.008942
0.720032 0.168884 0.008881
0.734253 0.169006 0.008850
0.750458 0.169098 0.008789
0.766113 0.169220 0.008759
0.782379 0.169312 0.008698
0.799408 0.169403 0.008636
0.011932 0.197632 0.011932
0.021271 0.197784 0.011932
0.031158 0.197937 0.011932
0.045349 0.198059 0.011902
0.064087 0.198151 0.011841
0.082794 0.198242 0.011749
0.108093 0.198273 0.011658
0.135193 0.198334 0.011536
0.168549 0.198303 0.011353
0.198334 0.198334 0.011200
0.234436 0.198303 0.011017
0.274445 0.198242 0.010803
0.306366 0.198242 0.010651
0.342316 0.198242 0.010468
0.376923 0.198212 0.010284
0.415039 0.198181 0.010101
0.452423 0.198151 0.009888
0.484161 0.198151 0.009735
0.513031 0.198181 0.009613
0.537811 0.198242 0.009491
0.563049 0.198303 0.009369
0.590637 0.198334 0.009247
0.617432 0.198395 0.009125
0.642639 0.198456 0.009033
0.666473 0.198517 0.008911
0.685028 0.198608 0.008850
0.703491 0.198730 0.008789
0.719940 0.198853 0.008728
0.734161 0.198975 0.008698
0.750366 0.199097 0.008636
0.766022 0.199219 0.008606
0.782288 0.199371 0.008545
0.799316 0.199463 0.008484
0.011749 0.233337 0.011749
0.021088 0.233551 0.011749
0.031006 0.233734 0.011749
0.045258 0.233917 0.011719
0.063965 0.234039 0.011627
0.082672 0.234161 0.011566
0.108032 0.234253 0.011475
0.135132 0.234344 0.011322
0.168518 0.234375 0.011169
0.198303 0.234436 0.011017
0.234436 0.234436 0.010834
0.274445 0.234436 0.010620
0.306366 0.234467 0.010468
0.342316 0.234497 0.010284
0.376923 0.234528 0.010101
0.415070 0.234528 0.009888
0.452423 0.234528 0.009705
0.484100 0.234558 0.009552
0.512970 0.234619 0.009399
0.537720 0.234711 0.009308
0.562988 0.234802 0.009186
0.590576 0.234894 0.009064
0.617371 0.234955 0.008942
0.642578 0.235046 0.008820
0.666351 0.235168 0.008728
0.684906 0.235291 0.008667
0.703369 0.235443 0.008606
0.719788 0.235596 0.008545
0.734009 0.235748 0.008514
0.750214 0.235901 0.008453
0.765869 0.236084 0.008423
0.782135 0.236237 0.008362
0.799164 0.236389 0.008301
0.011536 0.273346 0.011536
0.020874 0.273560 0.011536
0.030792 0.273743 0.011536
0.045105 0.273926 0.011505
0.063812 0.274048 0.011414
0.082550 0.274170 0.011353
0.107941 0.274261 0.011261
0.135071 0.274353 0.011108
0.168488 0.274384 0.010956
0.198242 0.274445 0.010803
0.234436 0.274445 0.010620
0.274445 0.274445 0.010406
0.306305 0.274475 0.010254
0.342316 0.274475 0.010071
0.376892 0.274506 0.009888
0.415070 0.274506 0.009674
0.452393 0.274506 0.009491
0.484039 0.274536 0.009338
0.512909 0.274597 0.009186
0.537598 0.274689 0.009094
0.562897 0.274750 0.008972
0.590515 0.274811 0.008850
0.617279 0.274902 0.008728
0.642456 0.274963 0.008606
0.666229 0.275055 0.008514
0.684753 0.275177 0.008453
0.703247 0.275299 0.008392
0.719604 0.275421 0.008331
0.733826 0.275574 0.008301
0.750061 0.275696 0.008240
0.765686 0.275848 0.008209
0.781982 0.275970 0.008148
0.799011 0.276093 0.008087
0.011383 0.305634 0.011383
0.020721 0.305786 0.011383
0.030640 0.305939 0.011383
0.045013 0.306061 0.011322
0.063721 0.306152 0.011261
0.082458 0.306274 0.011200
0.107880 0.306305 0.011078
0.135040 0.306366 0.010956
0.168488 0.306366 0.010803
0.198242 0.306366 0.010651
0.234467 0.306366 0.010468
0.274475 0.306305 0.010254
0.306335 0.306335 0.010101
0.342316 0.306305 0.009918
0.376923 0.306305 0.009735
0.415100 0.306274 0.009521
0.452423 0.306274 0.009338
0.484039 0.306274 0.009186
0.512848 0.306335 0.009033
0.537567 0.306396 0.008942
0.562866 0.306458 0.008820
0.590485 0.306519 0.008698
0.617249 0.306580 0.008575
0.642426 0.306641 0.008453
0.666168 0.306732 0.008362
0.684662 0.306824 0.008301
0.703156 0.306946 0.008240
0.719482 0.307098 0.008179
0.733704 0.307251 0.008148
0.749969 0.307373 0.008087
0.765564 0.307526 0.008057
0.781891 0.307648 0.007996
0.798920 0.307770 0.007935
0.011200 0.341370 0.011200
0.020538 0.341553 0.011200
0.030487 0.341736 0.011200
0.044891 0.341888 0.011139
0.063599 0.342010 0.011078
0.082336 0.342133 0.011017
0.107819 0.342224 0.010895
0.135010 0.342285 0.010773
0.168457 0.342285 0.010620
0.198242 0.342316 0.010468
0.234497 0.342316 0.010284
0.274475 0.342316 0.010071
0.306305 0.342316 0.009918
0.342316 0.342316 0.009735
0.376923 0.342346 0.009552
0.415131 0.342316 0.009338
0.452423 0.342316 0.009155
0.483978 0.342346 0.009003
0.512787 0.342377 0.008850
0.537476 0.342468 0.008759
0.562775 0.342529 0.008636
0.590424 0.342590 0.008514
0.617188 0.342651 0.008392
0.642334 0.342712 0.008270
0.666077 0.342804 0.008179
0.684540 0.342926 0.008118
0.703033 0.343048 0.008026
0.719330 0.343170 0.007996
0.733551 0.343323 0.007965
0.749847 0.343445 0.007904
0.765442 0.343597 0.007874
0.781738 0.343719 0.007812
0.798798 0.343842 0.007751
0.011017 0.376007 0.011017
0.020355 0.376190 0.011017
0.030304 0.376373 0.011017
0.044769 0.376495 0.010986
0.063507 0.376617 0.010895
0.082245 0.376740 0.010834
0.107758 0.376801 0.010742
0.134979 0.376862 0.010590
0.168427 0.376892 0.010437
0.198212 0.376923 0.010284
0.234528 0.376923 0.010101
0.274506 0.376892 0.009888
0.306305 0.376923 0.009735
0.342346 0.376923 0.009552
0.376923 0.376923 0.009369
0.415161 0.376892 0.009155
0.452423 0.376892 0.008972
0.483948 0.376923 0.008820
0.512756 0.376984 0.008667
0.537415 0.377045 0.008575
0.562714 0.377136 0.008453
0.590363 0.377197 0.008331
0.617126 0.377258 0.008209
0.642273 0.377319 0.008087
0.665985 0.377411 0.007996
0.684418 0.377533 0.007935
0.702911 0.377655 0.007874
0.719208 0.377808 0.007812
0.733398 0.377960 0.007782
0.749725 0.378113 0.007721
0.765289 0.378235 0.007690
0.781616 0.378387 0.007629
0.798676 0.378540 0.007568
0.010834 0.413910 0.010834
0.020172 0.414124 0.010834
0.030121 0.414307 0.010803
0.044647 0.414490 0.010773
0.063354 0.414642 0.010712
0.082092 0.414764 0.010651
0.107697 0.414856 0.010529
0.134918 0.414948 0.010406
0.168396 0.414978 0.010223
0.198181 0.415039 0.010101
0.234528 0.415070 0.009888
0.274506 0.415070 0.009674
0.306274 0.415100 0.009521
0.342316 0.415131 0.009338
0.376892 0.415161 0.009155
0.415161 0.415161 0.008972
0.452393 0.415161 0.008759
0.483887 0.415222 0.008606
0.512665 0.415283 0.008484
0.537323 0.415375 0.008362
0.562653 0.415466 0.008270
0.590302 0.415558 0.008118
0.617035 0.415619 0.007996
0.642181 0.415710 0.007904
0.665863 0.415802 0.007782
0.684265 0.415955 0.007721
0.702759 0.416077 0.007660
0.719025 0.416229 0.007599
0.733246 0.416412 0.007568
0.749573 0.416565 0.007538
0.765137 0.416718 0.007477
0.781464 0.416870 0.007416
0.798523 0.417023 0.007385
0.010620 0.451508 0.010620
0.019958 0.451691 0.010620
0.029938 0.451843 0.010620
0.044525 0.451996 0.010590
0.063232 0.452118 0.010529
0.081970 0.452240 0.010437
0.107605 0.452301 0.010345
0.134857 0.452362 0.010193
0.168365 0.452393 0.010040
0.198151 0.452423 0.009888
0.234528 0.452423 0.009705
0.274506 0.452393 0.009491
0.306274 0.452423 0.009338
0.342316 0.452423 0.009155
0.376892 0.452423 0.008972
0.415161 0.452393 0.008759
0.452393 0.452393 0.008575
0.483826 0.452423 0.008423
0.512604 0.452454 0.008270
0.537231 0.452545 0.008179
0.562561 0.452606 0.008057
0.590240 0.452637 0.007935
0.616943 0.452698 0.007812
0.642090 0.452789 0.007690
0.665741 0.452850 0.007599
0.684143 0.452972 0.007538
0.702637 0.453064 0.007477
0.718872 0.453217 0.007416
0.733093 0.453339 0.007385
0.749451 0.453461 0.007324
0.764984 0.453613 0.007294
0.781342 0.453735 0.007233
0.798370 0.453857 0.007172
0.010468 0.483612 0.010468
0.019806 0.483765 0.010468
0.029785 0.483887 0.010468
0.044434 0.484009 0.010437
0.063141 0.484070 0.010345
0.081909 0.484161 0.010284
0.107574 0.484192 0.010162
0.134857 0.484192 0.010040
0.168365 0.484161 0.009888
0.198151 0.484161 0.009735
0.234558 0.484100 0.009552
0.274536 0.484039 0.009338
0.306274 0.484039 0.009186
0.342346 0.483978 0.009003
0.376923 0.483948 0.008820
0.415222 0.483887 0.008606
0.452423 0.483826 0.008423
0.483826 0.483826 0.008270
0.512573 0.483826 0.008118
0.537170 0.483856 0.008026
0.562531 0.483887 0.007904
0.590210 0.483887 0.007782
0.616913 0.483917 0.007660
0.642029 0.483948 0.007538
0.665680 0.483978 0.007446
0.684052 0.484070 0.007385
0.702545 0.484131 0.007324
0.718781 0.484222 0.007263
0.732971 0.484344 0.007233
0.749359 0.484436 0.007172
0.764893 0.484528 0.007141
0.781250 0.484619 0.007080
0.798279 0.484680 0.007050
0.010345 0.512634 0.010345
0.019684 0.512756 0.010345
0.029663 0.512878 0.010315
0.044342 0.512970 0.010284
0.063080 0.513031 0.010223
0.081848 0.513092 0.010162
0.107544 0.513092 0.010040
0.134857 0.513092 0.009918
0.168365 0.513062 0.009735
0.198181 0.513031 0.009613
0.234619 0.512970 0.009399
0.274597 0.512909 0.009186
0.306335 0.512848 0.009033
0.342377 0.512787 0.008850
0.376984 0.512756 0.008667
0.415283 0.512665 0.008484
0.452454 0.512604 0.008270
0.483826 0.512573 0.008118
0.512543 0.512543 0.007996
0.537140 0.512573 0.007874
0.562531 0.512573 0.007782
0.590210 0.512573 0.007660
0.616913 0.512573 0.007538
0.641998 0.512573 0.007416
0.665649 0.512604 0.007324
0.683960 0.512665 0.007263
0.702484 0.512726 0.007172
0.718658 0.512787 0.007141
0.732880 0.512878 0.007111
0.749268 0.512939 0.007050
0.764801 0.513000 0.007019
0.781158 0.513092 0.006958
0.798218 0.513153 0.006897
0.010223 0.537598 0.010223
0.019562 0.537689 0.010223
0.029572 0.537781 0.010223
0.044312 0.537872 0.010193
0.063049 0.537903 0.010101
0.081818 0.537933 0.010040
0.107574 0.537933 0.009918
0.134888 0.537903 0.009796
0.168427 0.537842 0.009644
0.198242 0.537811 0.009491
0.234711 0.537720 0.009308
0.274689 0.537598 0.009094
0.306396 0.537567 0.008942
0.342468 0.537476 0.008759
0.377045 0.537415 0.008575
0.415375 0.537323 0.008362
0.452545 0.537231 0.008179
0.483856 0.537170 0.008026
0.512573 0.537140 0.007874
0.537140 0.537140 0.007782
0.562531 0.537140 0.007660
0.590240 0.537140 0.007538
0.616913 0.537109 0.007416
0.641998 0.537109 0.007294
0.665619 0.537109 0.007202
0.683929 0.537170 0.007141
0.702454 0.537201 0.007080
0.718597 0.537262 0.007019
0.732788 0.537354 0.006989
0.749237 0.537415 0.006958
0.764709 0.537476 0.006897
0.781097 0.537537 0.006836
0.798157 0.537567 0.006805
0.010101 0.562744 0.010101
0.019470 0.562866 0.010101
0.029480 0.562958 0.010101
0.044281 0.563049 0.010071
0.062988 0.563080 0.010010
0.081787 0.563141 0.009949
0.107574 0.563141 0.009827
0.134918 0.563141 0.009705
0.168457 0.563080 0.009521
0.198303 0.563049 0.009369
0.234802 0.562988 0.009186
0.274750 0.562897 0.008972
0.306458 0.562866 0.008820
0.342529 0.562775 0.008636
0.377136 0.562714 0.008453
0.415466 0.562653 0.008270
0.452606 0.562561 0.008057
0.483887 0.562531 0.007904
0.512573 0.562531 0.007782
0.537140 0.562531 0.007660
0.562531 0.562531 0.007568
0.590271 0.562531 0.007416
0.616913 0.562531 0.007294
0.641998 0.562531 0.007202
0.665588 0.562561 0.007111
0.683868 0.562592 0.007019
0.702393 0.562653 0.006958
0.718536 0.562744 0.006927
0.732727 0.562805 0.006897
0.749176 0.562897 0.006836
0.764648 0.562958 0.006775
0.781036 0.563019 0.006744
0.798096 0.563110 0.006683
0.009979 0.590179 0.009979
0.019348 0.590332 0.009979
0.029358 0.590454 0.009979
0.044220 0.590546 0.009949
0.062927 0.590607 0.009888
0.081726 0.590668 0.009796
0.107574 0.590698 0.009705
0.134949 0.590698 0.009552
0.168488 0.590668 0.009399
0.198334 0.590637 0.009247
0.234894 0.590576 0.009064
0.274811 0.590515 0.008850
0.306519 0.590485 0.008698
0.342590 0.590424 0.008514
0.377197 0.590363 0.008331
0.415558 0.590302 0.008118
0.452637 0.590240 0.007935
0.483887 0.590210 0.007782
0.512573 0.590210 0.007660
0.537140 0.590240 0.007538
0.562531 0.590271 0.007416
0.590271 0.590271 0.007294
0.616913 0.590271 0.007172
0.641968 0.590271 0.007080
0.665527 0.590302 0.006958
0.683807 0.590393 0.006897
0.702332 0.590454 0.006836
0.718445 0.590515 0.006775
0.732635 0.590607 0.006744
0.749084 0.590698 0.006714
0.764557 0.590790 0.006653
0.780975 0.590851 0.006622
0.798035 0.590912 0.006561
0.009857 0.617126 0.009857
0.019226 0.617249 0.009857
0.029236 0.617340 0.009857
0.044159 0.617432 0.009827
0.062866 0.617462 0.009766
0.081696 0.617523 0.009674
0.107574 0.617523 0.009583
0.134979 0.617523 0.009430
0.168518 0.617462 0.009277
0.198395 0.617432 0.009125
0.234955 0.617371 0.008942
0.274902 0.617279 0.008728
0.306580 0.617249 0.008575
0.342651 0.617188 0.008392
0.377258 0.617126 0.008209
0.415619 0.617035 0.007996
0.452698 0.616943 0.007812
0.483917 0.616913 0.007660
0.512573 0.616913 0.007538
0.537109 0.616913 0.007416
0.562531 0.616913 0.007294
0.590271 0.616913 0.007172
0.616913 0.616913 0.007050
0.641968 0.616913 0.006958
0.665497 0.616913 0.006836
0.683746 0.616974 0.006775
0.702271 0.617035 0.006714
0.718353 0.617096 0.006683
0.732544 0.617188 0.006622
0.749023 0.617249 0.006592
0.764496 0.617310 0.006531
0.780914 0.617401 0.006500
0.797974 0.617462 0.006439
0.009766 0.642426 0.009766
0.019104 0.642548 0.009766
0.029144 0.642639 0.009735
0.044098 0.642700 0.009705
0.062836 0.642731 0.009644
0.081665 0.642792 0.009583
0.107574 0.642761 0.009460
0.135010 0.642761 0.009338
0.168579 0.642700 0.009155
0.198456 0.642639 0.009033
0.235046 0.642578 0.008820
0.274963 0.642456 0.008606
0.306641 0.642426 0.008453
0.342712 0.642334 0.008270
0.377319 0.642273 0.008087
0.415710 0.642181 0.007904
0.452789 0.642090 0.007690
0.483948 0.642029 0.007538
0.512573 0.641998 0.007416
0.537109 0.641998 0.007294
0.562531 0.641998 0.007202
0.590271 0.641968 0.007080
0.616913 0.641968 0.006958
0.641968 0.641968 0.006836
0.665466 0.641968 0.006744
0.683685 0.641998 0.006683
0.702209 0.642059 0.006622
0.718292 0.642120 0.006561
0.732452 0.642181 0.006531
0.748962 0.642242 0.006470
0.764435 0.642303 0.006439
0.780853 0.642365 0.006378
0.797913 0.642395 0.006317
0.009644 0.666412 0.009644
0.019012 0.666504 0.009644
0.029053 0.666565 0.009644
0.044067 0.666626 0.009613
0.062805 0.666656 0.009552
0.081635 0.666656 0.009460
0.107574 0.666656 0.009369
0.135071 0.666595 0.009216
0.168610 0.666534 0.009064
0.198517 0.666473 0.008911
0.235168 0.666351 0.008728
0.275055 0.666229 0.008514
0.306732 0.666168 0.008362
0.342804 0.666077 0.008179
0.377411 0.665985 0.007996
0.415802 0.665863 0.007782
0.452850 0.665741 0.007599
0.483978 0.665680 0.007446
0.512604 0.665649 0.007324
0.537109 0.665619 0.007202
0.562561 0.665588 0.007111
0.590302 0.665527 0.006958
0.616913 0.665497 0.006836
0.641968 0.665466 0.006744
0.665466 0.665466 0.006622
0.683655 0.665466 0.006561
0.702179 0.665497 0.006500
0.718231 0.665527 0.006470
0.732391 0.665558 0.006439
0.748932 0.665588 0.006378
0.764374 0.665619 0.006348
0.780823 0.665649 0.006287
0.797852 0.665680 0.006226
0.009583 0.685242 0.009583
0.018951 0.685303 0.009583
0.029022 0.685364 0.009583
0.044067 0.685394 0.009552
0.062805 0.685364 0.009460
0.081665 0.685364 0.009399
0.107635 0.685303 0.009277
0.135162 0.685242 0.009155
0.168701 0.685120 0.009003
0.198608 0.685028 0.008850
0.235291 0.684906 0.008667
0.275177 0.684753 0.008453
0.306824 0.684662 0.008301
0.342926 0.684540 0.008118
0.377533 0.684418 0.007935
0.415955 0.684265 0.007721
0.452972 0.684143 0.007538
0.484070 0.684052 0.007385
0.512665 0.683960 0.007263
0.537170 0.683929 0.007141
0.562592 0.683868 0.007019
0.590393 0.683807 0.006897
0.616974 0.683746 0.006775
0.641998 0.683685 0.006683
0.665466 0.683655 0.006561
0.683655 0.683655 0.006500
0.702179 0.683655 0.006439
0.718201 0.683655 0.006409
0.732391 0.683685 0.006378
0.748932 0.683685 0.006317
0.764343 0.683716 0.006287
0.780792 0.683716 0.006226
0.797852 0.683716 0.006165
0.009521 0.703644 0.009521
0.018890 0.703705 0.009521
0.028961 0.703766 0.009521
0.044067 0.703796 0.009460
0.062805 0.703796 0.009399
0.081665 0.703796 0.009338
0.107697 0.703735 0.009216
0.135223 0.703674 0.009094
0.168793 0.703583 0.008942
0.198730 0.703491 0.008789
0.235443 0.703369 0.008606
0.275299 0.703247 0.008392
0.306946 0.703156 0.008240
0.343048 0.703033 0.008026
0.377655 0.702911 0.007874
0.416077 0.702759 0.007660
0.453064 0.702637 0.007477
0.484131 0.702545 0.007324
0.512726 0.702484 0.007172
0.537201 0.702454 0.007080
0.562653 0.702393 0.006958
