Kodak Vision2 500T (5260) - Look.cube
# Created by Benjamin (IWLTBAP) : http://luts.iwltbap.com
# Copyright: (C) Copyright 2010-2017 Triune Films and IWLTBAP SAS
# Cannot be resold, shared or otherwise redistributed
TITLE "Film Print Emulation LUTs Pack (Rec.709, sRGB, DCI-P3)"
LUT_3D_SIZE 5
0.000000 0.000000 0.000000
0.308960 0.054749 0.030975
0.577698 0.074310 0.075592
0.797302 0.092529 0.101105
0.974548 0.124237 0.122253
0.003021 0.098083 0.025635
0.220978 0.203308 0.047180
0.573212 0.239258 0.075775
0.819977 0.274658 0.102600
0.983154 0.301514 0.121704
0.004974 0.237946 0.100769
0.009064 0.340271 0.054657
0.534302 0.488556 0.086853
0.829193 0.516663 0.109955
0.984619 0.533691 0.114014
0.010590 0.422516 0.200958
0.010986 0.479126 0.143127
0.473633 0.711395 0.139282
0.811676 0.752228 0.173645
0.990662 0.758453 0.149597
0.017120 0.578278 0.326843
0.016205 0.606628 0.243683
0.077759 0.764862 0.221649
0.739532 0.877533 0.193604
0.986420 0.912750 0.137665
0.028259 0.017731 0.140808
0.413605 0.048645 0.201569
0.603577 0.071045 0.228180
0.805695 0.098572 0.255127
0.971069 0.126495 0.285126
0.010590 0.188599 0.278564
0.206573 0.207703 0.197021
0.560455 0.257996 0.227142
0.814514 0.289490 0.257202
0.975555 0.304504 0.272430
0.010864 0.343109 0.262726
0.009064 0.354370 0.191101
0.526062 0.489899 0.246552
0.837128 0.502197 0.275024
0.984344 0.509583 0.281128
0.015198 0.495300 0.322906
0.013550 0.506836 0.234467
0.341003 0.705231 0.249054
0.820679 0.755859 0.353851
0.992798 0.747162 0.334259
0.019653 0.606934 0.402130
0.017975 0.613342 0.322174
0.051178 0.750214 0.286224
0.707581 0.879669 0.330017
0.985779 0.917236 0.348633
0.021118 0.089813 0.284851
0.476746 0.046692 0.338318
0.636047 0.063141 0.390228
0.809113 0.083466 0.425507
0.979614 0.138794 0.477234
0.013672 0.243378 0.391113
0.011505 0.168335 0.352295
0.598541 0.241333 0.384521
0.823914 0.271942 0.429504
0.970642 0.300507 0.444946
0.016266 0.362244 0.433289
0.019684 0.379700 0.443268
0.466919 0.488220 0.441162
0.813934 0.528290 0.478302
0.980499 0.524872 0.481628
0.018158 0.527466 0.413239
0.018219 0.556854 0.389038
0.048553 0.685181 0.435059
0.811707 0.766846 0.538605
0.991608 0.748566 0.539032
0.021667 0.628143 0.460632
0.019867 0.626587 0.390747
0.024414 0.722809 0.369843
0.688568 0.881378 0.476105
0.987518 0.922241 0.542603
0.019836 0.093170 0.357391
0.480652 0.048309 0.446594
0.647644 0.063080 0.488251
0.796600 0.086548 0.572906
0.974792 0.123962 0.630096
0.016907 0.289795 0.465271
0.015717 0.175568 0.458618
0.462494 0.193024 0.543579
0.843842 0.247498 0.587524
0.982025 0.295166 0.613190
0.020721 0.384003 0.543793
0.021088 0.381714 0.555695
0.195953 0.404236 0.594971
0.844543 0.482513 0.598053
0.977631 0.508789 0.622345
0.023834 0.548401 0.573303
0.025696 0.601227 0.599945
0.048523 0.678955 0.657623
0.791168 0.788879 0.713348
0.980530 0.763611 0.710236
0.025665 0.657898 0.575775
0.024384 0.666107 0.527832
0.026886 0.716400 0.511658
0.578766 0.871368 0.631561
0.987183 0.929535 0.707092
0.014404 0.189850 0.423584
0.535645 0.058838 0.488068
0.694458 0.068146 0.481628
0.792908 0.088318 0.622559
0.972534 0.147766 0.763611
0.019623 0.340149 0.524414
0.023865 0.162323 0.504822
0.455109 0.160553 0.558624
0.818604 0.223694 0.659943
0.971710 0.307892 0.745392
0.023254 0.423462 0.598328
0.021118 0.362976 0.558533
0.022064 0.251373 0.557220
0.777222 0.384186 0.674194
0.978912 0.486145 0.743896
0.026672 0.541016 0.650818
0.027161 0.525635 0.666107
0.027985 0.514862 0.679504
0.655365 0.651947 0.763489
0.987061 0.728210 0.793121
0.030304 0.653961 0.705078
0.036804 0.684570 0.730255
0.050171 0.715637 0.754578
0.356262 0.809601 0.824188
0.992554 0.968842 0.889526
