Kodak Eastman Color Negative 50T (5251) - Look.cube
# Created by Benjamin (IWLTBAP) : http://luts.iwltbap.com
# Copyright: (C) Copyright 2010-2017 Triune Films and IWLTBAP SAS
# Cannot be resold, shared or otherwise redistributed
TITLE "Film Print Emulation LUTs Pack (Rec.709, sRGB, DCI-P3)"
LUT_3D_SIZE 9
0.000000 0.000000 0.000000
0.064850 0.000000 0.000000
0.137665 0.000000 0.000000
0.211273 0.000000 0.000000
0.283936 0.000671 0.000000
0.355103 0.001251 0.000000
0.427734 0.001221 0.000000
0.502533 0.001221 0.000000
0.577637 0.001129 0.000000
0.000000 0.076324 0.001404
0.075378 0.080750 0.002411
0.160522 0.082733 0.001343
0.242767 0.079407 0.000000
0.320251 0.072632 0.000000
0.394104 0.066193 0.000000
0.466553 0.060516 0.000000
0.538300 0.056244 0.000000
0.607483 0.053497 0.000000
0.000000 0.156799 0.006012
0.091064 0.170624 0.007416
0.193756 0.181183 0.005493
0.294952 0.184662 0.000000
0.383667 0.179443 0.000000
0.458740 0.169098 0.000000
0.525574 0.157990 0.000000
0.588135 0.148834 0.000000
0.647980 0.142273 0.000000
0.002930 0.246338 0.013336
0.108398 0.273010 0.018799
0.237671 0.296844 0.029877
0.367828 0.309784 0.032898
0.467682 0.307220 0.014832
0.540649 0.293243 0.000000
0.599365 0.275635 0.000000
0.652100 0.258942 0.000000
0.702026 0.244995 0.000000
0.003174 0.344055 0.026947
0.123230 0.373657 0.042542
0.277374 0.402435 0.062561
0.429596 0.425720 0.069885
0.538971 0.429443 0.056671
0.618011 0.420166 0.023834
0.677582 0.403778 0.000000
0.726318 0.384003 0.000000
0.770477 0.364136 0.000000
0.010376 0.437195 0.047638
0.137024 0.462769 0.062897
0.302887 0.492981 0.082306
0.466400 0.524414 0.096588
0.595642 0.542450 0.103699
0.707153 0.546631 0.106567
0.785553 0.537415 0.097076
0.837219 0.518524 0.072235
0.877625 0.495544 0.026550
0.026306 0.525574 0.065613
0.155426 0.546326 0.077362
0.320160 0.573517 0.099365
0.488068 0.610809 0.122833
0.647400 0.646210 0.151489
0.797546 0.664215 0.174042
0.889252 0.663269 0.176270
0.943939 0.648834 0.162689
0.988373 0.628845 0.141266
0.067810 0.609955 0.081482
0.184479 0.626007 0.093262
0.343262 0.649414 0.116730
0.509552 0.692108 0.149750
0.692169 0.744598 0.195435
0.847870 0.777771 0.230225
0.897736 0.785919 0.241821
0.946198 0.775482 0.236359
0.992859 0.757141 0.222809
0.117859 0.689087 0.097534
0.230164 0.702301 0.110107
0.381500 0.725677 0.137238
0.537506 0.777802 0.181396
0.731842 0.846802 0.235046
0.847717 0.888672 0.269226
0.900513 0.902008 0.282654
0.950989 0.900757 0.285309
0.997650 0.892426 0.282410
0.000000 0.000000 0.070312
0.065308 0.000000 0.071991
0.140564 0.000000 0.073425
0.217651 0.000000 0.071472
0.293121 0.001129 0.064362
0.367371 0.001251 0.052094
0.441620 0.001251 0.047699
0.518158 0.001190 0.045441
0.592682 0.001068 0.046173
0.000000 0.081909 0.081696
0.074371 0.084412 0.083466
0.161926 0.083710 0.083649
0.248169 0.078522 0.077759
0.329010 0.070374 0.064301
0.404266 0.063293 0.050354
0.477570 0.057465 0.046295
0.549133 0.052521 0.046021
0.617798 0.051392 0.045837
0.000031 0.168945 0.096283
0.085571 0.177917 0.098114
0.190674 0.184967 0.098694
0.296906 0.186188 0.092590
0.390625 0.179596 0.076019
0.467194 0.167664 0.055176
0.533020 0.155151 0.044830
0.594940 0.145599 0.045746
0.654419 0.139282 0.045410
0.001678 0.266754 0.112518
0.097626 0.284729 0.115417
0.226379 0.301849 0.120300
0.363831 0.313538 0.119873
0.470337 0.311035 0.106750
0.546082 0.296112 0.073700
0.604950 0.276459 0.046783
0.657074 0.258240 0.046265
0.706818 0.243195 0.045624
0.005005 0.366791 0.127411
0.108734 0.385895 0.130798
0.259491 0.407776 0.138550
0.420593 0.430328 0.143127
0.538483 0.436188 0.135254
0.622101 0.427094 0.114410
0.683929 0.410034 0.075836
0.733337 0.388580 0.049072
0.777283 0.367218 0.046814
0.008240 0.458771 0.139832
0.122467 0.475952 0.141937
0.283447 0.498901 0.151611
0.457092 0.529297 0.164001
0.593414 0.550385 0.172119
0.713226 0.556396 0.177124
0.795593 0.547577 0.168823
0.849091 0.528473 0.148956
0.890717 0.505066 0.117004
0.021820 0.545471 0.148407
0.143280 0.559235 0.150757
0.303436 0.580414 0.164886
0.479675 0.615448 0.186859
0.643738 0.654175 0.216919
0.800720 0.674622 0.241425
0.892151 0.674774 0.245331
0.946411 0.661041 0.233276
0.992767 0.641785 0.213654
0.066162 0.626770 0.158173
0.173645 0.637909 0.163116
0.327881 0.656464 0.180450
0.500458 0.696503 0.212280
0.684875 0.752655 0.258118
0.846405 0.789307 0.295013
0.896301 0.799774 0.308136
0.946106 0.791992 0.306061
0.993286 0.776703 0.296051
0.115112 0.702850 0.170563
0.219452 0.712738 0.178009
0.366119 0.731873 0.199493
0.524658 0.780640 0.241272
0.719818 0.854401 0.294678
0.845062 0.899536 0.329468
0.899261 0.914703 0.344849
0.950500 0.917389 0.350677
0.997437 0.913849 0.351135
0.000000 0.000000 0.145172
0.063446 0.000000 0.149475
0.143646 0.000000 0.153717
0.226288 0.000671 0.155792
0.308807 0.001068 0.153229
0.387268 0.000977 0.145416
0.464172 0.000916 0.132385
0.539490 0.000916 0.112762
0.611786 0.000946 0.092987
0.000000 0.085938 0.161469
0.069611 0.086029 0.164581
0.162231 0.083191 0.167511
0.255829 0.075714 0.167023
0.343567 0.065643 0.159882
0.422150 0.057831 0.146210
0.495300 0.052368 0.126678
0.565308 0.049164 0.102173
0.632080 0.049164 0.092926
0.000763 0.181458 0.182434
0.074768 0.186157 0.184265
0.184662 0.188446 0.186554
0.298920 0.185913 0.184418
0.400085 0.177826 0.173492
0.478699 0.165161 0.153412
0.544586 0.151764 0.124359
0.605347 0.142120 0.096527
0.664124 0.136017 0.093994
0.002319 0.288910 0.203613
0.078888 0.298615 0.204193
0.209564 0.308624 0.206360
0.354706 0.316467 0.204773
0.471008 0.314148 0.193756
0.551086 0.298279 0.171661
0.611450 0.277344 0.135742
0.664215 0.258118 0.103333
0.714111 0.242004 0.094849
0.005005 0.391815 0.221710
0.084991 0.402374 0.220215
0.231445 0.416992 0.222107
0.404358 0.435394 0.223511
0.533600 0.443756 0.216248
0.623322 0.435425 0.200317
0.689514 0.417877 0.176361
0.740997 0.395325 0.141571
0.786133 0.372345 0.097351
0.008667 0.484650 0.233917
0.096649 0.494171 0.230133
0.251160 0.509613 0.231720
0.438995 0.535248 0.239868
0.585083 0.559479 0.247498
0.713806 0.567596 0.253845
0.803162 0.559998 0.246765
0.860718 0.541595 0.228271
0.904938 0.518372 0.203400
0.014618 0.569916 0.240173
0.121429 0.577240 0.236237
0.271667 0.591461 0.240479
0.461945 0.620697 0.258453
0.629120 0.662842 0.287720
0.796753 0.687012 0.315186
0.894043 0.688965 0.321106
0.945557 0.676270 0.310364
0.989532 0.658051 0.292389
0.054352 0.647797 0.247620
0.154144 0.653809 0.245789
0.297913 0.666870 0.253510
0.480988 0.700500 0.280792
0.664276 0.761383 0.325867
0.841919 0.803497 0.363708
0.894501 0.816803 0.378082
0.945343 0.812439 0.378632
0.993408 0.800934 0.373322
0.102966 0.720947 0.259460
0.198212 0.727234 0.260468
0.336823 0.741638 0.271851
0.500793 0.782074 0.306030
0.692261 0.860901 0.357574
0.844482 0.911774 0.392456
0.896912 0.928711 0.409363
0.949585 0.934143 0.417725
0.997131 0.935333 0.421326
0.000000 0.000000 0.215820
0.058350 0.000000 0.221466
0.145233 0.000458 0.228302
0.238190 0.001190 0.234283
0.331635 0.000885 0.236420
0.416870 0.000610 0.232941
0.493652 0.000427 0.225281
0.565613 0.000305 0.212189
0.633698 0.000214 0.192993
0.000000 0.086365 0.235443
0.061005 0.084015 0.239288
0.159912 0.079102 0.244629
0.264709 0.068787 0.248901
0.364319 0.055786 0.246796
0.447845 0.048737 0.238281
0.519806 0.046356 0.225464
0.586243 0.045837 0.207947
0.650208 0.046143 0.184448
0.000580 0.189636 0.261292
0.059113 0.190521 0.263397
0.174500 0.189209 0.267242
0.298706 0.183441 0.269073
0.411346 0.173981 0.262115
0.494415 0.161163 0.247192
0.560608 0.147827 0.227173
0.620453 0.137634 0.204254
0.678070 0.131805 0.176849
0.001923 0.306213 0.290131
0.060272 0.311188 0.290497
0.186829 0.316528 0.292725
0.338165 0.319183 0.292633
0.468414 0.316376 0.282532
0.555908 0.300995 0.262482
0.619659 0.278503 0.237976
0.673828 0.257721 0.209961
0.724396 0.240265 0.176239
0.004211 0.415222 0.316437
0.060059 0.421692 0.314362
0.195801 0.431610 0.315216
0.375488 0.443756 0.315582
0.523102 0.453247 0.306763
0.621521 0.446655 0.290405
0.693237 0.428467 0.269165
0.748871 0.404999 0.245087
0.796967 0.379608 0.216583
0.006927 0.512939 0.335205
0.068146 0.518463 0.330902
0.208649 0.528900 0.328888
0.407379 0.545929 0.330048
0.568604 0.570282 0.332703
0.705261 0.580963 0.338318
0.806549 0.574921 0.332916
0.870483 0.558075 0.315125
0.918793 0.535645 0.291443
0.009064 0.599091 0.346039
0.093048 0.602905 0.340393
0.230408 0.611572 0.337219
0.432190 0.631073 0.343262
0.605133 0.673126 0.367401
0.782654 0.702026 0.396210
0.894897 0.706879 0.404633
0.941406 0.695618 0.396118
0.988098 0.678406 0.379425
0.032806 0.675568 0.356750
0.130341 0.679016 0.352325
0.260071 0.687195 0.350464
0.450684 0.709961 0.361389
0.630463 0.770020 0.401520
0.825500 0.820587 0.438080
0.891449 0.837341 0.454346
0.943878 0.837158 0.457550
0.993103 0.831055 0.455750
0.086426 0.749481 0.373444
0.178162 0.753845 0.371002
0.305786 0.762787 0.369995
0.470123 0.789551 0.383118
0.650330 0.866119 0.427979
0.838776 0.926788 0.462311
0.893402 0.943604 0.480560
0.947784 0.952026 0.492554
0.996796 0.956879 0.499603
0.000000 0.001526 0.282990
0.052429 0.001617 0.289337
0.144043 0.001343 0.297852
0.247589 0.001007 0.307678
0.352753 0.000610 0.313629
0.443634 0.000275 0.312805
0.520477 0.000000 0.306427
0.589600 0.000000 0.295929
0.655090 0.000000 0.282532
0.000000 0.080658 0.304443
0.053467 0.076416 0.308411
0.153198 0.069946 0.315247
0.267090 0.058777 0.323853
0.379150 0.051514 0.326752
0.469513 0.048859 0.321045
0.542450 0.048187 0.309692
0.607513 0.047028 0.295624
0.669342 0.045471 0.280365
0.000244 0.189056 0.333954
0.048065 0.187378 0.335693
0.159180 0.185333 0.340851
0.289551 0.178741 0.346710
0.415955 0.168304 0.345459
0.508514 0.156433 0.333771
0.577881 0.143616 0.316162
0.637115 0.132385 0.297424
0.693207 0.124176 0.279572
0.001373 0.312439 0.369659
0.050842 0.315063 0.370087
0.161255 0.319855 0.373871
0.311096 0.321686 0.378082
0.460297 0.317688 0.372711
0.559326 0.303406 0.353821
0.628082 0.280518 0.330627
0.684296 0.256500 0.307770
0.735718 0.237183 0.286469
0.002991 0.431396 0.405487
0.054443 0.436340 0.405029
0.162079 0.446350 0.409119
0.331329 0.457123 0.413635
0.504822 0.464111 0.406128
0.615173 0.460144 0.387848
0.695007 0.442078 0.365326
0.754639 0.416290 0.340546
0.805511 0.388275 0.315887
0.004791 0.538513 0.437500
0.056244 0.543518 0.436005
0.175598 0.553955 0.438354
0.362518 0.566193 0.439148
0.545746 0.583069 0.432709
0.686462 0.595123 0.431885
0.798920 0.589966 0.425171
0.872101 0.573639 0.406738
0.926056 0.552338 0.382904
0.005585 0.630249 0.461365
0.079224 0.634735 0.459595
0.207214 0.644073 0.460724
0.395508 0.656372 0.457336
0.575073 0.684753 0.460571
0.749451 0.715881 0.481018
0.883575 0.722839 0.490265
0.941498 0.714142 0.484497
0.986023 0.698639 0.471100
0.038910 0.712952 0.483002
0.134644 0.719025 0.483643
0.254486 0.728058 0.484528
0.422546 0.739746 0.477051
0.592133 0.779297 0.487366
0.786621 0.832214 0.516724
0.891113 0.851166 0.533997
0.941986 0.854401 0.540497
0.992493 0.853119 0.541595
0.107147 0.793304 0.504272
0.199005 0.801971 0.506439
0.313080 0.810852 0.504791
0.450684 0.822327 0.494904
0.607666 0.872803 0.509308
0.804718 0.934814 0.539581
0.889832 0.954468 0.561615
0.945618 0.963562 0.579590
0.996399 0.970154 0.592896
0.000000 0.002289 0.347687
0.048981 0.001801 0.353760
0.139648 0.001221 0.363220
0.248993 0.000824 0.375885
0.362091 0.000397 0.385132
0.457886 0.000000 0.386505
0.537048 0.000000 0.381836
0.606995 0.000000 0.372925
0.671570 0.000000 0.361816
0.000000 0.072479 0.369263
0.048706 0.066742 0.372711
0.141846 0.060028 0.379913
0.258789 0.054016 0.391113
0.379517 0.052765 0.398773
0.479248 0.050720 0.397308
0.556824 0.049347 0.388641
0.623291 0.048096 0.376343
0.684479 0.047058 0.363220
0.000000 0.183258 0.400574
0.047638 0.179535 0.401459
0.140106 0.177185 0.406677
0.269043 0.172668 0.415863
0.406525 0.163696 0.420959
0.513000 0.152557 0.414368
0.588928 0.140472 0.399567
0.650299 0.128845 0.383026
0.706268 0.116913 0.366852
0.000763 0.308075 0.440338
0.049927 0.308716 0.440369
0.133942 0.313965 0.445068
0.273193 0.320801 0.453430
0.437561 0.319427 0.455872
0.556305 0.306305 0.441925
0.633240 0.283600 0.420166
0.692902 0.257996 0.398590
0.745544 0.235016 0.378387
0.001770 0.438599 0.487396
0.052460 0.443176 0.488464
0.133545 0.454254 0.496094
0.281433 0.468628 0.507294
0.472351 0.475891 0.507355
0.602020 0.473022 0.488525
0.689880 0.456696 0.464172
0.755646 0.429321 0.437897
0.810608 0.397980 0.411011
0.002838 0.556854 0.534576
0.056030 0.564331 0.537811
0.163055 0.577332 0.547211
0.325287 0.592499 0.557587
0.514557 0.601685 0.552002
0.655151 0.608917 0.540131
0.772614 0.603729 0.528442
0.855835 0.586945 0.507294
0.918732 0.564941 0.479492
0.007233 0.659271 0.572235
0.110291 0.670837 0.579559
0.232056 0.686707 0.591675
0.384674 0.701233 0.596680
0.543152 0.709015 0.582550
0.696045 0.725952 0.579559
0.838440 0.732574 0.582550
0.936493 0.724487 0.575867
0.989594 0.711121 0.562805
0.089233 0.754791 0.604034
0.185913 0.771271 0.615326
0.298828 0.789795 0.626953
0.423615 0.800232 0.622559
0.559235 0.805542 0.605194
0.717651 0.832336 0.609650
0.871460 0.851410 0.623352
0.943451 0.855621 0.631256
0.991577 0.854584 0.633636
0.154114 0.846588 0.629120
0.248871 0.865845 0.640564
0.349365 0.884247 0.648590
0.453674 0.892365 0.642151
0.573059 0.899536 0.627960
0.730835 0.930756 0.635132
0.884949 0.953400 0.654480
0.944733 0.965179 0.675354
0.996094 0.971710 0.692017
0.000000 0.002594 0.410187
0.047241 0.001831 0.415680
0.131592 0.001129 0.424988
0.242218 0.000671 0.438690
0.357941 0.000214 0.450165
0.459656 0.000000 0.454132
0.543701 0.000000 0.451874
0.615692 0.000000 0.445312
0.680756 0.000000 0.436676
0.000000 0.064789 0.431274
0.045807 0.058411 0.433838
0.127563 0.053436 0.440369
0.243134 0.052246 0.452545
0.366852 0.052246 0.463593
0.475891 0.050446 0.466278
0.560852 0.049683 0.461029
0.630463 0.048615 0.451447
0.692841 0.047455 0.440765
0.000000 0.173981 0.461792
0.047150 0.169067 0.461761
0.119263 0.166473 0.466583
0.242676 0.165344 0.477417
0.382812 0.161163 0.487549
0.505585 0.150787 0.486786
0.591583 0.139923 0.476135
0.657074 0.128204 0.462097
0.714661 0.115356 0.447968
0.000214 0.298279 0.503418
0.048615 0.296692 0.502655
0.107819 0.301880 0.507874
0.235077 0.313690 0.520081
0.396729 0.320709 0.529785
0.543030 0.310638 0.522095
0.632996 0.289368 0.502502
0.697754 0.263611 0.482727
0.753143 0.238007 0.463531
0.000793 0.439667 0.559662
0.050842 0.444244 0.561768
0.111237 0.455688 0.570923
0.244507 0.472931 0.586365
0.426361 0.484985 0.594727
0.581238 0.483490 0.581940
0.679749 0.470184 0.558258
0.752136 0.444824 0.531433
0.812225 0.413055 0.503418
0.001312 0.567017 0.618195
0.055298 0.577820 0.625854
0.168427 0.593781 0.641724
0.313873 0.611877 0.660675
0.484833 0.621765 0.663910
0.624115 0.622375 0.647461
0.739624 0.616852 0.630219
0.829529 0.600891 0.609253
0.901733 0.579620 0.582703
0.043243 0.679474 0.671997
0.150574 0.698608 0.689484
0.269012 0.721527 0.713318
0.397858 0.741150 0.730072
0.524841 0.743652 0.718262
0.653625 0.741852 0.697876
0.788269 0.743927 0.688782
0.894012 0.735901 0.677948
0.974670 0.722504 0.662689
0.126404 0.787384 0.716858
0.228180 0.813660 0.740814
0.334991 0.840546 0.766510
0.439789 0.857330 0.777588
0.547638 0.850647 0.755768
0.671112 0.848450 0.735168
0.814362 0.858124 0.732361
0.930725 0.860718 0.733795
0.997131 0.858276 0.734009
0.188202 0.889923 0.749878
0.285400 0.919830 0.778595
0.378998 0.946594 0.809326
0.470032 0.957764 0.819397
0.568359 0.949158 0.794250
0.687347 0.948151 0.768158
0.829498 0.960571 0.764404
0.947968 0.971375 0.773834
0.996155 0.978333 0.786621
0.000000 0.002808 0.471069
0.045349 0.001892 0.475952
0.120605 0.001099 0.484589
0.229370 0.000549 0.498047
0.344696 0.000183 0.510620
0.451630 0.000000 0.516388
0.541138 0.000000 0.516388
0.616119 0.000000 0.512390
0.682617 0.000000 0.506165
0.000000 0.060486 0.490753
0.045929 0.054413 0.492584
0.112976 0.050873 0.498260
0.223938 0.050995 0.510315
0.345886 0.051575 0.523407
0.462952 0.050568 0.528992
0.556244 0.050079 0.526886
0.630432 0.049286 0.520416
0.695068 0.048187 0.512054
0.000000 0.164154 0.518921
0.046448 0.158478 0.518280
0.100555 0.155975 0.522400
0.216339 0.157227 0.534119
0.349518 0.158508 0.548035
0.488617 0.150818 0.552429
0.587280 0.141632 0.544983
0.658539 0.131165 0.533783
0.718903 0.118713 0.522156
0.000000 0.287933 0.561401
0.047638 0.284546 0.560028
0.095917 0.288361 0.564941
0.203552 0.302948 0.579407
0.349487 0.318542 0.595093
0.520233 0.315247 0.594971
0.627258 0.298401 0.578125
0.699585 0.274689 0.559326
0.759247 0.250488 0.542023
0.000000 0.437714 0.623535
0.049408 0.442383 0.625885
0.100922 0.453735 0.635376
0.216461 0.472443 0.652679
0.378723 0.488770 0.666962
0.558044 0.494354 0.664246
0.666016 0.481964 0.641846
0.747314 0.463257 0.619232
0.814880 0.436218 0.593414
0.000153 0.569824 0.689514
0.058502 0.583710 0.702057
0.170319 0.601898 0.722870
0.306274 0.621735 0.748108
0.462646 0.634064 0.760162
0.599457 0.634125 0.747284
0.711853 0.628693 0.725677
0.805664 0.616821 0.705200
0.885834 0.600464 0.683167
0.060760 0.688599 0.759644
0.170898 0.713959 0.787109
0.287842 0.740662 0.821106
0.405762 0.760986 0.846344
0.519958 0.764954 0.841400
0.632935 0.760376 0.818909
0.750488 0.758484 0.800140
0.858643 0.752197 0.785034
0.946014 0.742767 0.771515
0.148438 0.806671 0.821747
0.253418 0.838959 0.861359
0.357697 0.866974 0.901703
0.456970 0.880646 0.918915
0.555359 0.876099 0.897736
0.658386 0.871368 0.869843
0.778046 0.874451 0.852264
0.894745 0.875153 0.843079
0.990631 0.873505 0.838959
0.214569 0.919434 0.873962
0.312866 0.951660 0.926453
0.405090 0.972443 0.960297
0.497223 0.976440 0.962555
0.588654 0.972198 0.940125
0.686676 0.971283 0.902435
0.803833 0.977295 0.883026
0.920563 0.984070 0.879791
1.000000 0.989960 0.885742
0.000000 0.003113 0.530518
0.045258 0.001984 0.534790
0.108032 0.001129 0.542267
0.213654 0.000458 0.554962
0.326294 0.000183 0.568329
0.437500 0.000000 0.575378
0.533020 0.000000 0.576843
0.611298 0.000000 0.574799
0.679718 0.000000 0.570526
0.000000 0.057648 0.548157
0.045715 0.053925 0.549622
0.098297 0.050934 0.554352
0.203735 0.050842 0.565704
0.321564 0.051331 0.580322
0.444824 0.050842 0.588135
0.546906 0.050598 0.587982
0.626038 0.049957 0.583740
0.693115 0.049194 0.577637
0.000000 0.156342 0.573730
0.046021 0.150055 0.572723
0.093842 0.146851 0.576019
0.190887 0.149200 0.587799
0.315796 0.154724 0.604919
0.465027 0.151917 0.614685
0.578796 0.145111 0.610046
0.656952 0.137604 0.600189
0.720245 0.126984 0.590240
0.000000 0.279785 0.617279
0.046814 0.275116 0.615326
0.095703 0.277039 0.619293
0.176727 0.291412 0.634186
0.310425 0.312866 0.654144
0.491699 0.319122 0.661591
0.618225 0.309326 0.649506
0.699799 0.292725 0.632660
0.764801 0.270966 0.616302
0.000000 0.434357 0.681824
0.048004 0.439423 0.684418
0.098450 0.450714 0.693604
0.192780 0.470062 0.712036
0.338776 0.489349 0.730743
0.525879 0.496429 0.733582
0.650482 0.492737 0.719360
0.740234 0.483215 0.702179
0.817322 0.466492 0.683350
0.000000 0.568817 0.752563
0.059601 0.584930 0.769073
0.166504 0.605133 0.794342
0.295898 0.626556 0.825287
0.444153 0.640106 0.843689
0.580139 0.642242 0.837097
0.689240 0.639587 0.817932
0.784485 0.634186 0.800201
0.870270 0.626587 0.785645
0.066467 0.692017 0.838837
0.179169 0.721741 0.876770
0.295837 0.751129 0.921417
0.410400 0.770386 0.951294
0.520386 0.773956 0.946136
0.624695 0.772552 0.926514
0.730011 0.774078 0.908813
0.831482 0.770264 0.890442
0.923920 0.767853 0.880219
0.161926 0.819000 0.926880
0.270782 0.853973 0.981445
0.375397 0.879425 1.000000
0.474579 0.887451 1.000000
0.569275 0.884918 1.000000
0.662354 0.886841 0.989960
0.767426 0.892517 0.969940
0.875427 0.892395 0.953400
0.971161 0.893280 0.946198
0.235840 0.938568 1.000000
0.335419 0.966949 1.000000
0.430511 0.980133 1.000000
0.525970 0.981293 1.000000
0.612946 0.983643 1.000000
0.701447 0.988464 1.000000
0.803162 0.993256 1.000000
0.908813 0.997620 0.995087
1.000000 1.000000 0.995667
