Kodak Vision2 100T (5212) - Only color.cube
# Created by Benjamin (IWLTBAP) : http://luts.iwltbap.com
# Copyright: (C) Copyright 2010-2017 Triune Films and IWLTBAP SAS
# Cannot be resold, shared or otherwise redistributed
TITLE "Film Print Emulation LUTs Pack (Rec.709, sRGB, DCI-P3)"
LUT_3D_SIZE 5
0.000000 0.000000 0.000000
0.219238 0.000092 0.010529
0.384796 0.000214 0.022491
0.543457 0.000336 0.034546
0.726471 0.000458 0.048584
0.063782 0.260040 0.054932
0.292053 0.230347 0.000000
0.439178 0.215698 0.000000
0.728363 0.090302 0.007812
0.730804 0.090363 0.049103
0.238861 0.501007 0.222839
0.329681 0.493469 0.178284
0.526825 0.468140 0.102203
0.700287 0.441895 0.000000
0.846313 0.448761 0.000000
0.380615 0.750854 0.357758
0.438599 0.738434 0.357391
0.565918 0.724152 0.285400
0.775085 0.698181 0.149933
0.959717 0.655029 0.000000
0.481018 0.982910 0.453156
0.527069 0.971954 0.459839
0.635620 0.968414 0.354828
0.805450 0.931061 0.353943
0.985931 0.903412 0.000000
0.000336 0.098907 0.271729
0.173004 0.066742 0.142303
0.397186 0.000305 0.108276
0.542206 0.000427 0.124237
0.725403 0.000580 0.136963
0.000366 0.307648 0.182678
0.259644 0.259369 0.231232
0.496429 0.216187 0.091431
0.724976 0.112213 0.091400
0.729797 0.090424 0.137390
0.222046 0.527527 0.278473
0.328583 0.504913 0.300568
0.540802 0.476349 0.247528
0.691132 0.469543 0.147705
0.847717 0.451935 0.091156
0.373169 0.766083 0.390625
0.433899 0.750519 0.402405
0.566528 0.735840 0.347412
0.776733 0.703369 0.289337
0.969635 0.660217 0.091034
0.475311 0.993378 0.479553
0.521301 0.982391 0.487061
0.634094 0.971436 0.423950
0.804932 0.939545 0.424530
0.993561 0.912537 0.090973
0.000610 0.182281 0.516022
0.000580 0.237640 0.440033
0.327026 0.159729 0.278137
0.451965 0.112274 0.268799
0.735718 0.026184 0.176605
0.000580 0.344513 0.385498
0.007568 0.393677 0.456268
0.397552 0.325195 0.367706
0.579773 0.290558 0.301331
0.710663 0.148315 0.176544
0.144501 0.602112 0.401428
0.272522 0.580688 0.422791
0.514313 0.513947 0.471771
0.744293 0.484589 0.371918
0.974518 0.439697 0.176392
0.294739 0.838562 0.470428
0.393280 0.805328 0.490570
0.565277 0.755463 0.519653
0.789276 0.718445 0.466827
0.949097 0.707764 0.370331
0.451172 1.000000 0.555603
0.505890 1.000000 0.566406
0.628540 0.983124 0.582794
0.802917 0.963776 0.535461
1.000000 0.939148 0.375916
0.000793 0.323578 0.767456
0.000793 0.313202 0.769409
0.349457 0.337463 0.475098
0.500183 0.292664 0.439697
0.591217 0.193054 0.405212
0.000854 0.443604 0.679688
0.000854 0.455139 0.708435
0.337006 0.446808 0.618713
0.556366 0.414032 0.509521
0.673859 0.370789 0.491852
0.000977 0.701599 0.615326
0.106750 0.704865 0.645721
0.370117 0.646027 0.722107
0.652191 0.582428 0.628204
0.839935 0.552399 0.564117
0.306458 0.882599 0.638855
0.371338 0.869171 0.652802
0.522675 0.830139 0.687622
0.761993 0.761841 0.726257
1.000000 0.725494 0.605255
0.331421 1.000000 0.672791
0.395630 1.000000 0.686462
0.573395 1.000000 0.725830
0.797333 0.990906 0.752197
0.999786 0.958069 0.678284
0.000977 0.637115 0.999695
0.000977 0.625458 0.999664
0.000977 0.640137 0.999695
0.602600 0.497345 0.660767
0.720184 0.462524 0.662170
0.001038 0.708038 0.999725
0.001007 0.697662 0.999695
0.001038 0.713776 0.999725
0.593842 0.573242 0.744415
0.750397 0.544312 0.700470
0.001190 0.890869 0.932861
0.001190 0.885040 0.935120
0.151794 0.857544 0.999817
0.587738 0.723053 0.925507
0.820496 0.683319 0.788086
0.391205 0.970886 0.895294
0.417450 0.967865 0.905548
0.475677 0.959259 0.930817
0.629700 0.907593 0.999268
0.908234 0.841370 0.893280
0.564667 1.000000 0.872284
0.594360 1.000000 0.880890
0.682129 0.999878 0.906494
0.818298 0.998871 0.952423
0.996826 0.996826 0.996857
