Kodak Vision 320T (5277) - Look.cube
# Created by Benjamin (IWLTBAP) : http://luts.iwltbap.com
# Copyright: (C) Copyright 2010-2017 Triune Films and IWLTBAP SAS
# Cannot be resold, shared or otherwise redistributed
TITLE "Film Print Emulation LUTs Pack (Rec.709, sRGB, DCI-P3)"
LUT_3D_SIZE 33
0.000641 0.002625 0.000885
0.032928 0.003723 0.001862
0.064087 0.005219 0.002869
0.095947 0.007538 0.004089
0.128479 0.010223 0.006348
0.161530 0.014648 0.009155
0.197693 0.020447 0.012909
0.235718 0.026367 0.017578
0.272522 0.032440 0.021240
0.307648 0.038330 0.024323
0.343445 0.043945 0.027039
0.378540 0.049652 0.028625
0.413605 0.055237 0.030121
0.448547 0.060760 0.031464
0.483215 0.065887 0.032745
0.516724 0.070465 0.034180
0.549622 0.075836 0.035614
0.581512 0.081818 0.037415
0.611328 0.087616 0.039673
0.639709 0.093842 0.042267
0.666504 0.100250 0.045166
0.691742 0.106476 0.048126
0.716003 0.112518 0.050873
0.739258 0.118195 0.053314
0.761505 0.123505 0.055359
0.783051 0.128601 0.057404
0.803589 0.133301 0.059235
0.823456 0.137939 0.061005
0.842590 0.142548 0.062805
0.860992 0.147034 0.064575
0.879120 0.151611 0.066284
0.897034 0.156158 0.067932
0.915527 0.160889 0.069702
0.000641 0.027985 0.001190
0.034149 0.028839 0.001312
0.064758 0.029938 0.005127
0.096069 0.031830 0.007141
0.128296 0.034973 0.009033
0.161865 0.039581 0.011871
0.198700 0.044800 0.015594
0.237061 0.049957 0.019836
0.274567 0.054810 0.023285
0.309662 0.059174 0.025757
0.345337 0.063751 0.027954
0.380646 0.068604 0.029449
0.415771 0.073273 0.030853
0.450684 0.077454 0.031921
0.485352 0.081635 0.033203
0.518829 0.085419 0.034637
0.551758 0.090607 0.036194
0.583588 0.096405 0.037994
0.613556 0.102295 0.040527
0.641907 0.108459 0.043152
0.668610 0.114594 0.046143
0.693665 0.120544 0.049042
0.717896 0.126343 0.051727
0.741028 0.131622 0.054077
0.763214 0.136597 0.056122
0.784637 0.141449 0.058014
0.805176 0.146088 0.059875
0.824951 0.150604 0.061676
0.844025 0.155060 0.063446
0.862396 0.159515 0.065186
0.880493 0.163971 0.066956
0.898407 0.168396 0.068542
0.916870 0.173004 0.070251
0.000671 0.054016 0.002441
0.033600 0.054840 0.001373
0.065613 0.055359 0.002777
0.095978 0.056641 0.009552
0.127502 0.058746 0.012085
0.160645 0.062012 0.014496
0.197723 0.066315 0.018036
0.237427 0.070953 0.021942
0.275604 0.075287 0.024780
0.311005 0.079193 0.027039
0.346680 0.083282 0.028687
0.382568 0.087494 0.030243
0.417816 0.091492 0.031342
0.452911 0.095093 0.032379
0.487640 0.098480 0.033722
0.521057 0.102295 0.035187
0.553986 0.107483 0.037048
0.585846 0.113037 0.038940
0.616058 0.119019 0.041626
0.644379 0.125000 0.044312
0.670898 0.130798 0.047302
0.695862 0.136322 0.050110
0.719971 0.141693 0.052704
0.743011 0.146698 0.054871
0.765198 0.151489 0.056976
0.786499 0.156097 0.058929
0.806946 0.160583 0.060699
0.826630 0.164978 0.062500
0.845551 0.169403 0.064301
0.864105 0.173859 0.066040
0.882172 0.178284 0.067749
0.900024 0.182678 0.069397
0.918427 0.187073 0.071136
0.000763 0.080597 0.004272
0.031464 0.081512 0.002594
0.066437 0.081604 0.002533
0.098267 0.082336 0.003784
0.128326 0.083618 0.014587
0.160400 0.085876 0.018921
0.195709 0.089142 0.021240
0.236542 0.093628 0.024231
0.276489 0.098022 0.027008
0.312531 0.101501 0.028290
0.348724 0.105011 0.029724
0.384949 0.108978 0.030945
0.420410 0.112335 0.032104
0.455597 0.115387 0.033203
0.490448 0.118713 0.034576
0.523804 0.122711 0.036102
0.556763 0.127777 0.037994
0.588776 0.133057 0.040253
0.619171 0.138763 0.042969
0.647430 0.144318 0.045776
0.673767 0.149506 0.048706
0.698517 0.154480 0.051392
0.722473 0.159393 0.053925
0.745422 0.164062 0.056000
0.767456 0.168640 0.057983
0.788696 0.173157 0.059906
0.809021 0.177429 0.061798
0.828644 0.181763 0.063568
0.847565 0.186035 0.065369
0.865997 0.190430 0.067047
0.884094 0.194672 0.068726
0.901886 0.198883 0.070435
0.920258 0.203094 0.072205
0.000916 0.107330 0.006195
0.027740 0.108612 0.003815
0.064972 0.108887 0.003510
0.099762 0.109406 0.003021
0.131805 0.110260 0.004089
0.162811 0.111481 0.018860
0.195923 0.113953 0.025360
0.234650 0.117584 0.027161
0.275726 0.121674 0.028809
0.313629 0.125092 0.029785
0.350769 0.128448 0.030701
0.387634 0.131989 0.031891
0.423370 0.135284 0.033020
0.458771 0.138580 0.033966
0.493713 0.142365 0.035431
0.527039 0.146484 0.037323
0.560059 0.150879 0.039520
0.592255 0.155487 0.041992
0.622528 0.160431 0.044800
0.650726 0.165405 0.047699
0.676849 0.170013 0.050354
0.701508 0.174622 0.052948
0.725250 0.179138 0.055267
0.748047 0.183563 0.057404
0.769989 0.187927 0.059326
0.791077 0.192200 0.061218
0.811371 0.196442 0.063110
0.830902 0.200531 0.064880
0.849731 0.204559 0.066589
0.868103 0.208679 0.068329
0.886139 0.212769 0.070007
0.903931 0.216705 0.071625
0.922241 0.220703 0.073456
0.001068 0.134460 0.008209
0.025635 0.135712 0.004547
0.061859 0.136444 0.004211
0.098969 0.137177 0.003387
0.132477 0.138184 0.002533
0.166199 0.138794 0.005219
0.199585 0.139984 0.023254
0.235443 0.142639 0.029724
0.275299 0.146210 0.030914
0.314514 0.149628 0.031616
0.352539 0.152954 0.031921
0.390198 0.156525 0.032715
0.426514 0.160095 0.033875
0.462311 0.163818 0.035278
0.497131 0.167572 0.036865
0.530457 0.171356 0.039032
0.563477 0.174835 0.041504
0.595825 0.178864 0.044128
0.625977 0.183350 0.046783
0.654053 0.187988 0.049683
0.680084 0.192291 0.052368
0.704620 0.196625 0.054810
0.728210 0.200745 0.056824
0.750885 0.204895 0.058838
0.772736 0.209015 0.060822
0.793701 0.213013 0.062775
0.813904 0.216919 0.064606
0.833405 0.220795 0.066437
0.852051 0.224609 0.068115
0.870361 0.228485 0.069763
0.888458 0.232422 0.071442
0.906158 0.236084 0.073151
0.924438 0.239838 0.074921
0.001068 0.161774 0.009277
0.021851 0.162964 0.005066
0.057922 0.163788 0.004608
0.096710 0.164795 0.003632
0.133636 0.165741 0.002502
0.166199 0.166870 0.001801
0.202209 0.166992 0.007843
0.238739 0.168427 0.028412
0.276886 0.171478 0.032379
0.315765 0.175018 0.033173
0.353668 0.178314 0.033722
0.392426 0.181915 0.034454
0.429413 0.185425 0.035400
0.465698 0.189087 0.037018
0.500671 0.192688 0.038910
0.534058 0.196106 0.041321
0.567352 0.199524 0.043945
0.599579 0.203339 0.046692
0.629547 0.207733 0.049347
0.657532 0.212158 0.051971
0.683411 0.216217 0.054260
0.707764 0.220032 0.056610
0.731323 0.223877 0.058746
0.753876 0.227600 0.060791
0.775604 0.231354 0.062653
0.796509 0.235016 0.064606
0.816650 0.238678 0.066437
0.836029 0.242340 0.068207
0.854614 0.246002 0.069885
0.872894 0.249695 0.071503
0.890900 0.253418 0.073212
0.908539 0.256927 0.074921
0.926819 0.260468 0.076660
0.001099 0.189209 0.010254
0.018280 0.190460 0.005310
0.052673 0.191437 0.004791
0.093262 0.192413 0.003876
0.131683 0.193848 0.002808
0.168457 0.194977 0.001862
0.201599 0.195892 0.001343
0.240417 0.195496 0.011810
0.280182 0.197601 0.033142
0.318146 0.201050 0.034546
0.355743 0.204620 0.035980
0.394501 0.208130 0.037018
0.432159 0.211487 0.038269
0.468994 0.214844 0.039764
0.504272 0.218170 0.041718
0.537903 0.221466 0.044250
0.571350 0.225128 0.046936
0.603363 0.228943 0.049652
0.633179 0.233124 0.052094
0.661102 0.237152 0.054260
0.686798 0.240814 0.056641
0.710968 0.244232 0.058777
0.734406 0.247650 0.060852
0.756927 0.251190 0.062866
0.778625 0.254700 0.064758
0.799469 0.258179 0.066742
0.819550 0.261688 0.068512
0.838806 0.265167 0.070282
0.857361 0.268646 0.071960
0.875580 0.272125 0.073639
0.893433 0.275635 0.075256
0.911102 0.278992 0.077026
0.929321 0.282288 0.078705
0.001190 0.217102 0.011902
0.015259 0.218262 0.005463
0.048187 0.219269 0.004852
0.089142 0.220703 0.003998
0.128906 0.222351 0.003204
0.167053 0.223999 0.002472
0.203247 0.225281 0.001740
0.239258 0.225739 0.001465
0.281799 0.225220 0.016418
0.321625 0.227722 0.036438
0.358826 0.231384 0.038452
0.397156 0.235199 0.040436
0.435028 0.238495 0.041962
0.471985 0.241486 0.043610
0.507965 0.244812 0.045624
0.541992 0.248138 0.047852
0.575378 0.251526 0.050385
0.607239 0.255157 0.052704
0.637024 0.259094 0.055084
0.664734 0.262726 0.057159
0.690094 0.265930 0.059235
0.714172 0.269196 0.061310
0.737579 0.272583 0.063354
0.760101 0.275848 0.065338
0.781738 0.279144 0.067230
0.802521 0.282410 0.069183
0.822479 0.285675 0.070984
0.841705 0.288971 0.072632
0.860229 0.292297 0.074310
0.878357 0.295654 0.076019
0.896179 0.299042 0.077667
0.913849 0.302155 0.079315
0.932037 0.305267 0.081146
0.001343 0.245331 0.012848
0.012939 0.246429 0.006744
0.045105 0.247406 0.005341
0.085846 0.249207 0.004150
0.125916 0.251282 0.003448
0.165222 0.253204 0.002991
0.203278 0.254944 0.002533
0.239899 0.256287 0.001801
0.280365 0.256195 0.002289
0.323334 0.255432 0.022217
0.362457 0.258514 0.041809
0.400024 0.262360 0.044403
0.438232 0.266113 0.046265
0.475739 0.269379 0.048157
0.512054 0.272705 0.049957
0.546326 0.275818 0.051819
0.579773 0.278992 0.054016
0.611420 0.282379 0.056213
0.640930 0.285767 0.058441
0.668243 0.288910 0.060211
0.693512 0.291992 0.062164
0.717529 0.295166 0.064209
0.740875 0.298309 0.066193
0.763306 0.301392 0.068054
0.784912 0.304443 0.070007
0.805603 0.307526 0.071838
0.825531 0.310608 0.073608
0.844727 0.313690 0.075287
0.863190 0.316833 0.077026
0.881317 0.320068 0.078644
0.899109 0.323303 0.080322
0.916718 0.326263 0.082031
0.934937 0.329193 0.083771
0.001526 0.274475 0.013245
0.011353 0.275146 0.008789
0.044250 0.276306 0.007538
0.084045 0.278229 0.005554
0.124237 0.280548 0.003784
0.163208 0.282928 0.003479
0.201599 0.285004 0.003296
0.240143 0.286835 0.002869
0.282135 0.288544 0.001892
0.322632 0.286713 0.005280
0.365234 0.286377 0.029877
0.404175 0.290009 0.048523
0.441986 0.294006 0.050812
0.480011 0.298065 0.052826
0.516754 0.301727 0.054504
0.551025 0.304779 0.056305
0.584381 0.307800 0.058289
0.615845 0.310730 0.060181
0.644928 0.313538 0.061920
0.671997 0.316223 0.063629
0.697205 0.319031 0.065308
0.721161 0.321899 0.067230
0.744385 0.324860 0.069214
0.766724 0.327759 0.071198
0.788208 0.330597 0.073029
0.808868 0.333557 0.074799
0.828796 0.336487 0.076569
0.847870 0.339325 0.078278
0.866302 0.342316 0.079987
0.884399 0.345337 0.081635
0.902161 0.348389 0.083344
0.919769 0.351227 0.084961
0.937958 0.354065 0.086823
0.002289 0.303925 0.016357
0.013702 0.304535 0.011963
0.047089 0.305817 0.010651
0.084747 0.307892 0.008820
0.123260 0.310394 0.006592
0.162628 0.313080 0.004089
0.200378 0.315613 0.004028
0.238464 0.317810 0.003845
0.280548 0.320038 0.002869
0.328369 0.321625 0.001923
0.365997 0.318542 0.011597
0.408081 0.318634 0.038849
0.446259 0.322266 0.055328
0.484283 0.326599 0.057434
0.521332 0.330811 0.059357
0.555847 0.334290 0.061127
0.589172 0.337402 0.062714
0.620453 0.340240 0.064453
0.649353 0.342834 0.066071
0.676178 0.345276 0.067749
0.701263 0.347656 0.069275
0.725159 0.350159 0.071045
0.748169 0.352814 0.072754
0.770386 0.355347 0.074585
0.791779 0.357971 0.076324
0.812317 0.360565 0.078125
0.832092 0.363251 0.079865
0.851105 0.365967 0.081543
0.869446 0.368683 0.083252
0.887512 0.371521 0.084930
0.905243 0.374390 0.086548
0.922913 0.377228 0.088257
0.941254 0.380005 0.090027
0.004059 0.334167 0.020172
0.019989 0.334747 0.017120
0.053986 0.336304 0.015717
0.089447 0.338684 0.013733
0.126678 0.341248 0.011230
0.165070 0.344208 0.008759
0.202240 0.347015 0.006226
0.238831 0.349335 0.004944
0.277344 0.351746 0.004364
0.326691 0.355133 0.002808
0.373016 0.355408 0.004150
0.410919 0.351898 0.021210
0.451080 0.351837 0.047394
0.488708 0.355347 0.062225
0.525574 0.359497 0.064117
0.560211 0.363403 0.065796
0.594086 0.367035 0.067383
0.625427 0.370422 0.069153
0.654297 0.373322 0.070770
0.680847 0.375916 0.072510
0.705566 0.378265 0.074158
0.729431 0.380432 0.075623
0.752319 0.382660 0.077087
0.774506 0.384979 0.078796
0.795746 0.387207 0.080322
0.816132 0.389435 0.082001
0.835663 0.391724 0.083618
0.854431 0.393982 0.085144
0.872620 0.396332 0.086639
0.890594 0.398926 0.088287
0.908417 0.401642 0.089905
0.926208 0.404297 0.091583
0.944580 0.406891 0.093323
0.007782 0.365753 0.027252
0.031250 0.366486 0.025238
0.063568 0.368378 0.023224
0.096527 0.370728 0.020844
0.133270 0.373566 0.018188
0.171051 0.376617 0.015656
0.207642 0.379456 0.012787
0.243195 0.381927 0.009460
0.279022 0.384155 0.006470
0.318329 0.386658 0.004730
0.372955 0.390686 0.002777
0.417877 0.389954 0.009125
0.455444 0.386261 0.031342
0.493530 0.385437 0.055420
0.529388 0.388306 0.068726
0.564056 0.392120 0.070465
0.598206 0.396088 0.072174
0.629974 0.399994 0.074066
0.658997 0.403503 0.075684
0.685455 0.406403 0.077362
0.710083 0.408966 0.078888
0.733826 0.411407 0.080566
0.756775 0.413605 0.082092
0.778870 0.415771 0.083588
0.799896 0.417816 0.084930
0.820190 0.419830 0.086487
0.839508 0.421722 0.087891
0.858032 0.423615 0.089264
0.876190 0.425629 0.090698
0.894135 0.427765 0.092133
0.911896 0.430054 0.093597
0.929657 0.432373 0.095184
0.948059 0.434753 0.096893
0.015900 0.396454 0.036560
0.044983 0.397888 0.034363
0.073730 0.399811 0.032562
0.104828 0.402252 0.030365
0.141571 0.405212 0.027649
0.178528 0.408234 0.024658
0.214844 0.411133 0.021545
0.250061 0.413666 0.017883
0.283508 0.415405 0.013306
0.319275 0.417267 0.008270
0.364532 0.420227 0.004608
0.420563 0.423950 0.004364
0.461365 0.422394 0.019653
0.498230 0.419281 0.041077
0.534027 0.418427 0.062622
0.567963 0.421112 0.075378
0.601746 0.424652 0.077209
0.633759 0.428467 0.078979
0.663025 0.432037 0.080658
0.689545 0.435059 0.082184
0.714233 0.437836 0.083771
0.738037 0.440460 0.085297
0.761078 0.442993 0.086823
0.783081 0.445282 0.088318
0.804016 0.447388 0.089661
0.824249 0.449554 0.091034
0.843567 0.451477 0.092316
0.862091 0.453308 0.093658
0.880219 0.455200 0.095032
0.897919 0.456909 0.096313
0.915497 0.458771 0.097656
0.933228 0.460815 0.099182
0.951660 0.463074 0.100922
0.029816 0.426544 0.044586
0.057831 0.428345 0.042511
0.084045 0.430298 0.040863
0.114532 0.432983 0.039154
0.149994 0.435944 0.036591
0.185974 0.438782 0.034241
0.221954 0.441711 0.031158
0.257050 0.444244 0.027557
0.290070 0.446014 0.022980
0.323639 0.447601 0.017212
0.360199 0.449371 0.009583
0.417847 0.453613 0.003784
0.464813 0.455170 0.010864
0.503082 0.452942 0.030396
0.538300 0.450287 0.049500
0.572327 0.450348 0.069916
0.605438 0.452942 0.082306
0.637268 0.456268 0.084015
0.666626 0.459656 0.085663
0.693298 0.462708 0.087158
0.718109 0.465637 0.088715
0.741913 0.468445 0.090179
0.765015 0.471191 0.091614
0.787140 0.473846 0.092896
0.808258 0.476471 0.094360
0.828583 0.479004 0.095734
0.847809 0.481171 0.096954
0.866302 0.483093 0.098145
0.884308 0.484833 0.099426
0.901886 0.486389 0.100647
0.919312 0.488007 0.101929
0.936951 0.489838 0.103394
0.955231 0.491730 0.105103
0.045746 0.456787 0.051727
0.070312 0.458557 0.050171
0.094971 0.460693 0.048889
0.125000 0.463379 0.047211
0.159241 0.466309 0.045197
0.193939 0.469177 0.043243
0.229675 0.472168 0.040894
0.264740 0.474701 0.037872
0.298126 0.476746 0.034058
0.330353 0.478302 0.029144
0.364197 0.479645 0.022003
0.411835 0.482086 0.008118
0.466461 0.485901 0.007751
0.507294 0.486115 0.022339
0.542664 0.483368 0.040100
0.576263 0.480438 0.056824
0.609222 0.481171 0.077606
0.640747 0.483917 0.089020
0.669952 0.486969 0.090546
0.696716 0.490112 0.092010
0.721680 0.493164 0.093536
0.745575 0.496094 0.094940
0.768860 0.499207 0.096283
0.791229 0.502228 0.097565
0.812500 0.505157 0.098907
0.832794 0.507965 0.100098
0.852051 0.510437 0.101196
0.870483 0.512512 0.102356
0.888306 0.514252 0.103546
0.905670 0.515808 0.104706
0.923004 0.517303 0.105927
0.940552 0.518921 0.107361
0.958832 0.520569 0.108978
0.060394 0.486908 0.059601
0.082031 0.488678 0.058228
0.106201 0.490875 0.057037
0.135864 0.493469 0.055359
0.169006 0.496246 0.053741
0.203156 0.499146 0.051849
0.237976 0.502167 0.049744
0.272461 0.504883 0.047394
0.305725 0.506927 0.044098
0.337219 0.508484 0.040314
0.370087 0.509949 0.035034
0.407715 0.511444 0.024994
0.466766 0.515076 0.009003
0.510742 0.517517 0.016449
0.547394 0.516632 0.033295
0.580780 0.513367 0.048492
0.612946 0.510925 0.063812
0.644287 0.512115 0.085327
0.673431 0.514771 0.095093
0.700012 0.517761 0.096405
0.725128 0.520874 0.097870
0.749207 0.524017 0.099304
0.772583 0.527161 0.100586
0.794983 0.530334 0.101807
0.816345 0.533325 0.103058
0.836639 0.536285 0.104156
0.855957 0.539001 0.105225
0.874451 0.541412 0.106262
0.892212 0.543304 0.107422
0.909363 0.544922 0.108612
0.926544 0.546295 0.109711
0.943970 0.547638 0.110779
0.962189 0.549164 0.111938
0.073700 0.517059 0.067383
0.094452 0.518829 0.066132
0.118774 0.521088 0.064941
0.147827 0.523590 0.063171
0.179443 0.526337 0.061462
0.213013 0.529236 0.059479
0.246979 0.532104 0.057556
0.280396 0.534637 0.055573
0.313141 0.536743 0.053009
0.344574 0.538483 0.049957
0.376343 0.540009 0.046051
0.410217 0.541412 0.039520
0.466705 0.544617 0.023071
0.513763 0.547150 0.014465
0.551666 0.548492 0.028381
0.586151 0.546661 0.043365
0.617310 0.543304 0.056366
0.647614 0.541870 0.070557
0.676910 0.543457 0.090820
0.703644 0.546112 0.098694
0.728607 0.549133 0.102051
0.752777 0.552124 0.103455
0.776184 0.555237 0.104675
0.798615 0.558350 0.105927
0.820099 0.561432 0.107147
0.840363 0.564484 0.108276
0.859741 0.567474 0.109406
0.878357 0.570160 0.110504
0.895996 0.572205 0.111359
0.912994 0.573761 0.112152
0.930023 0.575134 0.113007
0.947388 0.576477 0.113983
0.965607 0.578064 0.115112
0.087952 0.547058 0.074554
0.108429 0.548889 0.073364
0.131836 0.550934 0.071991
0.159424 0.553345 0.070343
0.189850 0.556000 0.068542
0.222565 0.558899 0.066528
0.255829 0.561707 0.064819
0.288513 0.564117 0.063049
0.320709 0.566376 0.061005
0.352173 0.568268 0.058563
0.383148 0.569794 0.055634
0.415009 0.571136 0.051239
0.465424 0.574219 0.040375
0.516815 0.577118 0.025238
0.556366 0.579224 0.027069
0.591339 0.579132 0.040344
0.622803 0.576660 0.052490
0.651978 0.574005 0.063995
0.680115 0.573395 0.077271
0.707184 0.575195 0.093292
0.732300 0.577850 0.102997
0.756348 0.580658 0.107849
0.779785 0.583557 0.109070
0.802307 0.586609 0.110321
0.823822 0.589722 0.111481
0.844116 0.592743 0.112488
0.863434 0.595612 0.113373
0.881927 0.598267 0.114197
0.899567 0.600586 0.115082
0.916595 0.602386 0.115814
0.933624 0.603943 0.116577
0.950928 0.605347 0.117493
0.969147 0.606873 0.118530
0.103302 0.577332 0.081024
0.122986 0.579071 0.079926
0.145142 0.580994 0.078674
0.171509 0.583313 0.077087
0.200989 0.585815 0.075317
0.232697 0.588562 0.073608
0.264801 0.591248 0.072083
0.296814 0.593689 0.070587
0.328766 0.596039 0.068726
0.360077 0.598114 0.066620
0.389893 0.599487 0.064148
0.421143 0.600952 0.061005
0.462494 0.603607 0.054382
0.519897 0.607391 0.040588
0.560760 0.609741 0.033997
0.596680 0.610779 0.040070
0.628540 0.609619 0.050690
0.657196 0.607056 0.060913
0.684235 0.605316 0.071472
0.710358 0.605408 0.083374
0.735809 0.607086 0.096954
0.760010 0.609558 0.107849
0.783417 0.612335 0.113922
0.805878 0.615112 0.114807
0.827362 0.617981 0.115784
0.847565 0.620758 0.116638
0.866943 0.623566 0.117401
0.885376 0.626221 0.118164
0.902985 0.628815 0.119019
0.920013 0.630890 0.119781
0.937012 0.632568 0.120544
0.954254 0.633911 0.121429
0.972351 0.635254 0.122437
0.119171 0.608124 0.087341
0.137848 0.609802 0.086334
0.159363 0.611694 0.085175
0.184906 0.613861 0.083832
0.213623 0.616272 0.082367
0.244049 0.618896 0.081024
0.274841 0.621429 0.079773
0.306335 0.623962 0.078339
0.337738 0.626465 0.076752
0.368744 0.628510 0.074829
0.397858 0.629913 0.072601
0.428253 0.631348 0.069946
0.462860 0.633392 0.065643
0.522064 0.638000 0.054932
0.564758 0.640472 0.045624
0.601868 0.642242 0.044128
0.634125 0.642212 0.050934
0.662872 0.640564 0.059967
0.689178 0.638458 0.068756
0.714355 0.637268 0.078186
0.739044 0.637329 0.088715
0.763397 0.638763 0.100250
0.786865 0.641144 0.112274
0.809235 0.643707 0.119781
0.830688 0.646240 0.120514
0.850830 0.648773 0.121246
0.870148 0.651489 0.122009
0.888733 0.654236 0.122742
0.906281 0.656830 0.123505
0.923309 0.659241 0.124298
0.940186 0.661011 0.125092
0.957245 0.662323 0.125977
0.975128 0.663513 0.127075
0.135132 0.639709 0.094147
0.153442 0.641296 0.093353
0.174652 0.643005 0.092438
0.199554 0.645050 0.091431
0.227173 0.647430 0.090332
0.256134 0.649963 0.089264
0.285950 0.652435 0.088104
0.316559 0.654968 0.086853
0.347290 0.657410 0.085388
0.377777 0.659454 0.083466
0.407074 0.661011 0.081360
0.436523 0.662445 0.079010
0.467285 0.664032 0.075775
0.523163 0.668579 0.067749
0.568451 0.671295 0.058777
0.606201 0.673157 0.051727
0.639252 0.674042 0.053162
0.668427 0.673645 0.060120
0.694672 0.672180 0.067810
0.719238 0.670563 0.075470
0.743134 0.669373 0.083618
0.766724 0.669128 0.092773
0.790039 0.670227 0.102783
0.812469 0.672424 0.115814
0.834015 0.674652 0.121735
0.854004 0.677155 0.126465
0.873230 0.679626 0.127258
0.891846 0.682373 0.128113
0.909363 0.685028 0.128937
0.926331 0.687592 0.129852
0.943176 0.689575 0.130707
0.960052 0.690918 0.131683
0.977692 0.691986 0.132782
0.151947 0.671692 0.102448
0.169830 0.673096 0.101746
0.190552 0.674683 0.101044
0.214417 0.676666 0.100159
0.240601 0.678864 0.099182
0.268280 0.681274 0.098145
0.297302 0.683777 0.097046
0.327240 0.686310 0.095825
0.357178 0.688599 0.094330
0.386993 0.690582 0.092468
0.415985 0.692139 0.090210
0.444672 0.693481 0.087952
0.473480 0.694916 0.085236
0.521027 0.698639 0.079376
0.571167 0.701843 0.070190
0.610504 0.704102 0.063263
0.643738 0.704987 0.057373
0.673187 0.705627 0.060944
0.699829 0.705292 0.067810
0.724487 0.704224 0.074493
0.748077 0.702911 0.081299
0.771179 0.701691 0.088409
0.793549 0.701172 0.096405
0.815613 0.701874 0.105164
0.837128 0.703583 0.115753
0.857147 0.705750 0.124451
0.876251 0.708191 0.132904
0.894623 0.710754 0.133911
0.912109 0.713470 0.135010
0.929077 0.715942 0.136047
0.945770 0.718048 0.137085
0.962585 0.719391 0.138153
0.979980 0.720459 0.139343
0.169312 0.703339 0.111206
0.186737 0.704651 0.110535
0.206573 0.706299 0.109833
0.229187 0.708008 0.108856
0.253906 0.709991 0.107819
0.280670 0.712341 0.106720
0.308960 0.714844 0.105591
0.337952 0.717255 0.104248
0.367035 0.719391 0.102478
0.396271 0.721191 0.100128
0.424896 0.722778 0.097870
0.452881 0.724121 0.095642
0.481323 0.725494 0.093292
0.519012 0.728058 0.089142
0.572754 0.732147 0.081116
0.613647 0.734436 0.073486
0.647522 0.735809 0.068115
0.677216 0.736511 0.064209
0.704407 0.737396 0.068542
0.729706 0.737335 0.074768
0.753418 0.736481 0.080841
0.776031 0.735260 0.086914
0.797913 0.734070 0.093109
0.819031 0.733185 0.100006
0.839874 0.733459 0.107880
0.859863 0.734802 0.116425
0.879028 0.736908 0.128143
0.897278 0.739258 0.134338
0.914520 0.741791 0.141205
0.931458 0.744232 0.142303
0.948090 0.746338 0.143402
0.964813 0.747742 0.144592
0.982056 0.748749 0.145935
0.187103 0.734528 0.119080
0.203339 0.735748 0.118469
0.221985 0.737152 0.117737
0.243256 0.738800 0.116791
0.267029 0.740662 0.115662
0.292969 0.742920 0.114532
0.320435 0.745300 0.113312
0.348358 0.747559 0.111786
0.376801 0.749603 0.109680
0.405457 0.751404 0.107117
0.433777 0.753021 0.104706
0.461334 0.754364 0.102509
0.489258 0.755676 0.100342
0.519714 0.757263 0.097443
0.572327 0.761566 0.091309
0.615448 0.764252 0.083832
0.650940 0.766205 0.078033
0.680817 0.767059 0.073120
0.708038 0.767975 0.071503
0.733826 0.768738 0.076141
0.757935 0.768616 0.081757
0.780701 0.767944 0.087219
0.802338 0.766846 0.092560
0.823120 0.765747 0.097900
0.843109 0.764923 0.103821
0.862549 0.764954 0.110596
0.881317 0.765961 0.118073
0.899353 0.767700 0.126862
0.916595 0.770081 0.136780
0.933533 0.772522 0.144012
0.950043 0.774689 0.149933
0.966644 0.775970 0.151184
0.983856 0.776978 0.152588
0.203949 0.765198 0.126556
0.219177 0.766327 0.126068
0.236847 0.767609 0.125366
0.257141 0.769135 0.124390
0.280060 0.770966 0.123352
0.305084 0.773041 0.122223
0.331665 0.775269 0.120850
0.358917 0.777405 0.118988
0.386719 0.779419 0.116516
0.414856 0.781311 0.113800
0.442902 0.782959 0.111359
0.470062 0.784332 0.109100
0.496979 0.785400 0.107117
0.523987 0.786407 0.104767
0.570923 0.790283 0.100342
0.616180 0.793579 0.094299
0.653442 0.795868 0.087982
0.684204 0.797058 0.083466
0.711212 0.797852 0.078979
0.736938 0.798737 0.078949
0.761658 0.799469 0.083557
