Kodak 16mm (Variant) - Only color.cube
# Created by Benjamin (IWLTBAP) : http://luts.iwltbap.com
# Copyright: (C) Copyright 2010-2017 Triune Films and IWLTBAP SAS
# Cannot be resold, shared or otherwise redistributed
TITLE "Film Print Emulation LUTs Pack (Rec.709, sRGB, DCI-P3)"
LUT_3D_SIZE 9
0.000000 0.000000 0.000031
0.112000 0.006958 0.013794
0.263855 0.004028 0.020752
0.401215 0.000366 0.035675
0.519135 0.000000 0.045746
0.625580 0.000000 0.066833
0.714081 0.000000 0.089142
0.794952 0.000000 0.116119
0.819183 0.000000 0.125031
0.032806 0.094574 0.033295
0.108917 0.074585 0.028992
0.242157 0.057800 0.022736
0.377960 0.031342 0.031677
0.500549 0.011627 0.045746
0.609039 0.002289 0.056885
0.700531 0.000092 0.070312
0.787476 0.000000 0.095978
0.820953 0.000000 0.108154
0.098633 0.179535 0.052338
0.132751 0.167603 0.048798
0.235687 0.172485 0.049500
0.367615 0.160278 0.042725
0.491211 0.120209 0.033386
0.598877 0.069305 0.044983
0.702087 0.028198 0.063843
0.784149 0.012085 0.071442
0.822632 0.006348 0.072540
0.128235 0.254852 0.076385
0.149841 0.243195 0.072052
0.217346 0.242584 0.070374
0.360199 0.275757 0.077972
0.499756 0.268555 0.063934
0.597351 0.231506 0.034943
0.696716 0.187958 0.045685
0.785828 0.138458 0.065125
0.836823 0.096863 0.062012
0.143555 0.339355 0.110870
0.170410 0.329803 0.106079
0.229645 0.324402 0.103058
0.317627 0.327454 0.102661
0.482880 0.366150 0.107544
0.612885 0.364685 0.090332
0.708862 0.327698 0.066925
0.786987 0.292694 0.037994
0.854584 0.257660 0.050720
0.201263 0.460022 0.154846
0.236115 0.451782 0.151672
0.296814 0.449249 0.149963
0.383759 0.448273 0.147888
0.478882 0.441345 0.141846
0.617401 0.474976 0.142853
0.742157 0.467621 0.121796
0.814331 0.428680 0.105164
0.881073 0.389618 0.078369
0.321106 0.570221 0.190155
0.349304 0.573761 0.190796
0.389435 0.580933 0.192474
0.465668 0.591309 0.194855
0.534210 0.575226 0.189056
0.622223 0.559540 0.180176
0.741669 0.580261 0.174561
0.831024 0.561401 0.151947
0.904266 0.514862 0.114410
0.446930 0.704895 0.233368
0.464752 0.709442 0.234741
0.503113 0.724701 0.239105
0.574707 0.744080 0.244171
0.643066 0.740601 0.242859
0.710144 0.733612 0.239899
0.791718 0.726837 0.234375
0.863068 0.707397 0.214203
0.950867 0.664673 0.178589
0.577881 0.910370 0.284180
0.608124 0.918610 0.285339
0.665405 0.931854 0.287476
0.755096 0.953125 0.291931
0.809601 0.956421 0.293854
0.877228 0.958588 0.301788
0.958374 0.963623 0.318115
0.976044 0.931793 0.314758
0.973419 0.856812 0.294098
0.009521 0.051788 0.178162
0.115479 0.039764 0.160370
0.265167 0.026123 0.127655
0.410980 0.026062 0.115112
0.537079 0.016541 0.116486
0.650909 0.007202 0.125031
0.754028 0.002136 0.138519
0.839783 0.000000 0.161865
0.878754 0.000000 0.172668
0.030396 0.121552 0.122437
0.128876 0.117310 0.128662
0.261871 0.107483 0.120361
0.399597 0.093719 0.100800
0.527466 0.067474 0.105621
0.645325 0.028992 0.110413
0.745544 0.013519 0.118561
0.830566 0.005615 0.136322
0.879669 0.002716 0.148651
0.062256 0.200226 0.083954
0.132141 0.196869 0.093140
0.262177 0.210388 0.119690
0.398895 0.202362 0.114075
0.521790 0.172485 0.085693
0.640106 0.138763 0.092041
0.744690 0.095428 0.109283
0.826416 0.047760 0.112549
0.874451 0.032745 0.106628
0.103821 0.274597 0.088074
0.145233 0.268677 0.085327
0.234558 0.269226 0.088440
0.385620 0.302307 0.118652
0.526581 0.297668 0.121765
0.635071 0.264709 0.089935
0.734772 0.233154 0.082367
0.827179 0.191040 0.102081
0.882568 0.155182 0.098969
0.137177 0.369507 0.124451
0.173523 0.366028 0.122101
0.254028 0.361176 0.119019
0.343628 0.355499 0.115875
0.506531 0.392822 0.136169
0.636932 0.392456 0.137482
0.743561 0.355713 0.116882
0.824768 0.323425 0.079895
0.892883 0.292145 0.078369
0.196106 0.492035 0.166626
0.245941 0.492371 0.165863
0.320587 0.490814 0.164093
0.410126 0.482544 0.159363
0.501526 0.466888 0.150635
0.642395 0.493988 0.161255
0.764557 0.489227 0.160736
0.841614 0.453522 0.144104
0.913116 0.415466 0.108551
0.298187 0.611572 0.203644
0.345520 0.619110 0.205505
0.407349 0.627716 0.207733
0.490448 0.631317 0.208008
0.556732 0.607910 0.198914
0.653168 0.591156 0.189270
0.774200 0.608398 0.185577
0.858887 0.586853 0.172668
0.939178 0.539032 0.149109
0.428131 0.753845 0.249146
0.468628 0.767639 0.252777
0.527618 0.785980 0.257599
0.617126 0.796356 0.259277
0.682770 0.782928 0.255585
0.754517 0.777954 0.253845
0.837952 0.769653 0.249115
0.911011 0.746765 0.232971
0.955170 0.695648 0.206543
0.611511 0.950043 0.293762
0.655579 0.951385 0.294678
0.711456 0.954254 0.298492
0.781860 0.955505 0.303711
0.831635 0.957001 0.312286
0.915741 0.959961 0.326385
0.970245 0.964813 0.339264
0.981567 0.961304 0.347595
0.979919 0.921753 0.332916
0.001068 0.103790 0.350861
0.044159 0.092590 0.346954
0.206390 0.062897 0.316284
0.335663 0.032104 0.249207
0.494598 0.040466 0.224152
0.647705 0.069214 0.237152
0.769379 0.084747 0.243744
0.882843 0.073425 0.253235
0.946014 0.061859 0.260406
0.009399 0.141510 0.289886
0.074280 0.139923 0.293427
0.211029 0.128021 0.278992
0.343994 0.106049 0.245087
0.502655 0.113098 0.225647
0.650421 0.133942 0.229248
0.769165 0.136566 0.236664
0.877197 0.115692 0.235931
0.941010 0.090454 0.228760
0.029633 0.210083 0.208313
0.109863 0.216858 0.226715
0.253845 0.239868 0.256561
0.390137 0.242218 0.254089
0.527893 0.229797 0.240845
0.662415 0.223602 0.219971
0.771790 0.206909 0.218658
0.873627 0.179596 0.215546
0.935852 0.151093 0.197754
0.080261 0.302490 0.184906
0.118958 0.299377 0.185303
0.243439 0.308868 0.203491
0.418518 0.349609 0.256897
0.554596 0.346283 0.257660
0.668701 0.319458 0.232605
0.772064 0.297241 0.197540
0.874084 0.269348 0.199829
0.942993 0.242310 0.190765
0.137451 0.410095 0.199585
0.166046 0.410858 0.196442
0.261871 0.409027 0.193909
0.374725 0.404999 0.192871
0.540314 0.436066 0.242828
0.667938 0.432892 0.248291
0.776031 0.407135 0.237030
0.864899 0.369720 0.193939
0.938477 0.332703 0.160767
0.194458 0.519928 0.224274
0.219238 0.522186 0.217499
0.306976 0.521973 0.210297
0.416016 0.506439 0.195435
0.516083 0.491730 0.195465
0.656097 0.512512 0.236542
0.772858 0.505157 0.240692
0.857788 0.472565 0.215088
0.937317 0.441681 0.181641
0.261444 0.637207 0.226135
0.291107 0.645294 0.228668
0.395569 0.657928 0.231628
0.494385 0.657562 0.229553
0.569733 0.630524 0.216858
0.670502 0.610565 0.216492
0.792572 0.626709 0.241028
0.879974 0.605652 0.240997
0.941528 0.563477 0.215424
0.379364 0.793335 0.268524
0.456635 0.811127 0.278076
0.554718 0.837921 0.294067
0.656555 0.843506 0.301666
0.718323 0.824951 0.299652
0.788818 0.813477 0.299774
0.882507 0.810272 0.310638
0.942169 0.786011 0.306732
0.952850 0.732635 0.285889
0.610199 0.950836 0.331360
0.662476 0.951569 0.336700
0.729279 0.952576 0.344757
0.795990 0.953979 0.352081
0.851898 0.955750 0.360596
0.940033 0.960480 0.372650
0.968262 0.964417 0.380951
0.978119 0.965973 0.390106
0.987488 0.963898 0.392181
0.000000 0.142456 0.508911
0.017120 0.134644 0.512939
0.131195 0.128235 0.498077
0.293182 0.095520 0.443512
0.408112 0.041840 0.347565
0.510162 0.036682 0.297089
0.670258 0.050140 0.304047
0.846619 0.115387 0.326965
0.958435 0.140778 0.336945
0.000214 0.177002 0.453888
0.035400 0.175323 0.457855
0.153381 0.170715 0.450745
0.285858 0.149933 0.415009
0.407806 0.097321 0.342010
0.528992 0.072571 0.300476
0.690552 0.111725 0.307251
0.852631 0.170654 0.325470
0.967377 0.196198 0.323975
0.002380 0.204926 0.337738
0.043488 0.218719 0.360168
0.174683 0.235077 0.383484
0.298828 0.228119 0.371704
0.423431 0.211151 0.338165
0.571777 0.215057 0.322601
0.732086 0.240631 0.326965
0.877563 0.253906 0.322052
0.972015 0.251709 0.312347
0.034576 0.283600 0.283508
0.077667 0.285797 0.290558
0.210083 0.309937 0.326080
0.379608 0.362732 0.382507
0.516510 0.366730 0.382477
0.648987 0.360474 0.368805
0.777924 0.355133 0.350769
0.904205 0.337372 0.321808
0.978424 0.314789 0.296417
0.144867 0.436340 0.333862
0.178009 0.436615 0.336029
0.259369 0.438538 0.340851
0.398132 0.455627 0.358032
0.558807 0.488220 0.398468
0.686493 0.483948 0.388397
0.799194 0.464172 0.368225
0.904510 0.431915 0.332916
0.969330 0.397583 0.294373
0.205414 0.550293 0.362427
0.233429 0.549713 0.360046
0.291595 0.547272 0.353119
0.417633 0.533905 0.338562
0.533264 0.529327 0.340576
0.680481 0.553253 0.369415
0.791534 0.540100 0.356018
0.887543 0.505707 0.325897
0.945587 0.473145 0.289978
0.241577 0.641174 0.329987
0.266632 0.644684 0.331970
0.327179 0.650848 0.330292
0.446228 0.648041 0.325348
0.544586 0.629517 0.314941
0.658417 0.613953 0.316895
0.780457 0.625092 0.327393
0.873138 0.601379 0.313293
0.911743 0.569366 0.293243
0.327118 0.796906 0.346588
0.364502 0.811493 0.359711
0.508453 0.835968 0.377625
0.624084 0.845612 0.388123
0.709412 0.835297 0.389740
0.794800 0.827057 0.388580
0.891174 0.822968 0.397736
0.935486 0.796448 0.387787
0.943542 0.745300 0.350250
0.544525 0.943512 0.404419
0.614044 0.945129 0.410645
0.699005 0.947693 0.416901
0.778320 0.951019 0.425232
0.847473 0.955322 0.433411
0.938324 0.961670 0.441559
0.959930 0.964813 0.447784
0.973694 0.966949 0.453247
0.988342 0.967743 0.455627
0.000000 0.172302 0.635681
0.006989 0.169006 0.644379
0.094910 0.169647 0.634949
0.247559 0.158142 0.591125
0.379761 0.121582 0.526123
0.487213 0.060120 0.448364
0.554565 0.041840 0.362488
0.672394 0.039642 0.342255
0.793335 0.048859 0.362518
0.000000 0.210022 0.591217
0.015594 0.210907 0.596954
0.108826 0.211884 0.596344
0.248993 0.203583 0.569061
0.372925 0.179047 0.517609
0.486237 0.120056 0.439667
0.559479 0.050171 0.360229
0.694763 0.052887 0.346771
0.862183 0.120819 0.370819
0.000092 0.257416 0.518433
0.028076 0.262787 0.529602
0.124969 0.268433 0.541199
0.262817 0.260101 0.528625
0.369904 0.243042 0.492706
0.479950 0.205902 0.424530
0.580322 0.158356 0.369110
0.745270 0.169800 0.361847
0.945709 0.248047 0.383850
0.000244 0.247253 0.352203
0.011353 0.258850 0.382294
0.102692 0.287964 0.427399
0.273743 0.317566 0.469330
0.387543 0.315674 0.453705
0.506836 0.308289 0.423706
0.660675 0.317383 0.416565
0.823090 0.335236 0.423218
0.985443 0.356781 0.423920
0.056702 0.384644 0.399078
0.105621 0.386017 0.401031
0.168976 0.394958 0.410156
0.335541 0.432404 0.456818
0.505005 0.485809 0.509155
0.634949 0.492493 0.505066
0.767090 0.489929 0.493561
0.908112 0.477448 0.470490
0.997040 0.453918 0.435333
0.196045 0.570892 0.488586
0.229462 0.570740 0.488098
0.276459 0.573792 0.488708
0.399933 0.574829 0.488190
0.543365 0.591461 0.507324
0.698059 0.615601 0.529663
0.808075 0.600647 0.507446
0.927612 0.563873 0.468536
0.976013 0.528168 0.423096
0.243927 0.683380 0.477753
0.271912 0.685364 0.479797
0.308594 0.686981 0.478973
0.419067 0.685272 0.478241
0.542694 0.671112 0.467346
0.669586 0.661560 0.468933
0.786407 0.662109 0.464081
0.887695 0.636108 0.433929
0.932190 0.608582 0.409546
0.282288 0.782318 0.439270
0.316895 0.793030 0.450897
0.359283 0.810455 0.467194
0.532593 0.828796 0.478394
0.658203 0.832031 0.486511
0.765961 0.831238 0.488983
0.866638 0.823090 0.488586
0.913269 0.796570 0.475555
0.930664 0.752502 0.440430
0.387787 0.922729 0.480408
0.501160 0.928741 0.485657
0.606415 0.934113 0.494537
0.715942 0.940613 0.502869
0.812012 0.947998 0.511749
0.900482 0.955566 0.520752
0.944336 0.959839 0.521545
0.965485 0.963531 0.522705
0.986267 0.967255 0.521149
0.000000 0.196472 0.742462
0.004791 0.197968 0.752930
0.086578 0.202179 0.749207
0.199432 0.199219 0.723297
0.346008 0.186371 0.675446
0.469177 0.151642 0.616669
0.560150 0.076752 0.528503
0.641113 0.056976 0.459290
0.712372 0.054382 0.417664
0.000000 0.238983 0.715668
0.005493 0.241364 0.723572
0.092285 0.246918 0.729218
0.194214 0.244232 0.711670
0.342255 0.233154 0.668152
0.465790 0.207825 0.606964
0.558960 0.143066 0.528381
0.648315 0.078094 0.463593
0.739136 0.055389 0.411591
0.000000 0.292053 0.671631
0.017029 0.295013 0.679169
0.113922 0.299835 0.688385
0.209442 0.295288 0.679535
0.345032 0.284576 0.641479
0.459045 0.265045 0.591034
0.554596 0.224365 0.518066
0.660309 0.170441 0.466614
0.779938 0.145813 0.420746
0.000000 0.307648 0.535034
0.012634 0.321198 0.569977
0.114685 0.340546 0.604248
0.218292 0.349304 0.622498
0.354797 0.339996 0.597504
0.464691 0.327911 0.558990
0.566650 0.309021 0.514313
0.693573 0.289734 0.480591
0.845551 0.298035 0.467560
0.000763 0.341248 0.468628
0.011932 0.347626 0.482605
0.094482 0.363434 0.505524
0.221802 0.399384 0.542999
0.393890 0.430450 0.573242
0.513947 0.438904 0.562195
0.635437 0.435333 0.541351
0.777496 0.430969 0.525024
0.959473 0.445496 0.522186
0.091888 0.519287 0.550568
0.153870 0.525635 0.551849
0.213989 0.529816 0.552521
0.321777 0.535492 0.555206
0.473694 0.565094 0.588348
0.632538 0.609436 0.633026
0.756409 0.603302 0.614532
0.883881 0.584991 0.584625
0.996948 0.564697 0.550903
0.242340 0.727417 0.614441
0.273438 0.729950 0.622070
0.315216 0.733734 0.629120
0.395294 0.732178 0.631256
0.527527 0.723907 0.622650
0.674713 0.726074 0.629639
0.804962 0.725555 0.629089
0.932098 0.698151 0.589142
0.978180 0.669098 0.555054
0.276398 0.827240 0.576874
0.312775 0.835815 0.586151
0.352051 0.849182 0.601990
0.430084 0.855438 0.606995
0.598053 0.855347 0.608124
0.731750 0.853760 0.610199
0.836304 0.836945 0.601898
0.924957 0.810059 0.580994
0.952545 0.777771 0.555084
0.335480 0.913239 0.572357
0.368591 0.915436 0.572052
0.444489 0.922363 0.581146
0.600800 0.932892 0.596130
0.732513 0.942017 0.603271
0.846893 0.952972 0.619720
0.915314 0.957886 0.616302
0.957397 0.961914 0.612030
0.983643 0.966583 0.608002
0.000000 0.216858 0.825317
0.002686 0.220001 0.828827
0.076355 0.226257 0.822784
0.180573 0.230438 0.804291
0.320892 0.226471 0.770386
0.439423 0.213715 0.733459
0.549377 0.171387 0.681732
0.651459 0.117523 0.625580
0.733582 0.080383 0.560059
0.000000 0.264923 0.812653
0.002625 0.268250 0.817688
0.073059 0.275421 0.820740
0.181061 0.276825 0.811737
0.317291 0.271301 0.778473
0.439880 0.260010 0.738617
0.549438 0.234009 0.689941
0.656036 0.194641 0.633118
0.748230 0.138062 0.563599
0.000000 0.316956 0.792542
0.007507 0.320770 0.798004
0.096008 0.326477 0.803436
0.191315 0.325928 0.802765
0.319489 0.320129 0.778198
0.439789 0.311920 0.740936
0.555511 0.293793 0.692444
0.663239 0.269928 0.636353
0.760925 0.230743 0.570099
0.000000 0.368164 0.723419
0.010345 0.375946 0.743378
0.116638 0.389404 0.766418
0.206848 0.393860 0.776520
0.336090 0.389709 0.767548
0.460480 0.383423 0.739441
0.568970 0.367340 0.697906
0.676758 0.342621 0.640289
0.778534 0.315063 0.580261
0.000000 0.397308 0.634949
0.007507 0.410828 0.666199
0.116608 0.436279 0.698944
0.222870 0.462402 0.733826
0.364502 0.472626 0.747009
0.493073 0.471130 0.735474
0.596375 0.459625 0.699158
0.702515 0.435364 0.644867
0.812714 0.408875 0.594360
0.006073 0.496368 0.651978
0.052795 0.502014 0.660461
0.149902 0.509216 0.667816
0.224976 0.517120 0.674805
0.373993 0.538177 0.698151
0.530945 0.567413 0.731293
0.650299 0.564178 0.709717
0.760010 0.545929 0.671631
0.911591 0.534851 0.639038
0.171265 0.699829 0.702240
0.220215 0.703064 0.708984
0.268799 0.707214 0.716919
0.324738 0.707855 0.723999
0.475006 0.701782 0.718323
0.606903 0.714600 0.736755
0.759979 0.734009 0.756256
0.879150 0.712494 0.724365
0.993652 0.692078 0.690125
0.278168 0.892059 0.732147
0.314789 0.897217 0.741089
0.352417 0.904663 0.758240
0.424408 0.911713 0.766174
0.556244 0.902985 0.759918
0.686218 0.901245 0.762848
0.817139 0.885712 0.757019
0.949615 0.855621 0.736816
0.990112 0.821045 0.704865
0.323822 0.958069 0.728394
0.353455 0.956970 0.723816
0.398895 0.960632 0.731781
0.497253 0.966766 0.746399
0.646515 0.968262 0.741730
0.780640 0.973297 0.747955
0.898743 0.976898 0.744354
0.959351 0.978424 0.731140
0.992920 0.980988 0.722412
0.000000 0.236176 0.875854
0.000000 0.239044 0.878265
0.042297 0.246857 0.876251
0.155212 0.253357 0.859100
0.269562 0.256805 0.830200
0.396820 0.253021 0.797546
0.515747 0.233429 0.757019
0.624298 0.206573 0.718903
0.713867 0.173096 0.689209
0.000000 0.284821 0.873505
0.000000 0.287994 0.873901
0.031555 0.295044 0.874329
0.150238 0.298950 0.865662
0.261658 0.297882 0.838257
0.398163 0.293152 0.802948
0.517395 0.280945 0.767456
0.627930 0.265869 0.730042
0.722931 0.242065 0.701050
0.000000 0.334106 0.866730
0.000488 0.335846 0.865265
0.047760 0.342499 0.863068
0.161346 0.345642 0.858673
0.254303 0.346985 0.843719
0.400970 0.342621 0.812225
0.523132 0.333954 0.780060
0.635254 0.321808 0.745026
0.737976 0.301270 0.709442
0.000000 0.400635 0.841156
0.002533 0.402283 0.843872
0.072662 0.410706 0.848816
0.179077 0.415924 0.850769
0.264099 0.418121 0.847626
0.422028 0.416260 0.826019
0.538788 0.408539 0.798218
0.653992 0.393463 0.765930
0.755402 0.369659 0.725311
0.000000 0.449554 0.798920
0.006012 0.457367 0.811554
0.099640 0.472046 0.827454
0.202148 0.488068 0.841675
0.290985 0.498810 0.849884
0.450623 0.499207 0.844421
0.566071 0.494049 0.819122
0.677032 0.477997 0.787140
0.773651 0.451630 0.737366
0.000000 0.503235 0.765564
0.008820 0.509460 0.780975
0.097870 0.523346 0.794159
0.203064 0.544006 0.806580
0.285645 0.570251 0.828674
0.477936 0.591980 0.851074
0.600769 0.588013 0.841705
0.710297 0.564789 0.804230
0.810547 0.533203 0.747620
0.053741 0.658295 0.777588
0.128174 0.659821 0.788483
0.200165 0.670959 0.804016
0.260986 0.674805 0.817596
0.322418 0.677063 0.821716
0.505280 0.692200 0.836761
0.656067 0.705902 0.861816
0.770264 0.686218 0.831573
0.884705 0.660034 0.782288
0.233795 0.861206 0.815582
0.268646 0.861938 0.823822
0.306671 0.865143 0.841675
0.354645 0.878143 0.860352
0.504547 0.883514 0.867279
0.630463 0.887634 0.877747
0.755524 0.881897 0.885040
0.889435 0.863251 0.872375
0.992340 0.819214 0.823151
0.305756 0.976685 0.843292
0.335022 0.977509 0.842987
0.371490 0.978973 0.853271
0.444885 0.979950 0.873230
0.601379 0.982025 0.883667
0.722076 0.985840 0.895691
0.836456 0.990570 0.898071
0.957703 0.993347 0.870178
0.998535 0.992554 0.838013
0.000000 0.245636 0.928955
0.000000 0.247986 0.931183
0.037384 0.253235 0.923584
0.148895 0.260345 0.907074
0.248016 0.265137 0.873657
0.379486 0.266205 0.841431
0.502014 0.253052 0.805450
0.615295 0.233978 0.763702
0.701935 0.214142 0.739929
0.000000 0.295471 0.927429
0.000000 0.297577 0.928192
0.024139 0.302063 0.923706
0.140045 0.306549 0.914703
0.236267 0.308105 0.886810
0.377319 0.305634 0.848114
0.501495 0.298492 0.814514
0.611572 0.288635 0.781342
0.707916 0.271393 0.752655
0.000000 0.340485 0.919220
0.000000 0.343201 0.917572
0.035767 0.349976 0.912323
0.148621 0.355438 0.907349
0.233215 0.359009 0.895721
0.375488 0.358246 0.861603
0.504852 0.353668 0.829102
0.617554 0.342957 0.797119
0.714874 0.326477 0.768219
0.000000 0.410736 0.902008
0.000000 0.410339 0.902740
0.043213 0.414673 0.901855
0.157501 0.422333 0.900208
0.241516 0.428833 0.898499
0.384521 0.429718 0.877838
0.510986 0.425232 0.849365
0.627228 0.414154 0.816803
0.727417 0.397888 0.788666
0.000000 0.465454 0.870300
0.000397 0.468567 0.876984
0.060516 0.477051 0.886932
0.172272 0.489136 0.891388
0.257904 0.500671 0.897430
0.397430 0.504761 0.896973
0.528320 0.502136 0.869781
0.645721 0.492126 0.839600
0.739960 0.473358 0.809296
0.000000 0.507782 0.828735
0.000000 0.511017 0.841919
0.040863 0.521973 0.850220
0.159332 0.541138 0.856873
0.253113 0.566315 0.872253
0.392548 0.590881 0.898773
0.545837 0.595642 0.902344
0.667572 0.577698 0.866516
0.766235 0.553589 0.833862
0.001678 0.645416 0.842102
0.021027 0.632965 0.845551
0.099335 0.635895 0.853790
0.193848 0.647980 0.860901
0.265839 0.657349 0.863861
0.368011 0.675446 0.878510
0.563965 0.696136 0.912415
0.705444 0.688202 0.912109
0.798767 0.659027 0.871399
0.151215 0.817993 0.875061
0.186707 0.804443 0.872620
0.221680 0.796783 0.883667
0.268616 0.803955 0.913910
0.330444 0.827271 0.932373
0.476166 0.838165 0.939606
0.626831 0.838013 0.944366
0.767120 0.827271 0.957336
0.875549 0.791504 0.937653
0.267151 0.967682 0.936127
0.291565 0.969299 0.936981
0.320770 0.970215 0.941864
0.344513 0.969940 0.952362
0.421478 0.972473 0.971985
0.591064 0.976532 0.983978
0.728882 0.983215 0.989136
0.858063 0.992340 0.993958
0.999939 0.999939 0.999939
