Kodak Vision 200T (5274) - Look.cube
# Created by Benjamin (IWLTBAP) : http://luts.iwltbap.com
# Copyright: (C) Copyright 2010-2017 Triune Films and IWLTBAP SAS
# Cannot be resold, shared or otherwise redistributed
TITLE "Film Print Emulation LUTs Pack (Rec.709, sRGB, DCI-P3)"
LUT_3D_SIZE 33
0.000000 0.000000 0.000000
0.007080 0.000793 0.000000
0.017334 0.003143 0.000000
0.031525 0.005524 0.000000
0.049652 0.008667 0.000000
0.071564 0.011810 0.000000
0.094666 0.014984 0.000000
0.118744 0.018921 0.000000
0.142273 0.022064 0.000000
0.165100 0.025238 0.000000
0.186707 0.027588 0.000000
0.206848 0.029968 0.000000
0.225525 0.031555 0.000000
0.242462 0.033905 0.000000
0.257843 0.037048 0.000000
0.271423 0.040222 0.000000
0.283844 0.044006 0.000000
0.295044 0.047577 0.000000
0.305511 0.051025 0.000000
0.315216 0.054291 0.000000
0.324127 0.057434 0.000000
0.332306 0.059875 0.000000
0.340271 0.062805 0.000000
0.347900 0.065094 0.000000
0.355469 0.067871 0.000000
0.362610 0.070526 0.000000
0.369781 0.073151 0.000000
0.376892 0.075684 0.000000
0.384308 0.077667 0.000000
0.391998 0.078613 0.000000
0.399658 0.079590 0.000000
0.407318 0.080078 0.000000
0.414825 0.080536 0.000000
0.000000 0.004730 0.000000
0.009460 0.007874 0.000000
0.022064 0.011047 0.000000
0.038635 0.014984 0.000000
0.059845 0.019714 0.000000
0.084259 0.023651 0.000000
0.110077 0.027588 0.000000
0.136536 0.031525 0.000000
0.161926 0.035492 0.000000
0.186066 0.038635 0.000000
0.208160 0.041748 0.000000
0.228760 0.045441 0.000000
0.247589 0.048279 0.000000
0.264496 0.051666 0.000000
0.279846 0.055573 0.000000
0.293640 0.059265 0.000000
0.306213 0.062805 0.000000
0.317749 0.066742 0.000000
0.328461 0.070007 0.000000
0.338348 0.073639 0.000000
0.347473 0.076172 0.000000
0.356140 0.079102 0.000000
0.364258 0.081482 0.000000
0.372253 0.084259 0.000000
0.379974 0.086945 0.000000
0.387573 0.089600 0.000000
0.395081 0.092163 0.000000
0.402679 0.094238 0.000000
0.410461 0.095886 0.000000
0.418274 0.097107 0.000000
0.426270 0.097931 0.000000
0.434082 0.098328 0.000000
0.441772 0.098328 0.000000
0.000793 0.011810 0.000793
0.011810 0.015778 0.000793
0.026001 0.020508 0.000000
0.044739 0.026001 0.000000
0.068390 0.031525 0.000000
0.095490 0.037048 0.000000
0.124634 0.041748 0.000000
0.153320 0.046173 0.000000
0.180695 0.050354 0.000000
0.205902 0.054291 0.000000
0.228912 0.058044 0.000000
0.249756 0.062225 0.000000
0.268463 0.066742 0.000000
0.285675 0.071045 0.000000
0.301086 0.075165 0.000000
0.315186 0.079102 0.000000
0.328125 0.083344 0.000000
0.340057 0.086945 0.000000
0.351074 0.090454 0.000000
0.361420 0.093414 0.000000
0.370911 0.096313 0.000000
0.379974 0.098724 0.000000
0.388550 0.101471 0.000000
0.396851 0.103760 0.000000
0.404907 0.106415 0.000000
0.412964 0.108978 0.000000
0.420898 0.111481 0.000000
0.428925 0.113617 0.000000
0.437042 0.114990 0.000000
0.445221 0.116028 0.000000
0.453308 0.116730 0.000000
0.461273 0.117065 0.000000
0.469055 0.117401 0.000000
0.000793 0.019714 0.001556
0.012604 0.025238 0.001556
0.027588 0.031525 0.000793
0.048279 0.037842 0.000000
0.074646 0.044739 0.000000
0.105286 0.051666 0.000000
0.137421 0.057434 0.000000
0.168915 0.062805 0.000000
0.198151 0.067841 0.000000
0.224487 0.072601 0.000000
0.248077 0.077637 0.000000
0.269165 0.082397 0.000000
0.288269 0.087402 0.000000
0.305603 0.092163 0.000000
0.321503 0.096710 0.000000
0.336212 0.101074 0.000000
0.349548 0.105286 0.000000
0.362000 0.108978 0.000000
0.373596 0.112213 0.000000
0.384277 0.114990 0.000000
0.394470 0.117737 0.000000
0.404053 0.120422 0.000000
0.413147 0.122711 0.000000
0.421967 0.124969 0.000000
0.430603 0.127167 0.000000
0.439056 0.129669 0.000000
0.447510 0.131805 0.000000
0.455963 0.133606 0.000000
0.464539 0.135071 0.000000
0.472961 0.135956 0.000000
0.481140 0.136566 0.000000
0.489166 0.136841 0.000000
0.497009 0.137146 0.000000
0.000793 0.029968 0.003143
0.012604 0.036255 0.002350
0.028381 0.043243 0.000793
0.050354 0.051666 0.000793
0.079102 0.059845 0.000000
0.112549 0.068390 0.000000
0.147797 0.075653 0.000000
0.182220 0.082397 0.000000
0.213684 0.088287 0.000000
0.241516 0.094238 0.000000
0.265930 0.099518 0.000000
0.287628 0.104919 0.000000
0.307159 0.110413 0.000000
0.324890 0.115692 0.000000
0.341431 0.120422 0.000000
0.356659 0.124969 0.000000
0.370819 0.128723 0.000000
0.383911 0.132385 0.000000
0.396149 0.135681 0.000000
0.407562 0.138306 0.000000
0.418365 0.140869 0.000000
0.428680 0.143127 0.000000
0.438385 0.145050 0.000000
0.447815 0.147247 0.000000
0.457001 0.149384 0.000000
0.466034 0.151520 0.000000
0.475098 0.153351 0.000000
0.483978 0.154907 0.000000
0.492889 0.156433 0.000000
0.501587 0.157196 0.000000
0.509949 0.157715 0.000000
0.517975 0.157959 0.000000
0.525848 0.158203 0.000000
0.000793 0.041748 0.004730
0.011810 0.048981 0.003174
0.027588 0.057434 0.001587
0.051025 0.066742 0.000793
0.080994 0.076660 0.000000
0.117401 0.086945 0.000000
0.155670 0.096313 0.000000
0.193115 0.104156 0.000000
0.227234 0.111481 0.000000
0.256958 0.118073 0.000000
0.282776 0.124329 0.000000
0.305359 0.129974 0.000000
0.325562 0.135376 0.000000
0.344147 0.140594 0.000000
0.361328 0.145325 0.000000
0.377350 0.149384 0.000000
0.392242 0.153351 0.000000
0.406036 0.156952 0.000000
0.419037 0.159943 0.000000
0.431305 0.162415 0.000000
0.442841 0.164856 0.000000
0.453827 0.166779 0.000000
0.464325 0.168671 0.000000
0.474365 0.170532 0.000000
0.484192 0.172394 0.000000
0.493744 0.174438 0.000000
0.503265 0.176025 0.000000
0.512665 0.177582 0.000000
0.521881 0.178925 0.000000
0.530823 0.179810 0.000000
0.539429 0.180237 0.000000
0.547668 0.180695 0.000000
0.555603 0.180695 0.000000
0.000000 0.055573 0.005524
0.011047 0.062805 0.003937
0.026794 0.072083 0.002380
0.050354 0.082397 0.001587
0.081940 0.094238 0.000793
0.120422 0.106781 0.000000
0.161682 0.118073 0.000000
0.202240 0.128113 0.000000
0.239288 0.136566 0.000000
0.271393 0.143951 0.000000
0.299133 0.150452 0.000000
0.322968 0.156189 0.000000
0.344269 0.161438 0.000000
0.363586 0.166290 0.000000
0.381531 0.170776 0.000000
0.398254 0.174896 0.000000
0.413879 0.178467 0.000000
0.428528 0.181763 0.000000
0.442230 0.184570 0.000000
0.455292 0.186920 0.000000
0.467621 0.189209 0.000000
0.479340 0.191071 0.000000
0.490509 0.192932 0.000000
0.501190 0.194733 0.000000
0.511566 0.196564 0.000000
0.521698 0.198334 0.000000
0.531677 0.199921 0.000000
0.541504 0.201477 0.000000
0.551056 0.202637 0.000000
0.560303 0.203613 0.000000
0.569122 0.204163 0.000000
0.577637 0.204376 0.000000
0.585815 0.204376 0.000000
0.000000 0.069458 0.007080
0.010254 0.077637 0.005524
0.025238 0.087402 0.003174
0.049652 0.099121 0.001587
0.082397 0.112549 0.000793
0.122711 0.127167 0.000000
0.166504 0.140594 0.000000
0.210022 0.152832 0.000000
0.250061 0.162659 0.000000
0.285126 0.170990 0.000000
0.314972 0.177582 0.000000
0.340576 0.183289 0.000000
0.363098 0.188171 0.000000
0.383362 0.192505 0.000000
0.401978 0.196564 0.000000
0.419434 0.200317 0.000000
0.435638 0.203613 0.000000
0.450897 0.206635 0.000000
0.465332 0.209473 0.000000
0.479004 0.211853 0.000000
0.492065 0.213867 0.000000
0.504456 0.215881 0.000000
0.516327 0.217834 0.000000
0.527649 0.219604 0.000000
0.538635 0.221375 0.000000
0.549255 0.223114 0.000000
0.559601 0.224823 0.000000
0.569885 0.226379 0.000000
0.579834 0.227386 0.000000
0.589417 0.228241 0.000000
0.598572 0.228760 0.000000
0.607361 0.228912 0.000000
0.615875 0.228912 0.000000
0.000000 0.084717 0.007874
0.009460 0.093414 0.006317
0.024445 0.103394 0.003937
0.048981 0.116028 0.002380
0.082397 0.131500 0.000793
0.124298 0.147522 0.000000
0.170532 0.163391 0.000000
0.216736 0.177368 0.000000
0.260040 0.188812 0.000000
0.297882 0.197754 0.000000
0.330322 0.204926 0.000000
0.357941 0.210571 0.000000
0.381805 0.215149 0.000000
0.403015 0.219086 0.000000
0.422394 0.222778 0.000000
0.440308 0.226044 0.000000
0.457001 0.229248 0.000000
0.472687 0.231934 0.000000
0.487610 0.234589 0.000000
0.501831 0.236847 0.000000
0.515503 0.239105 0.000000
0.528564 0.241028 0.000000
0.541046 0.243073 0.000000
0.553040 0.244965 0.000000
0.564545 0.246674 0.000000
0.575653 0.248535 0.000000
0.586609 0.250214 0.000000
0.597198 0.251587 0.000000
0.607513 0.252777 0.000000
0.617523 0.253540 0.000000
0.627106 0.253998 0.000000
0.636261 0.254120 0.000000
0.645111 0.254120 0.000000
0.000000 0.101074 0.009460
0.008667 0.109711 0.007111
0.023651 0.120087 0.004730
0.047577 0.133911 0.003174
0.082397 0.150208 0.001587
0.125580 0.168182 0.000793
0.173981 0.185852 0.000000
0.222748 0.201477 0.000000
0.268890 0.214417 0.000000
0.309662 0.224487 0.000000
0.344696 0.231934 0.000000
0.374451 0.237671 0.000000
0.399811 0.241974 0.000000
0.422058 0.245758 0.000000
0.442017 0.249146 0.000000
0.460297 0.252014 0.000000
0.477325 0.254883 0.000000
0.493408 0.257538 0.000000
0.508667 0.260040 0.000000
0.523376 0.262360 0.000000
0.537506 0.264496 0.000000
0.551178 0.266632 0.000000
0.564331 0.268616 0.000000
0.576874 0.270569 0.000000
0.588959 0.272522 0.000000
0.600616 0.274170 0.000000
0.611969 0.275787 0.000000
0.623108 0.277161 0.000000
0.633820 0.278229 0.000000
0.644257 0.278900 0.000000
0.654236 0.279297 0.000000
0.663818 0.279449 0.000000
0.673096 0.279297 0.000000
0.000000 0.118073 0.010254
0.008667 0.126862 0.007904
0.022858 0.137726 0.005524
0.046875 0.151764 0.003174
0.081940 0.169128 0.001587
0.126526 0.188599 0.000793
0.176453 0.207764 0.000000
0.227722 0.225006 0.000000
0.276337 0.239288 0.000000
0.320038 0.250366 0.000000
0.357544 0.258728 0.000000
0.389374 0.264648 0.000000
0.416290 0.269165 0.000000
0.439606 0.272644 0.000000
0.460236 0.275665 0.000000
0.479004 0.278381 0.000000
0.496338 0.280914 0.000000
0.512665 0.283295 0.000000
0.528320 0.285675 0.000000
0.543365 0.287994 0.000000
0.558014 0.290192 0.000000
0.572174 0.292236 0.000000
0.585846 0.294373 0.000000
0.599030 0.296265 0.000000
0.611725 0.298248 0.000000
0.623901 0.299988 0.000000
0.635742 0.301483 0.000000
0.647247 0.302826 0.000000
0.658508 0.303680 0.000000
0.669342 0.304260 0.000000
0.679749 0.304504 0.000000
0.689758 0.304504 0.000000
0.699432 0.304382 0.000000
0.000000 0.135681 0.011047
0.007874 0.144501 0.008667
0.022064 0.155670 0.006317
0.046173 0.170319 0.003937
0.081482 0.188385 0.001587
0.126831 0.208710 0.000793
0.178253 0.229095 0.000000
0.231415 0.247589 0.000000
0.282349 0.263367 0.000000
0.328339 0.275543 0.000000
0.368225 0.284607 0.000000
0.402069 0.291351 0.000000
0.430756 0.296021 0.000000
0.455139 0.299622 0.000000
0.476685 0.302460 0.000000
0.496033 0.304871 0.000000
0.513794 0.307159 0.000000
0.530457 0.309204 0.000000
0.546448 0.311432 0.000000
0.561890 0.313568 0.000000
0.576935 0.315765 0.000000
0.591614 0.317963 0.000000
0.605804 0.320038 0.000000
0.619507 0.321960 0.000000
0.632690 0.323761 0.000000
0.645355 0.325439 0.000000
0.657715 0.326904 0.000000
0.669708 0.328125 0.000000
0.681396 0.328888 0.000000
0.692657 0.329346 0.000000
0.703552 0.329559 0.000000
0.713928 0.329559 0.000000
0.724060 0.329224 0.000000
0.000000 0.153870 0.011810
0.007080 0.162659 0.009460
0.020508 0.174225 0.007111
0.044739 0.189209 0.003937
0.080536 0.207764 0.002380
0.126526 0.228760 0.000793
0.178894 0.250061 0.000000
0.233734 0.269745 0.000000
0.286438 0.286438 0.000000
0.334473 0.299744 0.000000
0.376495 0.309784 0.000000
0.412292 0.317169 0.000000
0.442535 0.322418 0.000000
0.468414 0.326233 0.000000
0.490997 0.329010 0.000000
0.511108 0.331329 0.000000
0.529480 0.333282 0.000000
0.546600 0.335236 0.000000
0.562988 0.337158 0.000000
0.578857 0.339203 0.000000
0.594360 0.341309 0.000000
0.609406 0.343323 0.000000
0.624115 0.345398 0.000000
0.638306 0.347382 0.000000
0.651978 0.349121 0.000000
0.665161 0.350677 0.000000
0.677948 0.351990 0.000000
0.690491 0.353119 0.000000
0.702667 0.353821 0.000000
0.714355 0.354218 0.000000
0.725586 0.354340 0.000000
0.736450 0.354126 0.000000
0.747009 0.353821 0.000000
0.000000 0.172394 0.011047
0.007080 0.181763 0.009460
0.019714 0.193329 0.007111
0.043243 0.208527 0.004730
0.079102 0.227386 0.002380
0.125244 0.248840 0.000793
0.178680 0.270569 0.000000
0.234406 0.290955 0.000000
0.288513 0.308472 0.000000
0.338348 0.322754 0.000000
0.382080 0.333710 0.000000
0.419678 0.341949 0.000000
0.451660 0.347809 0.000000
0.479126 0.351990 0.000000
0.502899 0.355042 0.000000
0.524048 0.357361 0.000000
0.543182 0.359344 0.000000
0.561005 0.361023 0.000000
0.577881 0.362793 0.000000
0.594147 0.364655 0.000000
0.610077 0.366608 0.000000
0.625702 0.368530 0.000000
0.640808 0.370453 0.000000
0.655457 0.372253 0.000000
0.669617 0.373962 0.000000
0.683289 0.375580 0.000000
0.696594 0.376801 0.000000
0.709595 0.377808 0.000000
0.722168 0.378387 0.000000
0.734314 0.378754 0.000000
0.746033 0.378754 0.000000
0.757263 0.378479 0.000000
0.768311 0.378113 0.000000
0.000000 0.191681 0.011047
0.006287 0.201294 0.009460
0.018921 0.213135 0.007111
0.041748 0.228424 0.004730
0.077148 0.247284 0.002380
0.123657 0.268768 0.000793
0.177368 0.290710 0.000000
0.233582 0.311432 0.000000
0.288513 0.329559 0.000000
0.339417 0.344482 0.000000
0.384827 0.356232 0.000000
0.424103 0.365234 0.000000
0.457825 0.371979 0.000000
0.486847 0.376801 0.000000
0.512207 0.380157 0.000000
0.534607 0.382629 0.000000
0.554810 0.384644 0.000000
0.573425 0.386383 0.000000
0.591034 0.388031 0.000000
0.607941 0.389740 0.000000
0.624298 0.391449 0.000000
0.640350 0.393311 0.000000
0.655975 0.395172 0.000000
0.671021 0.396942 0.000000
0.685638 0.398499 0.000000
0.699829 0.399902 0.000000
0.713623 0.401215 0.000000
0.727051 0.402069 0.000000
0.740112 0.402588 0.000000
0.752686 0.402863 0.000000
0.764801 0.402863 0.000000
0.776611 0.402435 0.000000
0.788055 0.401978 0.000000
0.000000 0.211304 0.010254
0.005524 0.221191 0.008667
0.017334 0.233246 0.007111
0.040222 0.248535 0.004730
0.075165 0.267365 0.002380
0.121368 0.288635 0.000793
0.174896 0.310486 0.000000
0.231262 0.331207 0.000000
0.286438 0.349548 0.000000
0.338135 0.364929 0.000000
0.384552 0.377350 0.000000
0.425385 0.387115 0.000000
0.460907 0.394623 0.000000
0.491669 0.400177 0.000000
0.518677 0.404144 0.000000
0.542542 0.407043 0.000000
0.563995 0.409363 0.000000
0.583771 0.411133 0.000000
0.602234 0.412811 0.000000
0.619873 0.414398 0.000000
0.636902 0.415985 0.000000
0.653442 0.417694 0.000000
0.669495 0.419525 0.000000
0.685059 0.421173 0.000000
0.700165 0.422638 0.000000
0.714844 0.424103 0.000000
0.729126 0.425140 0.000000
0.743011 0.425964 0.000000
0.756531 0.426514 0.000000
0.769592 0.426605 0.000000
0.782227 0.426514 0.000000
0.794373 0.426117 0.000000
0.806335 0.425629 0.000000
0.000000 0.231262 0.008667
0.005524 0.241516 0.007904
0.016541 0.253845 0.007111
0.037842 0.269318 0.004730
0.072601 0.287872 0.003174
0.118042 0.308594 0.001587
0.171204 0.330109 0.000000
0.227051 0.350464 0.000000
0.282257 0.368622 0.000000
0.334259 0.384186 0.000000
0.381531 0.397095 0.000000
0.423767 0.407562 0.000000
0.460907 0.415802 0.000000
0.493469 0.422150 0.000000
0.522186 0.426910 0.000000
0.547791 0.430450 0.000000
0.570801 0.433136 0.000000
0.591858 0.435272 0.000000
0.611450 0.436981 0.000000
0.630096 0.438629 0.000000
0.647827 0.440155 0.000000
0.665009 0.441864 0.000000
0.681641 0.443481 0.000000
0.697693 0.445099 0.000000
0.713257 0.446533 0.000000
0.728394 0.447815 0.000000
0.743164 0.448883 0.000000
0.757538 0.449646 0.000000
0.771545 0.450073 0.000000
0.785095 0.450165 0.000000
0.798157 0.450012 0.000000
0.810730 0.449554 0.000000
0.823090 0.448944 0.000000
0.000000 0.251740 0.007111
0.004730 0.262512 0.007111
0.014984 0.274994 0.006317
0.035492 0.290314 0.004730
0.068939 0.308594 0.003174
0.113586 0.328796 0.001587
0.166046 0.349548 0.000000
0.221191 0.369293 0.000000
0.276062 0.387115 0.000000
0.328125 0.402588 0.000000
0.376038 0.415710 0.000000
0.419281 0.426666 0.000000
0.457886 0.435638 0.000000
0.492279 0.442871 0.000000
0.522858 0.448517 0.000000
0.550262 0.452789 0.000000
0.575073 0.456146 0.000000
0.597626 0.458710 0.000000
0.618652 0.460693 0.000000
0.638397 0.462524 0.000000
0.657166 0.464172 0.000000
0.675079 0.465851 0.000000
0.692322 0.467346 0.000000
0.708984 0.468872 0.000000
0.725098 0.470276 0.000000
0.740723 0.471497 0.000000
0.755951 0.472473 0.000000
0.770813 0.473114 0.000000
0.785217 0.473480 0.000000
0.799194 0.473541 0.000000
0.812683 0.473328 0.000000
0.825806 0.472839 0.000000
0.838684 0.472198 0.000000
0.000000 0.272797 0.005524
0.003937 0.283691 0.006317
0.013397 0.296509 0.006317
0.033112 0.311920 0.004730
0.064514 0.329773 0.003174
0.108246 0.349243 0.001587
0.159180 0.369110 0.000793
0.213684 0.388031 0.000000
0.267914 0.405273 0.000000
0.319916 0.420410 0.000000
0.368042 0.433685 0.000000
0.412292 0.444916 0.000000
0.452240 0.454498 0.000000
0.488342 0.462524 0.000000
0.520874 0.469086 0.000000
0.550201 0.474243 0.000000
0.576843 0.478241 0.000000
0.601257 0.481506 0.000000
0.623871 0.484070 0.000000
0.644989 0.486115 0.000000
0.664917 0.488037 0.000000
0.683777 0.489655 0.000000
0.701752 0.491272 0.000000
0.718994 0.492767 0.000000
0.735626 0.494019 0.000000
0.751831 0.495178 0.000000
0.767517 0.496094 0.000000
0.782837 0.496704 0.000000
0.797729 0.497040 0.000000
0.812103 0.497040 0.000000
0.826111 0.496643 0.000000
0.839630 0.496094 0.000000
0.853027 0.495422 0.000000
0.000000 0.294403 0.003937
0.003143 0.305481 0.004730
0.011810 0.318420 0.005524
0.029175 0.333832 0.004730
0.059265 0.351379 0.003174
0.101074 0.370056 0.001587
0.150970 0.388733 0.000793
0.204529 0.406708 0.000000
0.257996 0.423187 0.000000
0.309662 0.437988 0.000000
0.358032 0.451050 0.000000
0.402954 0.462585 0.000000
0.444244 0.472626 0.000000
0.481903 0.481384 0.000000
0.516266 0.488708 0.000000
0.547699 0.494843 0.000000
0.576324 0.499817 0.000000
0.602692 0.503815 0.000000
0.627075 0.506989 0.000000
0.649780 0.509644 0.000000
0.671021 0.511780 0.000000
0.690979 0.513672 0.000000
0.709900 0.515350 0.000000
0.727814 0.516785 0.000000
0.745026 0.518005 0.000000
0.761780 0.519073 0.000000
0.778015 0.519836 0.000000
0.793762 0.520386 0.000000
0.809082 0.520630 0.000000
0.823914 0.520508 0.000000
0.838318 0.520142 0.000000
0.852417 0.519501 0.000000
0.866241 0.518829 0.000000
0.000000 0.316833 0.002380
0.002350 0.328003 0.003937
0.009460 0.340912 0.003937
0.026001 0.356354 0.003937
0.053650 0.373413 0.003174
0.093414 0.391266 0.001587
0.141693 0.408844 0.000793
0.193939 0.425690 0.000000
0.246674 0.441315 0.000000
0.297882 0.455536 0.000000
0.346344 0.468353 0.000000
0.391785 0.479919 0.000000
0.434235 0.490326 0.000000
0.473389 0.499695 0.000000
0.509644 0.507782 0.000000
0.543030 0.514832 0.000000
0.573853 0.520752 0.000000
0.602173 0.525604 0.000000
0.628418 0.529633 0.000000
0.652771 0.532867 0.000000
0.675537 0.535461 0.000000
0.696777 0.537567 0.000000
0.716675 0.539429 0.000000
0.735382 0.540924 0.000000
0.753357 0.542175 0.000000
0.770630 0.543152 0.000000
0.787354 0.543915 0.000000
0.803589 0.544312 0.000000
0.819336 0.544434 0.000000
0.834656 0.544250 0.000000
0.849518 0.543793 0.000000
0.864075 0.543152 0.000000
0.878479 0.542419 0.000000
0.000000 0.339752 0.001587
0.002350 0.350983 0.002350
0.007874 0.363983 0.003143
0.022064 0.379120 0.003174
0.047577 0.395874 0.002380
0.085175 0.412872 0.001587
0.131500 0.429382 0.000793
0.182220 0.445160 0.000000
0.234253 0.459808 0.000000
0.285004 0.473389 0.000000
0.333618 0.485901 0.000000
0.379578 0.497375 0.000000
0.422882 0.507965 0.000000
0.463440 0.517731 0.000000
0.501373 0.526611 0.000000
0.536682 0.534454 0.000000
0.569458 0.541168 0.000000
0.599823 0.546967 0.000000
0.627960 0.551788 0.000000
0.654083 0.555664 0.000000
0.678406 0.558838 0.000000
0.700989 0.561462 0.000000
0.722046 0.563538 0.000000
0.741760 0.565186 0.000000
0.760437 0.566498 0.000000
0.778320 0.567444 0.000000
0.795502 0.568054 0.000000
0.812317 0.568329 0.000000
0.828552 0.568329 0.000000
0.844299 0.568115 0.000000
0.859680 0.567596 0.000000
0.874695 0.566986 0.000000
0.889587 0.566254 0.000000
0.000000 0.363495 0.000793
0.001556 0.374542 0.001556
0.007080 0.387482 0.002350
0.018921 0.402435 0.003143
0.041748 0.418793 0.002380
0.076660 0.435181 0.001587
0.120728 0.450684 0.000793
0.170074 0.465179 0.000000
0.221375 0.478943 0.000000
0.271820 0.491821 0.000000
0.320374 0.503815 0.000000
0.366882 0.515228 0.000000
0.410950 0.525879 0.000000
0.452759 0.535950 0.000000
0.492126 0.545197 0.000000
0.529114 0.553741 0.000000
0.563721 0.561340 0.000000
0.595947 0.567963 0.000000
0.625977 0.573456 0.000000
0.653870 0.578094 0.000000
0.679749 0.581909 0.000000
0.703705 0.584961 0.000000
0.725952 0.587372 0.000000
0.746704 0.589325 0.000000
0.766174 0.590698 0.000000
0.784698 0.591644 0.000000
0.802612 0.592285 0.000000
0.819855 0.592499 0.000000
0.836578 0.592468 0.000000
0.852844 0.592133 0.000000
0.868652 0.591614 0.000000
0.884155 0.591034 0.000000
0.899475 0.590271 0.000000
0.000000 0.387756 0.000000
0.001556 0.398773 0.000793
0.006287 0.411469 0.001556
0.016541 0.426270 0.002350
0.036255 0.442322 0.002380
0.067841 0.458038 0.002380
0.110077 0.472626 0.001587
0.157959 0.486115 0.000793
0.208527 0.498810 0.000000
0.258728 0.510986 0.000000
0.307404 0.522583 0.000000
0.354340 0.533661 0.000000
0.399109 0.544250 0.000000
0.441864 0.554443 0.000000
0.482391 0.564056 0.000000
0.520752 0.573090 0.000000
0.556915 0.581207 0.000000
0.590973 0.588562 0.000000
0.622650 0.594910 0.000000
0.652222 0.600189 0.000000
0.679596 0.604614 0.000000
0.704987 0.608124 0.000000
0.728424 0.610962 0.000000
0.750244 0.613159 0.000000
0.770630 0.614777 0.000000
0.789978 0.615784 0.000000
0.808472 0.616394 0.000000
0.826202 0.616638 0.000000
0.843506 0.616577 0.000000
0.860229 0.616180 0.000000
0.876465 0.615723 0.000000
0.892395 0.615112 0.000000
0.908142 0.614471 0.000000
0.000000 0.412567 0.000000
0.001556 0.423431 0.000793
0.005524 0.435944 0.001556
0.014191 0.450531 0.002350
0.031525 0.466248 0.002380
0.060455 0.481628 0.003143
0.099518 0.495544 0.002380
0.146149 0.508026 0.001587
0.195953 0.519745 0.000793
0.246063 0.531158 0.000000
0.294891 0.542236 0.000000
0.342255 0.553009 0.000000
0.387756 0.563446 0.000000
0.431213 0.573517 0.000000
0.472748 0.583344 0.000000
0.512268 0.592560 0.000000
0.549744 0.601257 0.000000
0.585114 0.609100 0.000000
0.618347 0.616089 0.000000
0.649384 0.622070 0.000000
0.678253 0.627136 0.000000
0.704987 0.631165 0.000000
0.729645 0.634399 0.000000
0.752502 0.636871 0.000000
0.773865 0.638641 0.000000
0.793945 0.639893 0.000000
0.813110 0.640625 0.000793
0.831543 0.640869 0.000793
0.849304 0.640808 0.000793
0.866516 0.640472 0.000793
0.883240 0.639954 0.000793
0.899536 0.639435 0.000793
0.915588 0.638733 0.000793
0.000000 0.438080 0.000000
0.001556 0.448853 0.000000
0.004730 0.461121 0.000793
0.012604 0.475433 0.002350
0.028381 0.490936 0.003143
0.053650 0.505951 0.003937
0.090027 0.519318 0.003937
0.135071 0.531097 0.002380
0.183929 0.541962 0.001587
0.233917 0.552490 0.000793
0.283173 0.562988 0.000000
0.330994 0.573364 0.000000
0.377167 0.583496 0.000000
0.421326 0.593506 0.000000
0.463593 0.603271 0.000000
0.503937 0.612671 0.000000
0.542480 0.621552 0.000000
0.578979 0.629883 0.000000
0.613434 0.637390 0.000000
0.645782 0.643982 0.000000
0.676025 0.649536 0.000000
0.703979 0.654175 0.000000
0.729767 0.657837 0.000000
0.753693 0.660645 0.000793
0.776001 0.662720 0.000793
0.796936 0.664185 0.000793
0.816772 0.664978 0.000793
0.835815 0.665344 0.000793
0.854095 0.665283 0.001556
0.871796 0.664978 0.001556
0.889008 0.664459 0.001556
0.905762 0.663910 0.001556
0.922241 0.663330 0.001556
0.000000 0.464264 0.000000
0.001556 0.474884 0.000000
0.004730 0.486908 0.000793
0.011810 0.500977 0.002350
0.025238 0.516205 0.003937
0.047577 0.531128 0.005524
0.081482 0.544250 0.005524
0.124329 0.555359 0.003937
0.172607 0.565369 0.002380
0.222778 0.575134 0.000793
0.272369 0.585022 0.000000
0.320587 0.594910 0.000000
0.367371 0.604767 0.000000
0.412201 0.614563 0.000000
0.455139 0.624207 0.000000
0.496277 0.633606 0.000000
0.535461 0.642639 0.000000
0.572815 0.651184 0.000000
0.608276 0.659088 0.000000
0.641785 0.666107 0.000000
0.673096 0.672241 0.000000
