Kodak Vision 250D (5246) - Look.cube
# Created by Benjamin (IWLTBAP) : http://luts.iwltbap.com
# Copyright: (C) Copyright 2010-2017 Triune Films and IWLTBAP SAS
# Cannot be resold, shared or otherwise redistributed
TITLE "Film Print Emulation LUTs Pack (Rec.709, sRGB, DCI-P3)"
LUT_3D_SIZE 5
0.000000 0.001617 0.001038
0.259460 0.000000 0.000000
0.527344 0.000000 0.000000
0.795166 0.000000 0.000000
1.000000 0.000000 0.000000
0.000000 0.150146 0.030762
0.253418 0.240143 0.012268
0.527344 0.248962 0.000000
0.795197 0.248962 0.000000
1.000000 0.248962 0.000000
0.034943 0.300842 0.069977
0.298523 0.390289 0.167114
0.528870 0.512207 0.058319
0.795197 0.528534 0.000000
1.000000 0.528534 0.000000
0.058960 0.433502 0.098663
0.255524 0.487579 0.155365
0.485535 0.583008 0.226776
0.782410 0.760284 0.079590
1.000000 0.802246 0.000000
0.067749 0.555267 0.118011
0.229034 0.593445 0.155792
0.475067 0.671570 0.244385
0.758881 0.862732 0.241058
1.000000 0.996155 0.086487
0.011932 0.013336 0.138824
0.142395 0.011169 0.147156
0.527344 0.000000 0.246521
0.795166 0.000000 0.246552
1.000000 0.000000 0.246552
0.006439 0.175507 0.213409
0.125092 0.230682 0.256409
0.527344 0.248962 0.246552
0.795197 0.248962 0.246552
1.000000 0.248962 0.246521
0.000000 0.338806 0.256439
0.093170 0.374908 0.258728
0.506104 0.506378 0.279083
0.795197 0.528534 0.246552
1.000000 0.528534 0.246552
0.000000 0.478271 0.275238
0.106903 0.506042 0.278503
0.436310 0.582611 0.334991
0.769653 0.766235 0.315460
1.000000 0.803802 0.253265
0.002075 0.613129 0.299957
0.111847 0.639648 0.309814
0.357605 0.691833 0.341461
0.733459 0.870148 0.406128
1.000000 1.000000 0.330475
0.026672 0.026917 0.257233
0.125458 0.024750 0.248474
0.296356 0.042786 0.295532
0.690216 0.008728 0.465179
1.000000 0.000000 0.528656
0.026184 0.192261 0.352783
0.110199 0.220337 0.383087
0.348602 0.264130 0.434204
0.732727 0.272705 0.502258
1.000000 0.248962 0.528656
0.023773 0.366577 0.428101
0.114014 0.399689 0.449280
0.335480 0.494598 0.515442
0.763702 0.537048 0.532104
1.000000 0.528534 0.528656
0.017426 0.549500 0.490845
0.103607 0.571014 0.492371
0.323608 0.644226 0.525848
0.759644 0.770233 0.547546
1.000000 0.805664 0.530609
0.010803 0.695129 0.517334
0.125458 0.707123 0.511444
0.252655 0.755157 0.537140
0.700684 0.880402 0.572479
1.000000 1.000000 0.571808
0.034973 0.036682 0.369751
0.128387 0.030945 0.358337
0.257935 0.053192 0.363281
0.478729 0.093994 0.468903
0.853210 0.044556 0.653198
0.039246 0.206940 0.476379
0.131195 0.222595 0.493011
0.261993 0.241211 0.511810
0.562256 0.310486 0.568085
0.895874 0.276520 0.685760
0.026184 0.378845 0.555878
0.123718 0.401184 0.568512
0.247223 0.474579 0.632019
0.639862 0.537415 0.681610
0.976501 0.527710 0.730682
0.034149 0.567810 0.629913
0.123260 0.599579 0.646362
0.317383 0.663177 0.689972
0.669434 0.737244 0.738190
1.000000 0.787323 0.772919
0.027618 0.732971 0.673737
0.139496 0.768219 0.688629
0.344116 0.817108 0.718384
0.655182 0.905731 0.765045
1.000000 1.000000 0.818237
0.040344 0.042297 0.476624
0.131195 0.034180 0.461700
0.256226 0.053467 0.467834
0.423615 0.111908 0.519318
0.640930 0.125000 0.624390
0.047028 0.212158 0.585571
0.141205 0.221954 0.596924
0.248932 0.226379 0.601532
0.481842 0.283752 0.602020
0.718170 0.315308 0.695038
0.022278 0.385956 0.673584
0.131958 0.405365 0.685211
0.250000 0.468170 0.743866
0.565796 0.514954 0.773621
0.845581 0.554932 0.812042
0.034515 0.563385 0.737915
0.134583 0.591461 0.754272
0.258942 0.657623 0.814331
0.600586 0.731201 0.877563
0.944855 0.782410 0.909973
0.036560 0.732880 0.791962
0.134949 0.780487 0.824158
0.352325 0.838715 0.868896
0.659790 0.903992 0.915375
0.998718 0.998444 0.997040
