Kodak Vision 320T (5277) - Only contrast.cube
# Created by Benjamin (IWLTBAP) : http://luts.iwltbap.com
# Copyright: (C) Copyright 2010-2017 Triune Films and IWLTBAP SAS
# Cannot be resold, shared or otherwise redistributed
TITLE "Film Print Emulation LUTs Pack (Rec.709, sRGB, DCI-P3)"
LUT_3D_SIZE 5
0.001373 0.001373 0.001373
0.234253 0.001282 0.001282
0.508759 0.000885 0.000885
0.759308 0.000641 0.000641
0.972900 0.000671 0.000671
0.001282 0.234253 0.001282
0.234497 0.234497 0.001160
0.508911 0.234467 0.000763
0.759399 0.234589 0.000519
0.972382 0.234985 0.000580
0.000885 0.508759 0.000885
0.234467 0.508911 0.000763
0.508789 0.508789 0.000366
0.759186 0.508820 0.000153
0.971558 0.509094 0.000183
0.000641 0.759308 0.000641
0.234589 0.759399 0.000519
0.508820 0.759186 0.000153
0.759155 0.759155 0.000000
0.970917 0.759369 0.000000
0.000671 0.972900 0.000671
0.234985 0.972382 0.000580
0.509094 0.971558 0.000183
0.759369 0.970917 0.000000
0.970520 0.970428 0.019562
0.001282 0.001282 0.234253
0.234497 0.001160 0.234497
0.508911 0.000763 0.234467
0.759399 0.000519 0.234589
0.972382 0.000580 0.234985
0.001160 0.234497 0.234497
0.234741 0.234741 0.234741
0.509064 0.234711 0.234711
0.759460 0.234833 0.234833
0.971832 0.235229 0.235229
0.000763 0.508911 0.234467
0.234711 0.509064 0.234711
0.508911 0.508911 0.234680
0.759247 0.508942 0.234802
0.971039 0.509216 0.235199
0.000519 0.759399 0.234589
0.234833 0.759460 0.234833
0.508942 0.759247 0.234802
0.759216 0.759216 0.234924
0.970398 0.759430 0.235321
0.000580 0.972382 0.234985
0.235229 0.971832 0.235229
0.509216 0.971039 0.235199
0.759430 0.970398 0.235321
0.970032 0.970032 0.235748
0.000885 0.000885 0.508759
0.234467 0.000763 0.508911
0.508789 0.000366 0.508789
0.759186 0.000153 0.508820
0.971558 0.000183 0.509094
0.000763 0.234467 0.508911
0.234711 0.234711 0.509064
0.508911 0.234680 0.508911
0.759247 0.234802 0.508942
0.971039 0.235199 0.509216
0.000366 0.508789 0.508789
0.234680 0.508911 0.508911
0.508789 0.508789 0.508789
0.759064 0.508789 0.508789
0.970215 0.509094 0.509094
0.000153 0.759186 0.508820
0.234802 0.759247 0.508942
0.508789 0.759064 0.508789
0.759003 0.759003 0.508820
0.969574 0.759247 0.509125
0.000183 0.971558 0.509094
0.235199 0.971039 0.509216
0.509094 0.970215 0.509094
0.759247 0.969574 0.509125
0.969238 0.969238 0.509399
0.000641 0.000641 0.759308
0.234589 0.000519 0.759399
0.508820 0.000153 0.759186
0.759155 0.000000 0.759155
0.970917 0.000000 0.759369
0.000519 0.234589 0.759399
0.234833 0.234833 0.759460
0.508942 0.234802 0.759247
0.759216 0.234924 0.759216
0.970398 0.235321 0.759430
0.000153 0.508820 0.759186
0.234802 0.508942 0.759247
0.508789 0.508789 0.759064
0.759003 0.508820 0.759003
0.969574 0.509125 0.759247
0.000000 0.759155 0.759155
0.234924 0.759216 0.759216
0.508820 0.759003 0.759003
0.758972 0.758972 0.758972
0.968933 0.759216 0.759216
0.000000 0.970917 0.759369
0.235321 0.970398 0.759430
0.509125 0.969574 0.759247
0.759216 0.968933 0.759216
0.968597 0.968597 0.759460
0.000671 0.000671 0.972839
0.234985 0.000580 0.972382
0.509094 0.000183 0.971558
0.759369 0.000000 0.970917
0.970551 0.000000 0.970551
0.000580 0.234985 0.972382
0.235229 0.235229 0.971832
0.509216 0.235199 0.971039
0.759430 0.235321 0.970398
0.970032 0.235748 0.970032
0.000183 0.509094 0.971558
0.235199 0.509216 0.971039
0.509094 0.509094 0.970215
0.759247 0.509125 0.969574
0.969238 0.509399 0.969238
0.000000 0.759369 0.970917
0.235321 0.759430 0.970398
0.509125 0.759247 0.969574
0.759216 0.759216 0.968933
0.968597 0.759460 0.968597
0.000000 0.970551 0.970551
0.235748 0.970032 0.970032
0.509399 0.969238 0.969238
0.759460 0.968597 0.968597
0.968262 0.968262 0.968262
