Kodak Vision3 50D (5203) - Look.cube
# Created by Benjamin (IWLTBAP) : http://luts.iwltbap.com
# Copyright: (C) Copyright 2010-2017 Triune Films and IWLTBAP SAS
# Cannot be resold, shared or otherwise redistributed
TITLE "Film Print Emulation LUTs Pack (Rec.709, sRGB, DCI-P3)"
LUT_3D_SIZE 33
0.001587 0.000000 0.000000
0.029968 0.000000 0.000000
0.062805 0.000000 0.000000
0.094238 0.000000 0.000000
0.124969 0.000000 0.000000
0.155670 0.000000 0.000000
0.186920 0.000000 0.000000
0.218201 0.000000 0.000000
0.249298 0.000000 0.000000
0.281036 0.000000 0.000000
0.312500 0.000000 0.000793
0.344147 0.000793 0.000793
0.375488 0.000793 0.000793
0.406555 0.000793 0.000793
0.437897 0.000000 0.000000
0.469055 0.000000 0.000000
0.500153 0.000000 0.000000
0.531036 0.000000 0.000000
0.562195 0.000000 0.000000
0.593262 0.000000 0.000000
0.624054 0.000000 0.000000
0.655762 0.000000 0.000000
0.687347 0.000000 0.000000
0.718964 0.000000 0.000000
0.750549 0.000793 0.000000
0.782043 0.001556 0.000000
0.813293 0.001587 0.000000
0.844238 0.001587 0.000000
0.875336 0.001587 0.000000
0.906250 0.001587 0.000000
0.937317 0.000793 0.000000
0.968445 0.000793 0.000000
0.999359 0.000793 0.000000
0.001587 0.008667 0.002350
0.019714 0.014191 0.002350
0.062225 0.020508 0.000000
0.093842 0.021271 0.000000
0.124634 0.020508 0.000000
0.156189 0.021271 0.000000
0.187134 0.021271 0.000000
0.218018 0.021271 0.000000
0.249756 0.021271 0.000000
0.280914 0.021271 0.000000
0.312988 0.022064 0.000793
0.344574 0.022064 0.000793
0.375397 0.022064 0.000793
0.406799 0.022064 0.000793
0.437683 0.022064 0.000000
0.468842 0.021271 0.000000
0.500000 0.021271 0.000000
0.531219 0.020508 0.000000
0.562317 0.020508 0.000000
0.593414 0.019714 0.000000
0.624298 0.018921 0.000000
0.656006 0.019714 0.000000
0.687592 0.020508 0.000000
0.718903 0.021271 0.000000
0.750458 0.022064 0.000000
0.782196 0.023651 0.000000
0.813141 0.023651 0.000000
0.844177 0.022858 0.000000
0.875336 0.022858 0.000000
0.906250 0.022858 0.000000
0.937408 0.022858 0.000000
0.968323 0.022064 0.000000
0.999420 0.022064 0.000000
0.002350 0.018921 0.005524
0.011047 0.020508 0.004730
0.040985 0.031525 0.003143
0.093842 0.051666 0.000000
0.124634 0.051666 0.000000
0.155914 0.052338 0.000000
0.187134 0.052338 0.000000
0.218201 0.052338 0.000000
0.249908 0.052979 0.000000
0.281189 0.052338 0.000793
0.312988 0.053650 0.000793
0.344482 0.053650 0.000793
0.375580 0.053650 0.000793
0.406708 0.052979 0.000000
0.437683 0.052338 0.000000
0.468781 0.052338 0.000000
0.499939 0.051666 0.000000
0.531158 0.051666 0.000000
0.562256 0.051666 0.000000
0.593292 0.051025 0.000000
0.624207 0.050354 0.000000
0.656067 0.051025 0.000000
0.687592 0.051025 0.000000
0.718964 0.052338 0.000000
0.750549 0.052979 0.000000
0.782196 0.053650 0.000000
0.813110 0.053650 0.000000
0.844147 0.053650 0.000000
0.875244 0.053650 0.000000
0.906219 0.052979 0.000000
0.937347 0.052979 0.000000
0.968292 0.052979 0.000000
0.999420 0.052979 0.000000
0.004730 0.036255 0.011047
0.013397 0.038635 0.011810
0.022064 0.040985 0.011047
0.062805 0.057434 0.007874
0.121399 0.080994 0.000000
0.155914 0.083344 0.000000
0.187317 0.083801 0.000000
0.218536 0.083801 0.000000
0.250214 0.084259 0.000000
0.281311 0.084259 0.000793
0.313202 0.084717 0.000793
0.344360 0.084259 0.000793
0.375488 0.084259 0.000793
0.406616 0.084259 0.000000
0.437500 0.083801 0.000000
0.468628 0.083801 0.000000
0.499878 0.083801 0.000000
0.531097 0.083344 0.000000
0.562195 0.082886 0.000000
0.593262 0.082886 0.000000
0.624359 0.082397 0.000000
0.656158 0.082886 0.000000
0.687683 0.083344 0.000000
0.719086 0.083801 0.000000
0.750610 0.084717 0.000000
0.782166 0.085175 0.000000
0.813080 0.084717 0.000000
0.844116 0.084717 0.000000
0.875214 0.084717 0.000000
0.906189 0.084717 0.000000
0.937317 0.084259 0.000000
0.968262 0.084259 0.000000
0.999390 0.084259 0.000000
0.008667 0.057434 0.018127
0.016541 0.059845 0.018921
0.025238 0.063385 0.019714
0.035492 0.066742 0.021271
0.095490 0.085602 0.011047
0.148041 0.107513 0.003143
0.187317 0.114990 0.000000
0.218719 0.115356 0.000000
0.250061 0.115356 0.000793
0.281586 0.115692 0.000793
0.312744 0.115692 0.000793
0.343964 0.115356 0.000793
0.375092 0.115356 0.000000
0.406219 0.115356 0.000000
0.437500 0.114990 0.000000
0.468689 0.114990 0.000000
0.499817 0.114655 0.000000
0.530731 0.114655 0.000000
0.561859 0.114319 0.000000
0.592926 0.113953 0.000000
0.624542 0.114319 0.000000
0.656097 0.114319 0.000000
0.687683 0.114655 0.000000
0.719238 0.114990 0.000000
0.750793 0.115692 0.000000
0.781982 0.115692 0.000000
0.813110 0.115692 0.000000
0.844147 0.115692 0.000000
0.875244 0.115356 0.000000
0.906158 0.115356 0.000000
0.937317 0.115356 0.000000
0.968292 0.114990 0.000000
0.999298 0.114990 0.000000
0.013397 0.081940 0.028381
0.020508 0.083801 0.029175
0.028381 0.086517 0.029968
0.036255 0.091736 0.032318
0.065063 0.093414 0.031525
0.126862 0.115356 0.014984
0.176697 0.135681 0.006287
0.219421 0.146973 0.000793
0.250366 0.146698 0.000793
0.281586 0.146698 0.000793
0.312744 0.146698 0.000793
0.343842 0.146698 0.000000
0.375000 0.146423 0.000000
0.406128 0.146423 0.000000
0.437439 0.146149 0.000000
0.468567 0.146149 0.000000
0.499481 0.145874 0.000000
0.530670 0.145599 0.000000
0.561798 0.145599 0.000000
0.593048 0.145599 0.000000
0.624756 0.145599 0.000000
0.656281 0.145874 0.000000
0.687836 0.146149 0.000000
0.719452 0.146423 0.000000
0.750946 0.146973 0.000000
0.781952 0.146698 0.000000
0.813110 0.146698 0.000000
0.844147 0.146698 0.000000
0.875031 0.146423 0.000000
0.906158 0.146423 0.000000
0.937164 0.146423 0.000000
0.968323 0.146149 0.000000
0.999268 0.146149 0.000000
0.011841 0.107880 0.039429
0.018127 0.109711 0.040222
0.026001 0.111481 0.040985
0.035492 0.115356 0.042511
0.058044 0.119751 0.043243
0.111481 0.119080 0.038635
0.158966 0.145599 0.018921
0.205322 0.163879 0.009460
0.246979 0.178253 0.003143
0.281433 0.181122 0.000000
0.312500 0.181122 0.000000
0.343628 0.181122 0.000000
0.374817 0.180908 0.000000
0.405945 0.180908 0.000000
0.437286 0.180695 0.000000
0.468414 0.180695 0.000000
0.499359 0.180450 0.000000
0.530487 0.180237 0.000000
0.561737 0.180237 0.000000
0.593262 0.180450 0.000000
0.624939 0.180695 0.000000
0.656464 0.180908 0.000000
0.688141 0.181122 0.000000
0.719666 0.181335 0.000000
0.750854 0.181335 0.000000
0.781860 0.181335 0.000000
0.813019 0.181122 0.000000
0.844086 0.181122 0.000000
0.875000 0.180908 0.000000
0.906097 0.180908 0.000000
0.937103 0.180908 0.000000
0.968262 0.180695 0.000000
0.999268 0.180695 0.000000
0.015778 0.132111 0.049652
0.024445 0.134186 0.049652
0.033905 0.135681 0.050354
0.044739 0.140594 0.051025
0.070007 0.144501 0.051025
0.119720 0.145050 0.054932
0.145599 0.152557 0.043243
0.189636 0.178467 0.026001
0.233765 0.195343 0.014984
0.275269 0.206635 0.006287
0.312378 0.212036 0.000000
0.343414 0.212036 0.000000
0.374634 0.212036 0.000000
0.405762 0.211853 0.000000
0.437042 0.211853 0.000000
0.468201 0.211670 0.000000
0.499146 0.211487 0.000000
0.530426 0.211487 0.000000
0.561951 0.211670 0.000000
0.593506 0.211853 0.000000
0.625092 0.212036 0.000000
0.656647 0.212219 0.000000
0.688171 0.212585 0.000000
0.719604 0.212585 0.000000
0.750732 0.212402 0.000000
0.781738 0.212219 0.000000
0.812927 0.212219 0.000000
0.843994 0.212219 0.000000
0.875061 0.212036 0.000000
0.906036 0.212036 0.000000
0.937012 0.211853 0.000000
0.968201 0.211853 0.000000
0.999115 0.211670 0.000000
0.023651 0.157196 0.057434
0.032318 0.159210 0.058044
0.041748 0.160950 0.058044
0.052338 0.166046 0.059265
0.087372 0.171936 0.059265
0.129028 0.173309 0.065063
0.150726 0.178040 0.064514
0.178467 0.187958 0.051025
0.220154 0.207977 0.030731
0.262939 0.224335 0.018921
0.303558 0.235382 0.009460
0.342072 0.242126 0.001556
0.374359 0.243073 0.000000
0.405518 0.242920 0.000000
0.436737 0.243073 0.000000
0.467987 0.242920 0.000000
0.499298 0.242920 0.000000
0.530670 0.243073 0.000000
0.562134 0.243256 0.000000
0.593719 0.243408 0.000000
0.625336 0.243713 0.000000
0.656860 0.243713 0.000000
0.688263 0.243866 0.000000
0.719421 0.243713 0.000000
0.750549 0.243561 0.000000
0.781677 0.243408 0.000000
0.812775 0.243561 0.000000
0.843842 0.243408 0.000000
0.874969 0.243256 0.000000
0.905884 0.243256 0.000000
0.937073 0.243073 0.000000
0.968048 0.243073 0.000000
0.999054 0.242767 0.000000
0.026001 0.183289 0.065063
0.034698 0.184998 0.065063
0.045441 0.187958 0.065643
0.058044 0.192505 0.066742
0.094238 0.196747 0.066193
0.135956 0.199921 0.074158
0.158966 0.203033 0.075653
0.179352 0.206268 0.071045
0.209656 0.218719 0.054932
0.249908 0.237518 0.035492
0.291351 0.253082 0.023651
0.331635 0.263947 0.013397
0.370361 0.271271 0.004730
0.405518 0.274170 0.000000
0.436584 0.274017 0.000000
0.468048 0.274170 0.000000
0.499542 0.274445 0.000000
0.531097 0.274719 0.000000
0.562714 0.274841 0.000000
0.594147 0.274994 0.000000
0.625549 0.275116 0.000000
0.657043 0.275269 0.000000
0.688232 0.275116 0.000000
0.719177 0.274841 0.000000
0.750305 0.274719 0.000000
0.781647 0.274719 0.000000
0.812653 0.274445 0.000000
0.843689 0.274445 0.000000
0.874817 0.274292 0.000000
0.905792 0.274292 0.000000
0.936920 0.274170 0.000000
0.967926 0.274017 0.000000
0.999054 0.274170 0.000000
0.031525 0.209656 0.073120
0.041748 0.211487 0.073639
0.051666 0.214233 0.074158
0.066193 0.217834 0.075165
0.102600 0.222076 0.075653
0.142273 0.225189 0.083344
0.167725 0.229248 0.083801
0.188385 0.231934 0.085602
0.208527 0.235382 0.078125
0.240540 0.249908 0.060455
0.278900 0.267365 0.040985
0.319580 0.281708 0.028381
0.359650 0.292480 0.017334
0.398956 0.300232 0.007874
0.436981 0.305603 0.000000
0.468414 0.305847 0.000000
0.499939 0.305969 0.000000
0.531464 0.306091 0.000000
0.562927 0.306335 0.000000
0.594421 0.306458 0.000000
0.625549 0.306458 0.000000
0.656860 0.306335 0.000000
0.687988 0.306213 0.000000
0.719177 0.306091 0.000000
0.750336 0.305969 0.000000
0.781494 0.305847 0.000000
0.812500 0.305725 0.000000
0.843567 0.305603 0.000000
0.874725 0.305481 0.000000
0.905823 0.305481 0.000000
0.936829 0.305359 0.000000
0.967834 0.305237 0.000000
0.999054 0.305359 0.000000
0.036255 0.235870 0.082397
0.046875 0.238159 0.082886
0.056824 0.240234 0.083344
0.074158 0.243073 0.083344
0.110779 0.247131 0.087402
0.150970 0.250519 0.092590
0.178253 0.255035 0.092590
0.197540 0.257996 0.094238
0.218384 0.261047 0.096313
0.238647 0.264954 0.085175
0.271545 0.280792 0.065643
0.308350 0.296509 0.046173
0.348328 0.310394 0.033112
0.388733 0.321838 0.022858
0.428192 0.329895 0.011810
0.466339 0.335571 0.003937
0.500336 0.337494 0.000793
0.531830 0.337708 0.000793
0.562988 0.337708 0.000793
0.594360 0.337708 0.000000
0.625397 0.337585 0.000000
0.656525 0.337494 0.000000
0.687683 0.337372 0.000000
0.718872 0.337280 0.000000
0.750031 0.337158 0.000000
0.781311 0.337067 0.000000
0.812317 0.336853 0.000000
0.843475 0.336731 0.000000
0.874664 0.336639 0.000000
0.905609 0.336639 0.000000
0.936798 0.336517 0.000000
0.967773 0.336426 0.000000
0.999329 0.336731 0.000000
0.029968 0.260620 0.091309
0.040985 0.262512 0.091736
0.052979 0.264069 0.091736
0.085175 0.267365 0.091736
0.131470 0.271393 0.102234
0.161682 0.276764 0.102997
0.187958 0.281860 0.103394
0.209259 0.285797 0.104523
0.229095 0.289032 0.106781
0.249756 0.292114 0.107513
0.268890 0.295258 0.092163
0.302094 0.311920 0.072083
0.338348 0.326782 0.051666
0.378204 0.340576 0.039429
0.418121 0.351379 0.027588
0.457367 0.359436 0.017334
0.495819 0.365417 0.007874
0.531830 0.368927 0.000793
0.563049 0.368805 0.000793
0.594147 0.368713 0.000000
0.625183 0.368713 0.000000
0.656464 0.368622 0.000000
0.687653 0.368530 0.000000
0.718781 0.368439 0.000000
0.749969 0.368347 0.000000
0.781128 0.368134 0.000000
0.812164 0.368042 0.000000
0.843323 0.367950 0.000000
0.874512 0.367767 0.000000
0.905487 0.367767 0.000000
0.936646 0.367645 0.000000
0.968048 0.367950 0.000000
0.999603 0.368134 0.000000
0.030762 0.287109 0.101074
0.044006 0.289551 0.101868
0.071045 0.291473 0.101471
0.107880 0.294128 0.107880
0.148834 0.298401 0.113251
0.173981 0.303894 0.114319
0.198547 0.309082 0.114990
0.221893 0.313782 0.115356
0.240540 0.317169 0.117401
0.260315 0.320251 0.119751
0.279846 0.323090 0.116730
0.299988 0.327667 0.099915
0.332520 0.342896 0.079559
0.368713 0.357239 0.059265
0.407990 0.370544 0.045441
0.447662 0.380981 0.033905
0.486542 0.388641 0.022064
0.524750 0.394623 0.011047
0.561737 0.399109 0.002350
0.593903 0.399719 0.000793
0.625183 0.399719 0.000000
0.656281 0.399658 0.000000
0.687531 0.399567 0.000000
0.718597 0.399475 0.000000
0.749725 0.399384 0.000000
0.780823 0.399292 0.000000
0.812073 0.399200 0.000000
0.843231 0.399109 0.000000
0.874268 0.398865 0.000000
0.905487 0.398865 0.000000
0.936890 0.399048 0.000000
0.968353 0.399292 0.000000
0.999878 0.399567 0.000000
0.031555 0.313782 0.111481
0.052979 0.316345 0.111847
0.097504 0.318878 0.116028
0.135376 0.321381 0.124634
0.161438 0.325439 0.124969
0.184570 0.330109 0.125580
0.207764 0.335449 0.126556
0.231598 0.340790 0.127167
0.252319 0.345612 0.129028
0.271393 0.349457 0.131805
0.291351 0.352600 0.133911
0.309326 0.354523 0.126862
0.331085 0.360229 0.108978
0.363373 0.374359 0.087830
0.398956 0.388123 0.067291
0.437683 0.400177 0.051025
0.476990 0.410034 0.037842
0.515717 0.417877 0.026794
0.554047 0.423920 0.014984
0.590851 0.428528 0.005524
0.624939 0.430817 0.000000
0.656097 0.430756 0.000000
0.687347 0.430664 0.000000
0.718414 0.430603 0.000000
0.749573 0.430511 0.000000
0.780670 0.430420 0.000000
0.811951 0.430359 0.000000
0.843079 0.430176 0.000000
0.874237 0.430176 0.000000
0.905792 0.430420 0.000000
0.937225 0.430603 0.000000
0.968781 0.430817 0.000000
1.000000 0.431061 0.000000
0.017365 0.338135 0.121063
0.072601 0.340912 0.120728
0.111481 0.343414 0.135681
0.144226 0.347168 0.136261
0.169373 0.351501 0.136841
0.192719 0.356445 0.137726
0.216583 0.362396 0.139160
0.240387 0.368347 0.140015
0.264954 0.374542 0.140869
0.283051 0.378754 0.143677
0.302216 0.382355 0.145874
0.321503 0.384003 0.147522
0.338440 0.384369 0.137146
0.361908 0.391785 0.117065
0.393585 0.404999 0.096313
0.428680 0.417450 0.074646
0.467072 0.428986 0.055573
0.506409 0.438904 0.042511
0.545258 0.446899 0.030731
0.583374 0.453156 0.018921
0.620270 0.458038 0.008667
0.656006 0.461853 0.000000
0.687164 0.461761 0.000000
0.718323 0.461700 0.000000
0.749359 0.461548 0.000000
0.780640 0.461487 0.000000
0.811646 0.461334 0.000000
0.843109 0.461487 0.000000
0.874634 0.461700 0.000000
0.906067 0.461853 0.000000
0.937622 0.462067 0.000000
0.968994 0.462280 0.000000
1.000000 0.462585 0.000000
0.037842 0.365326 0.132111
0.089996 0.368042 0.139435
0.128418 0.371124 0.148590
0.155396 0.375183 0.149139
0.180237 0.379486 0.149933
0.202820 0.384369 0.150452
0.225861 0.389923 0.151764
0.249603 0.395691 0.152557
0.273895 0.401825 0.153595
0.294769 0.406616 0.155151
0.312866 0.410370 0.157440
0.331970 0.412628 0.159210
0.350891 0.412872 0.160461
0.366699 0.412872 0.146454
0.391785 0.421967 0.124329
0.423523 0.434631 0.102631
0.458405 0.446442 0.080536
0.496643 0.457764 0.060455
0.536072 0.467773 0.046875
0.574799 0.475952 0.034698
0.612823 0.482483 0.022858
0.649963 0.487610 0.011810
0.685486 0.491608 0.003143
0.718079 0.492737 0.000000
0.749237 0.492676 0.000000
0.780548 0.492737 0.000000
0.812073 0.492950 0.000000
0.843506 0.493073 0.000000
0.875061 0.493225 0.000000
0.906403 0.493408 0.000000
0.937897 0.493622 0.000000
0.969452 0.493744 0.000000
1.000000 0.494019 0.000000
0.061646 0.393494 0.149384
0.105652 0.395691 0.157440
0.139709 0.398865 0.160950
0.165802 0.402588 0.161682
0.190247 0.406708 0.162170
0.211853 0.411194 0.163147
0.233765 0.416473 0.163879
0.256653 0.422211 0.165100
0.281311 0.428528 0.166046
0.306335 0.434448 0.166779
0.324554 0.438446 0.168671
0.342804 0.441071 0.170319
0.361206 0.442078 0.171692
0.378845 0.441650 0.171021
0.395081 0.442108 0.153870
0.422455 0.453064 0.131500
0.453735 0.464691 0.109711
0.488220 0.475861 0.086945
0.526367 0.486877 0.066193
0.565796 0.496765 0.051025
0.604309 0.508240 0.040222
0.642212 0.515015 0.029175
0.679077 0.520386 0.017334
0.714996 0.524628 0.007080
0.749634 0.527527 0.000000
0.781097 0.527710 0.000000
0.812439 0.527771 0.000000
0.843872 0.527954 0.000000
0.875397 0.528137 0.000000
0.906921 0.528320 0.000000
0.938354 0.528534 0.000000
0.969604 0.528442 0.000000
1.000000 0.528442 0.000000
0.072083 0.419281 0.166290
0.113953 0.421417 0.172607
0.142853 0.424652 0.173065
0.169128 0.428284 0.173309
0.194946 0.432404 0.174225
0.217468 0.437134 0.174896
0.240234 0.442627 0.175812
0.263947 0.448730 0.176910
0.288513 0.454926 0.178040
0.313782 0.460907 0.178497
0.336517 0.465912 0.179596
0.353821 0.468781 0.181549
0.371490 0.470490 0.182861
0.389923 0.470856 0.183746
0.407837 0.471130 0.179382
0.424561 0.472076 0.161224
0.453064 0.483856 0.138306
0.483734 0.494293 0.115692
0.518250 0.507843 0.095093
0.556305 0.518616 0.073639
0.595642 0.528442 0.056824
0.634094 0.536926 0.044006
0.671967 0.544098 0.033112
0.709106 0.550079 0.022064
0.745422 0.554901 0.011810
0.780670 0.558594 0.003143
0.812866 0.559326 0.000793
0.844330 0.559509 0.000793
0.875824 0.559723 0.000793
0.907074 0.559723 0.000793
0.938324 0.559723 0.000793
0.969482 0.559631 0.000000
1.000000 0.559448 0.000000
0.088715 0.447601 0.183502
0.123657 0.449707 0.184998
0.152557 0.452850 0.185455
0.178040 0.455902 0.185883
0.202820 0.459717 0.186279
0.225525 0.464081 0.186920
0.248077 0.468994 0.187561
0.270844 0.474243 0.188385
0.295532 0.480347 0.189240
0.320709 0.486053 0.189850
0.346436 0.491333 0.190063
0.365326 0.496307 0.192108
0.383453 0.500275 0.194366
0.401825 0.501709 0.195770
0.420654 0.502258 0.196960
0.437683 0.501801 0.187775
0.455750 0.503632 0.167725
0.484192 0.515778 0.145905
0.514526 0.525757 0.123352
0.548462 0.536011 0.100311
0.586517 0.546753 0.078613
0.625885 0.557098 0.061035
0.664612 0.566101 0.048981
0.702362 0.573730 0.038635
0.739532 0.579956 0.027588
0.775940 0.584961 0.017334
0.811188 0.589050 0.007874
0.844696 0.591064 0.002350
0.875824 0.590912 0.001556
0.906982 0.590912 0.001556
0.938110 0.590759 0.000793
0.969269 0.590637 0.000000
1.000000 0.590607 0.000000
0.100677 0.475586 0.197754
0.132111 0.477051 0.197357
0.159454 0.479279 0.197174
0.184570 0.482056 0.197174
0.210022 0.485718 0.197571
0.232758 0.492340 0.199158
0.254883 0.496979 0.199738
0.277283 0.501709 0.200317
0.300598 0.506805 0.201111
0.325775 0.512421 0.201477
0.352509 0.518250 0.201874
0.376801 0.522827 0.202454
0.394897 0.525757 0.204376
0.412964 0.527954 0.205902
0.431396 0.529449 0.207214
0.450592 0.530060 0.208344
0.467346 0.530487 0.193939
0.486938 0.533844 0.171936
0.515015 0.543976 0.148865
0.545502 0.553711 0.126556
0.579071 0.563995 0.103424
0.617584 0.575409 0.082886
0.656982 0.586182 0.065643
0.695282 0.595520 0.054291
0.733032 0.603333 0.043243
0.770294 0.609863 0.033112
0.806488 0.615112 0.022064
0.841400 0.619171 0.011810
0.875641 0.622009 0.002350
0.906799 0.621948 0.001587
0.937927 0.621857 0.000793
0.969147 0.621765 0.000793
1.000000 0.621674 0.000000
0.090027 0.503235 0.210968
0.126221 0.504272 0.209839
0.155396 0.506287 0.209656
0.183502 0.508545 0.209290
0.210022 0.511444 0.209290
0.234894 0.515717 0.209839
0.258728 0.520447 0.210419
0.282379 0.525360 0.210968
0.306580 0.530487 0.211517
0.332306 0.536438 0.212067
0.359741 0.542603 0.212433
0.387390 0.548279 0.212250
0.406281 0.551483 0.213715
0.424255 0.554108 0.215149
0.442627 0.556183 0.216766
0.461853 0.557617 0.218201
0.481018 0.557861 0.217316
0.496490 0.557861 0.196777
0.518250 0.562653 0.174011
0.546814 0.572632 0.151276
0.577454 0.582458 0.129059
0.611267 0.593079 0.107544
0.649475 0.604614 0.087402
0.688232 0.615692 0.071045
0.726471 0.625092 0.059265
0.764099 0.632935 0.048279
0.800690 0.639374 0.037048
0.836487 0.644745 0.026001
0.871399 0.648773 0.014984
0.905396 0.651947 0.006287
0.937744 0.652954 0.001556
0.968994 0.652924 0.000793
1.000000 0.652771 0.000000
0.085632 0.529266 0.225189
0.125885 0.530365 0.223633
0.158203 0.532196 0.222443
0.187744 0.534088 0.221741
0.215515 0.536560 0.221375
0.240723 0.540283 0.221558
0.265228 0.544739 0.221893
0.289154 0.549866 0.222443
0.313782 0.555145 0.222961
0.339935 0.561218 0.223480
0.366791 0.567108 0.223480
0.394196 0.572571 0.223297
0.417297 0.576721 0.223633
0.435242 0.579590 0.225037
0.453827 0.581970 0.226410
0.472992 0.583984 0.227753
0.492432 0.585175 0.228271
0.510559 0.585114 0.221741
0.526306 0.584686 0.198364
0.550446 0.591644 0.175598
0.579590 0.601929 0.153870
0.610199 0.611877 0.131500
0.643250 0.622314 0.111877
0.680847 0.633911 0.092163
0.719696 0.644928 0.075684
0.757690 0.654266 0.063385
0.794678 0.662018 0.051666
0.830994 0.668671 0.040222
0.866608 0.674042 0.029175
0.901276 0.678223 0.018127
0.935303 0.681702 0.008667
0.968719 0.683990 0.000793
0.999969 0.683899 0.000793
0.088287 0.555878 0.237030
0.130249 0.557220 0.235748
0.162659 0.558533 0.234741
0.192322 0.559906 0.233612
0.220673 0.561859 0.232788
0.246216 0.564789 0.232605
0.271393 0.568909 0.232605
0.295776 0.573853 0.233124
0.320831 0.579590 0.233429
0.346649 0.585327 0.233612
0.373199 0.591064 0.233612
0.400330 0.596252 0.233429
0.427551 0.601135 0.232788
0.446014 0.604156 0.234253
0.464844 0.607147 0.236237
0.484131 0.609863 0.237671
0.503998 0.611969 0.238800
0.523193 0.612793 0.236725
0.540527 0.612579 0.222778
0.557678 0.612122 0.199524
0.583984 0.621063 0.177612
0.612671 0.631470 0.155670
0.642395 0.641205 0.134521
0.674988 0.651367 0.116058
0.712372 0.662903 0.095917
0.751129 0.673920 0.079102
0.788544 0.683014 0.066772
0.825104 0.690887 0.055573
0.861298 0.697632 0.044006
0.896637 0.703339 0.032318
0.931061 0.707703 0.021271
0.964508 0.711365 0.011810
0.998932 0.714417 0.002350
0.099518 0.582306 0.247772
0.141693 0.583282 0.246704
0.172852 0.584412 0.245453
0.201477 0.585602 0.244202
0.229431 0.587311 0.242798
0.255188 0.589996 0.242462
0.280792 0.593689 0.242157
0.305603 0.598694 0.242462
0.330536 0.604248 0.243103
0.355438 0.609772 0.243408
0.380798 0.615326 0.243744
0.407410 0.620361 0.243408
0.434784 0.625305 0.242950
0.457001 0.629456 0.243561
0.475952 0.632874 0.246063
0.495575 0.636322 0.247925
0.515594 0.639038 0.249298
0.535706 0.640442 0.250671
0.554382 0.641052 0.243561
0.571594 0.641022 0.225037
0.589996 0.640869 0.202057
0.617249 0.651337 0.180695
0.645020 0.661072 0.158722
0.673706 0.669983 0.138031
0.706177 0.679962 0.119415
0.744049 0.691803 0.099121
0.782166 0.702667 0.082428
0.819122 0.712006 0.070526
0.855774 0.720062 0.058655
0.891693 0.727142 0.047577
0.926544 0.732910 0.036255
0.959473 0.737274 0.025238
0.993256 0.740997 0.014984
0.109344 0.607513 0.257996
0.151245 0.608429 0.256836
0.182220 0.609467 0.255646
0.210754 0.610748 0.254303
0.238647 0.612518 0.253113
0.264069 0.614960 0.252350
0.289032 0.618195 0.252045
0.313202 0.623047 0.252350
0.337708 0.628357 0.252808
0.362885 0.633789 0.253235
0.388367 0.639526 0.253540
0.414886 0.644745 0.253387
0.442383 0.650421 0.253235
0.468567 0.655640 0.253540
0.487671 0.659454 0.255798
0.507599 0.662994 0.257721
0.527588 0.666016 0.259613
0.547577 0.667938 0.261078
0.567780 0.668701 0.261932
0.585449 0.669617 0.248688
0.602600 0.669800 0.227234
0.621948 0.670929 0.204559
0.648163 0.680359 0.183289
0.675629 0.689545 0.161469
0.704834 0.698944 0.141449
0.737732 0.708801 0.122406
0.775269 0.720825 0.102264
0.812897 0.731812 0.086517
0.849945 0.741180 0.074158
0.886475 0.749634 0.062805
0.921814 0.756622 0.051025
0.954742 0.762146 0.040222
0.987701 0.766602 0.029175
0.112915 0.632812 0.268768
0.156158 0.633606 0.267792
0.188995 0.634827 0.266388
0.218201 0.636292 0.265106
0.245911 0.638153 0.263947
0.271271 0.640533 0.262817
0.295898 0.643402 0.262360
0.320129 0.648102 0.262665
0.345001 0.653381 0.263245
0.370911 0.659271 0.263672
0.397278 0.664978 0.263947
0.423431 0.670227 0.263824
0.449921 0.675812 0.263947
0.477966 0.681519 0.263672
0.499695 0.685486 0.264954
0.519501 0.688782 0.267090
0.539612 0.691528 0.268768
0.559509 0.693787 0.270294
0.579254 0.695129 0.271423
0.598785 0.695526 0.271698
0.614777 0.696472 0.251129
