Kodak Vision3 250D (5207) - Only contrast.cube
# Created by Benjamin (IWLTBAP) : http://luts.iwltbap.com
# Copyright: (C) Copyright 2010-2017 Triune Films and IWLTBAP SAS
# Cannot be resold, shared or otherwise redistributed
TITLE "Film Print Emulation LUTs Pack (Rec.709, sRGB, DCI-P3)"
LUT_3D_SIZE 5
0.000305 0.000305 0.000305
0.150726 0.000000 0.000000
0.370056 0.000000 0.000000
0.641449 0.000000 0.000000
0.929138 0.000000 0.000000
0.000000 0.150726 0.000000
0.151093 0.151093 0.000000
0.370636 0.150970 0.000000
0.642426 0.150513 0.000000
0.930298 0.149963 0.000000
0.000000 0.370056 0.000000
0.150970 0.370636 0.000000
0.370758 0.370758 0.000000
0.642914 0.370544 0.000000
0.931000 0.370178 0.000000
0.000000 0.641449 0.000000
0.150513 0.642426 0.000000
0.370544 0.642914 0.000000
0.643066 0.643066 0.000000
0.931335 0.643127 0.000000
0.000000 0.929138 0.000000
0.149963 0.930298 0.000000
0.370178 0.931000 0.000000
0.643127 0.931335 0.000000
0.931702 0.931488 0.000000
0.000000 0.000000 0.150726
0.151093 0.000000 0.151093
0.370636 0.000000 0.150970
0.642426 0.000000 0.150513
0.930298 0.000000 0.149963
0.000000 0.151093 0.151093
0.151428 0.151428 0.151428
0.371216 0.151337 0.151337
0.643372 0.150879 0.150879
0.931427 0.150299 0.150299
0.000000 0.370636 0.150970
0.151337 0.371216 0.151337
0.371338 0.371338 0.151215
0.643860 0.371094 0.150757
0.932129 0.370758 0.150177
0.000000 0.642426 0.150513
0.150879 0.643372 0.150879
0.371094 0.643860 0.150757
0.644012 0.644012 0.150269
0.932434 0.644043 0.149689
0.000000 0.930298 0.149963
0.150299 0.931427 0.150299
0.370758 0.932129 0.150177
0.644043 0.932434 0.149689
0.932678 0.932678 0.149109
0.000000 0.000000 0.370056
0.150970 0.000000 0.370636
0.370758 0.000000 0.370758
0.642914 0.000000 0.370544
0.931000 0.000000 0.370178
0.000000 0.150970 0.370636
0.151337 0.151337 0.371216
0.371338 0.151215 0.371338
0.643860 0.150757 0.371094
0.932129 0.150177 0.370758
0.000000 0.370758 0.370758
0.151215 0.371338 0.371338
0.371460 0.371460 0.371460
0.644379 0.371216 0.371216
0.932800 0.370850 0.370850
0.000000 0.642914 0.370544
0.150757 0.643860 0.371094
0.371216 0.644379 0.371216
0.644531 0.644531 0.370972
0.933136 0.644562 0.370605
0.000000 0.931000 0.370178
0.150177 0.932129 0.370758
0.370850 0.932800 0.370850
0.644562 0.933136 0.370605
0.933319 0.933319 0.370270
0.000000 0.000000 0.641449
0.150513 0.000000 0.642426
0.370544 0.000000 0.642914
0.643066 0.000000 0.643066
0.931335 0.000000 0.643127
0.000000 0.150513 0.642426
0.150879 0.150879 0.643372
0.371094 0.150757 0.643860
0.644012 0.150269 0.644012
0.932434 0.149689 0.644043
0.000000 0.370544 0.642914
0.150757 0.371094 0.643860
0.371216 0.371216 0.644379
0.644531 0.370972 0.644531
0.933136 0.370605 0.644562
0.000000 0.643066 0.643066
0.150269 0.644012 0.644012
0.370972 0.644531 0.644531
0.644653 0.644653 0.644653
0.933441 0.644684 0.644684
0.000000 0.931335 0.643127
0.149689 0.932434 0.644043
0.370605 0.933136 0.644562
0.644684 0.933441 0.644684
0.933624 0.933624 0.644714
0.000000 0.000000 0.929047
0.149963 0.000000 0.930298
0.370178 0.000000 0.931000
0.643127 0.000000 0.931335
0.931549 0.000000 0.931549
0.000000 0.149963 0.930298
0.150299 0.150299 0.931427
0.370758 0.150177 0.932129
0.644043 0.149689 0.932434
0.932678 0.149109 0.932678
0.000000 0.370178 0.931000
0.150177 0.370758 0.932129
0.370850 0.370850 0.932800
0.644562 0.370605 0.933136
0.933319 0.370270 0.933319
0.000000 0.643127 0.931335
0.149689 0.644043 0.932434
0.370605 0.644562 0.933136
0.644684 0.644684 0.933441
0.933624 0.644714 0.933624
0.000000 0.931549 0.931549
0.149109 0.932678 0.932678
0.370270 0.933319 0.933319
0.644714 0.933624 0.933624
0.933807 0.933807 0.933807
