Kodak Vision2 500T Expression (5229) - Look.cube
# Created by Benjamin (IWLTBAP) : http://luts.iwltbap.com
# Copyright: (C) Copyright 2010-2017 Triune Films and IWLTBAP SAS
# Cannot be resold, shared or otherwise redistributed
TITLE "Film Print Emulation LUTs Pack (Rec.709, sRGB, DCI-P3)"
LUT_3D_SIZE 5
0.000793 0.002380 0.003174
0.194031 0.004303 0.000000
0.393250 0.007874 0.000000
0.545074 0.010010 0.000000
0.672729 0.019989 0.000000
0.036530 0.249054 0.035553
0.242920 0.182556 0.017731
0.501648 0.201752 0.000488
0.662781 0.166199 0.000610
0.785980 0.157776 0.000671
0.133057 0.507874 0.056274
0.264648 0.412628 0.025696
0.521973 0.375885 0.028107
0.760040 0.421539 0.022034
0.907623 0.411865 0.028290
0.216248 0.733093 0.078979
0.325836 0.631409 0.043732
0.511505 0.612915 0.031891
0.725922 0.542450 0.049683
0.939392 0.578491 0.099884
0.283234 0.918457 0.085052
0.384827 0.842773 0.068085
0.529541 0.789337 0.041107
0.726501 0.804657 0.041809
0.912476 0.692932 0.096588
0.000000 0.001587 0.066193
0.053009 0.000793 0.028381
0.228821 0.000793 0.022156
0.431824 0.000793 0.023102
0.595154 0.000763 0.029449
0.044739 0.241364 0.195160
0.198730 0.203033 0.185211
0.445618 0.197205 0.151703
0.633148 0.197205 0.137939
0.774475 0.199249 0.143799
0.214600 0.546082 0.255707
0.294952 0.490753 0.249207
0.498718 0.420685 0.208649
0.734283 0.456818 0.219788
0.895660 0.434113 0.215881
0.232605 0.731750 0.237549
0.360229 0.723694 0.270172
0.515015 0.648621 0.248810
0.710724 0.597656 0.227203
0.938599 0.620422 0.259003
0.260803 0.906097 0.220703
0.430847 0.929230 0.280487
0.550446 0.850830 0.270172
0.724976 0.833527 0.257324
0.917419 0.752045 0.270447
0.000793 0.014191 0.100342
0.032318 0.004730 0.093445
0.106049 0.000793 0.050354
0.264709 0.001587 0.050354
0.442322 0.002350 0.058594
0.020508 0.086517 0.153351
0.115692 0.178040 0.279572
0.289825 0.184357 0.227234
0.489624 0.183502 0.214813
0.690094 0.180328 0.219543
0.152832 0.522369 0.420746
0.147247 0.463745 0.417572
0.474762 0.481781 0.461639
0.684692 0.484741 0.447418
0.845795 0.485931 0.438660
0.291473 0.747253 0.448425
0.359436 0.734192 0.452850
0.529968 0.727631 0.505035
0.695984 0.665161 0.500366
0.937592 0.699219 0.496338
0.339111 0.863586 0.411896
0.458069 0.888458 0.417084
0.593201 0.942841 0.507629
0.735260 0.878815 0.512329
0.919678 0.821014 0.508698
0.003937 0.027618 0.149414
0.014191 0.023651 0.172882
0.084717 0.005524 0.115723
0.155457 0.000793 0.071625
0.307556 0.002380 0.078308
0.001556 0.025238 0.091339
0.081940 0.188385 0.361725
0.237823 0.205322 0.323456
0.353119 0.183716 0.257843
0.520599 0.181946 0.256165
0.052979 0.322540 0.385956
0.046173 0.301727 0.413574
0.395874 0.442017 0.530060
0.553345 0.475800 0.515778
0.724182 0.475220 0.510956
0.231598 0.736511 0.592255
0.215881 0.697693 0.609100
0.383545 0.679688 0.630585
0.680084 0.696960 0.683899
0.893799 0.709747 0.678345
0.303192 0.854553 0.576843
0.402008 0.865234 0.608490
0.583282 0.889282 0.648438
0.769714 0.957642 0.729980
0.946594 0.886658 0.712646
0.011841 0.054932 0.197784
0.011047 0.046173 0.239471
0.071075 0.018921 0.174713
0.131531 0.001587 0.110809
0.211182 0.001587 0.091339
0.003174 0.026031 0.128784
0.050354 0.202637 0.423126
0.208527 0.218201 0.401154
0.305389 0.198730 0.329132
0.409882 0.184143 0.277435
0.040985 0.219971 0.338470
0.042542 0.221191 0.380707
0.372162 0.434387 0.582977
0.498352 0.468201 0.567566
0.599182 0.476837 0.544342
0.133301 0.549286 0.557281
0.118774 0.512482 0.585388
0.215698 0.535889 0.656860
0.627960 0.644806 0.717712
0.752380 0.696655 0.739685
0.253845 0.835449 0.708801
0.244507 0.818970 0.719299
0.372925 0.820312 0.740845
0.621002 0.847656 0.797180
0.961670 0.955688 0.953918
