Kodak 8mm - Only contrast.cube
# Created by Benjamin (IWLTBAP) : http://luts.iwltbap.com
# Copyright: (C) Copyright 2010-2017 Triune Films and IWLTBAP SAS
# Cannot be resold, shared or otherwise redistributed
TITLE "Film Print Emulation LUTs Pack (Rec.709, sRGB, DCI-P3)"
LUT_3D_SIZE 5
0.000397 0.000397 0.000397
0.219391 0.000000 0.000000
0.537231 0.000000 0.000000
0.814880 0.000000 0.000000
1.000000 0.000000 0.000000
0.000000 0.219391 0.000000
0.220032 0.220032 0.000000
0.537842 0.220001 0.000000
0.815063 0.220245 0.000000
1.000000 0.221130 0.000000
0.000000 0.537231 0.000000
0.220001 0.537842 0.000000
0.537750 0.537750 0.000000
0.814606 0.537964 0.000000
1.000000 0.538757 0.000000
0.000000 0.814880 0.000000
0.220245 0.815063 0.000000
0.537964 0.814606 0.000000
0.814453 0.814453 0.000000
1.000000 0.814880 0.000000
0.000000 1.000000 0.000000
0.221130 1.000000 0.000000
0.538757 1.000000 0.000000
0.814880 1.000000 0.000000
1.000000 1.000000 0.009277
0.000000 0.000000 0.219391
0.220032 0.000000 0.220032
0.537842 0.000000 0.220001
0.815063 0.000000 0.220245
1.000000 0.000000 0.221130
0.000000 0.220032 0.220032
0.220642 0.220642 0.220642
0.538422 0.220642 0.220642
0.815277 0.220917 0.220917
1.000000 0.221802 0.221802
0.000000 0.537842 0.220001
0.220642 0.538422 0.220642
0.538330 0.538330 0.220642
0.814819 0.538513 0.220917
1.000000 0.539276 0.221832
0.000000 0.815063 0.220245
0.220917 0.815277 0.220917
0.538513 0.814819 0.220917
0.814636 0.814636 0.221252
1.000000 0.815094 0.222168
0.000000 1.000000 0.221130
0.221802 1.000000 0.221802
0.539276 1.000000 0.221832
0.815094 1.000000 0.222168
1.000000 1.000000 0.223114
0.000000 0.000000 0.537231
0.220001 0.000000 0.537842
0.537750 0.000000 0.537750
0.814606 0.000000 0.537964
1.000000 0.000000 0.538757
0.000000 0.220001 0.537842
0.220642 0.220642 0.538422
0.538330 0.220642 0.538330
0.814819 0.220917 0.538513
1.000000 0.221832 0.539276
0.000000 0.537750 0.537750
0.220642 0.538330 0.538330
0.538239 0.538239 0.538239
0.814362 0.538422 0.538422
1.000000 0.539185 0.539185
0.000000 0.814606 0.537964
0.220917 0.814819 0.538513
0.538422 0.814362 0.538422
0.814209 0.814209 0.538574
1.000000 0.814667 0.539337
0.000000 1.000000 0.538757
0.221832 1.000000 0.539276
0.539185 1.000000 0.539185
0.814667 1.000000 0.539337
1.000000 1.000000 0.540100
0.000000 0.000000 0.814880
0.220245 0.000000 0.815063
0.537964 0.000000 0.814606
0.814453 0.000000 0.814453
1.000000 0.000000 0.814880
0.000000 0.220245 0.815063
0.220917 0.220917 0.815277
0.538513 0.220917 0.814819
0.814636 0.221252 0.814636
1.000000 0.222168 0.815094
0.000000 0.537964 0.814606
0.220917 0.538513 0.814819
0.538422 0.538422 0.814362
0.814209 0.538574 0.814209
1.000000 0.539337 0.814667
0.000000 0.814453 0.814453
0.221252 0.814636 0.814636
0.538574 0.814209 0.814209
0.814087 0.814087 0.814087
1.000000 0.814575 0.814575
0.000000 1.000000 0.814880
0.222168 1.000000 0.815094
0.539337 1.000000 0.814667
0.814575 1.000000 0.814575
1.000000 1.000000 0.815063
0.000000 0.000000 1.000000
0.221130 0.000000 1.000000
0.538757 0.000000 1.000000
0.814880 0.000000 1.000000
1.000000 0.000000 1.000000
0.000000 0.221130 1.000000
0.221802 0.221802 1.000000
0.539276 0.221832 1.000000
0.815094 0.222168 1.000000
1.000000 0.223114 1.000000
0.000000 0.538757 1.000000
0.221832 0.539276 1.000000
0.539185 0.539185 1.000000
0.814667 0.539337 1.000000
1.000000 0.540100 1.000000
0.000000 0.814880 1.000000
0.222168 0.815094 1.000000
0.539337 0.814667 1.000000
0.814575 0.814575 1.000000
1.000000 0.815063 1.000000
0.000000 1.000000 1.000000
0.223114 1.000000 1.000000
0.540100 1.000000 1.000000
0.815063 1.000000 1.000000
0.999969 0.999969 0.999969
