Kodak 16mm (Variant) - Only color.cube
# Created by Benjamin (IWLTBAP) : http://luts.iwltbap.com
# Copyright: (C) Copyright 2010-2017 Triune Films and IWLTBAP SAS
# Cannot be resold, shared or otherwise redistributed
TITLE "Film Print Emulation LUTs Pack (Rec.709, sRGB, DCI-P3)"
LUT_3D_SIZE 5
0.000000 0.000000 0.000031
0.263855 0.004028 0.020752
0.519135 0.000000 0.045746
0.714081 0.000000 0.089142
0.819183 0.000000 0.125031
0.098633 0.179535 0.052338
0.235687 0.172485 0.049500
0.491211 0.120209 0.033386
0.702087 0.028198 0.063843
0.822632 0.006348 0.072540
0.143555 0.339355 0.110870
0.229645 0.324402 0.103058
0.482880 0.366150 0.107544
0.708862 0.327698 0.066925
0.854584 0.257660 0.050720
0.321106 0.570221 0.190155
0.389435 0.580933 0.192474
0.534210 0.575226 0.189056
0.741669 0.580261 0.174561
0.904266 0.514862 0.114410
0.577881 0.910370 0.284180
0.665405 0.931854 0.287476
0.809601 0.956421 0.293854
0.958374 0.963623 0.318115
0.973419 0.856812 0.294098
0.001068 0.103790 0.350861
0.206390 0.062897 0.316284
0.494598 0.040466 0.224152
0.769379 0.084747 0.243744
0.946014 0.061859 0.260406
0.029633 0.210083 0.208313
0.253845 0.239868 0.256561
0.527893 0.229797 0.240845
0.771790 0.206909 0.218658
0.935852 0.151093 0.197754
0.137451 0.410095 0.199585
0.261871 0.409027 0.193909
0.540314 0.436066 0.242828
0.776031 0.407135 0.237030
0.938477 0.332703 0.160767
0.261444 0.637207 0.226135
0.395569 0.657928 0.231628
0.569733 0.630524 0.216858
0.792572 0.626709 0.241028
0.941528 0.563477 0.215424
0.610199 0.950836 0.331360
0.729279 0.952576 0.344757
0.851898 0.955750 0.360596
0.968262 0.964417 0.380951
0.987488 0.963898 0.392181
0.000000 0.172302 0.635681
0.094910 0.169647 0.634949
0.379761 0.121582 0.526123
0.554565 0.041840 0.362488
0.793335 0.048859 0.362518
0.000092 0.257416 0.518433
0.124969 0.268433 0.541199
0.369904 0.243042 0.492706
0.580322 0.158356 0.369110
0.945709 0.248047 0.383850
0.056702 0.384644 0.399078
0.168976 0.394958 0.410156
0.505005 0.485809 0.509155
0.767090 0.489929 0.493561
0.997040 0.453918 0.435333
0.243927 0.683380 0.477753
0.308594 0.686981 0.478973
0.542694 0.671112 0.467346
0.786407 0.662109 0.464081
0.932190 0.608582 0.409546
0.387787 0.922729 0.480408
0.606415 0.934113 0.494537
0.812012 0.947998 0.511749
0.944336 0.959839 0.521545
0.986267 0.967255 0.521149
0.000000 0.216858 0.825317
0.076355 0.226257 0.822784
0.320892 0.226471 0.770386
0.549377 0.171387 0.681732
0.733582 0.080383 0.560059
0.000000 0.316956 0.792542
0.096008 0.326477 0.803436
0.319489 0.320129 0.778198
0.555511 0.293793 0.692444
0.760925 0.230743 0.570099
0.000000 0.397308 0.634949
0.116608 0.436279 0.698944
0.364502 0.472626 0.747009
0.596375 0.459625 0.699158
0.812714 0.408875 0.594360
0.171265 0.699829 0.702240
0.268799 0.707214 0.716919
0.475006 0.701782 0.718323
0.759979 0.734009 0.756256
0.993652 0.692078 0.690125
0.323822 0.958069 0.728394
0.398895 0.960632 0.731781
0.646515 0.968262 0.741730
0.898743 0.976898 0.744354
0.992920 0.980988 0.722412
0.000000 0.245636 0.928955
0.037384 0.253235 0.923584
0.248016 0.265137 0.873657
0.502014 0.253052 0.805450
0.701935 0.214142 0.739929
0.000000 0.340485 0.919220
0.035767 0.349976 0.912323
0.233215 0.359009 0.895721
0.504852 0.353668 0.829102
0.714874 0.326477 0.768219
0.000000 0.465454 0.870300
0.060516 0.477051 0.886932
0.257904 0.500671 0.897430
0.528320 0.502136 0.869781
0.739960 0.473358 0.809296
0.001678 0.645416 0.842102
0.099335 0.635895 0.853790
0.265839 0.657349 0.863861
0.563965 0.696136 0.912415
0.798767 0.659027 0.871399
0.267151 0.967682 0.936127
0.320770 0.970215 0.941864
0.421478 0.972473 0.971985
0.728882 0.983215 0.989136
0.999939 0.999939 0.999939
