Kodak Vision3 500T (5230) - Look.cube
# Created by Benjamin (IWLTBAP) : http://luts.iwltbap.com
# Copyright: (C) Copyright 2010-2017 Triune Films and IWLTBAP SAS
# Cannot be resold, shared or otherwise redistributed
TITLE "Film Print Emulation LUTs Pack (Rec.709, sRGB, DCI-P3)"
LUT_3D_SIZE 9
0.001587 0.000000 0.000000
0.109833 0.007477 0.000000
0.220734 0.018127 0.000000
0.332001 0.027466 0.000000
0.437927 0.038818 0.000000
0.538055 0.047546 0.000000
0.632660 0.053406 0.000000
0.718292 0.057678 0.000000
0.798370 0.062317 0.000000
0.000000 0.080048 0.000000
0.086426 0.090515 0.000000
0.231110 0.119812 0.000000
0.351105 0.128387 0.000000
0.456940 0.135010 0.000000
0.555206 0.140717 0.000000
0.649414 0.144440 0.000000
0.733948 0.146820 0.000000
0.813690 0.150848 0.000000
0.027588 0.140015 0.000000
0.078613 0.151245 0.000000
0.186340 0.175232 0.000000
0.351990 0.228210 0.000000
0.473999 0.241211 0.000000
0.579498 0.248413 0.000000
0.674591 0.253387 0.000000
0.761230 0.253632 0.000000
0.838959 0.255219 0.000000
0.053650 0.214783 0.000793
0.107880 0.228241 0.000000
0.207977 0.248993 0.000000
0.320587 0.278076 0.000000
0.468445 0.333801 0.000000
0.595001 0.356567 0.000000
0.699341 0.367950 0.000000
0.793091 0.371613 0.003540
0.872803 0.372681 0.008270
0.101074 0.295258 0.001556
0.159210 0.316132 0.000000
0.259003 0.338898 0.000000
0.363983 0.363281 0.000000
0.459106 0.392487 0.000000
0.581696 0.436523 0.000000
0.705566 0.468292 0.000000
0.807861 0.482849 0.014191
0.898071 0.490417 0.023071
0.141998 0.386322 0.000000
0.220306 0.406891 0.000000
0.324768 0.429413 0.000000
0.420410 0.457397 0.000000
0.515778 0.479492 0.000000
0.592651 0.506134 0.000000
0.680328 0.534637 0.000000
0.801208 0.569946 0.014191
0.900116 0.583740 0.030823
0.207794 0.475250 0.000000
0.289795 0.497650 0.000000
0.379486 0.523132 0.000000
0.473389 0.546936 0.000000
0.563141 0.570587 0.003937
0.635559 0.582306 0.031525
0.694183 0.603729 0.036011
0.775421 0.632629 0.032959
0.878052 0.656647 0.030701
0.274017 0.562927 0.000000
0.350067 0.585297 0.004730
0.436737 0.610199 0.018127
0.527893 0.630005 0.034698
0.604401 0.642517 0.046875
0.671021 0.653290 0.067291
0.725281 0.657135 0.079590
0.776764 0.680054 0.078705
0.853027 0.717682 0.072296
0.346130 0.643372 0.049683
0.409760 0.662048 0.056824
0.491882 0.686462 0.060455
0.569275 0.701172 0.068390
0.636993 0.711670 0.080078
0.697113 0.718353 0.103394
0.751770 0.723877 0.114655
0.790771 0.725464 0.138306
0.840851 0.751495 0.136902
0.000000 0.012604 0.087830
0.070007 0.014191 0.072601
0.204590 0.014587 0.100311
0.320801 0.021637 0.095856
0.432098 0.026825 0.088989
0.537567 0.034485 0.088013
0.638885 0.046509 0.089325
0.728546 0.053040 0.088654
0.808655 0.059052 0.088989
0.000000 0.081940 0.093018
0.093018 0.102234 0.104156
0.234802 0.121368 0.105316
0.352661 0.126709 0.098022
0.464142 0.132233 0.094482
0.566742 0.137207 0.093903
0.661530 0.143585 0.093018
0.746857 0.145050 0.091522
0.827087 0.150055 0.091522
0.000000 0.141449 0.078613
0.098724 0.162903 0.079590
0.207581 0.183533 0.067200
0.365662 0.234985 0.092438
0.487030 0.245178 0.093323
0.594238 0.251831 0.094177
0.689636 0.255737 0.095306
0.777283 0.256958 0.097229
0.856262 0.257050 0.097229
0.047577 0.212616 0.075653
0.122040 0.239441 0.075653
0.224487 0.259735 0.056183
0.342651 0.290497 0.031403
0.489105 0.347076 0.073669
0.615723 0.369812 0.092712
0.716858 0.378021 0.100067
0.808563 0.380280 0.106628
0.887268 0.378906 0.108795
0.098328 0.291748 0.081940
0.157440 0.328583 0.074646
0.270447 0.357147 0.045471
0.385651 0.383179 0.011810
0.482819 0.408234 0.013031
0.602753 0.451965 0.063049
0.721619 0.482483 0.099579
0.824371 0.496216 0.119995
0.915009 0.503723 0.130768
0.147797 0.390106 0.088287
0.210754 0.419281 0.068390
0.338348 0.455231 0.043243
0.436096 0.479645 0.018921
0.536957 0.500732 0.030762
0.610992 0.523071 0.047638
0.694275 0.547119 0.072113
0.814453 0.581665 0.112457
0.913147 0.596954 0.130920
0.195770 0.476990 0.085175
0.274841 0.506348 0.075134
0.385376 0.541595 0.080994
0.486359 0.570404 0.064514
0.578979 0.587769 0.075653
0.649719 0.596313 0.080994
0.707733 0.615234 0.091309
0.785217 0.642700 0.112366
0.886017 0.665466 0.127350
0.256531 0.568176 0.111481
0.333160 0.587402 0.119049
0.435333 0.620117 0.133881
0.532440 0.641266 0.137421
0.610321 0.654114 0.142822
0.677094 0.663147 0.146973
0.732361 0.667114 0.149384
0.783539 0.689514 0.150391
0.857849 0.724915 0.157013
0.332642 0.644714 0.164368
0.396149 0.661804 0.176483
0.480743 0.688232 0.191071
0.567444 0.707153 0.202240
0.635315 0.716431 0.205902
0.696381 0.723816 0.207977
0.752258 0.729980 0.218201
0.791718 0.732666 0.226715
0.841461 0.757294 0.219269
0.000000 0.027588 0.131805
0.024445 0.026794 0.167023
0.143951 0.031525 0.141724
0.266968 0.038818 0.159424
0.425964 0.024139 0.197510
0.533447 0.026184 0.196411
0.635498 0.026520 0.194580
0.728485 0.029022 0.189209
0.811737 0.037354 0.187469
0.000000 0.085175 0.159973
0.019714 0.104523 0.200317
0.187958 0.114990 0.169830
0.324310 0.126007 0.186127
0.455719 0.128845 0.206573
0.563782 0.132935 0.207184
0.660339 0.134888 0.205231
0.749939 0.134186 0.199158
0.833313 0.138763 0.198486
0.000000 0.141449 0.166046
0.000000 0.167023 0.192108
0.232605 0.217651 0.206635
0.366913 0.235992 0.202240
0.488739 0.248260 0.221252
0.596558 0.253632 0.221649
0.692993 0.257172 0.222260
0.783112 0.257904 0.220734
0.864532 0.255524 0.215118
0.000000 0.211884 0.163879
0.067291 0.237183 0.173767
0.238464 0.276489 0.178253
0.356476 0.307587 0.177979
0.504913 0.363495 0.222412
0.623932 0.377930 0.231567
0.723114 0.384460 0.236816
0.813934 0.384766 0.237854
0.895050 0.382355 0.236816
0.059265 0.288147 0.166534
0.139160 0.320251 0.172394
0.279846 0.371704 0.182861
0.399048 0.398438 0.179810
0.489197 0.421143 0.179443
0.623383 0.477264 0.224426
0.740417 0.502289 0.248260
0.836395 0.511780 0.259033
0.921387 0.510925 0.259094
0.139160 0.377014 0.170776
0.183716 0.408173 0.178253
0.333374 0.464172 0.192108
0.444855 0.496246 0.208160
0.539673 0.511322 0.204376
0.610718 0.530975 0.206543
0.709106 0.566711 0.230804
0.828369 0.602509 0.255676
0.926056 0.615143 0.268280
0.187347 0.462891 0.183502
0.234406 0.495636 0.187531
0.375580 0.547516 0.223816
0.487244 0.582031 0.244507
0.576385 0.595276 0.244812
0.644012 0.601990 0.239594
0.702362 0.620850 0.238220
0.782806 0.647736 0.245850
0.898132 0.684296 0.265900
0.211700 0.543549 0.204376
0.276489 0.580017 0.215332
0.421722 0.624695 0.258575
0.527466 0.649536 0.279053
0.607605 0.662537 0.284760
0.671356 0.669434 0.282898
0.728302 0.673462 0.280914
0.778625 0.695709 0.279358
0.855011 0.731628 0.288361
0.262787 0.629852 0.229584
0.365417 0.657471 0.259888
0.465393 0.690765 0.292114
0.557831 0.713135 0.316467
0.631989 0.725098 0.327118
0.691742 0.729980 0.325775
0.746765 0.734161 0.328247
0.786926 0.737457 0.335876
0.838623 0.763580 0.332062
0.000000 0.046173 0.191498
0.000000 0.047577 0.221008
0.110413 0.049652 0.241821
0.227753 0.051666 0.214233
0.339020 0.068726 0.210114
0.492310 0.052399 0.271606
0.638916 0.033081 0.301941
0.733002 0.029327 0.297821
0.817535 0.036316 0.294342
0.000000 0.099518 0.219971
0.000000 0.118744 0.259613
0.117401 0.123688 0.277039
0.278900 0.131805 0.244507
0.391724 0.146088 0.245026
0.532898 0.138702 0.293671
0.662506 0.139038 0.314178
0.755188 0.138519 0.311310
0.837616 0.138916 0.306580
0.000000 0.153870 0.227417
0.000000 0.179596 0.263947
0.156433 0.220490 0.317841
0.337921 0.240875 0.282104
0.467865 0.249908 0.292603
0.581635 0.255951 0.313934
0.691376 0.257111 0.330383
0.782837 0.257690 0.328430
0.865601 0.253113 0.321381
0.000000 0.214050 0.237823
0.000000 0.235382 0.257416
0.123352 0.278381 0.294006
0.398407 0.359436 0.328796
0.523376 0.373596 0.320282
0.624786 0.386383 0.341522
0.721649 0.386444 0.353699
0.812225 0.386047 0.352997
0.894806 0.380951 0.347504
0.000000 0.282654 0.245911
0.000000 0.310974 0.258301
0.197937 0.367096 0.284882
0.405090 0.412231 0.291595
0.505493 0.444702 0.307098
0.636108 0.496857 0.354492
0.741394 0.510406 0.371429
0.834320 0.515533 0.376740
0.918915 0.511627 0.373779
0.039429 0.372864 0.258728
0.116364 0.398071 0.271698
0.266937 0.455078 0.282501
0.442993 0.506287 0.322968
0.534851 0.520325 0.327240
0.601135 0.535828 0.329803
0.726593 0.593933 0.368561
0.839600 0.621185 0.386932
0.935089 0.631134 0.395691
0.140869 0.453827 0.265228
0.197174 0.482758 0.275940
0.317383 0.536072 0.305115
0.476685 0.585938 0.346863
0.568909 0.602295 0.358734
0.636993 0.609222 0.359436
0.693512 0.625427 0.357574
0.794464 0.667572 0.375122
0.912994 0.705902 0.394104
0.195557 0.530975 0.280243
0.238464 0.565887 0.292114
0.373871 0.611206 0.330444
0.512573 0.651367 0.373016
0.597382 0.668640 0.387390
0.664276 0.675720 0.391693
0.719910 0.678589 0.389740
0.774353 0.701996 0.388672
0.849731 0.736359 0.390869
0.233276 0.614380 0.308594
0.285400 0.640350 0.324432
0.428101 0.678894 0.363281
0.542358 0.713776 0.398956
0.621552 0.729248 0.415710
0.685883 0.737183 0.422882
0.741882 0.741486 0.425049
0.783813 0.744141 0.424347
0.835999 0.769989 0.422852
0.000000 0.075653 0.250061
0.000000 0.080536 0.272644
0.027588 0.071564 0.329010
0.206085 0.080536 0.325928
0.321747 0.077637 0.291107
0.432037 0.082886 0.283600
0.561798 0.081085 0.336243
0.696198 0.061859 0.381195
0.828461 0.038574 0.404877
0.000000 0.118744 0.276886
0.000000 0.132690 0.305969
0.028381 0.136841 0.353516
0.231934 0.145325 0.356140
0.373199 0.152313 0.329224
0.481445 0.165344 0.324799
0.600250 0.170380 0.365723
0.727325 0.158661 0.406281
0.849518 0.145630 0.417725
0.000000 0.170776 0.300995
0.000793 0.200317 0.336731
0.085632 0.233246 0.387756
0.270447 0.244019 0.390808
0.438995 0.262787 0.366791
0.550415 0.282104 0.374725
0.646210 0.279633 0.409454
0.766602 0.267059 0.422791
0.874481 0.258820 0.432312
0.000000 0.225708 0.298889
0.000793 0.250366 0.327789
0.062225 0.291077 0.374634
0.333069 0.360229 0.426270
0.498077 0.390076 0.414154
0.622314 0.399200 0.427307
0.704163 0.400055 0.436951
0.797241 0.393158 0.448608
0.896393 0.381622 0.451202
0.000000 0.292480 0.321167
0.001587 0.319794 0.340790
0.055573 0.359528 0.371124
0.337280 0.423035 0.408173
0.556000 0.507446 0.453064
0.653870 0.521027 0.457733
0.738678 0.528625 0.473602
0.821930 0.522980 0.480164
0.917053 0.513245 0.478577
0.001556 0.368469 0.338348
0.003143 0.388306 0.349854
0.080536 0.434387 0.373016
0.406464 0.507721 0.406891
0.530365 0.529022 0.418274
0.615723 0.561493 0.437195
0.742310 0.618835 0.484680
0.835663 0.633423 0.501709
0.932922 0.634583 0.502563
0.003174 0.447601 0.350067
0.062225 0.473907 0.367279
0.188812 0.519714 0.390350
0.447266 0.583008 0.419678
0.561462 0.607971 0.444946
0.627869 0.614777 0.446991
0.684875 0.631042 0.451080
0.813416 0.695068 0.492889
0.926514 0.727753 0.511749
0.096313 0.521271 0.365540
0.162933 0.545166 0.377258
0.283051 0.596436 0.402771
0.474030 0.643616 0.438049
0.583008 0.669342 0.465424
0.653442 0.679443 0.473755
0.712616 0.686951 0.476501
0.767517 0.709503 0.477509
0.863708 0.755554 0.492432
0.170776 0.597290 0.383118
0.219635 0.624115 0.397034
0.374725 0.665680 0.419678
0.508942 0.704376 0.457764
0.607819 0.730225 0.486542
0.674713 0.740112 0.500275
0.735107 0.746704 0.508026
0.778625 0.748169 0.507080
0.831787 0.774109 0.506165
0.000000 0.099915 0.311127
0.000000 0.102997 0.324585
0.003937 0.092163 0.379211
0.170776 0.102631 0.415070
0.307159 0.102631 0.402618
0.411804 0.093018 0.373718
0.521393 0.102264 0.364960
0.621857 0.097382 0.390259
0.750427 0.088257 0.441986
0.000000 0.137726 0.332886
0.002350 0.147797 0.356262
0.006317 0.157959 0.404236
0.190247 0.163391 0.439301
0.346344 0.172394 0.432343
0.460449 0.172150 0.404938
0.575623 0.193939 0.401825
0.665741 0.196259 0.423950
0.779999 0.182709 0.464417
0.003143 0.193115 0.361938
0.005524 0.213318 0.393402
0.048981 0.248383 0.443176
0.226379 0.260773 0.475006
0.400604 0.273895 0.464050
0.536774 0.287994 0.445770
0.634155 0.304626 0.447052
0.710449 0.304199 0.465820
0.813293 0.290253 0.498322
0.003937 0.244354 0.367981
0.005524 0.267059 0.391541
0.049652 0.314728 0.443848
0.288269 0.377716 0.514954
0.449158 0.389557 0.494568
0.593994 0.414795 0.489258
0.680542 0.429321 0.506470
0.750610 0.426483 0.524231
0.852844 0.399139 0.535645
0.003937 0.299377 0.371246
0.006317 0.327240 0.395172
0.024445 0.365448 0.433929
0.281311 0.431000 0.488037
0.511108 0.509827 0.535828
0.631073 0.534210 0.546326
0.731445 0.540466 0.555206
0.797546 0.541199 0.559296
0.877777 0.523834 0.562988
0.007080 0.377655 0.398712
0.008667 0.401917 0.418213
0.066193 0.443024 0.447388
0.304260 0.490997 0.479156
0.511047 0.550201 0.519623
0.666473 0.628052 0.572479
0.753815 0.642151 0.582153
0.822266 0.650208 0.591949
0.901031 0.645538 0.596313
0.008667 0.448212 0.414581
0.009460 0.468018 0.427887
0.107147 0.505981 0.452789
0.361603 0.568298 0.488312
0.540710 0.608490 0.515411
0.621765 0.621429 0.525818
0.708252 0.659180 0.554810
0.823914 0.721588 0.602997
0.914429 0.741028 0.616852
0.009460 0.507721 0.422974
0.011047 0.530670 0.437225
0.162415 0.576630 0.466858
0.406281 0.631744 0.505188
0.563599 0.667664 0.530792
0.646362 0.684540 0.547150
0.705688 0.692444 0.550201
0.756470 0.707916 0.556641
0.889069 0.785370 0.605591
0.049683 0.581390 0.441864
0.143127 0.606140 0.458710
0.266205 0.645081 0.483856
0.459198 0.694580 0.518555
0.580566 0.723389 0.544678
0.663361 0.740967 0.563904
0.725952 0.747742 0.572021
0.772888 0.751068 0.574066
0.827087 0.777039 0.577942
0.003143 0.121094 0.371155
0.003937 0.121399 0.373505
0.007874 0.124634 0.420746
0.125916 0.119415 0.478668
0.290833 0.132996 0.498108
0.405640 0.127502 0.480774
0.502960 0.116730 0.452057
0.604309 0.121094 0.444855
0.680298 0.130829 0.442474
0.004730 0.157440 0.387421
0.005524 0.160950 0.400208
0.011047 0.187134 0.463531
0.146423 0.180695 0.504395
0.323334 0.200500 0.522095
0.447968 0.204163 0.513428
0.551666 0.201477 0.484344
0.651154 0.214600 0.477203
0.720428 0.217224 0.472198
0.007874 0.212585 0.417816
0.009460 0.223816 0.437134
0.014191 0.259735 0.490723
0.184784 0.278625 0.542664
0.363281 0.289551 0.550507
0.509644 0.303192 0.542969
0.614685 0.308716 0.525055
0.706238 0.324219 0.519196
0.762177 0.324005 0.518707
0.009460 0.266785 0.433136
0.011047 0.286713 0.456451
0.046173 0.332397 0.504730
0.247925 0.394470 0.579803
0.410126 0.400177 0.580505
0.555267 0.414795 0.569641
0.662537 0.429565 0.566956
0.748444 0.446960 0.570801
0.797546 0.441528 0.572357
0.008667 0.314972 0.425323
0.010254 0.338470 0.445465
0.014191 0.375488 0.488312
0.213684 0.444550 0.556000
0.470856 0.514130 0.608093
0.595703 0.529144 0.601349
0.705200 0.547852 0.606476
0.778168 0.563477 0.619629
0.826538 0.556091 0.622772
0.010254 0.382843 0.444336
0.012604 0.405182 0.466064
0.067841 0.450073 0.508362
0.248352 0.496643 0.545441
0.461639 0.551086 0.583771
0.642731 0.635010 0.639099
0.735474 0.652832 0.653198
0.811951 0.656372 0.659546
0.864624 0.659271 0.658691
0.013428 0.455933 0.469147
0.014191 0.477142 0.487000
0.110077 0.515106 0.522278
0.291992 0.556427 0.550629
0.462280 0.580902 0.559387
0.626099 0.649902 0.611725
0.759155 0.725800 0.670563
0.833435 0.742615 0.683319
0.887756 0.748596 0.687897
0.014191 0.514343 0.481384
0.015778 0.533173 0.498627
0.138000 0.572479 0.526978
0.320953 0.605103 0.546448
0.513428 0.651367 0.578491
0.628906 0.681488 0.600098
0.697205 0.698944 0.612854
0.783325 0.743011 0.647919
0.889313 0.800812 0.696320
0.014984 0.568848 0.483185
0.022858 0.587402 0.498047
0.168182 0.623657 0.530548
0.380341 0.669495 0.563904
0.538971 0.710968 0.593933
0.647064 0.738342 0.615723
0.719025 0.749390 0.628815
0.765869 0.752930 0.630920
0.812714 0.766327 0.640869
0.007904 0.140320 0.424347
0.008698 0.142578 0.429993
0.011841 0.155426 0.470367
0.029968 0.134796 0.530060
0.269043 0.157196 0.564850
0.399506 0.163910 0.575470
0.498962 0.155426 0.559753
0.585510 0.133301 0.532684
0.676941 0.146423 0.523071
0.009460 0.178040 0.447845
0.010254 0.181122 0.455841
0.014984 0.212769 0.514771
0.061066 0.205688 0.551483
0.290070 0.217834 0.582642
0.432007 0.233582 0.596649
0.540955 0.232605 0.584167
0.628479 0.225006 0.560150
0.716553 0.232605 0.550690
0.011810 0.228760 0.467072
0.012604 0.234589 0.478119
0.018127 0.271667 0.540405
0.131470 0.298370 0.588196
0.332642 0.303528 0.609070
0.468353 0.319580 0.619019
0.591278 0.328552 0.608307
0.675598 0.327789 0.593781
0.756042 0.336426 0.589905
0.014191 0.284485 0.502136
0.016541 0.298401 0.522827
0.069458 0.352417 0.562836
0.202057 0.402252 0.625458
0.386108 0.414642 0.640869
0.510803 0.416626 0.638519
0.631836 0.430420 0.632355
0.722565 0.443451 0.628662
0.792877 0.453827 0.634338
0.013428 0.332855 0.481812
0.014984 0.356049 0.508698
0.018921 0.390259 0.546356
0.182434 0.455963 0.608337
0.449860 0.527222 0.667816
0.557617 0.526001 0.661102
0.665527 0.539612 0.658112
0.754883 0.552185 0.662415
0.826111 0.569122 0.673798
0.013428 0.383759 0.483124
0.015778 0.405182 0.508118
0.029175 0.446075 0.546387
0.193542 0.496979 0.592743
0.440765 0.568176 0.645355
0.606476 0.626129 0.687225
0.708252 0.643463 0.692810
0.788574 0.658600 0.702881
0.851807 0.670197 0.717438
0.016571 0.458710 0.514984
0.018127 0.478943 0.534515
0.084229 0.514404 0.566772
0.243866 0.558533 0.602051
0.444000 0.591675 0.619812
0.591919 0.648499 0.662537
0.747498 0.733856 0.731445
0.819275 0.749634 0.746033
0.882690 0.753784 0.751984
0.018158 0.520264 0.534882
0.019714 0.538971 0.551514
0.134796 0.577179 0.579956
0.284210 0.613007 0.606659
0.461273 0.631622 0.615479
0.587494 0.668579 0.641388
0.723236 0.739075 0.697388
0.838867 0.807434 0.760559
0.903748 0.824097 0.770935
0.019714 0.577789 0.545410
0.073120 0.596436 0.560944
0.169128 0.625366 0.584320
0.318878 0.655975 0.606018
0.475647 0.678894 0.618103
0.608398 0.719879 0.648834
0.700745 0.745331 0.670776
0.771637 0.768524 0.691589
0.849457 0.816895 0.732056
0.011841 0.156189 0.470947
0.012634 0.159210 0.479645
0.015778 0.175781 0.521149
0.018951 0.170532 0.559296
0.221039 0.171478 0.615479
0.387115 0.196747 0.637634
0.491150 0.194946 0.642761
0.578827 0.176941 0.630432
0.651855 0.153351 0.599365
0.013428 0.197540 0.490082
0.014984 0.200500 0.508118
0.018127 0.221191 0.550842
0.021301 0.229919 0.584747
0.237823 0.231934 0.633423
0.406555 0.250977 0.651489
0.524139 0.258423 0.660461
0.610718 0.250061 0.647614
0.689148 0.240540 0.623566
0.015778 0.245422 0.520416
0.016571 0.249451 0.534149
0.020508 0.280396 0.576660
0.112549 0.322418 0.627747
0.282654 0.324554 0.664612
0.437836 0.330994 0.668823
0.556824 0.342590 0.678711
0.651062 0.344574 0.672455
0.727539 0.338989 0.657745
0.018158 0.299286 0.545288
0.018951 0.306091 0.556366
0.022858 0.352203 0.598999
0.177155 0.407227 0.655640
0.348419 0.430756 0.694427
0.481293 0.429382 0.691772
0.589691 0.432892 0.694153
0.687683 0.443848 0.689850
0.762268 0.445374 0.687134
0.018158 0.351105 0.543396
0.019714 0.367950 0.559631
0.022888 0.403992 0.594543
0.177368 0.467133 0.650757
0.421082 0.537567 0.723145
0.536316 0.537506 0.720276
0.629242 0.534363 0.713104
0.724823 0.545380 0.714233
0.794861 0.552643 0.718811
0.017365 0.390015 0.529022
0.018921 0.407349 0.546295
0.022064 0.444855 0.582855
0.170532 0.497772 0.631866
0.411285 0.578094 0.698120
0.588654 0.632446 0.741089
0.676422 0.638519 0.739258
0.759430 0.647675 0.741272
0.827148 0.658417 0.748016
0.018921 0.456573 0.547943
0.020508 0.475311 0.568359
0.053650 0.507843 0.599854
0.205902 0.554932 0.641418
0.414062 0.600006 0.672485
0.580719 0.660889 0.720917
0.721069 0.723328 0.765503
0.796753 0.739349 0.776733
0.860168 0.750336 0.785461
0.021301 0.519257 0.571045
0.022888 0.537964 0.589386
0.124969 0.576233 0.618317
0.229431 0.611267 0.649933
0.437744 0.635864 0.664490
0.571259 0.672791 0.689423
0.697998 0.736938 0.739655
0.829651 0.811523 0.804199
0.889404 0.827942 0.818726
0.022888 0.581604 0.590698
0.083344 0.602051 0.608704
0.168427 0.629272 0.631134
0.269867 0.659912 0.655518
0.461273 0.677521 0.665222
0.564697 0.689880 0.667725
0.681335 0.746948 0.717957
0.798767 0.809509 0.772400
0.907196 0.877258 0.830322
