Kodak 16mm - Only contrast.cube
# Created by Benjamin (IWLTBAP) : http://luts.iwltbap.com
# Copyright: (C) Copyright 2010-2017 Triune Films and IWLTBAP SAS
# Cannot be resold, shared or otherwise redistributed
TITLE "Film Print Emulation LUTs Pack (Rec.709, sRGB, DCI-P3)"
LUT_3D_SIZE 5
0.027283 0.027283 0.027283
0.172028 0.026794 0.026794
0.477020 0.025177 0.025177
0.732269 0.023926 0.023926
0.869598 0.023499 0.023499
0.026794 0.172028 0.026794
0.172943 0.172943 0.026276
0.477997 0.172791 0.024658
0.732727 0.173004 0.023407
0.869049 0.174042 0.022949
0.025177 0.477020 0.025177
0.172791 0.477997 0.024658
0.477875 0.477875 0.023041
0.732117 0.478119 0.021790
0.867432 0.479187 0.021332
0.023926 0.732269 0.023926
0.173004 0.732727 0.023407
0.478119 0.732117 0.021790
0.731842 0.731842 0.020538
0.866180 0.732361 0.020111
0.023499 0.869598 0.023499
0.174042 0.869049 0.022949
0.479187 0.867432 0.021332
0.732361 0.866180 0.020111
0.865753 0.865723 0.026306
0.026794 0.026794 0.172028
0.172943 0.026276 0.172943
0.477997 0.024658 0.172791
0.732727 0.023407 0.173004
0.869049 0.022949 0.174042
0.026276 0.172943 0.172943
0.173859 0.173859 0.173859
0.478943 0.173706 0.173706
0.733185 0.173920 0.173920
0.868469 0.174957 0.174957
0.024658 0.477997 0.172791
0.173706 0.478943 0.173706
0.478821 0.478821 0.173584
0.732544 0.479065 0.173798
0.866852 0.480103 0.174835
0.023407 0.732727 0.173004
0.173920 0.733185 0.173920
0.479065 0.732544 0.173798
0.732239 0.732239 0.174011
0.865601 0.732727 0.175049
0.022949 0.869049 0.174042
0.174957 0.868469 0.174957
0.480103 0.866852 0.174835
0.732727 0.865601 0.175049
0.865173 0.865173 0.176117
0.025177 0.025177 0.477020
0.172791 0.024658 0.477997
0.477875 0.023041 0.477875
0.732117 0.021790 0.478119
0.867432 0.021332 0.479187
0.024658 0.172791 0.477997
0.173706 0.173706 0.478943
0.478821 0.173584 0.478821
0.732544 0.173798 0.479065
0.866852 0.174835 0.480103
0.023041 0.477875 0.477875
0.173584 0.478821 0.478821
0.478699 0.478699 0.478699
0.731873 0.478912 0.478912
0.865234 0.479980 0.479980
0.021790 0.732117 0.478119
0.173798 0.732544 0.479065
0.478912 0.731873 0.478912
0.731537 0.731537 0.479156
0.863983 0.732025 0.480225
0.021332 0.867432 0.479187
0.174835 0.866852 0.480103
0.479980 0.865234 0.479980
0.732025 0.863983 0.480225
0.863556 0.863556 0.481293
0.023926 0.023926 0.732269
0.173004 0.023407 0.732727
0.478119 0.021790 0.732117
0.731842 0.020538 0.731842
0.866180 0.020111 0.732361
0.023407 0.173004 0.732727
0.173920 0.173920 0.733185
0.479065 0.173798 0.732544
0.732239 0.174011 0.732239
0.865601 0.175049 0.732727
0.021790 0.478119 0.732117
0.173798 0.479065 0.732544
0.478912 0.478912 0.731873
0.731537 0.479156 0.731537
0.863983 0.480225 0.732025
0.020538 0.731842 0.731842
0.174011 0.732239 0.732239
0.479156 0.731537 0.731537
0.731201 0.731201 0.731201
0.862732 0.731689 0.731689
0.020111 0.866180 0.732361
0.175049 0.865601 0.732727
0.480225 0.863983 0.732025
0.731689 0.862732 0.731689
0.862335 0.862335 0.732178
0.023499 0.023499 0.869568
0.174042 0.022949 0.869049
0.479187 0.021332 0.867432
0.732361 0.020111 0.866180
0.865753 0.019684 0.865753
0.022949 0.174042 0.869049
0.174957 0.174957 0.868469
0.480103 0.174835 0.866852
0.732727 0.175049 0.865601
0.865173 0.176117 0.865173
0.021332 0.479187 0.867432
0.174835 0.480103 0.866852
0.479980 0.479980 0.865234
0.732025 0.480225 0.863983
0.863556 0.481293 0.863556
0.020111 0.732361 0.866180
0.175049 0.732727 0.865601
0.480225 0.732025 0.863983
0.731689 0.731689 0.862732
0.862335 0.732178 0.862335
0.019684 0.865753 0.865753
0.176117 0.865173 0.865173
0.481293 0.863556 0.863556
0.732178 0.862335 0.862335
0.861938 0.861938 0.861938
