Kodak Vision3 500T (5219) - Only contrast 2.cube
# Created by Benjamin (IWLTBAP) : http://luts.iwltbap.com
# Copyright: (C) Copyright 2010-2017 Triune Films and IWLTBAP SAS
# Cannot be resold, shared or otherwise redistributed
TITLE "Film Print Emulation LUTs Pack (Rec.709, sRGB, DCI-P3)"
LUT_3D_SIZE 33
0.000244 0.000244 0.000244
0.017487 0.000244 0.000244
0.037567 0.000214 0.000214
0.062653 0.000183 0.000183
0.086304 0.000122 0.000122
0.106415 0.000092 0.000092
0.126678 0.000061 0.000061
0.147461 0.000031 0.000031
0.170135 0.000000 0.000000
0.193878 0.000000 0.000000
0.218414 0.000000 0.000000
0.243317 0.000000 0.000000
0.268616 0.000000 0.000000
0.294159 0.000000 0.000000
0.320221 0.000000 0.000000
0.346985 0.000000 0.000000
0.375122 0.000000 0.000000
0.404602 0.000000 0.000000
0.435089 0.000000 0.000000
0.465973 0.000000 0.000000
0.497131 0.000000 0.000000
0.528351 0.000000 0.000000
0.559723 0.000000 0.000000
0.591309 0.000000 0.000000
0.623138 0.000000 0.000000
0.655212 0.000000 0.000000
0.687347 0.000000 0.000000
0.719635 0.000000 0.000000
0.753418 0.000000 0.000000
0.791412 0.000000 0.000000
0.834503 0.000000 0.000000
0.889069 0.000000 0.000000
0.961090 0.000000 0.000000
0.000244 0.017487 0.000244
0.017487 0.017487 0.000244
0.037598 0.017487 0.000214
0.062683 0.017426 0.000153
0.086334 0.017395 0.000122
0.106445 0.017365 0.000092
0.126709 0.017365 0.000061
0.147491 0.017334 0.000031
0.170166 0.017303 0.000000
0.193939 0.017273 0.000000
0.218475 0.017242 0.000000
0.243378 0.017181 0.000000
0.268677 0.017151 0.000000
0.294220 0.017090 0.000000
0.320282 0.017029 0.000000
0.347046 0.016968 0.000000
0.375214 0.016907 0.000000
0.404694 0.016846 0.000000
0.435181 0.016754 0.000000
0.466064 0.016663 0.000000
0.497253 0.016571 0.000000
0.528442 0.016510 0.000000
0.559814 0.016418 0.000000
0.591400 0.016327 0.000000
0.623260 0.016235 0.000000
0.655304 0.016144 0.000000
0.687469 0.016052 0.000000
0.719727 0.015961 0.000000
0.753540 0.015839 0.000000
0.791595 0.015717 0.000000
0.834717 0.015564 0.000000
0.889404 0.015289 0.000000
0.961517 0.014923 0.000000
0.000214 0.037567 0.000214
0.017487 0.037598 0.000214
0.037628 0.037628 0.000183
0.062714 0.037628 0.000153
0.086334 0.037628 0.000092
0.106415 0.037628 0.000061
0.126709 0.037659 0.000031
0.147491 0.037689 0.000000
0.170197 0.037689 0.000000
0.193970 0.037689 0.000000
0.218506 0.037689 0.000000
0.243408 0.037689 0.000000
0.268707 0.037659 0.000000
0.294250 0.037659 0.000000
0.320312 0.037659 0.000000
0.347107 0.037628 0.000000
0.375244 0.037598 0.000000
0.404755 0.037567 0.000000
0.435242 0.037537 0.000000
0.466125 0.037476 0.000000
0.497314 0.037415 0.000000
0.528503 0.037384 0.000000
0.559875 0.037323 0.000000
0.591492 0.037292 0.000000
0.623322 0.037231 0.000000
0.655365 0.037170 0.000000
0.687531 0.037140 0.000000
0.719818 0.037079 0.000000
0.753662 0.037018 0.000000
0.791718 0.036926 0.000000
0.834900 0.036774 0.000000
0.889679 0.036591 0.000000
0.961914 0.036255 0.000000
0.000183 0.062653 0.000183
0.017426 0.062683 0.000153
0.037628 0.062714 0.000153
0.062714 0.062714 0.000092
0.086334 0.062714 0.000031
0.106384 0.062744 0.000000
0.126678 0.062775 0.000000
0.147461 0.062805 0.000000
0.170197 0.062805 0.000000
0.193939 0.062805 0.000000
0.218506 0.062805 0.000000
0.243408 0.062805 0.000000
0.268707 0.062805 0.000000
0.294250 0.062775 0.000000
0.320312 0.062775 0.000000
0.347137 0.062775 0.000000
0.375275 0.062744 0.000000
0.404785 0.062714 0.000000
0.435272 0.062653 0.000000
0.466187 0.062622 0.000000
0.497345 0.062561 0.000000
0.528564 0.062531 0.000000
0.559937 0.062469 0.000000
0.591522 0.062439 0.000000
0.623383 0.062378 0.000000
0.655426 0.062317 0.000000
0.687592 0.062286 0.000000
0.719879 0.062225 0.000000
0.753723 0.062164 0.000000
0.791840 0.062073 0.000000
0.835052 0.061951 0.000000
0.889984 0.061737 0.000000
0.962280 0.061401 0.000000
0.000122 0.086304 0.000122
0.017395 0.086334 0.000122
0.037628 0.086334 0.000092
0.062714 0.086334 0.000031
0.086304 0.086304 0.000000
0.106384 0.086304 0.000000
0.126648 0.086304 0.000000
0.147461 0.086304 0.000000
0.170197 0.086304 0.000000
0.193970 0.086273 0.000000
0.218506 0.086243 0.000000
0.243408 0.086212 0.000000
0.268707 0.086182 0.000000
0.294250 0.086151 0.000000
0.320343 0.086090 0.000000
0.347137 0.086060 0.000000
0.375305 0.085999 0.000000
0.404846 0.085938 0.000000
0.435333 0.085876 0.000000
0.466217 0.085785 0.000000
0.497406 0.085724 0.000000
0.528625 0.085632 0.000000
0.559998 0.085571 0.000000
0.591583 0.085480 0.000000
0.623444 0.085419 0.000000
0.655487 0.085327 0.000000
0.687653 0.085236 0.000000
0.719940 0.085175 0.000000
0.753815 0.085052 0.000000
0.791962 0.084930 0.000000
0.835236 0.084778 0.000000
0.890259 0.084534 0.000000
0.962646 0.084198 0.000000
0.000092 0.106415 0.000092
0.017365 0.106445 0.000092
0.037628 0.106415 0.000061
0.062744 0.106384 0.000000
0.086304 0.106384 0.000000
0.106384 0.106384 0.000000
0.126648 0.106384 0.000000
0.147461 0.106354 0.000000
0.170227 0.106354 0.000000
0.194000 0.106323 0.000000
0.218536 0.106293 0.000000
0.243439 0.106262 0.000000
0.268738 0.106232 0.000000
0.294312 0.106201 0.000000
0.320374 0.106140 0.000000
0.347198 0.106110 0.000000
0.375366 0.106049 0.000000
0.404907 0.105988 0.000000
0.435425 0.105927 0.000000
0.466309 0.105835 0.000000
0.497498 0.105774 0.000000
0.528687 0.105682 0.000000
0.560059 0.105621 0.000000
0.591675 0.105530 0.000000
0.623505 0.105438 0.000000
0.655579 0.105377 0.000000
0.687714 0.105286 0.000000
0.720032 0.105194 0.000000
0.753937 0.105103 0.000000
0.792084 0.104980 0.000000
0.835419 0.104828 0.000000
0.890564 0.104584 0.000000
0.963043 0.104218 0.000000
0.000061 0.126678 0.000061
0.017365 0.126709 0.000061
0.037659 0.126709 0.000031
0.062775 0.126678 0.000000
0.086304 0.126648 0.000000
0.106384 0.126648 0.000000
0.126648 0.126648 0.000000
0.147461 0.126648 0.000000
0.170227 0.126617 0.000000
0.194000 0.126587 0.000000
0.218567 0.126587 0.000000
0.243469 0.126526 0.000000
0.268799 0.126495 0.000000
0.294342 0.126465 0.000000
0.320435 0.126434 0.000000
0.347260 0.126373 0.000000
0.375427 0.126343 0.000000
0.404968 0.126251 0.000000
0.435486 0.126190 0.000000
0.466370 0.126129 0.000000
0.497559 0.126038 0.000000
0.528778 0.125977 0.000000
0.560150 0.125885 0.000000
0.591736 0.125824 0.000000
0.623596 0.125732 0.000000
0.655670 0.125671 0.000000
0.687805 0.125580 0.000000
0.720093 0.125488 0.000000
0.754028 0.125397 0.000000
0.792236 0.125275 0.000000
0.835602 0.125122 0.000000
0.890869 0.124878 0.000000
0.963440 0.124512 0.000000
0.000031 0.147461 0.000031
0.017334 0.147491 0.000031
0.037689 0.147491 0.000000
0.062805 0.147461 0.000000
0.086304 0.147461 0.000000
0.106354 0.147461 0.000000
0.126648 0.147461 0.000000
0.147461 0.147461 0.000000
0.170258 0.147461 0.000000
0.194031 0.147461 0.000000
0.218597 0.147430 0.000000
0.243500 0.147400 0.000000
0.268829 0.147400 0.000000
0.294373 0.147369 0.000000
0.320465 0.147339 0.000000
0.347290 0.147308 0.000000
0.375488 0.147247 0.000000
0.405060 0.147186 0.000000
0.435547 0.147125 0.000000
0.466461 0.147064 0.000000
0.497620 0.147003 0.000000
0.528839 0.146942 0.000000
0.560211 0.146881 0.000000
0.591827 0.146820 0.000000
0.623688 0.146729 0.000000
0.655731 0.146667 0.000000
0.687897 0.146606 0.000000
0.720184 0.146545 0.000000
0.754150 0.146454 0.000000
0.792389 0.146332 0.000000
0.835815 0.146179 0.000000
0.891174 0.145966 0.000000
0.963837 0.145599 0.000000
0.000000 0.170135 0.000000
0.017303 0.170166 0.000000
0.037689 0.170197 0.000000
0.062805 0.170197 0.000000
0.086304 0.170197 0.000000
0.106354 0.170227 0.000000
0.126617 0.170227 0.000000
0.147461 0.170258 0.000000
0.170258 0.170258 0.000000
0.194061 0.170258 0.000000
0.218597 0.170258 0.000000
0.243530 0.170258 0.000000
0.268829 0.170227 0.000000
0.294403 0.170227 0.000000
0.320496 0.170197 0.000000
0.347321 0.170197 0.000000
0.375549 0.170166 0.000000
0.405090 0.170105 0.000000
0.435608 0.170074 0.000000
0.466492 0.170013 0.000000
0.497681 0.169952 0.000000
0.528900 0.169922 0.000000
0.560272 0.169861 0.000000
0.591888 0.169800 0.000000
0.623749 0.169739 0.000000
0.655792 0.169678 0.000000
0.687958 0.169647 0.000000
0.720245 0.169586 0.000000
0.754242 0.169495 0.000000
0.792511 0.169403 0.000000
0.835968 0.169281 0.000000
0.891479 0.169037 0.000000
0.964203 0.168701 0.000000
0.000000 0.193878 0.000000
0.017273 0.193939 0.000000
0.037689 0.193970 0.000000
0.062805 0.193939 0.000000
0.086273 0.193970 0.000000
0.106323 0.194000 0.000000
0.126587 0.194000 0.000000
0.147461 0.194031 0.000000
0.170258 0.194061 0.000000
0.194061 0.194061 0.000000
0.218628 0.194061 0.000000
0.243530 0.194061 0.000000
0.268860 0.194031 0.000000
0.294403 0.194031 0.000000
0.320496 0.194031 0.000000
0.347351 0.194000 0.000000
0.375580 0.193970 0.000000
0.405151 0.193939 0.000000
0.435669 0.193909 0.000000
0.466553 0.193848 0.000000
0.497742 0.193817 0.000000
0.528961 0.193756 0.000000
0.560333 0.193726 0.000000
0.591949 0.193665 0.000000
0.623779 0.193604 0.000000
0.655853 0.193573 0.000000
0.688019 0.193512 0.000000
0.720306 0.193451 0.000000
0.754333 0.193390 0.000000
0.792603 0.193298 0.000000
0.836151 0.193146 0.000000
0.891754 0.192932 0.000000
0.964569 0.192596 0.000000
0.000000 0.218414 0.000000
0.017242 0.218475 0.000000
0.037689 0.218506 0.000000
0.062805 0.218506 0.000000
0.086243 0.218506 0.000000
0.106293 0.218536 0.000000
0.126587 0.218567 0.000000
0.147430 0.218597 0.000000
0.170258 0.218597 0.000000
0.194061 0.218628 0.000000
0.218628 0.218628 0.000000
0.243530 0.218628 0.000000
0.268860 0.218597 0.000000
0.294434 0.218597 0.000000
0.320526 0.218597 0.000000
0.347382 0.218597 0.000000
0.375610 0.218567 0.000000
0.405182 0.218536 0.000000
0.435699 0.218475 0.000000
0.466614 0.218445 0.000000
0.497803 0.218414 0.000000
0.528992 0.218353 0.000000
0.560394 0.218323 0.000000
0.591980 0.218262 0.000000
0.623840 0.218231 0.000000
0.655914 0.218170 0.000000
0.688049 0.218109 0.000000
0.720367 0.218079 0.000000
0.754395 0.218018 0.000000
0.792725 0.217926 0.000000
0.836304 0.217773 0.000000
0.892059 0.217560 0.000000
0.964935 0.217224 0.000000
0.000000 0.243317 0.000000
0.017181 0.243378 0.000000
0.037689 0.243408 0.000000
0.062805 0.243408 0.000000
0.086212 0.243408 0.000000
0.106262 0.243439 0.000000
0.126526 0.243469 0.000000
0.147400 0.243500 0.000000
0.170258 0.243530 0.000000
0.194061 0.243530 0.000000
0.218628 0.243530 0.000000
0.243530 0.243530 0.000000
0.268860 0.243530 0.000000
0.294434 0.243530 0.000000
0.320526 0.243530 0.000000
0.347382 0.243530 0.000000
0.375641 0.243500 0.000000
0.405212 0.243469 0.000000
0.435730 0.243439 0.000000
0.466644 0.243408 0.000000
0.497833 0.243347 0.000000
0.529053 0.243317 0.000000
0.560425 0.243256 0.000000
0.592041 0.243225 0.000000
0.623901 0.243164 0.000000
0.655975 0.243134 0.000000
0.688110 0.243073 0.000000
0.720428 0.243042 0.000000
0.754486 0.242981 0.000000
0.792847 0.242889 0.000000
0.836456 0.242767 0.000000
0.892334 0.242554 0.000000
0.965302 0.242218 0.000000
0.000000 0.268616 0.000000
0.017151 0.268677 0.000000
0.037659 0.268707 0.000000
0.062805 0.268707 0.000000
0.086182 0.268707 0.000000
0.106232 0.268738 0.000000
0.126495 0.268799 0.000000
0.147400 0.268829 0.000000
0.170227 0.268829 0.000000
0.194031 0.268860 0.000000
0.218597 0.268860 0.000000
0.243530 0.268860 0.000000
0.268860 0.268860 0.000000
0.294434 0.268860 0.000000
0.320526 0.268860 0.000000
0.347412 0.268860 0.000000
0.375671 0.268829 0.000000
0.405243 0.268799 0.000000
0.435791 0.268768 0.000000
0.466675 0.268738 0.000000
0.497864 0.268677 0.000000
0.529083 0.268646 0.000000
0.560486 0.268616 0.000000
0.592072 0.268555 0.000000
0.623932 0.268524 0.000000
0.656006 0.268463 0.000000
0.688171 0.268433 0.000000
0.720459 0.268372 0.000000
0.754547 0.268341 0.000000
0.792938 0.268250 0.000000
0.836639 0.268097 0.000000
0.892609 0.267914 0.000000
0.965668 0.267578 0.000000
0.000000 0.294159 0.000000
0.017090 0.294220 0.000000
0.037659 0.294250 0.000000
0.062775 0.294250 0.000000
0.086151 0.294250 0.000000
0.106201 0.294312 0.000000
0.126465 0.294342 0.000000
0.147369 0.294373 0.000000
0.170227 0.294403 0.000000
0.194031 0.294403 0.000000
0.218597 0.294434 0.000000
0.243530 0.294434 0.000000
0.268860 0.294434 0.000000
0.294434 0.294434 0.000000
0.320557 0.294434 0.000000
0.347412 0.294434 0.000000
0.375671 0.294403 0.000000
0.405273 0.294373 0.000000
0.435822 0.294342 0.000000
0.466736 0.294312 0.000000
0.497925 0.294281 0.000000
0.529114 0.294250 0.000000
0.560516 0.294189 0.000000
0.592133 0.294159 0.000000
0.623993 0.294128 0.000000
0.656067 0.294067 0.000000
0.688202 0.294037 0.000000
0.720520 0.293976 0.000000
0.754639 0.293915 0.000000
0.793060 0.293854 0.000000
0.836792 0.293701 0.000000
0.892883 0.293518 0.000000
0.966034 0.293182 0.000000
0.000000 0.320221 0.000000
0.017029 0.320282 0.000000
0.037659 0.320312 0.000000
0.062775 0.320312 0.000000
0.086090 0.320343 0.000000
0.106140 0.320374 0.000000
0.126434 0.320435 0.000000
0.147339 0.320465 0.000000
0.170197 0.320496 0.000000
0.194031 0.320496 0.000000
0.218597 0.320526 0.000000
0.243530 0.320526 0.000000
0.268860 0.320526 0.000000
0.294434 0.320557 0.000000
0.320557 0.320557 0.000000
0.347443 0.320557 0.000000
0.375702 0.320526 0.000000
0.405304 0.320496 0.000000
0.435852 0.320496 0.000000
0.466766 0.320465 0.000000
0.497955 0.320404 0.000000
0.529144 0.320374 0.000000
0.560547 0.320343 0.000000
0.592163 0.320312 0.000000
0.624023 0.320282 0.000000
0.656097 0.320251 0.000000
0.688263 0.320190 0.000000
0.720551 0.320160 0.000000
0.754700 0.320099 0.000000
0.793152 0.320007 0.000000
0.836945 0.319916 0.000000
0.893158 0.319702 0.000000
0.966400 0.319366 0.000000
0.000000 0.346985 0.000000
0.016968 0.347046 0.000000
0.037628 0.347107 0.000000
0.062775 0.347137 0.000000
0.086060 0.347137 0.000000
0.106110 0.347198 0.000000
0.126373 0.347260 0.000000
0.147308 0.347290 0.000000
0.170197 0.347321 0.000000
0.194000 0.347351 0.000000
0.218597 0.347382 0.000000
0.243530 0.347382 0.000000
0.268860 0.347412 0.000000
0.294434 0.347412 0.000000
0.320557 0.347443 0.000000
0.347443 0.347443 0.000000
0.375732 0.347443 0.000000
0.405334 0.347412 0.000000
0.435883 0.347412 0.000000
0.466797 0.347382 0.000000
0.497986 0.347351 0.000000
0.529175 0.347321 0.000000
0.560577 0.347290 0.000000
0.592194 0.347290 0.000000
0.624054 0.347260 0.000000
0.656128 0.347229 0.000000
0.688293 0.347198 0.000000
0.720612 0.347168 0.000000
0.754761 0.347107 0.000000
0.793274 0.347046 0.000000
0.837097 0.346924 0.000000
0.893433 0.346741 0.000000
0.966736 0.346405 0.000000
0.000000 0.375122 0.000000
0.016907 0.375214 0.000000
0.037598 0.375244 0.000000
0.062744 0.375275 0.000000
0.085999 0.375305 0.000000
0.106049 0.375366 0.000000
0.126343 0.375427 0.000000
0.147247 0.375488 0.000000
0.170166 0.375549 0.000000
0.193970 0.375580 0.000000
0.218567 0.375610 0.000000
0.243500 0.375641 0.000000
0.268829 0.375671 0.000000
0.294403 0.375671 0.000000
0.320526 0.375702 0.000000
0.347443 0.375732 0.000000
0.375732 0.375732 0.000000
0.405365 0.375732 0.000000
0.435883 0.375702 0.000000
0.466797 0.375702 0.000000
0.497986 0.375702 0.000000
0.529205 0.375671 0.000000
0.560608 0.375671 0.000000
0.592224 0.375641 0.000000
0.624084 0.375610 0.000000
0.656158 0.375610 0.000000
0.688324 0.375580 0.000000
0.720642 0.375549 0.000000
0.754822 0.375519 0.000000
0.793365 0.375458 0.000000
0.837219 0.375366 0.000000
0.893707 0.375183 0.000000
0.967072 0.374878 0.000000
0.000000 0.404602 0.000000
0.016846 0.404694 0.000000
0.037567 0.404755 0.000000
0.062714 0.404785 0.000000
0.085938 0.404846 0.000000
0.105988 0.404907 0.000000
0.126251 0.404968 0.000000
0.147186 0.405060 0.000000
0.170105 0.405090 0.000000
0.193939 0.405151 0.000000
0.218536 0.405182 0.000000
0.243469 0.405212 0.000000
0.268799 0.405243 0.000000
0.294373 0.405273 0.000000
0.320496 0.405304 0.000000
0.347412 0.405334 0.000000
0.375732 0.405365 0.000000
0.405365 0.405365 0.000000
0.435913 0.405365 0.000000
0.466827 0.405365 0.000000
0.498016 0.405334 0.000000
0.529205 0.405334 0.000000
0.560638 0.405334 0.000000
0.592224 0.405334 0.000000
0.624115 0.405304 0.000000
0.656189 0.405304 0.000000
0.688324 0.405304 0.000000
0.720642 0.405273 0.000000
0.754883 0.405243 0.000000
0.793427 0.405212 0.000000
0.837372 0.405121 0.000000
0.893951 0.404938 0.000000
0.967407 0.404633 0.000000
0.000000 0.435089 0.000000
0.016754 0.435181 0.000000
0.037537 0.435242 0.000000
0.062653 0.435272 0.000000
0.085876 0.435333 0.000000
0.105927 0.435425 0.000000
0.126190 0.435486 0.000000
0.147125 0.435547 0.000000
0.170074 0.435608 0.000000
0.193909 0.435669 0.000000
0.218475 0.435699 0.000000
0.243439 0.435730 0.000000
0.268768 0.435791 0.000000
0.294342 0.435822 0.000000
0.320496 0.435852 0.000000
0.347412 0.435883 0.000000
0.375702 0.435883 0.000000
0.405365 0.435913 0.000000
0.435913 0.435913 0.000000
0.466827 0.435913 0.000000
0.498016 0.435913 0.000000
0.529236 0.435913 0.000000
0.560638 0.435913 0.000000
0.592255 0.435883 0.000000
0.624115 0.435883 0.000000
0.656189 0.435883 0.000000
0.688354 0.435883 0.000000
0.720673 0.435852 0.000000
0.754913 0.435852 0.000000
0.793518 0.435791 0.000000
0.837494 0.435699 0.000000
0.894196 0.435516 0.000000
0.967743 0.435211 0.000000
0.000000 0.465973 0.000000
0.016663 0.466064 0.000000
0.037476 0.466125 0.000000
0.062622 0.466187 0.000000
0.085785 0.466217 0.000000
0.105835 0.466309 0.000000
0.126129 0.466370 0.000000
0.147064 0.466461 0.000000
0.170013 0.466492 0.000000
0.193848 0.466553 0.000000
0.218445 0.466614 0.000000
0.243408 0.466644 0.000000
0.268738 0.466675 0.000000
0.294312 0.466736 0.000000
0.320465 0.466766 0.000000
0.347382 0.466797 0.000000
0.375702 0.466797 0.000000
0.405365 0.466827 0.000000
0.435913 0.466827 0.000000
0.466827 0.466827 0.000000
0.498016 0.466827 0.000000
0.529236 0.466827 0.000000
0.560638 0.466827 0.000000
0.592255 0.466827 0.000000
0.624115 0.466827 0.000000
0.656189 0.466797 0.000000
0.688354 0.466797 0.000000
0.720673 0.466797 0.000000
0.754944 0.466766 0.000000
0.793579 0.466736 0.000000
0.837616 0.466644 0.000000
0.894440 0.466461 0.000000
0.968048 0.466156 0.000000
0.000000 0.497131 0.000000
0.016571 0.497253 0.000000
0.037415 0.497314 0.000000
0.062561 0.497345 0.000000
0.085724 0.497406 0.000000
0.105774 0.497498 0.000000
0.126038 0.497559 0.000000
0.147003 0.497620 0.000000
0.169952 0.497681 0.000000
0.193817 0.497742 0.000000
0.218414 0.497803 0.000000
0.243347 0.497833 0.000000
0.268677 0.497864 0.000000
0.294281 0.497925 0.000000
0.320404 0.497955 0.000000
0.347351 0.497986 0.000000
0.375702 0.497986 0.000000
0.405334 0.498016 0.000000
0.435913 0.498016 0.000000
0.466827 0.498016 0.000000
0.498016 0.498016 0.000000
0.529236 0.498016 0.000000
0.560638 0.498016 0.000000
0.592255 0.498016 0.000000
0.624115 0.498016 0.000000
0.656219 0.498016 0.000000
0.688354 0.498016 0.000000
0.720703 0.497986 0.000000
0.754974 0.497986 0.000000
0.793640 0.497925 0.000000
0.837738 0.497833 0.000000
0.894714 0.497650 0.000000
0.968384 0.497375 0.000000
0.000000 0.528351 0.000000
0.016510 0.528442 0.000000
0.037384 0.528503 0.000000
0.062531 0.528564 0.000000
0.085632 0.528625 0.000000
0.105682 0.528687 0.000000
0.125977 0.528778 0.000000
0.146942 0.528839 0.000000
0.169922 0.528900 0.000000
0.193756 0.528961 0.000000
0.218353 0.528992 0.000000
0.243317 0.529053 0.000000
0.268646 0.529083 0.000000
0.294250 0.529114 0.000000
0.320374 0.529144 0.000000
0.347321 0.529175 0.000000
0.375671 0.529205 0.000000
0.405334 0.529205 0.000000
0.435913 0.529236 0.000000
0.466827 0.529236 0.000000
0.498016 0.529236 0.000000
0.529236 0.529236 0.000000
0.560638 0.529236 0.000000
0.592255 0.529236 0.000000
0.624146 0.529236 0.000000
0.656219 0.529205 0.000000
0.688354 0.529205 0.000000
0.720703 0.529205 0.000000
0.755005 0.529175 0.000000
0.793701 0.529144 0.000000
0.837860 0.529053 0.000000
0.894958 0.528870 0.000000
0.968719 0.528564 0.000000
0.000000 0.559723 0.000000
0.016418 0.559814 0.000000
0.037323 0.559875 0.000000
0.062469 0.559937 0.000000
0.085571 0.559998 0.000000
0.105621 0.560059 0.000000
0.125885 0.560150 0.000000
0.146881 0.560211 0.000000
0.169861 0.560272 0.000000
0.193726 0.560333 0.000000
0.218323 0.560394 0.000000
0.243256 0.560425 0.000000
0.268616 0.560486 0.000000
0.294189 0.560516 0.000000
0.320343 0.560547 0.000000
0.347290 0.560577 0.000000
0.375671 0.560608 0.000000
0.405334 0.560638 0.000000
0.435913 0.560638 0.000000
0.466827 0.560638 0.000000
0.498016 0.560638 0.000000
0.529236 0.560638 0.000000
0.560638 0.560638 0.000000
0.592255 0.560638 0.000000
0.624146 0.560638 0.000000
0.656219 0.560638 0.000000
0.688385 0.560638 0.000000
0.720703 0.560638 0.000000
0.755066 0.560608 0.000000
0.793793 0.560577 0.000000
0.837982 0.560486 0.000000
0.895203 0.560303 0.000000
0.969025 0.559998 0.000000
0.000000 0.591309 0.000000
0.016327 0.591400 0.000000
0.037292 0.591492 0.000000
0.062439 0.591522 0.000000
0.085480 0.591583 0.000000
0.105530 0.591675 0.000000
0.125824 0.591736 0.000000
0.146820 0.591827 0.000000
0.169800 0.591888 0.000000
0.193665 0.591949 0.000000
0.218262 0.591980 0.000000
0.243225 0.592041 0.000000
0.268555 0.592072 0.000000
0.294159 0.592133 0.000000
0.320312 0.592163 0.000000
0.347290 0.592194 0.000000
0.375641 0.592224 0.000000
0.405334 0.592224 0.000000
0.435883 0.592255 0.000000
0.466827 0.592255 0.000000
0.498016 0.592255 0.000000
0.529236 0.592255 0.000000
0.560638 0.592255 0.000000
0.592255 0.592255 0.000000
0.624146 0.592255 0.000000
0.656219 0.592255 0.000000
0.688385 0.592255 0.000000
0.720703 0.592255 0.000000
0.755096 0.592255 0.000000
0.793854 0.592194 0.000000
0.838104 0.592102 0.000000
0.895447 0.591919 0.000000
0.969360 0.591644 0.000000
0.000000 0.623138 0.000000
0.016235 0.623260 0.000000
0.037231 0.623322 0.000000
0.062378 0.623383 0.000000
0.085419 0.623444 0.000000
0.105438 0.623505 0.000000
0.125732 0.623596 0.000000
0.146729 0.623688 0.000000
0.169739 0.623749 0.000000
0.193604 0.623779 0.000000
0.218231 0.623840 0.000000
0.243164 0.623901 0.000000
0.268524 0.623932 0.000000
0.294128 0.623993 0.000000
0.320282 0.624023 0.000000
0.347260 0.624054 0.000000
0.375610 0.624084 0.000000
0.405304 0.624115 0.000000
0.435883 0.624115 0.000000
0.466827 0.624115 0.000000
0.498016 0.624115 0.000000
0.529236 0.624146 0.000000
0.560638 0.624146 0.000000
0.592255 0.624146 0.000000
0.624146 0.624146 0.000000
0.656219 0.624146 0.000000
0.688385 0.624146 0.000000
0.720734 0.624146 0.000000
0.755127 0.624115 0.000000
0.793915 0.624084 0.000000
0.838226 0.623993 0.000000
0.895691 0.623810 0.000000
0.969666 0.623535 0.000000
0.000000 0.655212 0.000000
0.016144 0.655304 0.000000
0.037170 0.655365 0.000000
0.062317 0.655426 0.000000
0.085327 0.655487 0.000000
0.105377 0.655579 0.000000
0.125671 0.655670 0.000000
0.146667 0.655731 0.000000
0.169678 0.655792 0.000000
0.193573 0.655853 0.000000
0.218170 0.655914 0.000000
0.243134 0.655975 0.000000
0.268463 0.656006 0.000000
0.294067 0.656067 0.000000
0.320251 0.656097 0.000000
0.347229 0.656128 0.000000
0.375610 0.656158 0.000000
0.405304 0.656189 0.000000
0.435883 0.656189 0.000000
0.466797 0.656189 0.000000
0.498016 0.656219 0.000000
0.529205 0.656219 0.000000
0.560638 0.656219 0.000000
0.592255 0.656219 0.000000
0.624146 0.656219 0.000000
0.656219 0.656219 0.000000
0.688385 0.656219 0.000000
0.720734 0.656219 0.000000
0.755157 0.656219 0.000000
0.793976 0.656158 0.000000
0.838348 0.656067 0.000000
0.895935 0.655914 0.000000
0.969971 0.655609 0.000000
0.000000 0.687347 0.000000
0.016052 0.687469 0.000000
0.037140 0.687531 0.000000
0.062286 0.687592 0.000000
0.085236 0.687653 0.000000
0.105286 0.687714 0.000000
0.125580 0.687805 0.000000
0.146606 0.687897 0.000000
0.169647 0.687958 0.000000
0.193512 0.688019 0.000000
0.218109 0.688049 0.000000
0.243073 0.688110 0.000000
0.268433 0.688171 0.000000
0.294037 0.688202 0.000000
0.320190 0.688263 0.000000
0.347198 0.688293 0.000000
0.375580 0.688324 0.000000
0.405304 0.688324 0.000000
0.435883 0.688354 0.000000
0.466797 0.688354 0.000000
0.498016 0.688354 0.000000
