Kodak Vision 800T (5289) - Only color.cube
# Created by Benjamin (IWLTBAP) : http://luts.iwltbap.com
# Copyright: (C) Copyright 2010-2017 Triune Films and IWLTBAP SAS
# Cannot be resold, shared or otherwise redistributed
TITLE "Film Print Emulation LUTs Pack (Rec.709, sRGB, DCI-P3)"
LUT_3D_SIZE 5
0.000000 0.000000 0.000000
0.237366 0.020569 0.032196
0.441620 0.020111 0.112671
0.648407 0.040192 0.197784
0.905457 0.128571 0.272308
0.005737 0.211212 0.089081
0.213989 0.234680 0.120575
0.467010 0.240936 0.150269
0.697845 0.254120 0.213287
0.903656 0.326752 0.295563
0.004547 0.413727 0.217865
0.140656 0.437866 0.209351
0.449585 0.459961 0.238708
0.717010 0.494049 0.278809
0.901520 0.539215 0.345764
0.019684 0.614410 0.307251
0.078308 0.638519 0.301331
0.491852 0.681335 0.332001
0.726318 0.709747 0.371124
0.899323 0.745789 0.407288
0.142548 0.881561 0.385040
0.231934 0.899567 0.391876
0.553192 0.899384 0.427063
0.751648 0.894501 0.449005
0.897491 0.888214 0.474823
0.007629 0.023987 0.169159
0.201233 0.032898 0.287811
0.456726 0.022766 0.241150
0.667053 0.043427 0.301605
0.904633 0.145294 0.359650
0.005157 0.214020 0.254974
0.242676 0.239105 0.268372
0.474792 0.254059 0.285156
0.719696 0.272156 0.331451
0.902588 0.356201 0.399048
0.004578 0.421143 0.309814
0.197693 0.441101 0.330902
0.468262 0.471588 0.366669
0.743805 0.504120 0.391113
0.900665 0.543732 0.444855
0.017090 0.624023 0.388855
0.155396 0.641846 0.397614
0.509125 0.689240 0.439514
0.725616 0.712494 0.472992
0.898499 0.752411 0.498779
0.174866 0.892517 0.463928
0.301331 0.901428 0.484100
0.552246 0.899353 0.518860
0.757233 0.892365 0.537201
0.896790 0.886627 0.559448
0.012390 0.091705 0.334198
0.077698 0.104065 0.491638
0.449219 0.078827 0.501862
0.679626 0.135590 0.489990
0.902618 0.247803 0.501007
0.010406 0.245789 0.401794
0.137726 0.272064 0.508545
0.470337 0.291412 0.497650
0.723419 0.332703 0.506409
0.901093 0.392731 0.542450
0.001007 0.432526 0.478790
0.261017 0.454437 0.502716
0.507935 0.490356 0.501740
0.765564 0.520020 0.542297
0.899384 0.562347 0.582977
0.014435 0.640869 0.516602
0.253510 0.664429 0.536194
0.532562 0.698456 0.578369
0.741516 0.723572 0.604248
0.897461 0.761230 0.615295
0.226013 0.901855 0.587769
0.346130 0.901825 0.605469
0.574463 0.897552 0.637207
0.767670 0.888641 0.659088
0.895844 0.883881 0.674194
0.021271 0.153137 0.506805
0.081482 0.159027 0.641876
0.457428 0.173309 0.717102
0.706512 0.206451 0.721985
0.900574 0.281982 0.717957
0.018585 0.292389 0.588623
0.115662 0.322968 0.726562
0.497345 0.346375 0.732300
0.745972 0.378693 0.739532
0.898956 0.435913 0.761169
0.000214 0.467438 0.660339
0.160339 0.505096 0.750641
0.529816 0.525024 0.748627
0.761749 0.550323 0.739227
0.897583 0.593750 0.770264
0.090118 0.662262 0.707275
0.346741 0.686401 0.727875
0.560089 0.712128 0.749939
0.763641 0.740356 0.746185
0.895996 0.768585 0.786133
0.274872 0.901459 0.739014
0.396881 0.898224 0.758118
0.598328 0.893341 0.784180
0.778992 0.885437 0.816864
0.895233 0.880280 0.827789
0.031189 0.209747 0.729980
0.088074 0.205170 0.912262
0.480499 0.232117 0.897034
0.731628 0.266052 0.894318
0.898651 0.326416 0.891846
0.027832 0.343231 0.869659
0.258270 0.366364 0.897858
0.525055 0.380432 0.895203
0.776978 0.420532 0.892426
0.897491 0.466644 0.890503
0.007446 0.515656 0.913116
0.285339 0.543793 0.895905
0.578033 0.568878 0.892883
0.802399 0.583893 0.890594
0.896271 0.616486 0.889099
0.091339 0.701416 0.896210
0.387573 0.728577 0.893158
0.585327 0.753815 0.891052
0.789978 0.770416 0.888947
0.894897 0.784271 0.887512
0.330444 0.899292 0.897705
0.455414 0.894653 0.892578
0.625305 0.889252 0.889313
0.791351 0.883698 0.887604
0.893982 0.878235 0.886322
