Kodak Vision 250D (5246) - Only contrast.cube
# Created by Benjamin (IWLTBAP) : http://luts.iwltbap.com
# Copyright: (C) Copyright 2010-2017 Triune Films and IWLTBAP SAS
# Cannot be resold, shared or otherwise redistributed
TITLE "Film Print Emulation LUTs Pack (Rec.709, sRGB, DCI-P3)"
LUT_3D_SIZE 9
0.000885 0.000885 0.000885
0.091553 0.000793 0.000793
0.203705 0.000549 0.000549
0.316833 0.000305 0.000305
0.446899 0.000000 0.000000
0.584778 0.000000 0.000000
0.713379 0.000000 0.000000
0.857147 0.000000 0.000000
0.998077 0.000000 0.000000
0.000793 0.091553 0.000793
0.091705 0.091705 0.000702
0.203888 0.091675 0.000458
0.316956 0.091644 0.000183
0.447235 0.091522 0.000000
0.585022 0.091309 0.000000
0.713684 0.091187 0.000000
0.857574 0.090973 0.000000
0.998291 0.090759 0.000000
0.000549 0.203705 0.000549
0.091675 0.203888 0.000458
0.203918 0.203918 0.000214
0.316956 0.203918 0.000000
0.447449 0.203827 0.000000
0.585114 0.203674 0.000000
0.713867 0.203583 0.000000
0.857849 0.203400 0.000000
0.998383 0.203217 0.000000
0.000305 0.316833 0.000305
0.091644 0.316956 0.000183
0.203918 0.316956 0.000000
0.316956 0.316956 0.000000
0.447632 0.316803 0.000000
0.585205 0.316620 0.000000
0.714050 0.316498 0.000000
0.858124 0.316284 0.000000
0.998474 0.316071 0.000000
0.000000 0.446899 0.000000
0.091522 0.447235 0.000000
0.203827 0.447449 0.000000
0.316803 0.447632 0.000000
0.447693 0.447693 0.000000
0.585144 0.447723 0.000000
0.714081 0.447815 0.000000
0.858276 0.447784 0.000000
0.998413 0.447784 0.000000
0.000000 0.584778 0.000000
0.091309 0.585022 0.000000
0.203674 0.585114 0.000000
0.316620 0.585205 0.000000
0.447723 0.585144 0.000000
0.585083 0.585083 0.000000
0.714081 0.585052 0.000000
0.858368 0.584900 0.000000
0.998322 0.584808 0.000000
0.000000 0.713379 0.000000
0.091187 0.713684 0.000000
0.203583 0.713867 0.000000
0.316498 0.714050 0.000000
0.447815 0.714081 0.000000
0.585052 0.714081 0.000000
0.714142 0.714142 0.000000
0.858521 0.714111 0.000000
0.998291 0.714081 0.000000
0.000000 0.857147 0.000000
0.090973 0.857574 0.000000
0.203400 0.857849 0.000000
0.316284 0.858124 0.000000
0.447784 0.858276 0.000000
0.584900 0.858368 0.000000
0.714111 0.858521 0.000000
0.858582 0.858582 0.000000
0.998169 0.858673 0.000000
0.000000 0.998077 0.000000
0.090759 0.998291 0.000000
0.203217 0.998383 0.000000
0.316071 0.998474 0.000000
0.447784 0.998413 0.000000
0.584808 0.998322 0.000000
0.714081 0.998291 0.000000
0.858673 0.998169 0.000000
0.998108 0.997925 0.009705
0.000793 0.000793 0.091553
0.091705 0.000702 0.091705
0.203888 0.000458 0.091675
0.316956 0.000183 0.091644
0.447235 0.000000 0.091522
0.585022 0.000000 0.091309
0.713684 0.000000 0.091187
0.857574 0.000000 0.090973
0.998291 0.000000 0.090759
0.000702 0.091705 0.091705
0.091827 0.091827 0.091827
0.204041 0.091797 0.091797
0.317108 0.091766 0.091766
0.447571 0.091644 0.091644
0.585236 0.091431 0.091431
0.713989 0.091309 0.091309
0.858002 0.091064 0.091064
0.998505 0.090851 0.090851
0.000458 0.203888 0.091675
0.091797 0.204041 0.091797
0.204071 0.204071 0.091797
0.317078 0.204102 0.091766
0.447784 0.203979 0.091614
0.585327 0.203827 0.091431
0.714172 0.203735 0.091278
0.858276 0.203552 0.091064
0.998596 0.203400 0.090851
0.000183 0.316956 0.091644
0.091766 0.317108 0.091766
0.204102 0.317078 0.091766
0.317078 0.317078 0.091736
0.447968 0.316925 0.091583
0.585419 0.316742 0.091400
0.714355 0.316620 0.091278
0.858521 0.316406 0.091034
0.998688 0.316193 0.090820
0.000000 0.447235 0.091522
0.091644 0.447571 0.091644
0.203979 0.447784 0.091614
0.316925 0.447968 0.091583
0.448029 0.448029 0.091431
0.585358 0.448059 0.091248
0.714386 0.448151 0.091125
0.858673 0.448120 0.090881
0.998627 0.448120 0.090668
0.000000 0.585022 0.091309
0.091431 0.585236 0.091431
0.203827 0.585327 0.091431
0.316742 0.585419 0.091400
0.448059 0.585358 0.091248
0.585297 0.585297 0.091064
0.714386 0.585266 0.090912
0.858765 0.585114 0.090698
0.998535 0.585022 0.090485
0.000000 0.713684 0.091187
0.091309 0.713989 0.091309
0.203735 0.714172 0.091278
0.316620 0.714355 0.091278
0.448151 0.714386 0.091125
0.585266 0.714386 0.090912
0.714447 0.714447 0.090790
0.858917 0.714417 0.090546
0.998505 0.714386 0.090332
0.000000 0.857574 0.090973
0.091064 0.858002 0.091064
0.203552 0.858276 0.091064
0.316406 0.858521 0.091034
0.448120 0.858673 0.090881
0.585114 0.858765 0.090698
0.714417 0.858917 0.090546
0.858978 0.858978 0.090302
0.998352 0.859039 0.090088
0.000000 0.998291 0.090759
0.090851 0.998505 0.090851
0.203400 0.998596 0.090851
0.316193 0.998688 0.090820
0.448120 0.998627 0.090668
0.585022 0.998535 0.090485
0.714386 0.998505 0.090332
0.859039 0.998352 0.090088
0.998260 0.998260 0.089905
0.000549 0.000549 0.203705
0.091675 0.000458 0.203888
0.203918 0.000214 0.203918
0.316956 0.000000 0.203918
0.447449 0.000000 0.203827
0.585114 0.000000 0.203674
0.713867 0.000000 0.203583
0.857849 0.000000 0.203400
0.998383 0.000000 0.203217
0.000458 0.091675 0.203888
0.091797 0.091797 0.204041
0.204071 0.091797 0.204071
0.317078 0.091766 0.204102
0.447784 0.091614 0.203979
0.585327 0.091431 0.203827
0.714172 0.091278 0.203735
0.858276 0.091064 0.203552
0.998596 0.090851 0.203400
0.000214 0.203918 0.203918
0.091797 0.204071 0.204071
0.204102 0.204102 0.204102
0.317078 0.204102 0.204102
0.447968 0.204010 0.204010
0.585419 0.203857 0.203857
0.714355 0.203766 0.203766
0.858521 0.203583 0.203583
0.998688 0.203400 0.203400
0.000000 0.316956 0.203918
0.091766 0.317078 0.204102
0.204102 0.317078 0.204102
0.317078 0.317078 0.204132
0.448151 0.316925 0.204041
0.585510 0.316742 0.203888
0.714508 0.316620 0.203796
0.858795 0.316376 0.203613
0.998749 0.316193 0.203430
0.000000 0.447449 0.203827
0.091614 0.447784 0.203979
0.204010 0.447968 0.204010
0.316925 0.448151 0.204041
0.448212 0.448212 0.203918
0.585449 0.448242 0.203766
0.714569 0.448334 0.203674
0.858948 0.448334 0.203491
0.998718 0.448334 0.203339
0.000000 0.585114 0.203674
0.091431 0.585327 0.203827
0.203857 0.585419 0.203857
0.316742 0.585510 0.203888
0.448242 0.585449 0.203766
0.585388 0.585388 0.203644
0.714569 0.585358 0.203552
0.859039 0.585205 0.203339
0.998627 0.585114 0.203186
0.000000 0.713867 0.203583
0.091278 0.714172 0.203735
0.203766 0.714355 0.203766
0.316620 0.714508 0.203796
0.448334 0.714569 0.203674
0.585358 0.714569 0.203552
0.714630 0.714630 0.203461
0.859192 0.714569 0.203278
0.998596 0.714569 0.203094
0.000000 0.857849 0.203400
0.091064 0.858276 0.203552
0.203583 0.858521 0.203583
0.316376 0.858795 0.203613
0.448334 0.858948 0.203491
0.585205 0.859039 0.203339
0.714569 0.859192 0.203278
0.859222 0.859222 0.203064
0.998444 0.859314 0.202911
0.000000 0.998383 0.203217
0.090851 0.998596 0.203400
0.203400 0.998688 0.203400
0.316193 0.998749 0.203430
0.448334 0.998718 0.203339
0.585114 0.998627 0.203186
0.714569 0.998596 0.203094
0.859314 0.998444 0.202911
0.998352 0.998352 0.202759
0.000305 0.000305 0.316833
0.091644 0.000183 0.316956
0.203918 0.000000 0.316956
0.316956 0.000000 0.316956
0.447632 0.000000 0.316803
0.585205 0.000000 0.316620
0.714050 0.000000 0.316498
0.858124 0.000000 0.316284
0.998474 0.000000 0.316071
0.000183 0.091644 0.316956
0.091766 0.091766 0.317108
0.204102 0.091766 0.317078
0.317078 0.091736 0.317078
0.447968 0.091583 0.316925
0.585419 0.091400 0.316742
0.714355 0.091278 0.316620
0.858521 0.091034 0.316406
0.998688 0.090820 0.316193
0.000000 0.203918 0.316956
0.091766 0.204102 0.317078
0.204102 0.204102 0.317078
0.317078 0.204132 0.317078
0.448151 0.204041 0.316925
0.585510 0.203888 0.316742
0.714508 0.203796 0.316620
0.858795 0.203613 0.316376
0.998749 0.203430 0.316193
0.000000 0.316956 0.316956
0.091736 0.317078 0.317078
0.204132 0.317078 0.317078
0.317047 0.317047 0.317047
0.448364 0.316925 0.316925
0.585602 0.316742 0.316742
0.714691 0.316589 0.316589
0.859070 0.316376 0.316376
0.998840 0.316162 0.316162
0.000000 0.447632 0.316803
0.091583 0.447968 0.316925
0.204041 0.448151 0.316925
0.316925 0.448364 0.316925
0.448425 0.448425 0.316772
0.585541 0.448456 0.316589
0.714722 0.448547 0.316467
0.859192 0.448517 0.316223
0.998779 0.448578 0.316040
0.000000 0.585205 0.316620
0.091400 0.585419 0.316742
0.203888 0.585510 0.316742
0.316742 0.585602 0.316742
0.448456 0.585541 0.316589
0.585449 0.585449 0.316406
0.714752 0.585419 0.316284
0.859314 0.585297 0.316040
0.998688 0.585205 0.315857
0.000000 0.714050 0.316498
0.091278 0.714355 0.316620
0.203796 0.714508 0.316620
0.316589 0.714691 0.316589
0.448547 0.714722 0.316467
0.585419 0.714752 0.316284
0.714813 0.714813 0.316162
0.859467 0.714752 0.315918
0.998657 0.714752 0.315735
0.000000 0.858124 0.316284
0.091034 0.858521 0.316406
0.203613 0.858795 0.316376
0.316376 0.859070 0.316376
0.448517 0.859192 0.316223
0.585297 0.859314 0.316040
0.714752 0.859467 0.315918
0.859497 0.859497 0.315704
0.998535 0.859589 0.315491
0.000000 0.998474 0.316071
0.090820 0.998688 0.316193
0.203430 0.998749 0.316193
0.316162 0.998840 0.316162
0.448578 0.998779 0.316040
0.585205 0.998688 0.315857
0.714752 0.998657 0.315735
0.859589 0.998535 0.315491
0.998413 0.998413 0.315308
0.000000 0.000000 0.446899
0.091522 0.000000 0.447235
0.203827 0.000000 0.447449
0.316803 0.000000 0.447632
0.447693 0.000000 0.447693
0.585144 0.000000 0.447723
0.714081 0.000000 0.447815
0.858276 0.000000 0.447784
0.998413 0.000000 0.447784
0.000000 0.091522 0.447235
0.091644 0.091644 0.447571
0.203979 0.091614 0.447784
0.316925 0.091583 0.447968
0.448029 0.091431 0.448029
0.585358 0.091248 0.448059
0.714386 0.091125 0.448151
0.858673 0.090881 0.448120
0.998627 0.090668 0.448120
0.000000 0.203827 0.447449
0.091614 0.203979 0.447784
0.204010 0.204010 0.447968
0.316925 0.204041 0.448151
0.448212 0.203918 0.448212
0.585449 0.203766 0.448242
0.714569 0.203674 0.448334
0.858948 0.203491 0.448334
0.998718 0.203339 0.448334
0.000000 0.316803 0.447632
0.091583 0.316925 0.447968
0.204041 0.316925 0.448151
0.316925 0.316925 0.448364
0.448425 0.316772 0.448425
0.585541 0.316589 0.448456
0.714722 0.316467 0.448547
0.859192 0.316223 0.448517
0.998779 0.316040 0.448578
0.000000 0.447693 0.447693
0.091431 0.448029 0.448029
0.203918 0.448212 0.448212
0.316772 0.448425 0.448425
0.448486 0.448486 0.448486
0.585480 0.448517 0.448517
0.714783 0.448608 0.448608
0.859344 0.448608 0.448608
0.998718 0.448669 0.448669
0.000000 0.585144 0.447723
0.091248 0.585358 0.448059
0.203766 0.585449 0.448242
0.316589 0.585541 0.448456
0.448517 0.585480 0.448517
0.585419 0.585419 0.448547
0.714783 0.585388 0.448669
0.859436 0.585236 0.448669
0.998627 0.585144 0.448730
0.000000 0.714081 0.447815
0.091125 0.714386 0.448151
0.203674 0.714569 0.448334
0.316467 0.714722 0.448547
0.448608 0.714783 0.448608
0.585388 0.714783 0.448669
0.714844 0.714844 0.448792
0.859589 0.714783 0.448792
0.998596 0.714783 0.448853
0.000000 0.858276 0.447784
0.090881 0.858673 0.448120
0.203491 0.858948 0.448334
0.316223 0.859192 0.448517
0.448608 0.859344 0.448608
0.585236 0.859436 0.448669
0.714783 0.859589 0.448792
0.859619 0.859619 0.448822
0.998444 0.859680 0.448883
0.000000 0.998413 0.447784
0.090668 0.998627 0.448120
0.203339 0.998718 0.448334
0.316040 0.998779 0.448578
0.448669 0.998718 0.448669
0.585144 0.998627 0.448730
0.714783 0.998596 0.448853
0.859680 0.998444 0.448883
0.998352 0.998352 0.448975
0.000000 0.000000 0.584778
0.091309 0.000000 0.585022
0.203674 0.000000 0.585114
0.316620 0.000000 0.585205
0.447723 0.000000 0.585144
0.585083 0.000000 0.585083
0.714081 0.000000 0.585052
0.858368 0.000000 0.584900
0.998322 0.000000 0.584808
0.000000 0.091309 0.585022
0.091431 0.091431 0.585236
0.203827 0.091431 0.585327
0.316742 0.091400 0.585419
0.448059 0.091248 0.585358
0.585297 0.091064 0.585297
0.714386 0.090912 0.585266
0.858765 0.090698 0.585114
0.998535 0.090485 0.585022
0.000000 0.203674 0.585114
0.091431 0.203827 0.585327
0.203857 0.203857 0.585419
0.316742 0.203888 0.585510
0.448242 0.203766 0.585449
0.585388 0.203644 0.585388
0.714569 0.203552 0.585358
0.859039 0.203339 0.585205
0.998627 0.203186 0.585114
0.000000 0.316620 0.585205
0.091400 0.316742 0.585419
0.203888 0.316742 0.585510
0.316742 0.316742 0.585602
0.448456 0.316589 0.585541
0.585449 0.316406 0.585449
0.714752 0.316284 0.585419
0.859314 0.316040 0.585297
0.998688 0.315857 0.585205
0.000000 0.447723 0.585144
0.091248 0.448059 0.585358
0.203766 0.448242 0.585449
0.316589 0.448456 0.585541
0.448517 0.448517 0.585480
0.585419 0.448547 0.585419
0.714783 0.448669 0.585388
0.859436 0.448669 0.585236
0.998627 0.448730 0.585144
0.000000 0.585083 0.585083
0.091064 0.585297 0.585297
0.203644 0.585388 0.585388
0.316406 0.585449 0.585449
0.448547 0.585419 0.585419
0.585327 0.585327 0.585327
0.714783 0.585297 0.585297
0.859528 0.585144 0.585144
0.998566 0.585052 0.585052
0.000000 0.714081 0.585052
0.090912 0.714386 0.585266
0.203552 0.714569 0.585358
0.316284 0.714752 0.585419
0.448669 0.714783 0.585388
0.585297 0.714783 0.585297
0.714844 0.714844 0.585266
0.859680 0.714783 0.585114
0.998505 0.714783 0.585022
0.000000 0.858368 0.584900
0.090698 0.858765 0.585114
0.203339 0.859039 0.585205
0.316040 0.859314 0.585297
0.448669 0.859436 0.585236
0.585144 0.859528 0.585144
0.714783 0.859680 0.585114
0.859711 0.859711 0.584991
0.998383 0.859802 0.584869
0.000000 0.998322 0.584808
0.090485 0.998535 0.585022
0.203186 0.998627 0.585114
0.315857 0.998688 0.585205
0.448730 0.998627 0.585144
0.585052 0.998566 0.585052
0.714783 0.998505 0.585022
0.859802 0.998383 0.584869
0.998291 0.998291 0.584778
0.000000 0.000000 0.713379
0.091187 0.000000 0.713684
0.203583 0.000000 0.713867
0.316498 0.000000 0.714050
0.447815 0.000000 0.714081
0.585052 0.000000 0.714081
0.714142 0.000000 0.714142
0.858521 0.000000 0.714111
0.998291 0.000000 0.714081
0.000000 0.091187 0.713684
0.091309 0.091309 0.713989
0.203735 0.091278 0.714172
0.316620 0.091278 0.714355
0.448151 0.091125 0.714386
0.585266 0.090912 0.714386
0.714447 0.090790 0.714447
0.858917 0.090546 0.714417
0.998505 0.090332 0.714386
0.000000 0.203583 0.713867
0.091278 0.203735 0.714172
0.203766 0.203766 0.714355
0.316620 0.203796 0.714508
0.448334 0.203674 0.714569
0.585358 0.203552 0.714569
0.714630 0.203461 0.714630
0.859192 0.203278 0.714569
0.998596 0.203094 0.714569
0.000000 0.316498 0.714050
0.091278 0.316620 0.714355
0.203796 0.316620 0.714508
0.316589 0.316589 0.714691
0.448547 0.316467 0.714722
0.585419 0.316284 0.714752
0.714813 0.316162 0.714813
0.859467 0.315918 0.714752
0.998657 0.315735 0.714752
0.000000 0.447815 0.714081
0.091125 0.448151 0.714386
0.203674 0.448334 0.714569
0.316467 0.448547 0.714722
0.448608 0.448608 0.714783
0.585388 0.448669 0.714783
0.714844 0.448792 0.714844
0.859589 0.448792 0.714783
0.998596 0.448853 0.714783
0.000000 0.585052 0.714081
0.090912 0.585266 0.714386
0.203552 0.585358 0.714569
0.316284 0.585419 0.714752
0.448669 0.585388 0.714783
0.585297 0.585297 0.714783
0.714844 0.585266 0.714844
0.859680 0.585114 0.714783
0.998505 0.585022 0.714783
0.000000 0.714142 0.714142
0.090790 0.714447 0.714447
0.203461 0.714630 0.714630
0.316162 0.714813 0.714813
0.448792 0.714844 0.714844
0.585266 0.714844 0.714844
0.714905 0.714905 0.714905
0.859802 0.714844 0.714844
0.998474 0.714844 0.714844
0.000000 0.858521 0.714111
0.090546 0.858917 0.714417
0.203278 0.859192 0.714569
0.315918 0.859467 0.714752
0.448792 0.859589 0.714783
0.585114 0.859680 0.714783
0.714844 0.859802 0.714844
0.859863 0.859863 0.714813
0.998352 0.859924 0.714813
0.000000 0.998291 0.714081
0.090332 0.998505 0.714386
0.203094 0.998596 0.714569
0.315735 0.998657 0.714752
0.448853 0.998596 0.714783
0.585022 0.998505 0.714783
0.714844 0.998474 0.714844
0.859924 0.998352 0.714813
0.998260 0.998260 0.714813
0.000000 0.000000 0.857147
0.090973 0.000000 0.857574
0.203400 0.000000 0.857849
0.316284 0.000000 0.858124
0.447784 0.000000 0.858276
0.584900 0.000000 0.858368
0.714111 0.000000 0.858521
0.858582 0.000000 0.858582
0.998169 0.000000 0.858673
0.000000 0.090973 0.857574
0.091064 0.091064 0.858002
0.203552 0.091064 0.858276
0.316406 0.091034 0.858521
0.448120 0.090881 0.858673
0.585114 0.090698 0.858765
0.714417 0.090546 0.858917
0.858978 0.090302 0.858978
0.998352 0.090088 0.859039
0.000000 0.203400 0.857849
0.091064 0.203552 0.858276
0.203583 0.203583 0.858521
0.316376 0.203613 0.858795
0.448334 0.203491 0.858948
0.585205 0.203339 0.859039
0.714569 0.203278 0.859192
0.859222 0.203064 0.859222
0.998444 0.202911 0.859314
0.000000 0.316284 0.858124
0.091034 0.316406 0.858521
0.203613 0.316376 0.858795
0.316376 0.316376 0.859070
0.448517 0.316223 0.859192
0.585297 0.316040 0.859314
0.714752 0.315918 0.859467
0.859497 0.315704 0.859497
0.998535 0.315491 0.859589
0.000000 0.447784 0.858276
0.090881 0.448120 0.858673
0.203491 0.448334 0.858948
0.316223 0.448517 0.859192
0.448608 0.448608 0.859344
0.585236 0.448669 0.859436
0.714783 0.448792 0.859589
0.859619 0.448822 0.859619
0.998444 0.448883 0.859680
0.000000 0.584900 0.858368
0.090698 0.585114 0.858765
0.203339 0.585205 0.859039
0.316040 0.585297 0.859314
0.448669 0.585236 0.859436
0.585144 0.585144 0.859528
0.714783 0.585114 0.859680
0.859711 0.584991 0.859711
0.998383 0.584869 0.859802
0.000000 0.714111 0.858521
0.090546 0.714417 0.858917
0.203278 0.714569 0.859192
0.315918 0.714752 0.859467
0.448792 0.714783 0.859589
0.585114 0.714783 0.859680
0.714844 0.714844 0.859802
0.859863 0.714813 0.859863
0.998352 0.714813 0.859924
0.000000 0.858582 0.858582
0.090302 0.858978 0.858978
0.203064 0.859222 0.859222
0.315704 0.859497 0.859497
0.448822 0.859619 0.859619
0.584991 0.859711 0.859711
0.714813 0.859863 0.859863
0.859894 0.859894 0.859894
0.998199 0.859955 0.859955
0.000000 0.998169 0.858673
0.090088 0.998352 0.859039
0.202911 0.998444 0.859314
0.315491 0.998535 0.859589
0.448883 0.998444 0.859680
0.584869 0.998383 0.859802
0.714813 0.998352 0.859924
0.859955 0.998199 0.859955
0.998108 0.998108 0.860046
0.000000 0.000000 0.997986
0.090759 0.000000 0.998291
0.203217 0.000000 0.998383
0.316071 0.000000 0.998474
0.447784 0.000000 0.998413
0.584808 0.000000 0.998322
0.714081 0.000000 0.998291
0.858673 0.000000 0.998169
0.998047 0.000000 0.998047
0.000000 0.090759 0.998291
0.090851 0.090851 0.998505
0.203400 0.090851 0.998596
0.316193 0.090820 0.998688
0.448120 0.090668 0.998627
0.585022 0.090485 0.998535
0.714386 0.090332 0.998505
0.859039 0.090088 0.998352
0.998260 0.089905 0.998260
0.000000 0.203217 0.998383
0.090851 0.203400 0.998596
0.203400 0.203400 0.998688
0.316193 0.203430 0.998749
0.448334 0.203339 0.998718
0.585114 0.203186 0.998627
0.714569 0.203094 0.998596
0.859314 0.202911 0.998444
0.998352 0.202759 0.998352
0.000000 0.316071 0.998474
0.090820 0.316193 0.998688
0.203430 0.316193 0.998749
0.316162 0.316162 0.998840
0.448578 0.316040 0.998779
0.585205 0.315857 0.998688
0.714752 0.315735 0.998657
0.859589 0.315491 0.998535
0.998413 0.315308 0.998413
0.000000 0.447784 0.998413
0.090668 0.448120 0.998627
0.203339 0.448334 0.998718
0.316040 0.448578 0.998779
0.448669 0.448669 0.998718
0.585144 0.448730 0.998627
0.714783 0.448853 0.998596
0.859680 0.448883 0.998444
0.998352 0.448975 0.998352
0.000000 0.584808 0.998322
0.090485 0.585022 0.998535
0.203186 0.585114 0.998627
0.315857 0.585205 0.998688
0.448730 0.585144 0.998627
0.585052 0.585052 0.998566
0.714783 0.585022 0.998505
0.859802 0.584869 0.998383
0.998291 0.584778 0.998291
0.000000 0.714081 0.998291
0.090332 0.714386 0.998505
0.203094 0.714569 0.998596
0.315735 0.714752 0.998657
0.448853 0.714783 0.998596
0.585022 0.714783 0.998505
0.714844 0.714844 0.998474
0.859924 0.714813 0.998352
0.998260 0.714813 0.998260
0.000000 0.858673 0.998169
0.090088 0.859039 0.998352
0.202911 0.859314 0.998444
0.315491 0.859589 0.998535
0.448883 0.859680 0.998444
0.584869 0.859802 0.998383
0.714813 0.859924 0.998352
0.859955 0.859955 0.998199
0.998108 0.860046 0.998108
0.000000 0.998047 0.998047
0.089905 0.998260 0.998260
0.202759 0.998352 0.998352
0.315308 0.998413 0.998413
0.448975 0.998352 0.998352
0.584778 0.998291 0.998291
0.714813 0.998260 0.998260
0.860046 0.998108 0.998108
0.998016 0.998016 0.998016
