Kodak Vision3 500T (5230) - Only contrast.cube
# Created by Benjamin (IWLTBAP) : http://luts.iwltbap.com
# Copyright: (C) Copyright 2010-2017 Triune Films and IWLTBAP SAS
# Cannot be resold, shared or otherwise redistributed
TITLE "Film Print Emulation LUTs Pack (Rec.709, sRGB, DCI-P3)"
LUT_3D_SIZE 9
0.000519 0.000519 0.000519
0.099701 0.000641 0.000641
0.218384 0.000641 0.000641
0.361176 0.000488 0.000488
0.505432 0.000305 0.000305
0.624207 0.000305 0.000305
0.721039 0.000458 0.000458
0.806366 0.000702 0.000702
0.876434 0.001038 0.001038
0.000641 0.099701 0.000641
0.099731 0.099731 0.000763
0.218628 0.099609 0.000793
0.361511 0.099335 0.000610
0.505615 0.099060 0.000427
0.624176 0.098969 0.000427
0.720947 0.098999 0.000610
0.806152 0.099152 0.000824
0.876190 0.099396 0.001190
0.000641 0.218384 0.000641
0.099609 0.218628 0.000793
0.218719 0.218719 0.000793
0.361694 0.218628 0.000610
0.505676 0.218536 0.000458
0.624023 0.218628 0.000458
0.720703 0.218872 0.000610
0.805817 0.219177 0.000854
0.875824 0.219574 0.001190
0.000488 0.361176 0.000488
0.099335 0.361511 0.000610
0.218628 0.361694 0.000610
0.361725 0.361725 0.000458
0.505554 0.361725 0.000275
0.623688 0.361908 0.000305
0.720306 0.362244 0.000458
0.805328 0.362671 0.000702
0.875275 0.363159 0.001038
0.000305 0.505432 0.000305
0.099060 0.505615 0.000427
0.218536 0.505676 0.000458
0.361725 0.505554 0.000275
0.505463 0.505463 0.000122
0.623352 0.505493 0.000122
0.719940 0.505707 0.000275
0.804810 0.506012 0.000519
0.874725 0.506409 0.000854
0.000305 0.624207 0.000305
0.098969 0.624176 0.000427
0.218628 0.624023 0.000458
0.361908 0.623688 0.000305
0.505493 0.623352 0.000122
0.623199 0.623199 0.000122
0.719727 0.623199 0.000275
0.804504 0.623291 0.000519
0.874359 0.623474 0.000885
0.000458 0.721039 0.000458
0.098999 0.720947 0.000610
0.218872 0.720703 0.000610
0.362244 0.720306 0.000458
0.505707 0.719940 0.000275
0.623199 0.719727 0.000275
0.719666 0.719666 0.000458
0.804321 0.719696 0.000702
0.874146 0.719849 0.001038
0.000702 0.806366 0.000702
0.099152 0.806152 0.000824
0.219177 0.805817 0.000854
0.362671 0.805328 0.000702
0.506012 0.804810 0.000519
0.623291 0.804504 0.000519
0.719696 0.804321 0.000702
0.804230 0.804230 0.000946
0.873993 0.804230 0.001282
0.001038 0.876434 0.001038
0.099396 0.876190 0.001190
0.219574 0.875824 0.001190
0.363159 0.875275 0.001038
0.506409 0.874725 0.000854
0.623474 0.874359 0.000885
0.719849 0.874146 0.001038
0.804230 0.873993 0.001282
0.873901 0.873810 0.022278
0.000641 0.000641 0.099701
0.099731 0.000763 0.099731
0.218628 0.000793 0.099609
0.361511 0.000610 0.099335
0.505615 0.000427 0.099060
0.624176 0.000427 0.098969
0.720947 0.000610 0.098999
0.806152 0.000824 0.099152
0.876190 0.001190 0.099396
0.000763 0.099731 0.099731
0.099762 0.099762 0.099762
0.218842 0.099640 0.099640
0.361847 0.099365 0.099365
0.505829 0.099091 0.099091
0.624146 0.098999 0.098999
0.720856 0.099060 0.099060
0.805969 0.099182 0.099182
0.875946 0.099426 0.099426
0.000793 0.218628 0.099609
0.099640 0.218842 0.099640
0.218933 0.218933 0.099548
0.362030 0.218872 0.099274
0.505859 0.218781 0.098999
0.623993 0.218842 0.098907
0.720642 0.219086 0.098938
0.805634 0.219360 0.099091
0.875580 0.219757 0.099335
0.000610 0.361511 0.099335
0.099365 0.361847 0.099365
0.218872 0.362030 0.099274
0.362030 0.362030 0.098999
0.505768 0.362061 0.098724
0.623657 0.362244 0.098633
0.720245 0.362579 0.098694
0.805115 0.362976 0.098816
0.875031 0.363495 0.099060
0.000427 0.505615 0.099060
0.099091 0.505829 0.099091
0.218781 0.505859 0.098999
0.362061 0.505768 0.098724
0.505646 0.505646 0.098450
0.623352 0.505707 0.098358
0.719849 0.505920 0.098419
0.804626 0.506195 0.098572
0.874481 0.506592 0.098816
0.000427 0.624176 0.098969
0.098999 0.624146 0.098999
0.218842 0.623993 0.098907
0.362244 0.623657 0.098633
0.505707 0.623352 0.098358
0.623199 0.623199 0.098297
0.719666 0.623199 0.098358
0.804321 0.623291 0.098480
0.874115 0.623474 0.098755
0.000610 0.720947 0.098999
0.099060 0.720856 0.099060
0.219086 0.720642 0.098938
0.362579 0.720245 0.098694
0.505920 0.719849 0.098419
0.623199 0.719666 0.098358
0.719604 0.719604 0.098419
0.804138 0.719635 0.098572
0.873901 0.719788 0.098816
0.000824 0.806152 0.099152
0.099182 0.805969 0.099182
0.219360 0.805634 0.099091
0.362976 0.805115 0.098816
0.506195 0.804626 0.098572
0.623291 0.804321 0.098480
0.719635 0.804138 0.098572
0.804047 0.804047 0.098724
0.873779 0.804077 0.098969
0.001190 0.876190 0.099396
0.099426 0.875946 0.099426
0.219757 0.875580 0.099335
0.363495 0.875031 0.099060
0.506592 0.874481 0.098816
0.623474 0.874115 0.098755
0.719788 0.873901 0.098816
0.804077 0.873779 0.098969
0.873749 0.873749 0.099243
0.000641 0.000641 0.218384
0.099609 0.000793 0.218628
0.218719 0.000793 0.218719
0.361694 0.000610 0.218628
0.505676 0.000458 0.218536
0.624023 0.000458 0.218628
0.720703 0.000610 0.218872
0.805817 0.000854 0.219177
0.875824 0.001190 0.219574
0.000793 0.099609 0.218628
0.099640 0.099640 0.218842
0.218933 0.099548 0.218933
0.362030 0.099274 0.218872
0.505859 0.098999 0.218781
0.623993 0.098907 0.218842
0.720642 0.098938 0.219086
0.805634 0.099091 0.219360
0.875580 0.099335 0.219757
0.000793 0.218719 0.218719
0.099548 0.218933 0.218933
0.219025 0.219025 0.219025
0.362183 0.218933 0.218933
0.505920 0.218842 0.218842
0.623840 0.218903 0.218903
0.720398 0.219147 0.219147
0.805298 0.219421 0.219421
0.875183 0.219818 0.219818
0.000610 0.361694 0.218628
0.099274 0.362030 0.218872
0.218933 0.362183 0.218933
0.362213 0.362213 0.218842
0.505798 0.362213 0.218750
0.623505 0.362396 0.218811
0.720001 0.362732 0.219025
0.804779 0.363159 0.219299
0.874634 0.363647 0.219696
0.000458 0.505676 0.218536
0.098999 0.505859 0.218781
0.218842 0.505920 0.218842
0.362213 0.505798 0.218750
0.505676 0.505676 0.218628
0.623169 0.505737 0.218689
0.719635 0.505951 0.218903
0.804291 0.506256 0.219177
0.874115 0.506653 0.219574
0.000458 0.624023 0.218628
0.098907 0.623993 0.218842
0.218903 0.623840 0.218903
0.362396 0.623505 0.218811
0.505737 0.623169 0.218689
0.623047 0.623047 0.218750
0.719452 0.623047 0.218964
0.803955 0.623138 0.219238
0.873749 0.623322 0.219635
0.000610 0.720703 0.218872
0.098938 0.720642 0.219086
0.219147 0.720398 0.219147
0.362732 0.720001 0.219025
0.505951 0.719635 0.218903
0.623047 0.719452 0.218964
0.719391 0.719391 0.219177
0.803802 0.719421 0.219452
0.873535 0.719574 0.219818
0.000854 0.805817 0.219177
0.099091 0.805634 0.219360
0.219421 0.805298 0.219421
0.363159 0.804779 0.219299
0.506256 0.804291 0.219177
0.623138 0.803955 0.219238
0.719421 0.803802 0.219452
0.803711 0.803711 0.219727
0.873383 0.803741 0.220093
0.001190 0.875824 0.219574
0.099335 0.875580 0.219757
0.219818 0.875183 0.219818
0.363647 0.874634 0.219696
0.506653 0.874115 0.219574
0.623322 0.873749 0.219635
0.719574 0.873535 0.219818
0.803741 0.873383 0.220093
0.873352 0.873352 0.220459
0.000488 0.000488 0.361176
0.099335 0.000610 0.361511
0.218628 0.000610 0.361694
0.361725 0.000458 0.361725
0.505554 0.000275 0.361725
0.623688 0.000305 0.361908
0.720306 0.000458 0.362244
0.805328 0.000702 0.362671
0.875275 0.001038 0.363159
0.000610 0.099335 0.361511
0.099365 0.099365 0.361847
0.218872 0.099274 0.362030
0.362030 0.098999 0.362030
0.505768 0.098724 0.362061
0.623657 0.098633 0.362244
0.720245 0.098694 0.362579
0.805115 0.098816 0.362976
0.875031 0.099060 0.363495
0.000610 0.218628 0.361694
0.099274 0.218872 0.362030
0.218933 0.218933 0.362183
0.362213 0.218842 0.362213
0.505798 0.218750 0.362213
0.623505 0.218811 0.362396
0.720001 0.219025 0.362732
0.804779 0.219299 0.363159
0.874634 0.219696 0.363647
0.000458 0.361725 0.361725
0.098999 0.362030 0.362030
0.218842 0.362213 0.362213
0.362213 0.362213 0.362213
0.505676 0.362244 0.362244
0.623169 0.362427 0.362427
0.719635 0.362732 0.362732
0.804291 0.363159 0.363159
0.874084 0.363647 0.363647
0.000275 0.505554 0.361725
0.098724 0.505768 0.362061
0.218750 0.505798 0.362213
0.362244 0.505676 0.362244
0.505585 0.505585 0.362244
0.622864 0.505646 0.362427
0.719269 0.505829 0.362762
0.803772 0.506134 0.363159
0.873566 0.506500 0.363678
0.000305 0.623688 0.361908
0.098633 0.623657 0.362244
0.218811 0.623505 0.362396
0.362427 0.623169 0.362427
0.505646 0.622864 0.362427
0.622711 0.622711 0.362610
0.719055 0.622742 0.362946
0.803467 0.622833 0.363342
0.873199 0.623016 0.363861
0.000458 0.720306 0.362244
0.098694 0.720245 0.362579
0.219025 0.720001 0.362732
0.362732 0.719635 0.362732
0.505829 0.719269 0.362762
0.622742 0.719055 0.362946
0.719025 0.719025 0.363251
0.803314 0.719055 0.363678
0.872986 0.719208 0.364166
0.000702 0.805328 0.362671
0.098816 0.805115 0.362976
0.219299 0.804779 0.363159
0.363159 0.804291 0.363159
0.506134 0.803772 0.363159
0.622833 0.803467 0.363342
0.719055 0.803314 0.363678
0.803223 0.803223 0.364075
0.872833 0.803253 0.364594
0.001038 0.875275 0.363159
0.099060 0.875031 0.363495
0.219696 0.874634 0.363647
0.363647 0.874084 0.363647
0.506500 0.873566 0.363678
0.623016 0.873199 0.363861
0.719208 0.872986 0.364166
0.803253 0.872833 0.364594
0.872803 0.872803 0.365082
0.000305 0.000305 0.505432
0.099060 0.000427 0.505615
0.218536 0.000458 0.505676
0.361725 0.000275 0.505554
0.505463 0.000122 0.505463
0.623352 0.000122 0.505493
0.719940 0.000275 0.505707
0.804810 0.000519 0.506012
0.874725 0.000854 0.506409
0.000427 0.099060 0.505615
0.099091 0.099091 0.505829
0.218781 0.098999 0.505859
0.362061 0.098724 0.505768
0.505646 0.098450 0.505646
0.623352 0.098358 0.505707
0.719849 0.098419 0.505920
0.804626 0.098572 0.506195
0.874481 0.098816 0.506592
0.000458 0.218536 0.505676
0.098999 0.218781 0.505859
0.218842 0.218842 0.505920
0.362213 0.218750 0.505798
0.505676 0.218628 0.505676
0.623169 0.218689 0.505737
0.719635 0.218903 0.505951
0.804291 0.219177 0.506256
0.874115 0.219574 0.506653
0.000275 0.361725 0.505554
0.098724 0.362061 0.505768
0.218750 0.362213 0.505798
0.362244 0.362244 0.505676
0.505585 0.362244 0.505585
0.622864 0.362427 0.505646
0.719269 0.362762 0.505829
0.803772 0.363159 0.506134
0.873566 0.363678 0.506500
0.000122 0.505463 0.505463
0.098450 0.505646 0.505646
0.218628 0.505676 0.505676
0.362244 0.505585 0.505585
0.505463 0.505463 0.505463
0.622559 0.505524 0.505524
0.718872 0.505737 0.505737
0.803284 0.506012 0.506012
0.873016 0.506378 0.506378
0.000122 0.623352 0.505493
0.098358 0.623352 0.505707
0.218689 0.623169 0.505737
0.362427 0.622864 0.505646
0.505524 0.622559 0.505524
0.622406 0.622406 0.505585
0.718689 0.622437 0.505798
0.802979 0.622528 0.506073
0.872650 0.622711 0.506439
0.000275 0.719940 0.505707
0.098419 0.719849 0.505920
0.218903 0.719635 0.505951
0.362762 0.719269 0.505829
0.505737 0.718872 0.505737
0.622437 0.718689 0.505798
0.718658 0.718658 0.505981
0.802826 0.718719 0.506256
0.872437 0.718872 0.506653
0.000519 0.804810 0.506012
0.098572 0.804626 0.506195
0.219177 0.804291 0.506256
0.363159 0.803772 0.506134
0.506012 0.803284 0.506012
0.622528 0.802979 0.506073
0.718719 0.802826 0.506256
0.802734 0.802734 0.506531
0.872314 0.802765 0.506927
0.000854 0.874725 0.506409
0.098816 0.874481 0.506592
0.219574 0.874115 0.506653
0.363678 0.873566 0.506500
0.506378 0.873016 0.506378
0.622711 0.872650 0.506439
0.718872 0.872437 0.506653
0.802765 0.872314 0.506927
0.872253 0.872253 0.507294
0.000305 0.000305 0.624207
0.098969 0.000427 0.624176
0.218628 0.000458 0.624023
0.361908 0.000305 0.623688
0.505493 0.000122 0.623352
0.623199 0.000122 0.623199
0.719727 0.000275 0.623199
0.804504 0.000519 0.623291
0.874359 0.000885 0.623474
0.000427 0.098969 0.624176
0.098999 0.098999 0.624146
0.218842 0.098907 0.623993
0.362244 0.098633 0.623657
0.505707 0.098358 0.623352
0.623199 0.098297 0.623199
0.719666 0.098358 0.623199
0.804321 0.098480 0.623291
0.874115 0.098755 0.623474
0.000458 0.218628 0.624023
0.098907 0.218842 0.623993
0.218903 0.218903 0.623840
0.362396 0.218811 0.623505
0.505737 0.218689 0.623169
0.623047 0.218750 0.623047
0.719452 0.218964 0.623047
0.803955 0.219238 0.623138
0.873749 0.219635 0.623322
0.000305 0.361908 0.623688
0.098633 0.362244 0.623657
0.218811 0.362396 0.623505
0.362427 0.362427 0.623169
0.505646 0.362427 0.622864
0.622711 0.362610 0.622711
0.719055 0.362946 0.622742
0.803467 0.363342 0.622833
0.873199 0.363861 0.623016
0.000122 0.505493 0.623352
0.098358 0.505707 0.623352
0.218689 0.505737 0.623169
0.362427 0.505646 0.622864
0.505524 0.505524 0.622559
0.622406 0.505585 0.622406
0.718689 0.505798 0.622437
0.802979 0.506073 0.622528
0.872650 0.506439 0.622711
0.000122 0.623199 0.623199
0.098297 0.623199 0.623199
0.218750 0.623047 0.623047
0.362610 0.622711 0.622711
0.505585 0.622406 0.622406
0.622284 0.622284 0.622284
0.718536 0.622284 0.622284
0.802673 0.622406 0.622406
0.872284 0.622589 0.622589
0.000275 0.719727 0.623199
0.098358 0.719666 0.623199
0.218964 0.719452 0.623047
0.362946 0.719055 0.622742
0.505798 0.718689 0.622437
0.622284 0.718536 0.622284
0.718506 0.718506 0.622314
0.802521 0.718567 0.622406
0.872070 0.718719 0.622620
0.000519 0.804504 0.623291
0.098480 0.804321 0.623291
0.219238 0.803955 0.623138
0.363342 0.803467 0.622833
0.506073 0.802979 0.622528
0.622406 0.802673 0.622406
0.718567 0.802521 0.622406
0.802460 0.802460 0.622498
0.871948 0.802490 0.622711
0.000885 0.874359 0.623474
0.098755 0.874115 0.623474
0.219635 0.873749 0.623322
0.363861 0.873199 0.623016
0.506439 0.872650 0.622711
0.622589 0.872284 0.622589
0.718719 0.872070 0.622620
0.802490 0.871948 0.622711
0.871918 0.871918 0.622925
0.000458 0.000458 0.721039
0.098999 0.000610 0.720947
0.218872 0.000610 0.720703
0.362244 0.000458 0.720306
0.505707 0.000275 0.719940
0.623199 0.000275 0.719727
0.719666 0.000458 0.719666
0.804321 0.000702 0.719696
0.874146 0.001038 0.719849
0.000610 0.098999 0.720947
0.099060 0.099060 0.720856
0.219086 0.098938 0.720642
0.362579 0.098694 0.720245
0.505920 0.098419 0.719849
0.623199 0.098358 0.719666
0.719604 0.098419 0.719604
0.804138 0.098572 0.719635
0.873901 0.098816 0.719788
0.000610 0.218872 0.720703
0.098938 0.219086 0.720642
0.219147 0.219147 0.720398
0.362732 0.219025 0.720001
0.505951 0.218903 0.719635
0.623047 0.218964 0.719452
0.719391 0.219177 0.719391
0.803802 0.219452 0.719421
0.873535 0.219818 0.719574
0.000458 0.362244 0.720306
0.098694 0.362579 0.720245
0.219025 0.362732 0.720001
0.362732 0.362732 0.719635
0.505829 0.362762 0.719269
0.622742 0.362946 0.719055
0.719025 0.363251 0.719025
0.803314 0.363678 0.719055
0.872986 0.364166 0.719208
0.000275 0.505707 0.719940
0.098419 0.505920 0.719849
0.218903 0.505951 0.719635
0.362762 0.505829 0.719269
0.505737 0.505737 0.718872
0.622437 0.505798 0.718689
0.718658 0.505981 0.718658
0.802826 0.506256 0.718719
0.872437 0.506653 0.718872
0.000275 0.623199 0.719727
0.098358 0.623199 0.719666
0.218964 0.623047 0.719452
0.362946 0.622742 0.719055
0.505798 0.622437 0.718689
0.622284 0.622284 0.718536
0.718506 0.622314 0.718506
0.802521 0.622406 0.718567
0.872070 0.622620 0.718719
0.000458 0.719666 0.719666
0.098419 0.719604 0.719604
0.219177 0.719391 0.719391
0.363251 0.719025 0.719025
0.505981 0.718658 0.718658
0.622314 0.718506 0.718506
0.718475 0.718475 0.718475
0.802368 0.718536 0.718536
0.871857 0.718689 0.718689
0.000702 0.804321 0.719696
0.098572 0.804138 0.719635
0.219452 0.803802 0.719421
0.363678 0.803314 0.719055
0.506256 0.802826 0.718719
0.622406 0.802521 0.718567
0.718536 0.802368 0.718536
0.802307 0.802307 0.718597
0.871735 0.802338 0.718781
0.001038 0.874146 0.719849
0.098816 0.873901 0.719788
0.219818 0.873535 0.719574
0.364166 0.872986 0.719208
0.506653 0.872437 0.718872
0.622620 0.872070 0.718719
0.718689 0.871857 0.718689
0.802338 0.871735 0.718781
0.871704 0.871704 0.718933
0.000702 0.000702 0.806366
0.099152 0.000824 0.806152
0.219177 0.000854 0.805817
0.362671 0.000702 0.805328
0.506012 0.000519 0.804810
0.623291 0.000519 0.804504
0.719696 0.000702 0.804321
0.804230 0.000946 0.804230
0.873993 0.001282 0.804230
0.000824 0.099152 0.806152
0.099182 0.099182 0.805969
0.219360 0.099091 0.805634
0.362976 0.098816 0.805115
0.506195 0.098572 0.804626
0.623291 0.098480 0.804321
0.719635 0.098572 0.804138
0.804047 0.098724 0.804047
0.873779 0.098969 0.804077
0.000854 0.219177 0.805817
0.099091 0.219360 0.805634
0.219421 0.219421 0.805298
0.363159 0.219299 0.804779
0.506256 0.219177 0.804291
0.623138 0.219238 0.803955
0.719421 0.219452 0.803802
0.803711 0.219727 0.803711
0.873383 0.220093 0.803741
0.000702 0.362671 0.805328
0.098816 0.362976 0.805115
0.219299 0.363159 0.804779
0.363159 0.363159 0.804291
0.506134 0.363159 0.803772
0.622833 0.363342 0.803467
0.719055 0.363678 0.803314
0.803223 0.364075 0.803223
0.872833 0.364594 0.803253
0.000519 0.506012 0.804810
0.098572 0.506195 0.804626
0.219177 0.506256 0.804291
0.363159 0.506134 0.803772
0.506012 0.506012 0.803284
0.622528 0.506073 0.802979
0.718719 0.506256 0.802826
0.802734 0.506531 0.802734
0.872314 0.506927 0.802765
0.000519 0.623291 0.804504
0.098480 0.623291 0.804321
0.219238 0.623138 0.803955
0.363342 0.622833 0.803467
0.506073 0.622528 0.802979
0.622406 0.622406 0.802673
0.718567 0.622406 0.802521
0.802460 0.622498 0.802460
0.871948 0.622711 0.802490
0.000702 0.719696 0.804321
0.098572 0.719635 0.804138
0.219452 0.719421 0.803802
0.363678 0.719055 0.803314
0.506256 0.718719 0.802826
0.622406 0.718567 0.802521
0.718536 0.718536 0.802368
0.802307 0.718597 0.802307
0.871735 0.718781 0.802338
0.000946 0.804230 0.804230
0.098724 0.804047 0.804047
0.219727 0.803711 0.803711
0.364075 0.803223 0.803223
0.506531 0.802734 0.802734
0.622498 0.802460 0.802460
0.718597 0.802307 0.802307
0.802246 0.802246 0.802246
0.871613 0.802277 0.802277
0.001282 0.873993 0.804230
0.098969 0.873779 0.804077
0.220093 0.873383 0.803741
0.364594 0.872833 0.803253
0.506927 0.872314 0.802765
0.622711 0.871948 0.802490
0.718781 0.871735 0.802338
0.802277 0.871613 0.802277
0.871582 0.871582 0.802338
0.001038 0.001038 0.876373
0.099396 0.001190 0.876190
0.219574 0.001190 0.875824
0.363159 0.001038 0.875275
0.506409 0.000854 0.874725
0.623474 0.000885 0.874359
0.719849 0.001038 0.874146
0.804230 0.001282 0.873993
0.873962 0.001648 0.873962
0.001190 0.099396 0.876190
0.099426 0.099426 0.875946
0.219757 0.099335 0.875580
0.363495 0.099060 0.875031
0.506592 0.098816 0.874481
0.623474 0.098755 0.874115
0.719788 0.098816 0.873901
0.804077 0.098969 0.873779
0.873749 0.099243 0.873749
0.001190 0.219574 0.875824
0.099335 0.219757 0.875580
0.219818 0.219818 0.875183
0.363647 0.219696 0.874634
0.506653 0.219574 0.874115
0.623322 0.219635 0.873749
0.719574 0.219818 0.873535
0.803741 0.220093 0.873383
0.873352 0.220459 0.873352
0.001038 0.363159 0.875275
0.099060 0.363495 0.875031
0.219696 0.363647 0.874634
0.363647 0.363647 0.874084
0.506500 0.363678 0.873566
0.623016 0.363861 0.873199
0.719208 0.364166 0.872986
0.803253 0.364594 0.872833
0.872803 0.365082 0.872803
0.000854 0.506409 0.874725
0.098816 0.506592 0.874481
0.219574 0.506653 0.874115
0.363678 0.506500 0.873566
0.506378 0.506378 0.873016
0.622711 0.506439 0.872650
0.718872 0.506653 0.872437
0.802765 0.506927 0.872314
0.872253 0.507294 0.872253
0.000885 0.623474 0.874359
0.098755 0.623474 0.874115
0.219635 0.623322 0.873749
0.363861 0.623016 0.873199
0.506439 0.622711 0.872650
0.622589 0.622589 0.872284
0.718719 0.622620 0.872070
0.802490 0.622711 0.871948
0.871918 0.622925 0.871918
0.001038 0.719849 0.874146
0.098816 0.719788 0.873901
0.219818 0.719574 0.873535
0.364166 0.719208 0.872986
0.506653 0.718872 0.872437
0.622620 0.718719 0.872070
0.718689 0.718689 0.871857
0.802338 0.718781 0.871735
0.871704 0.718933 0.871704
0.001282 0.804230 0.873993
0.098969 0.804077 0.873779
0.220093 0.803741 0.873383
0.364594 0.803253 0.872833
0.506927 0.802765 0.872314
0.622711 0.802490 0.871948
0.718781 0.802338 0.871735
0.802277 0.802277 0.871613
0.871582 0.802338 0.871582
0.001648 0.873962 0.873962
0.099243 0.873749 0.873749
0.220459 0.873352 0.873352
0.365082 0.872803 0.872803
0.507294 0.872253 0.872253
0.622925 0.871918 0.871918
0.718933 0.871704 0.871704
0.802338 0.871582 0.871582
0.871552 0.871552 0.871552
