Kodak Vision 800T (5289) - Only contrast.cube
# Created by Benjamin (IWLTBAP) : http://luts.iwltbap.com
# Copyright: (C) Copyright 2010-2017 Triune Films and IWLTBAP SAS
# Cannot be resold, shared or otherwise redistributed
TITLE "Film Print Emulation LUTs Pack (Rec.709, sRGB, DCI-P3)"
LUT_3D_SIZE 9
0.000000 0.000000 0.000000
0.110687 0.000458 0.000458
0.218506 0.000977 0.000977
0.345947 0.001373 0.001373
0.487030 0.001709 0.001709
0.627289 0.002014 0.002014
0.743713 0.002502 0.002502
0.828217 0.003235 0.003235
0.890198 0.004120 0.004120
0.000458 0.110687 0.000458
0.110626 0.110626 0.000977
0.218536 0.110596 0.001495
0.346191 0.110413 0.001892
0.487305 0.110138 0.002228
0.627441 0.109894 0.002563
0.743683 0.109802 0.003082
0.827942 0.109924 0.003815
0.889801 0.110199 0.004700
0.000977 0.218506 0.000977
0.110596 0.218536 0.001495
0.218597 0.218597 0.002045
0.346436 0.218506 0.002441
0.487549 0.218353 0.002777
0.627594 0.218170 0.003113
0.743591 0.218170 0.003632
0.827667 0.218384 0.004395
0.889404 0.218781 0.005280
0.001373 0.345947 0.001373
0.110413 0.346191 0.001892
0.218506 0.346436 0.002441
0.346527 0.346527 0.002869
0.487671 0.346527 0.003235
0.627625 0.346527 0.003571
0.743408 0.346710 0.004089
0.827271 0.347107 0.004822
0.888885 0.347656 0.005707
0.001709 0.487030 0.001709
0.110138 0.487305 0.002228
0.218353 0.487549 0.002777
0.346527 0.487671 0.003235
0.487701 0.487701 0.003571
0.627533 0.487762 0.003906
0.743103 0.487976 0.004425
0.826752 0.488403 0.005157
0.888245 0.488983 0.006042
0.002014 0.627289 0.002014
0.109894 0.627441 0.002563
0.218170 0.627594 0.003113
0.346527 0.627625 0.003571
0.487762 0.627533 0.003906
0.627472 0.627472 0.004272
0.742798 0.627563 0.004791
0.826263 0.627899 0.005524
0.887665 0.628357 0.006409
0.002502 0.743713 0.002502
0.109802 0.743683 0.003082
0.218170 0.743591 0.003632
0.346710 0.743408 0.004089
0.487976 0.743103 0.004425
0.627563 0.742798 0.004791
0.742676 0.742676 0.005310
0.825928 0.742767 0.006042
0.887207 0.743011 0.006927
0.003235 0.828217 0.003235
0.109924 0.827942 0.003815
0.218384 0.827667 0.004395
0.347107 0.827271 0.004822
0.488403 0.826752 0.005157
0.627899 0.826263 0.005524
0.742767 0.825928 0.006042
0.825836 0.825836 0.006775
0.886993 0.825867 0.007660
0.004120 0.890198 0.004120
0.110199 0.889801 0.004700
0.218781 0.889404 0.005280
0.347656 0.888885 0.005707
0.488983 0.888245 0.006042
0.628357 0.887665 0.006409
0.743011 0.887207 0.006927
0.825867 0.886993 0.007660
0.886810 0.886749 0.034668
0.000458 0.000458 0.110687
0.110626 0.000977 0.110626
0.218536 0.001495 0.110596
0.346191 0.001892 0.110413
0.487305 0.002228 0.110138
0.627441 0.002563 0.109894
0.743683 0.003082 0.109802
0.827942 0.003815 0.109924
0.889801 0.004700 0.110199
0.000977 0.110626 0.110626
0.110596 0.110596 0.110596
0.218597 0.110565 0.110565
0.346436 0.110382 0.110382
0.487579 0.110107 0.110107
0.627594 0.109863 0.109863
0.743622 0.109772 0.109772
0.827698 0.109894 0.109894
0.889435 0.110168 0.110168
0.001495 0.218536 0.110596
0.110565 0.218597 0.110565
0.218658 0.218658 0.110504
0.346649 0.218567 0.110352
0.487823 0.218414 0.110077
0.627777 0.218231 0.109802
0.743561 0.218262 0.109711
0.827423 0.218475 0.109863
0.889038 0.218872 0.110138
0.001892 0.346191 0.110413
0.110382 0.346436 0.110382
0.218567 0.346649 0.110352
0.346771 0.346771 0.110168
0.487946 0.346771 0.109894
0.627777 0.346771 0.109650
0.743347 0.346954 0.109558
0.826996 0.347382 0.109680
0.888519 0.347931 0.109955
0.002228 0.487305 0.110138
0.110107 0.487579 0.110107
0.218414 0.487823 0.110077
0.346771 0.487946 0.109894
0.487976 0.487976 0.109619
0.627716 0.488037 0.109375
0.743042 0.488251 0.109283
0.826508 0.488678 0.109406
0.887909 0.489258 0.109711
0.002563 0.627441 0.109894
0.109863 0.627594 0.109863
0.218231 0.627777 0.109802
0.346771 0.627777 0.109650
0.488037 0.627716 0.109375
0.627625 0.627625 0.109100
0.742767 0.627747 0.109039
0.826019 0.628082 0.109161
0.887299 0.628540 0.109436
0.003082 0.743683 0.109802
0.109772 0.743622 0.109772
0.218262 0.743561 0.109711
0.346954 0.743347 0.109558
0.488251 0.743042 0.109283
0.627747 0.742767 0.109039
0.742645 0.742645 0.108948
0.825714 0.742737 0.109070
0.886871 0.742981 0.109375
0.003815 0.827942 0.109924
0.109894 0.827698 0.109894
0.218475 0.827423 0.109863
0.347382 0.826996 0.109680
0.488678 0.826508 0.109406
0.628082 0.826019 0.109161
0.742737 0.825714 0.109070
0.825592 0.825592 0.109222
0.886658 0.825653 0.109528
0.004700 0.889801 0.110199
0.110168 0.889435 0.110168
0.218872 0.889038 0.110138
0.347931 0.888519 0.109955
0.489258 0.887909 0.109711
0.628540 0.887299 0.109436
0.742981 0.886871 0.109375
0.825653 0.886658 0.109528
0.886597 0.886597 0.109802
0.000977 0.000977 0.218506
0.110596 0.001495 0.218536
0.218597 0.002045 0.218597
0.346436 0.002441 0.218506
0.487549 0.002777 0.218353
0.627594 0.003113 0.218170
0.743591 0.003632 0.218170
0.827667 0.004395 0.218384
0.889404 0.005280 0.218781
0.001495 0.110596 0.218536
0.110565 0.110565 0.218597
0.218658 0.110504 0.218658
0.346649 0.110352 0.218567
0.487823 0.110077 0.218414
0.627777 0.109802 0.218231
0.743561 0.109711 0.218262
0.827423 0.109863 0.218475
0.889038 0.110138 0.218872
0.002045 0.218597 0.218597
0.110504 0.218658 0.218658
0.218719 0.218719 0.218719
0.346893 0.218628 0.218628
0.488098 0.218445 0.218445
0.627930 0.218292 0.218292
0.743500 0.218292 0.218292
0.827148 0.218536 0.218536
0.888672 0.218933 0.218933
0.002441 0.346436 0.218506
0.110352 0.346649 0.218567
0.218628 0.346893 0.218628
0.346985 0.346985 0.218536
0.488220 0.346985 0.218384
0.627930 0.347015 0.218201
0.743286 0.347198 0.218231
0.826721 0.347626 0.218445
0.888123 0.348175 0.218842
0.002777 0.487549 0.218353
0.110077 0.487823 0.218414
0.218445 0.488098 0.218445
0.346985 0.488220 0.218384
0.488251 0.488251 0.218201
0.627838 0.488281 0.218048
0.742981 0.488495 0.218048
0.826233 0.488953 0.218292
0.887512 0.489532 0.218689
0.003113 0.627594 0.218170
0.109802 0.627777 0.218231
0.218292 0.627930 0.218292
0.347015 0.627930 0.218201
0.488281 0.627838 0.218048
0.627777 0.627777 0.217896
0.742676 0.627899 0.217896
0.825745 0.628235 0.218140
0.886902 0.628693 0.218536
0.003632 0.743591 0.218170
0.109711 0.743561 0.218262
0.218292 0.743500 0.218292
0.347198 0.743286 0.218231
0.488495 0.742981 0.218048
0.627899 0.742676 0.217896
0.742554 0.742554 0.217926
0.825409 0.742645 0.218170
0.886475 0.742889 0.218567
0.004395 0.827667 0.218384
0.109863 0.827423 0.218475
0.218536 0.827148 0.218536
0.347626 0.826721 0.218445
0.488953 0.826233 0.218292
0.628235 0.825745 0.218140
0.742645 0.825409 0.218170
0.825317 0.825317 0.218414
0.886261 0.825378 0.218811
0.005280 0.889404 0.218781
0.110138 0.889038 0.218872
0.218933 0.888672 0.218933
0.348175 0.888123 0.218842
0.489532 0.887512 0.218689
0.628693 0.886902 0.218536
0.742889 0.886475 0.218567
0.825378 0.886261 0.218811
0.886200 0.886200 0.219208
0.001373 0.001373 0.345947
0.110413 0.001892 0.346191
0.218506 0.002441 0.346436
0.346527 0.002869 0.346527
0.487671 0.003235 0.346527
0.627625 0.003571 0.346527
0.743408 0.004089 0.346710
0.827271 0.004822 0.347107
0.888885 0.005707 0.347656
0.001892 0.110413 0.346191
0.110382 0.110382 0.346436
0.218567 0.110352 0.346649
0.346771 0.110168 0.346771
0.487946 0.109894 0.346771
0.627777 0.109650 0.346771
0.743347 0.109558 0.346954
0.826996 0.109680 0.347382
0.888519 0.109955 0.347931
0.002441 0.218506 0.346436
0.110352 0.218567 0.346649
0.218628 0.218628 0.346893
0.346985 0.218536 0.346985
0.488220 0.218384 0.346985
0.627930 0.218201 0.347015
0.743286 0.218231 0.347198
0.826721 0.218445 0.347626
0.888123 0.218842 0.348175
0.002869 0.346527 0.346527
0.110168 0.346771 0.346771
0.218536 0.346985 0.346985
0.347076 0.347076 0.347076
0.488342 0.347076 0.347076
0.627930 0.347107 0.347107
0.743073 0.347290 0.347290
0.826324 0.347717 0.347717
0.887573 0.348267 0.348267
0.003235 0.487671 0.346527
0.109894 0.487946 0.346771
0.218384 0.488220 0.346985
0.347076 0.488342 0.347076
0.488373 0.488373 0.347107
0.627869 0.488403 0.347107
0.742767 0.488617 0.347321
0.825806 0.489075 0.347717
0.886963 0.489655 0.348297
0.003571 0.627625 0.346527
0.109650 0.627777 0.346771
0.218201 0.627930 0.347015
0.347107 0.627930 0.347107
0.488403 0.627869 0.347107
0.627808 0.627808 0.347137
0.742462 0.627899 0.347351
0.825317 0.628235 0.347748
0.886353 0.628693 0.348328
0.004089 0.743408 0.346710
0.109558 0.743347 0.346954
0.218231 0.743286 0.347198
0.347290 0.743073 0.347290
0.488617 0.742767 0.347321
0.627899 0.742462 0.347351
0.742340 0.742340 0.347534
0.824982 0.742432 0.347961
0.885925 0.742676 0.348511
0.004822 0.827271 0.347107
0.109680 0.826996 0.347382
0.218445 0.826721 0.347626
0.347717 0.826324 0.347717
0.489075 0.825806 0.347717
0.628235 0.825317 0.347748
0.742432 0.824982 0.347961
0.824890 0.824890 0.348389
0.885712 0.824921 0.348938
0.005707 0.888885 0.347656
0.109955 0.888519 0.347931
0.218842 0.888123 0.348175
0.348267 0.887573 0.348267
0.489655 0.886963 0.348297
0.628693 0.886353 0.348328
0.742676 0.885925 0.348511
0.824921 0.885712 0.348938
0.885651 0.885651 0.349518
0.001709 0.001709 0.487030
0.110138 0.002228 0.487305
0.218353 0.002777 0.487549
0.346527 0.003235 0.487671
0.487701 0.003571 0.487701
0.627533 0.003906 0.487762
0.743103 0.004425 0.487976
0.826752 0.005157 0.488403
0.888245 0.006042 0.488983
0.002228 0.110138 0.487305
0.110107 0.110107 0.487579
0.218414 0.110077 0.487823
0.346771 0.109894 0.487946
0.487976 0.109619 0.487976
0.627716 0.109375 0.488037
0.743042 0.109283 0.488251
0.826508 0.109406 0.488678
0.887909 0.109711 0.489258
0.002777 0.218353 0.487549
0.110077 0.218414 0.487823
0.218445 0.218445 0.488098
0.346985 0.218384 0.488220
0.488251 0.218201 0.488251
0.627838 0.218048 0.488281
0.742981 0.218048 0.488495
0.826233 0.218292 0.488953
0.887512 0.218689 0.489532
0.003235 0.346527 0.487671
0.109894 0.346771 0.487946
0.218384 0.346985 0.488220
0.347076 0.347076 0.488342
0.488373 0.347107 0.488373
0.627869 0.347107 0.488403
0.742767 0.347321 0.488617
0.825806 0.347717 0.489075
0.886963 0.348297 0.489655
0.003571 0.487701 0.487701
0.109619 0.487976 0.487976
0.218201 0.488251 0.488251
0.347107 0.488373 0.488373
0.488403 0.488403 0.488403
0.627777 0.488434 0.488434
0.742432 0.488647 0.488647
0.825287 0.489105 0.489105
0.886353 0.489685 0.489685
0.003906 0.627533 0.487762
0.109375 0.627716 0.488037
0.218048 0.627838 0.488281
0.347107 0.627869 0.488403
0.488434 0.627777 0.488434
0.627716 0.627716 0.488495
0.742157 0.627838 0.488708
0.824799 0.628143 0.489136
0.885742 0.628632 0.489746
0.004425 0.743103 0.487976
0.109283 0.743042 0.488251
0.218048 0.742981 0.488495
0.347321 0.742767 0.488617
0.488647 0.742432 0.488647
0.627838 0.742157 0.488708
0.742035 0.742035 0.488922
0.824493 0.742126 0.489380
0.885315 0.742340 0.489960
0.005157 0.826752 0.488403
0.109406 0.826508 0.488678
0.218292 0.826233 0.488953
0.347717 0.825806 0.489075
0.489105 0.825287 0.489105
0.628143 0.824799 0.489136
0.742126 0.824493 0.489380
0.824371 0.824371 0.489807
0.885101 0.824432 0.490417
0.006042 0.888245 0.488983
0.109711 0.887909 0.489258
0.218689 0.887512 0.489532
0.348297 0.886963 0.489655
0.489685 0.886353 0.489685
0.628632 0.885742 0.489746
0.742340 0.885315 0.489960
0.824432 0.885101 0.490417
0.885040 0.885040 0.490997
0.002014 0.002014 0.627289
0.109894 0.002563 0.627441
0.218170 0.003113 0.627594
0.346527 0.003571 0.627625
0.487762 0.003906 0.627533
0.627472 0.004272 0.627472
0.742798 0.004791 0.627563
0.826263 0.005524 0.627899
0.887665 0.006409 0.628357
0.002563 0.109894 0.627441
0.109863 0.109863 0.627594
0.218231 0.109802 0.627777
0.346771 0.109650 0.627777
0.488037 0.109375 0.627716
0.627625 0.109100 0.627625
0.742767 0.109039 0.627747
0.826019 0.109161 0.628082
0.887299 0.109436 0.628540
0.003113 0.218170 0.627594
0.109802 0.218231 0.627777
0.218292 0.218292 0.627930
0.347015 0.218201 0.627930
0.488281 0.218048 0.627838
0.627777 0.217896 0.627777
0.742676 0.217896 0.627899
0.825745 0.218140 0.628235
0.886902 0.218536 0.628693
0.003571 0.346527 0.627625
0.109650 0.346771 0.627777
0.218201 0.347015 0.627930
0.347107 0.347107 0.627930
0.488403 0.347107 0.627869
0.627808 0.347137 0.627808
0.742462 0.347351 0.627899
0.825317 0.347748 0.628235
0.886353 0.348328 0.628693
0.003906 0.487762 0.627533
0.109375 0.488037 0.627716
0.218048 0.488281 0.627838
0.347107 0.488403 0.627869
0.488434 0.488434 0.627777
0.627716 0.488495 0.627716
0.742157 0.488708 0.627838
0.824799 0.489136 0.628143
0.885742 0.489746 0.628632
0.004272 0.627472 0.627472
0.109100 0.627625 0.627625
0.217896 0.627777 0.627777
0.347137 0.627808 0.627808
0.488495 0.627716 0.627716
0.627655 0.627655 0.627655
0.741852 0.627777 0.627777
0.824310 0.628082 0.628082
0.885132 0.628571 0.628571
0.004791 0.742798 0.627563
0.109039 0.742767 0.627747
0.217896 0.742676 0.627899
0.347351 0.742462 0.627899
0.488708 0.742157 0.627838
0.627777 0.741852 0.627777
0.741730 0.741730 0.627869
0.824005 0.741821 0.628204
0.884705 0.742065 0.628693
0.005524 0.826263 0.627899
0.109161 0.826019 0.628082
0.218140 0.825745 0.628235
0.347748 0.825317 0.628235
0.489136 0.824799 0.628143
0.628082 0.824310 0.628082
0.741821 0.824005 0.628204
0.823883 0.823883 0.628540
0.884491 0.823944 0.628998
0.006409 0.887665 0.628357
0.109436 0.887299 0.628540
0.218536 0.886902 0.628693
0.348328 0.886353 0.628693
0.489746 0.885742 0.628632
0.628571 0.885132 0.628571
0.742065 0.884705 0.628693
0.823944 0.884491 0.628998
0.884460 0.884460 0.629486
0.002502 0.002502 0.743713
0.109802 0.003082 0.743683
0.218170 0.003632 0.743591
0.346710 0.004089 0.743408
0.487976 0.004425 0.743103
0.627563 0.004791 0.742798
0.742676 0.005310 0.742676
0.825928 0.006042 0.742767
0.887207 0.006927 0.743011
0.003082 0.109802 0.743683
0.109772 0.109772 0.743622
0.218262 0.109711 0.743561
0.346954 0.109558 0.743347
0.488251 0.109283 0.743042
0.627747 0.109039 0.742767
0.742645 0.108948 0.742645
0.825714 0.109070 0.742737
0.886871 0.109375 0.742981
0.003632 0.218170 0.743591
0.109711 0.218262 0.743561
0.218292 0.218292 0.743500
0.347198 0.218231 0.743286
0.488495 0.218048 0.742981
0.627899 0.217896 0.742676
0.742554 0.217926 0.742554
0.825409 0.218170 0.742645
0.886475 0.218567 0.742889
0.004089 0.346710 0.743408
0.109558 0.346954 0.743347
0.218231 0.347198 0.743286
0.347290 0.347290 0.743073
0.488617 0.347321 0.742767
0.627899 0.347351 0.742462
0.742340 0.347534 0.742340
0.824982 0.347961 0.742432
0.885925 0.348511 0.742676
0.004425 0.487976 0.743103
0.109283 0.488251 0.743042
0.218048 0.488495 0.742981
0.347321 0.488617 0.742767
0.488647 0.488647 0.742432
0.627838 0.488708 0.742157
0.742035 0.488922 0.742035
0.824493 0.489380 0.742126
0.885315 0.489960 0.742340
0.004791 0.627563 0.742798
0.109039 0.627747 0.742767
0.217896 0.627899 0.742676
0.347351 0.627899 0.742462
0.488708 0.627838 0.742157
0.627777 0.627777 0.741852
0.741730 0.627869 0.741730
0.824005 0.628204 0.741821
0.884705 0.628693 0.742065
0.005310 0.742676 0.742676
0.108948 0.742645 0.742645
0.217926 0.742554 0.742554
0.347534 0.742340 0.742340
0.488922 0.742035 0.742035
0.627869 0.741730 0.741730
0.741608 0.741608 0.741608
0.823669 0.741699 0.741699
0.884277 0.741943 0.741943
0.006042 0.825928 0.742767
0.109070 0.825714 0.742737
0.218170 0.825409 0.742645
0.347961 0.824982 0.742432
0.489380 0.824493 0.742126
0.628204 0.824005 0.741821
0.741699 0.823669 0.741699
0.823578 0.823578 0.741791
0.884094 0.823608 0.742035
0.006927 0.887207 0.743011
0.109375 0.886871 0.742981
0.218567 0.886475 0.742889
0.348511 0.885925 0.742676
0.489960 0.885315 0.742340
0.628693 0.884705 0.742065
0.741943 0.884277 0.741943
0.823608 0.884094 0.742035
0.884033 0.884033 0.742249
0.003235 0.003235 0.828217
0.109924 0.003815 0.827942
0.218384 0.004395 0.827667
0.347107 0.004822 0.827271
0.488403 0.005157 0.826752
0.627899 0.005524 0.826263
0.742767 0.006042 0.825928
0.825836 0.006775 0.825836
0.886993 0.007660 0.825867
0.003815 0.109924 0.827942
0.109894 0.109894 0.827698
0.218475 0.109863 0.827423
0.347382 0.109680 0.826996
0.488678 0.109406 0.826508
0.628082 0.109161 0.826019
0.742737 0.109070 0.825714
0.825592 0.109222 0.825592
0.886658 0.109528 0.825653
0.004395 0.218384 0.827667
0.109863 0.218475 0.827423
0.218536 0.218536 0.827148
0.347626 0.218445 0.826721
0.488953 0.218292 0.826233
0.628235 0.218140 0.825745
0.742645 0.218170 0.825409
0.825317 0.218414 0.825317
0.886261 0.218811 0.825378
0.004822 0.347107 0.827271
0.109680 0.347382 0.826996
0.218445 0.347626 0.826721
0.347717 0.347717 0.826324
0.489075 0.347717 0.825806
0.628235 0.347748 0.825317
0.742432 0.347961 0.824982
0.824890 0.348389 0.824890
0.885712 0.348938 0.824921
0.005157 0.488403 0.826752
0.109406 0.488678 0.826508
0.218292 0.488953 0.826233
0.347717 0.489075 0.825806
0.489105 0.489105 0.825287
0.628143 0.489136 0.824799
0.742126 0.489380 0.824493
0.824371 0.489807 0.824371
0.885101 0.490417 0.824432
0.005524 0.627899 0.826263
0.109161 0.628082 0.826019
0.218140 0.628235 0.825745
0.347748 0.628235 0.825317
0.489136 0.628143 0.824799
0.628082 0.628082 0.824310
0.741821 0.628204 0.824005
0.823883 0.628540 0.823883
0.884491 0.628998 0.823944
0.006042 0.742767 0.825928
0.109070 0.742737 0.825714
0.218170 0.742645 0.825409
0.347961 0.742432 0.824982
0.489380 0.742126 0.824493
0.628204 0.741821 0.824005
0.741699 0.741699 0.823669
0.823578 0.741791 0.823578
0.884094 0.742035 0.823608
0.006775 0.825836 0.825836
0.109222 0.825592 0.825592
0.218414 0.825317 0.825317
0.348389 0.824890 0.824890
0.489807 0.824371 0.824371
0.628540 0.823883 0.823883
0.741791 0.823578 0.823578
0.823486 0.823486 0.823486
0.883881 0.823517 0.823517
0.007660 0.886993 0.825867
0.109528 0.886658 0.825653
0.218811 0.886261 0.825378
0.348938 0.885712 0.824921
0.490417 0.885101 0.824432
0.628998 0.884491 0.823944
0.742035 0.884094 0.823608
0.823517 0.883881 0.823517
0.883820 0.883820 0.823578
0.004120 0.004120 0.890167
0.110199 0.004700 0.889801
0.218781 0.005280 0.889404
0.347656 0.005707 0.888885
0.488983 0.006042 0.888245
0.628357 0.006409 0.887665
0.743011 0.006927 0.887207
0.825867 0.007660 0.886993
0.886932 0.008514 0.886932
0.004700 0.110199 0.889801
0.110168 0.110168 0.889435
0.218872 0.110138 0.889038
0.347931 0.109955 0.888519
0.489258 0.109711 0.887909
0.628540 0.109436 0.887299
0.742981 0.109375 0.886871
0.825653 0.109528 0.886658
0.886597 0.109802 0.886597
0.005280 0.218781 0.889404
0.110138 0.218872 0.889038
0.218933 0.218933 0.888672
0.348175 0.218842 0.888123
0.489532 0.218689 0.887512
0.628693 0.218536 0.886902
0.742889 0.218567 0.886475
0.825378 0.218811 0.886261
0.886200 0.219208 0.886200
0.005707 0.347656 0.888885
0.109955 0.347931 0.888519
0.218842 0.348175 0.888123
0.348267 0.348267 0.887573
0.489655 0.348297 0.886963
0.628693 0.348328 0.886353
0.742676 0.348511 0.885925
0.824921 0.348938 0.885712
0.885651 0.349518 0.885651
0.006042 0.488983 0.888245
0.109711 0.489258 0.887909
0.218689 0.489532 0.887512
0.348297 0.489655 0.886963
0.489685 0.489685 0.886353
0.628632 0.489746 0.885742
0.742340 0.489960 0.885315
0.824432 0.490417 0.885101
0.885040 0.490997 0.885040
0.006409 0.628357 0.887665
0.109436 0.628540 0.887299
0.218536 0.628693 0.886902
0.348328 0.628693 0.886353
0.489746 0.628632 0.885742
0.628571 0.628571 0.885132
0.742065 0.628693 0.884705
0.823944 0.628998 0.884491
0.884460 0.629486 0.884460
0.006927 0.743011 0.887207
0.109375 0.742981 0.886871
0.218567 0.742889 0.886475
0.348511 0.742676 0.885925
0.489960 0.742340 0.885315
0.628693 0.742065 0.884705
0.741943 0.741943 0.884277
0.823608 0.742035 0.884094
0.884033 0.742249 0.884033
0.007660 0.825867 0.886993
0.109528 0.825653 0.886658
0.218811 0.825378 0.886261
0.348938 0.824921 0.885712
0.490417 0.824432 0.885101
0.628998 0.823944 0.884491
0.742035 0.823608 0.884094
0.823517 0.823517 0.883881
0.883820 0.823578 0.883820
0.008514 0.886932 0.886932
0.109802 0.886597 0.886597
0.219208 0.886200 0.886200
0.349518 0.885651 0.885651
0.490997 0.885040 0.885040
0.629486 0.884460 0.884460
0.742249 0.884033 0.884033
0.823578 0.883820 0.883820
0.883789 0.883789 0.883789
