Kodak Vision2 500T (5260) - Only contrast.cube
# Created by Benjamin (IWLTBAP) : http://luts.iwltbap.com
# Copyright: (C) Copyright 2010-2017 Triune Films and IWLTBAP SAS
# Cannot be resold, shared or otherwise redistributed
TITLE "Film Print Emulation LUTs Pack (Rec.709, sRGB, DCI-P3)"
LUT_3D_SIZE 33
0.000000 0.000000 0.000000
0.016998 0.000000 0.000000
0.041992 0.000000 0.000000
0.065796 0.000000 0.000000
0.090210 0.000000 0.000000
0.115601 0.000000 0.000000
0.143494 0.000000 0.000000
0.174133 0.000000 0.000000
0.203400 0.000000 0.000000
0.232635 0.000000 0.000000
0.266144 0.000000 0.000000
0.299805 0.000000 0.000000
0.334534 0.000000 0.000000
0.367737 0.000000 0.000000
0.400574 0.000000 0.000000
0.432617 0.000000 0.000000
0.464752 0.000000 0.000000
0.499268 0.000000 0.000000
0.537140 0.000000 0.000000
0.575287 0.000000 0.000000
0.613556 0.000000 0.000000
0.652313 0.000000 0.000000
0.691833 0.000000 0.000000
0.729279 0.000000 0.000000
0.764313 0.000000 0.000000
0.794556 0.000000 0.000000
0.822235 0.000000 0.000000
0.849579 0.000000 0.000000
0.875305 0.000000 0.000000
0.897125 0.000000 0.000000
0.918030 0.000000 0.000000
0.937622 0.000000 0.000000
0.955627 0.000000 0.000000
0.000000 0.016998 0.000000
0.017029 0.017029 0.000000
0.042053 0.017029 0.000000
0.065857 0.017029 0.000000
0.090271 0.016998 0.000000
0.115662 0.016998 0.000000
0.143585 0.016968 0.000000
0.174225 0.016907 0.000000
0.203491 0.016876 0.000000
0.232727 0.016846 0.000000
0.266235 0.016754 0.000000
0.299927 0.016693 0.000000
0.334656 0.016632 0.000000
0.367828 0.016571 0.000000
0.400665 0.016510 0.000000
0.432709 0.016449 0.000000
0.464844 0.016388 0.000000
0.499390 0.016327 0.000000
0.537292 0.016235 0.000000
0.575409 0.016113 0.000000
0.613678 0.016022 0.000000
0.652435 0.015930 0.000000
0.691986 0.015839 0.000000
0.729401 0.015747 0.000000
0.764435 0.015656 0.000000
0.794647 0.015625 0.000000
0.822296 0.015625 0.000000
0.849640 0.015594 0.000000
0.875366 0.015594 0.000000
0.897156 0.015625 0.000000
0.918030 0.015656 0.000000
0.937622 0.015686 0.000000
0.955597 0.015747 0.000000
0.000000 0.041992 0.000000
0.017029 0.042053 0.000000
0.042053 0.042053 0.000000
0.065857 0.042053 0.000000
0.090271 0.042053 0.000000
0.115692 0.042023 0.000000
0.143616 0.041992 0.000000
0.174255 0.041962 0.000000
0.203522 0.041931 0.000000
0.232788 0.041870 0.000000
0.266296 0.041809 0.000000
0.299988 0.041748 0.000000
0.334717 0.041656 0.000000
0.367889 0.041595 0.000000
0.400726 0.041534 0.000000
0.432739 0.041473 0.000000
0.464874 0.041412 0.000000
0.499481 0.041351 0.000000
0.537354 0.041260 0.000000
0.575500 0.041138 0.000000
0.613770 0.041046 0.000000
0.652527 0.040955 0.000000
0.692078 0.040833 0.000000
0.729462 0.040741 0.000000
0.764496 0.040649 0.000000
0.794647 0.040619 0.000000
0.822327 0.040588 0.000000
0.849640 0.040558 0.000000
0.875336 0.040558 0.000000
0.897125 0.040558 0.000000
0.917999 0.040558 0.000000
0.937592 0.040588 0.000000
0.955566 0.040649 0.000000
0.000000 0.065796 0.000000
0.017029 0.065857 0.000000
0.042053 0.065857 0.000000
0.065857 0.065857 0.000000
0.090271 0.065857 0.000000
0.115692 0.065826 0.000000
0.143646 0.065826 0.000000
0.174316 0.065765 0.000000
0.203552 0.065735 0.000000
0.232819 0.065704 0.000000
0.266388 0.065643 0.000000
0.300049 0.065582 0.000000
0.334778 0.065491 0.000000
0.367950 0.065430 0.000000
0.400787 0.065369 0.000000
0.432800 0.065338 0.000000
0.464935 0.065277 0.000000
0.499573 0.065186 0.000000
0.537476 0.065094 0.000000
0.575623 0.065002 0.000000
0.613892 0.064911 0.000000
0.652649 0.064819 0.000000
0.692200 0.064697 0.000000
0.729523 0.064606 0.000000
0.764557 0.064545 0.000000
0.794678 0.064514 0.000000
0.822327 0.064484 0.000000
0.849670 0.064453 0.000000
0.875336 0.064453 0.000000
0.897095 0.064484 0.000000
0.917969 0.064484 0.000000
0.937561 0.064545 0.000000
0.955505 0.064575 0.000000
0.000000 0.090210 0.000000
0.016998 0.090271 0.000000
0.042053 0.090271 0.000000
0.065857 0.090271 0.000000
0.090271 0.090271 0.000000
0.115723 0.090271 0.000000
0.143677 0.090240 0.000000
0.174347 0.090210 0.000000
0.203583 0.090179 0.000000
0.232880 0.090149 0.000000
0.266449 0.090088 0.000000
0.300110 0.090027 0.000000
0.334839 0.089966 0.000000
0.368011 0.089905 0.000000
0.400848 0.089844 0.000000
0.432861 0.089783 0.000000
0.464996 0.089752 0.000000
0.499664 0.089691 0.000000
0.537567 0.089600 0.000000
0.575714 0.089508 0.000000
0.613983 0.089417 0.000000
0.652740 0.089325 0.000000
0.692291 0.089203 0.000000
0.729614 0.089111 0.000000
0.764618 0.089050 0.000000
0.794708 0.089020 0.000000
0.822357 0.088989 0.000000
0.849701 0.088989 0.000000
0.875336 0.088989 0.000000
0.897095 0.089020 0.000000
0.917969 0.089050 0.000000
0.937500 0.089081 0.000000
0.955475 0.089111 0.000000
0.000000 0.115601 0.000000
0.016998 0.115662 0.000000
0.042023 0.115692 0.000000
0.065826 0.115692 0.000000
0.090271 0.115723 0.000000
0.115723 0.115723 0.000000
0.143707 0.115692 0.000000
0.174377 0.115662 0.000000
0.203613 0.115662 0.000000
0.232941 0.115631 0.000000
0.266510 0.115570 0.000000
0.300171 0.115540 0.000000
0.334900 0.115479 0.000000
0.368042 0.115417 0.000000
0.400879 0.115387 0.000000
0.432892 0.115326 0.000000
0.465057 0.115295 0.000000
0.499756 0.115234 0.000000
0.537659 0.115173 0.000000
0.575806 0.115082 0.000000
0.614075 0.114990 0.000000
0.652832 0.114929 0.000000
0.692413 0.114838 0.000000
0.729675 0.114746 0.000000
0.764679 0.114685 0.000000
0.794739 0.114685 0.000000
0.822388 0.114655 0.000000
0.849701 0.114655 0.000000
0.875305 0.114685 0.000000
0.897064 0.114716 0.000000
0.917908 0.114746 0.000000
0.937439 0.114807 0.000000
0.955414 0.114868 0.000000
0.000000 0.143494 0.000000
0.016968 0.143585 0.000000
0.041992 0.143616 0.000000
0.065826 0.143646 0.000000
0.090240 0.143677 0.000000
0.115692 0.143707 0.000000
0.143738 0.143738 0.000000
0.174377 0.143738 0.000000
0.203613 0.143738 0.000000
0.232971 0.143738 0.000000
0.266541 0.143707 0.000000
0.300201 0.143677 0.000000
0.334961 0.143646 0.000000
0.368103 0.143616 0.000000
0.400909 0.143585 0.000000
0.432922 0.143585 0.000000
0.465088 0.143585 0.000000
0.499817 0.143524 0.000000
0.537720 0.143494 0.000000
0.575867 0.143433 0.000000
0.614136 0.143372 0.000000
0.652924 0.143311 0.000000
0.692474 0.143250 0.000000
0.729736 0.143188 0.000000
0.764709 0.143158 0.000000
0.794739 0.143158 0.000000
0.822357 0.143188 0.000000
0.849701 0.143219 0.000000
0.875275 0.143250 0.000000
0.897003 0.143311 0.000000
0.917877 0.143372 0.000000
0.937378 0.143433 0.000000
0.955353 0.143524 0.000000
0.000000 0.174133 0.000000
0.016907 0.174225 0.000000
0.041962 0.174255 0.000000
0.065765 0.174316 0.000000
0.090210 0.174347 0.000000
0.115662 0.174377 0.000000
0.143738 0.174377 0.000000
0.174377 0.174377 0.000000
0.203613 0.174377 0.000000
0.232971 0.174377 0.000000
0.266571 0.174347 0.000000
0.300232 0.174347 0.000000
0.334991 0.174286 0.000000
0.368103 0.174286 0.000000
0.400940 0.174255 0.000000
0.432953 0.174225 0.000000
0.465088 0.174225 0.000000
0.499878 0.174194 0.000000
0.537781 0.174133 0.000000
0.575928 0.174072 0.000000
0.614197 0.174011 0.000000
0.652985 0.173950 0.000000
0.692535 0.173859 0.000000
0.729767 0.173828 0.000000
0.764740 0.173767 0.000000
0.794708 0.173767 0.000000
0.822357 0.173798 0.000000
0.849670 0.173798 0.000000
0.875214 0.173828 0.000000
0.896942 0.173889 0.000000
0.917786 0.173950 0.000000
0.937286 0.174011 0.000000
0.955261 0.174072 0.000000
0.000000 0.203400 0.000000
0.016876 0.203491 0.000000
0.041931 0.203522 0.000000
0.065735 0.203552 0.000000
0.090179 0.203583 0.000000
0.115662 0.203613 0.000000
0.143738 0.203613 0.000000
0.174377 0.203613 0.000000
0.203613 0.203613 0.000000
0.233002 0.203613 0.000000
0.266602 0.203583 0.000000
0.300262 0.203552 0.000000
0.335022 0.203522 0.000000
0.368134 0.203491 0.000000
0.400940 0.203461 0.000000
0.432953 0.203461 0.000000
0.465118 0.203430 0.000000
0.499939 0.203400 0.000000
0.537842 0.203339 0.000000
0.575989 0.203278 0.000000
0.614258 0.203217 0.000000
0.653046 0.203156 0.000000
0.692627 0.203064 0.000000
0.729797 0.203033 0.000000
0.764771 0.202972 0.000000
0.794708 0.202972 0.000000
0.822327 0.202972 0.000000
0.849670 0.203003 0.000000
0.875183 0.203033 0.000000
0.896881 0.203064 0.000000
0.917725 0.203125 0.000000
0.937225 0.203186 0.000000
0.955170 0.203278 0.000000
0.000000 0.232635 0.000000
0.016846 0.232727 0.000000
0.041870 0.232788 0.000000
0.065704 0.232819 0.000000
0.090149 0.232880 0.000000
0.115631 0.232941 0.000000
0.143738 0.232971 0.000000
0.174377 0.232971 0.000000
0.203613 0.233002 0.000000
0.233002 0.233002 0.000000
0.266632 0.233002 0.000000
0.300293 0.233002 0.000000
0.335052 0.232971 0.000000
0.368164 0.232971 0.000000
0.400970 0.232971 0.000000
0.432983 0.232971 0.000000
0.465118 0.233002 0.000000
0.499969 0.232971 0.000000
0.537903 0.232941 0.000000
0.576050 0.232910 0.000000
0.614319 0.232880 0.000000
0.653107 0.232849 0.000000
0.692688 0.232788 0.000000
0.729828 0.232758 0.000000
0.764771 0.232758 0.000000
0.794678 0.232788 0.000000
0.822327 0.232819 0.000000
0.849640 0.232849 0.000000
0.875122 0.232910 0.000000
0.896820 0.233002 0.000000
0.917664 0.233093 0.000000
0.937134 0.233185 0.000000
0.955078 0.233276 0.000000
0.000000 0.266144 0.000000
0.016754 0.266235 0.000000
0.041809 0.266296 0.000000
0.065643 0.266388 0.000000
0.090088 0.266449 0.000000
0.115570 0.266510 0.000000
0.143707 0.266541 0.000000
0.174347 0.266571 0.000000
0.203583 0.266602 0.000000
0.233002 0.266632 0.000000
0.266632 0.266632 0.000000
0.300293 0.266632 0.000000
0.335052 0.266632 0.000000
0.368164 0.266632 0.000000
0.400970 0.266632 0.000000
0.432983 0.266632 0.000000
0.465118 0.266663 0.000000
0.500000 0.266663 0.000000
0.537933 0.266632 0.000000
0.576080 0.266602 0.000000
0.614349 0.266571 0.000000
0.653168 0.266510 0.000000
0.692719 0.266479 0.000000
0.729858 0.266449 0.000000
0.764771 0.266449 0.000000
0.794647 0.266479 0.000000
0.822266 0.266510 0.000000
0.849609 0.266571 0.000000
0.875061 0.266632 0.000000
0.896729 0.266724 0.000000
0.917572 0.266785 0.000000
0.937042 0.266907 0.000000
0.954987 0.266998 0.000000
0.000000 0.299805 0.000000
0.016693 0.299927 0.000000
0.041748 0.299988 0.000000
0.065582 0.300049 0.000000
0.090027 0.300110 0.000000
0.115540 0.300171 0.000000
0.143677 0.300201 0.000000
0.174347 0.300232 0.000000
0.203552 0.300262 0.000000
0.233002 0.300293 0.000000
0.266632 0.300293 0.000000
0.300293 0.300293 0.000000
0.335052 0.300293 0.000000
0.368134 0.300293 0.000000
0.400940 0.300293 0.000000
0.432953 0.300323 0.000000
0.465118 0.300323 0.000000
0.500031 0.300323 0.000000
0.537964 0.300293 0.000000
0.576111 0.300262 0.000000
0.614380 0.300232 0.000000
0.653198 0.300201 0.000000
0.692780 0.300171 0.000000
0.729858 0.300140 0.000000
0.764771 0.300140 0.000000
0.794617 0.300171 0.000000
0.822235 0.300201 0.000000
0.849548 0.300262 0.000000
0.875000 0.300323 0.000000
0.896637 0.300385 0.000000
0.917480 0.300476 0.000000
0.936920 0.300598 0.000000
0.954865 0.300720 0.000000
0.000000 0.334534 0.000000
0.016632 0.334656 0.000000
0.041656 0.334717 0.000000
0.065491 0.334778 0.000000
0.089966 0.334839 0.000000
0.115479 0.334900 0.000000
0.143646 0.334961 0.000000
0.174286 0.334991 0.000000
0.203522 0.335022 0.000000
0.232971 0.335052 0.000000
0.266632 0.335052 0.000000
0.300293 0.335052 0.000000
0.335052 0.335052 0.000000
0.368134 0.335052 0.000000
0.400940 0.335052 0.000000
0.432953 0.335083 0.000000
0.465088 0.335083 0.000000
0.500061 0.335083 0.000000
0.537994 0.335052 0.000000
0.576141 0.335022 0.000000
0.614410 0.334991 0.000000
0.653229 0.334961 0.000000
0.692810 0.334930 0.000000
0.729858 0.334900 0.000000
0.764771 0.334900 0.000000
0.794556 0.334930 0.000000
0.822174 0.334961 0.000000
0.849487 0.334991 0.000000
0.874908 0.335052 0.000000
0.896545 0.335144 0.000000
0.917389 0.335236 0.000000
0.936829 0.335327 0.000000
0.954742 0.335449 0.000000
0.000000 0.367737 0.000000
0.016571 0.367828 0.000000
0.041595 0.367889 0.000000
0.065430 0.367950 0.000000
0.089905 0.368011 0.000000
0.115417 0.368042 0.000000
0.143616 0.368103 0.000000
0.174286 0.368103 0.000000
0.203491 0.368134 0.000000
0.232971 0.368164 0.000000
0.266632 0.368164 0.000000
0.300293 0.368134 0.000000
0.335052 0.368134 0.000000
0.368134 0.368134 0.000000
0.400940 0.368134 0.000000
0.432922 0.368134 0.000000
0.465088 0.368134 0.000000
0.500092 0.368134 0.000000
0.538025 0.368103 0.000000
0.576172 0.368073 0.000000
0.614441 0.368011 0.000000
0.653259 0.367981 0.000000
0.692841 0.367950 0.000000
0.729889 0.367920 0.000000
0.764771 0.367889 0.000000
0.794525 0.367920 0.000000
0.822144 0.367950 0.000000
0.849457 0.367981 0.000000
0.874847 0.368042 0.000000
0.896454 0.368134 0.000000
0.917297 0.368195 0.000000
0.936707 0.368286 0.000000
0.954651 0.368408 0.000000
0.000000 0.400574 0.000000
0.016510 0.400665 0.000000
0.041534 0.400726 0.000000
0.065369 0.400787 0.000000
0.089844 0.400848 0.000000
0.115387 0.400879 0.000000
0.143585 0.400909 0.000000
0.174255 0.400940 0.000000
0.203461 0.400940 0.000000
0.232971 0.400970 0.000000
0.266632 0.400970 0.000000
0.300293 0.400940 0.000000
0.335052 0.400940 0.000000
0.368134 0.400940 0.000000
0.400940 0.400940 0.000000
0.432922 0.400940 0.000000
0.465088 0.400940 0.000000
0.500122 0.400909 0.000000
0.538055 0.400879 0.000000
0.576202 0.400848 0.000000
0.614471 0.400787 0.000000
0.653320 0.400757 0.000000
0.692902 0.400696 0.000000
0.729889 0.400665 0.000000
0.764771 0.400665 0.000000
0.794495 0.400665 0.000000
0.822113 0.400696 0.000000
0.849426 0.400757 0.000000
0.874786 0.400787 0.000000
0.896393 0.400879 0.000000
0.917236 0.400940 0.000000
0.936615 0.401031 0.000000
0.954529 0.401123 0.000000
0.000000 0.432617 0.000000
0.016449 0.432709 0.000000
0.041473 0.432739 0.000000
0.065338 0.432800 0.000000
0.089783 0.432861 0.000000
0.115326 0.432892 0.000000
0.143585 0.432922 0.000000
0.174225 0.432953 0.000000
0.203461 0.432953 0.000000
0.232971 0.432983 0.000000
0.266632 0.432983 0.000000
0.300323 0.432953 0.000000
0.335083 0.432953 0.000000
0.368134 0.432922 0.000000
0.400940 0.432922 0.000000
0.432922 0.432922 0.000000
0.465088 0.432922 0.000000
0.500153 0.432922 0.000000
0.538086 0.432861 0.000000
0.576233 0.432831 0.000000
0.614532 0.432800 0.000000
0.653381 0.432739 0.000000
0.692963 0.432678 0.000000
0.729919 0.432648 0.000000
0.764771 0.432648 0.000000
0.794464 0.432648 0.000000
0.822083 0.432678 0.000000
0.849396 0.432709 0.000000
0.874725 0.432770 0.000000
0.896301 0.432831 0.000000
0.917145 0.432922 0.000000
0.936523 0.433014 0.000000
0.954437 0.433105 0.000000
0.000000 0.464752 0.000000
0.016388 0.464844 0.000000
0.041412 0.464874 0.000000
0.065277 0.464935 0.000000
0.089752 0.464996 0.000000
0.115295 0.465057 0.000000
0.143585 0.465088 0.000000
0.174225 0.465088 0.000000
0.203430 0.465118 0.000000
0.233002 0.465118 0.000000
0.266663 0.465118 0.000000
0.300323 0.465118 0.000000
0.335083 0.465088 0.000000
0.368134 0.465088 0.000000
0.400940 0.465088 0.000000
0.432922 0.465088 0.000000
0.465088 0.465088 0.000000
0.500214 0.465057 0.000000
0.538147 0.465027 0.000000
0.576294 0.464996 0.000000
0.614563 0.464966 0.000000
0.653412 0.464905 0.000000
0.692993 0.464844 0.000000
0.729950 0.464813 0.000000
0.764771 0.464813 0.000000
0.794434 0.464813 0.000000
0.822052 0.464874 0.000000
0.849335 0.464905 0.000000
0.874634 0.464935 0.000000
0.896240 0.465027 0.000000
0.917053 0.465088 0.000000
0.936432 0.465179 0.000000
0.954346 0.465302 0.000000
0.000000 0.499268 0.000000
0.016327 0.499390 0.000000
0.041351 0.499481 0.000000
0.065186 0.499573 0.000000
0.089691 0.499664 0.000000
0.115234 0.499756 0.000000
0.143524 0.499817 0.000000
0.174194 0.499878 0.000000
0.203400 0.499939 0.000000
0.232971 0.499969 0.000000
0.266663 0.500000 0.000000
0.300323 0.500031 0.000000
0.335083 0.500061 0.000000
0.368134 0.500092 0.000000
0.400909 0.500122 0.000000
0.432922 0.500153 0.000000
0.465057 0.500214 0.000000
0.500214 0.500214 0.000000
0.538147 0.500214 0.000000
0.576324 0.500214 0.000000
0.614594 0.500214 0.000000
0.653442 0.500214 0.000000
0.693024 0.500183 0.000000
0.729950 0.500214 0.000000
0.764771 0.500214 0.000000
0.794403 0.500275 0.000000
0.821991 0.500366 0.000000
0.849304 0.500427 0.000000
0.874573 0.500519 0.000000
0.896149 0.500641 0.000000
0.916962 0.500763 0.000000
0.936310 0.500885 0.000000
0.954224 0.501007 0.000000
0.000000 0.537140 0.000000
0.016235 0.537292 0.000000
0.041260 0.537354 0.000000
0.065094 0.537476 0.000000
0.089600 0.537567 0.000000
0.115173 0.537659 0.000000
0.143494 0.537720 0.000000
0.174133 0.537781 0.000000
0.203339 0.537842 0.000000
0.232941 0.537903 0.000000
0.266632 0.537933 0.000000
0.300293 0.537964 0.000000
0.335052 0.537994 0.000000
0.368103 0.538025 0.000000
0.400879 0.538055 0.000000
0.432861 0.538086 0.000000
0.465027 0.538147 0.000000
0.500214 0.538147 0.000000
0.538177 0.538177 0.000000
0.576324 0.538177 0.000000
0.614594 0.538177 0.000000
0.653442 0.538147 0.000000
0.693054 0.538147 0.000000
0.729919 0.538147 0.000000
0.764740 0.538177 0.000000
0.794312 0.538239 0.000000
0.821930 0.538330 0.000000
0.849213 0.538391 0.000000
0.874451 0.538483 0.000000
0.896027 0.538605 0.000000
0.916840 0.538727 0.000000
0.936188 0.538849 0.000000
0.954071 0.539001 0.000000
0.000000 0.575287 0.000000
0.016113 0.575409 0.000000
0.041138 0.575500 0.000000
0.065002 0.575623 0.000000
0.089508 0.575714 0.000000
0.115082 0.575806 0.000000
0.143433 0.575867 0.000000
0.174072 0.575928 0.000000
0.203278 0.575989 0.000000
0.232910 0.576050 0.000000
0.266602 0.576080 0.000000
0.300262 0.576111 0.000000
0.335022 0.576141 0.000000
0.368073 0.576172 0.000000
0.400848 0.576202 0.000000
0.432831 0.576233 0.000000
0.464996 0.576294 0.000000
0.500214 0.576324 0.000000
0.538177 0.576324 0.000000
0.576324 0.576324 0.000000
0.614594 0.576324 0.000000
0.653473 0.576324 0.000000
0.693054 0.576294 0.000000
0.729919 0.576324 0.000000
0.764679 0.576324 0.000000
0.794250 0.576385 0.000000
0.821838 0.576477 0.000000
0.849152 0.576538 0.000000
0.874359 0.576630 0.000000
0.895905 0.576752 0.000000
0.916718 0.576874 0.000000
0.936035 0.576996 0.000000
0.953949 0.577148 0.000000
0.000000 0.613556 0.000000
0.016022 0.613678 0.000000
0.041046 0.613770 0.000000
0.064911 0.613892 0.000000
0.089417 0.613983 0.000000
0.114990 0.614075 0.000000
0.143372 0.614136 0.000000
0.174011 0.614197 0.000000
0.203217 0.614258 0.000000
0.232880 0.614319 0.000000
0.266571 0.614349 0.000000
0.300232 0.614380 0.000000
0.334991 0.614410 0.000000
0.368011 0.614441 0.000000
0.400787 0.614471 0.000000
0.432800 0.614532 0.000000
0.464966 0.614563 0.000000
0.500214 0.614594 0.000000
0.538177 0.614594 0.000000
0.576324 0.614594 0.000000
0.614594 0.614594 0.000000
0.653473 0.614594 0.000000
0.693054 0.614594 0.000000
0.729889 0.614594 0.000000
0.764648 0.614624 0.000000
0.794189 0.614685 0.000000
0.821777 0.614777 0.000000
0.849060 0.614838 0.000000
0.874237 0.614929 0.000000
0.895782 0.615051 0.000000
0.916595 0.615173 0.000000
0.935913 0.615326 0.000000
0.953796 0.615448 0.000000
0.000000 0.652313 0.000000
0.015930 0.652435 0.000000
0.040955 0.652527 0.000000
0.064819 0.652649 0.000000
0.089325 0.652740 0.000000
0.114929 0.652832 0.000000
0.143311 0.652924 0.000000
0.173950 0.652985 0.000000
0.203156 0.653046 0.000000
0.232849 0.653107 0.000000
0.266510 0.653168 0.000000
0.300201 0.653198 0.000000
0.334961 0.653229 0.000000
0.367981 0.653259 0.000000
0.400757 0.653320 0.000000
0.432739 0.653381 0.000000
0.464905 0.653412 0.000000
0.500214 0.653442 0.000000
0.538147 0.653442 0.000000
0.576324 0.653473 0.000000
0.614594 0.653473 0.000000
0.653473 0.653473 0.000000
0.693054 0.653473 0.000000
0.729858 0.653473 0.000000
0.764618 0.653534 0.000000
0.794098 0.653595 0.000000
0.821686 0.653656 0.000000
0.848969 0.653748 0.000000
0.874146 0.653839 0.000000
0.895660 0.653961 0.000000
0.916473 0.654114 0.000000
0.935760 0.654236 0.000000
0.953644 0.654388 0.000000
0.000000 0.691833 0.000000
0.015839 0.691986 0.000000
0.040833 0.692078 0.000000
0.064697 0.692200 0.000000
0.089203 0.692291 0.000000
0.114838 0.692413 0.000000
0.143250 0.692474 0.000000
0.173859 0.692535 0.000000
0.203064 0.692627 0.000000
0.232788 0.692688 0.000000
0.266479 0.692719 0.000000
0.300171 0.692780 0.000000
0.334930 0.692810 0.000000
0.367950 0.692841 0.000000
0.400696 0.692902 0.000000
0.432678 0.692963 0.000000
0.464844 0.692993 0.000000
0.500183 0.693024 0.000000
0.538147 0.693054 0.000000
0.576294 0.693054 0.000000
0.614594 0.693054 0.000000
0.653473 0.693054 0.000000
0.693054 0.693054 0.000000
0.729828 0.693085 0.000000
0.764557 0.693115 0.000000
0.794037 0.693176 0.000000
0.821625 0.693268 0.000000
0.848907 0.693359 0.000000
0.874023 0.693451 0.000000
0.895538 0.693573 0.000000
0.916351 0.693695 0.000000
0.935608 0.693848 0.000000
0.953491 0.694000 0.000000
0.000000 0.729279 0.000000
0.015747 0.729401 0.000000
0.040741 0.729462 0.000000
0.064606 0.729523 0.000000
0.089111 0.729614 0.000000
0.114746 0.729675 0.000000
0.143188 0.729736 0.000000
0.173828 0.729767 0.000000
0.203033 0.729797 0.000000
0.232758 0.729828 0.000000
0.266449 0.729858 0.000000
0.300140 0.729858 0.000000
0.334900 0.729858 0.000000
0.367920 0.729889 0.000000
0.400665 0.729889 0.000000
0.432648 0.729919 0.000000
0.464813 0.729950 0.000000
0.500214 0.729950 0.000000
0.538147 0.729919 0.000000
0.576324 0.729919 0.000000
0.614594 0.729889 0.000000
0.653473 0.729858 0.000000
0.693085 0.729828 0.000000
0.729828 0.729828 0.000000
0.764526 0.729828 0.000000
0.793976 0.729858 0.000000
0.821564 0.729919 0.000000
0.848816 0.729980 0.000000
0.873932 0.730042 0.000000
0.895416 0.730133 0.000000
0.916229 0.730255 0.000000
0.935486 0.730347 0.000000
0.953369 0.730469 0.000000
0.000000 0.764313 0.000000
0.015656 0.764435 0.000000
0.040649 0.764496 0.000000
0.064545 0.764557 0.000000
0.089050 0.764618 0.000000
0.114685 0.764679 0.000000
0.143158 0.764709 0.000000
0.173767 0.764740 0.000000
0.202972 0.764771 0.000000
0.232758 0.764771 0.000000
0.266449 0.764771 0.000000
0.300140 0.764771 0.000000
0.334900 0.764771 0.000000
0.367889 0.764771 0.000000
0.400665 0.764771 0.000000
0.432648 0.764771 0.000000
0.464813 0.764771 0.000000
0.500214 0.764771 0.000000
0.538177 0.764740 0.000000
0.576324 0.764679 0.000000
0.614624 0.764648 0.000000
0.653534 0.764618 0.000000
0.693115 0.764557 0.000000
0.729828 0.764526 0.000000
0.764526 0.764526 0.000000
0.793915 0.764526 0.000000
0.821503 0.764587 0.000000
0.848785 0.764618 0.000000
0.873840 0.764648 0.000000
0.895325 0.764740 0.000000
0.916138 0.764801 0.000000
0.935364 0.764893 0.000000
0.953247 0.764984 0.000000
0.000000 0.794556 0.000000
0.015625 0.794647 0.000000
0.040619 0.794647 0.000000
0.064514 0.794678 0.000000
0.089020 0.794708 0.000000
0.114685 0.794739 0.000000
0.143158 0.794739 0.000000
0.173767 0.794708 0.000000
0.202972 0.794708 0.000000
0.232788 0.794678 0.000000
0.266479 0.794647 0.000000
0.300171 0.794617 0.000000
0.334930 0.794556 0.000000
0.367920 0.794525 0.000000
0.400665 0.794495 0.000000
0.432648 0.794464 0.000000
0.464813 0.794434 0.000000
0.500275 0.794403 0.000000
0.538239 0.794312 0.000000
0.576385 0.794250 0.000000
0.614685 0.794189 0.000000
0.653595 0.794098 0.000000
0.693176 0.794037 0.000000
0.729858 0.793976 0.000000
0.764526 0.793915 0.000000
0.793915 0.793915 0.000000
0.821503 0.793915 0.000000
0.848755 0.793915 0.000000
0.873779 0.793915 0.000000
0.895264 0.793976 0.000000
0.916077 0.794037 0.000000
0.935303 0.794067 0.000000
0.953186 0.794159 0.000000
0.000000 0.822235 0.000000
0.015625 0.822296 0.000000
0.040588 0.822327 0.000000
0.064484 0.822327 0.000000
0.088989 0.822357 0.000000
0.114655 0.822388 0.000000
0.143188 0.822357 0.000000
0.173798 0.822357 0.000000
0.202972 0.822327 0.000000
0.232819 0.822327 0.000000
0.266510 0.822266 0.000000
0.300201 0.822235 0.000000
0.334961 0.822174 0.000000
0.367950 0.822144 0.000000
0.400696 0.822113 0.000000
0.432678 0.822083 0.000000
0.464874 0.822052 0.000000
0.500366 0.821991 0.000000
0.538330 0.821930 0.000000
0.576477 0.821838 0.000000
0.614777 0.821777 0.000000
