Kodak Vision 500T (5263) - Look.cube
# Created by Benjamin (IWLTBAP) : http://luts.iwltbap.com
# Copyright: (C) Copyright 2010-2017 Triune Films and IWLTBAP SAS
# Cannot be resold, shared or otherwise redistributed
TITLE "Film Print Emulation LUTs Pack (Rec.709, sRGB, DCI-P3)"
LUT_3D_SIZE 9
0.000000 0.000000 0.000000
0.102173 0.000031 0.000000
0.193420 0.022034 0.000000
0.284088 0.047424 0.020691
0.375061 0.076172 0.030853
0.466827 0.105103 0.038025
0.559967 0.138153 0.050568
0.656372 0.178406 0.072296
0.751221 0.223236 0.097992
0.000000 0.093567 0.023621
0.081390 0.096375 0.034973
0.199188 0.102112 0.009308
0.289185 0.112183 0.024841
0.377258 0.126770 0.039978
0.469116 0.146301 0.047913
0.563019 0.171204 0.060944
0.659454 0.205688 0.081696
0.755585 0.242310 0.104065
0.029907 0.170898 0.038879
0.088074 0.167725 0.043701
0.173767 0.178528 0.054291
0.289825 0.194672 0.045593
0.384064 0.204224 0.053986
0.472809 0.215759 0.074066
0.569336 0.234589 0.084961
0.668365 0.261261 0.101807
0.759186 0.289764 0.122681
0.076202 0.260193 0.066986
0.115326 0.255280 0.070709
0.177643 0.250275 0.078186
0.256256 0.257965 0.088684
0.376434 0.281616 0.089050
0.481018 0.298248 0.098511
0.579620 0.316742 0.119598
0.676300 0.333618 0.130493
0.773163 0.354218 0.142181
0.127777 0.359161 0.101074
0.155823 0.354401 0.104248
0.206146 0.343292 0.111450
0.269104 0.336151 0.121338
0.350372 0.347046 0.134827
0.467010 0.375153 0.140106
0.586700 0.402435 0.150818
0.685272 0.418640 0.165222
0.780365 0.434235 0.178711
0.196106 0.473389 0.143646
0.215363 0.469360 0.145660
0.255493 0.459839 0.150208
0.310181 0.445679 0.160065
0.374176 0.436462 0.172638
0.453827 0.445557 0.186005
0.562866 0.479187 0.197449
0.689087 0.505280 0.204102
0.786743 0.520172 0.216553
0.267792 0.588806 0.190399
0.282684 0.586975 0.191101
0.315735 0.581818 0.193298
0.363007 0.569427 0.200592
0.418121 0.550934 0.212189
0.481049 0.538879 0.227234
0.557800 0.544159 0.240570
0.661652 0.573303 0.250061
0.783661 0.602356 0.255524
0.335907 0.689850 0.238800
0.347504 0.689240 0.240753
0.374207 0.685699 0.242767
0.415314 0.679382 0.245605
0.465912 0.669769 0.250854
0.521484 0.650330 0.264984
0.581116 0.633942 0.280884
0.654541 0.636444 0.293854
0.745758 0.656647 0.296600
0.398651 0.767914 0.283875
0.406036 0.768005 0.283875
0.424255 0.768280 0.284241
0.456604 0.765564 0.286163
0.501190 0.758087 0.289673
0.552185 0.748993 0.294373
0.609680 0.733368 0.308380
0.667297 0.716675 0.324341
0.735199 0.715302 0.334717
0.000000 0.000000 0.072876
0.094727 0.000031 0.102539
0.206238 0.000031 0.111023
0.281891 0.051514 0.091705
0.374451 0.078186 0.095978
0.466553 0.107758 0.106110
0.560669 0.139679 0.116394
0.658691 0.176605 0.128479
0.755035 0.217926 0.143677
0.000031 0.097870 0.119324
0.084595 0.098328 0.138031
0.198395 0.104431 0.081543
0.288422 0.114319 0.091492
0.377716 0.129303 0.104187
0.469574 0.149017 0.113251
0.563660 0.173950 0.122833
0.661774 0.204681 0.134399
0.759094 0.237976 0.147827
0.018890 0.175537 0.094208
0.084595 0.177887 0.101044
0.169983 0.182953 0.116425
0.293427 0.198944 0.103699
0.385345 0.208282 0.112518
0.473724 0.220093 0.130890
0.570068 0.237793 0.139252
0.669037 0.260254 0.149567
0.762238 0.286621 0.162262
0.064209 0.260651 0.116058
0.107361 0.255859 0.117401
0.171326 0.250854 0.122559
0.258240 0.265259 0.137604
0.382477 0.290436 0.137634
0.484741 0.304565 0.145447
0.578430 0.317902 0.164246
0.673706 0.333069 0.172882
0.770447 0.353790 0.182892
0.123169 0.360687 0.144226
0.152130 0.356049 0.146210
0.204346 0.347443 0.150787
0.269928 0.342316 0.158630
0.350067 0.351044 0.171082
0.468231 0.377380 0.175781
0.582001 0.399139 0.184998
0.681061 0.416382 0.200714
0.776367 0.431854 0.212128
0.187286 0.467468 0.177551
0.207092 0.463531 0.178680
0.249786 0.456116 0.183380
0.304291 0.442078 0.191376
0.368134 0.433319 0.201996
0.449341 0.444031 0.214722
0.553162 0.472931 0.222809
0.683960 0.501495 0.231506
0.782928 0.517548 0.242828
0.260345 0.585602 0.216248
0.275452 0.582703 0.217621
0.308868 0.575287 0.221100
0.356293 0.563232 0.227112
0.412445 0.546387 0.237549
0.476807 0.536499 0.251007
0.554047 0.542786 0.263885
0.659058 0.572876 0.274323
0.779968 0.599854 0.277893
0.330353 0.688049 0.260651
0.341980 0.687500 0.262146
0.369080 0.683777 0.263519
0.410461 0.677551 0.265869
0.460999 0.665253 0.272949
0.516602 0.645996 0.285492
0.577850 0.632172 0.300476
0.650482 0.633698 0.312714
0.742249 0.654327 0.316132
0.390076 0.769012 0.297394
0.397736 0.769104 0.297394
0.417877 0.768585 0.299255
0.452789 0.764221 0.303040
0.497833 0.756500 0.306366
0.549438 0.746552 0.311218
0.604736 0.726868 0.326447
0.662750 0.711670 0.341431
0.730591 0.710815 0.351379
0.012573 0.000000 0.174866
0.084442 0.000092 0.211243
0.192535 0.002380 0.218750
0.296448 0.007874 0.217377
0.389801 0.049561 0.181183
0.464264 0.110992 0.191345
0.559662 0.140869 0.198914
0.659668 0.175171 0.210938
0.757446 0.214050 0.222626
0.000061 0.101654 0.191254
0.049500 0.097870 0.241272
0.197205 0.091095 0.233673
0.304047 0.089386 0.223511
0.375702 0.131989 0.185730
0.467194 0.151917 0.196960
0.563019 0.175354 0.203857
0.662994 0.204041 0.215576
0.761230 0.235107 0.225739
0.022827 0.189575 0.217682
0.092346 0.194519 0.229553
0.188263 0.196869 0.244904
0.294250 0.203644 0.187744
0.384277 0.211395 0.194885
0.475128 0.223846 0.207428
0.570984 0.241394 0.217468
0.670227 0.262939 0.227814
0.764496 0.286438 0.235443
0.056549 0.260773 0.180786
0.103668 0.262421 0.184906
0.175964 0.267151 0.196228
0.260468 0.275452 0.214874
0.391510 0.299652 0.209015
0.488983 0.311768 0.217651
0.579834 0.324097 0.239349
0.674713 0.337830 0.245575
0.769501 0.354584 0.252045
0.110931 0.359589 0.210938
0.142426 0.356445 0.211731
0.197296 0.348328 0.213013
0.263214 0.343475 0.218811
0.355164 0.363922 0.239197
0.482300 0.393738 0.243805
0.587799 0.408356 0.250336
0.679779 0.419098 0.265106
0.771820 0.431061 0.274689
0.180511 0.468109 0.241974
0.202209 0.465942 0.243195
0.245880 0.458221 0.246063
0.302490 0.447174 0.250610
0.368774 0.441406 0.258362
0.447449 0.448761 0.270264
0.558746 0.473755 0.275330
0.676849 0.496948 0.283966
0.775421 0.513214 0.296783
0.246796 0.574493 0.271515
0.262146 0.571625 0.272308
0.295807 0.564148 0.274323
0.346161 0.554779 0.279907
0.402924 0.539795 0.288574
0.467163 0.531281 0.299255
0.546356 0.540375 0.311340
0.648499 0.568115 0.321045
0.771057 0.593506 0.323730
0.317688 0.683716 0.305511
0.329742 0.682465 0.305725
0.357483 0.677734 0.307434
0.399139 0.667969 0.311981
0.449677 0.654419 0.318573
0.506653 0.637665 0.329498
0.570587 0.628052 0.342224
0.643860 0.631592 0.353363
0.737396 0.653625 0.358490
0.377106 0.767670 0.333679
0.386383 0.767151 0.334808
0.408630 0.765808 0.337891
0.444122 0.760864 0.340118
0.489655 0.753296 0.342560
0.541412 0.738770 0.351440
0.596527 0.719604 0.364197
0.656097 0.706970 0.377594
0.722412 0.704895 0.386932
0.000000 0.003143 0.290161
0.083954 0.009552 0.294220
0.185608 0.015839 0.302399
0.286255 0.025970 0.308136
0.384705 0.042358 0.310211
0.482727 0.069122 0.307312
0.559265 0.145477 0.280762
0.658142 0.179260 0.297150
0.756531 0.215820 0.308624
0.000153 0.101593 0.301605
0.059021 0.098663 0.318176
0.185913 0.097626 0.319031
0.289581 0.099915 0.319946
0.389252 0.106964 0.317291
0.488129 0.120331 0.310303
0.562103 0.179047 0.287964
0.661377 0.207520 0.302521
0.759857 0.237000 0.311707
0.000092 0.197418 0.301117
0.000122 0.203735 0.326813
0.170227 0.196838 0.349121
0.296692 0.192261 0.339752
0.400635 0.193787 0.329468
0.486633 0.217316 0.286896
0.569153 0.244263 0.302887
0.668762 0.265167 0.311188
0.764404 0.286713 0.319183
0.083252 0.275635 0.303101
0.127777 0.281158 0.313141
0.200684 0.292419 0.334442
0.290863 0.297455 0.352356
0.395050 0.306396 0.296265
0.488251 0.315582 0.304108
0.581482 0.328278 0.320496
0.675415 0.341400 0.326050
0.769897 0.357361 0.333435
0.112610 0.360718 0.280212
0.143219 0.357666 0.279846
0.201416 0.358704 0.285797
0.276611 0.366791 0.301727
0.362518 0.378235 0.323639
0.496063 0.405548 0.319702
0.594208 0.416443 0.325287
0.681274 0.425323 0.343994
0.773193 0.436981 0.352814
0.168915 0.464813 0.315063
0.191864 0.462646 0.315521
0.237579 0.456604 0.316284
0.296051 0.446228 0.317413
0.363556 0.443756 0.325256
0.455170 0.464905 0.346069
0.579346 0.494781 0.350677
0.685303 0.509613 0.356903
0.776276 0.518951 0.368561
0.238373 0.572144 0.343903
0.255188 0.570557 0.344757
0.291748 0.566406 0.347168
0.343292 0.557617 0.350677
0.401703 0.545776 0.355743
0.467590 0.539795 0.363586
0.545135 0.546875 0.374939
0.644287 0.568329 0.378815
0.765717 0.591675 0.385071
0.303802 0.673767 0.369446
0.316040 0.671539 0.369904
0.343903 0.665680 0.371399
0.386200 0.656952 0.374664
0.440155 0.647156 0.381409
0.497223 0.631622 0.390076
0.561127 0.624329 0.399841
0.635040 0.629364 0.410278
0.726562 0.649414 0.415100
0.362457 0.762970 0.389282
0.372070 0.762573 0.390167
0.394958 0.759583 0.392151
0.431335 0.751617 0.395569
0.476959 0.740540 0.400543
0.529175 0.726013 0.407593
0.585785 0.711334 0.419037
0.647430 0.702393 0.429230
0.714447 0.702637 0.437195
0.036102 0.015778 0.370880
0.102722 0.019806 0.374756
0.189789 0.029236 0.382629
0.283142 0.043915 0.390320
0.378357 0.062469 0.396851
0.475311 0.086365 0.401062
0.574097 0.116028 0.403839
0.676331 0.151398 0.405579
0.753265 0.223053 0.392090
0.002563 0.100403 0.390808
0.091919 0.101013 0.392700
0.188324 0.104126 0.396301
0.284210 0.109528 0.401672
0.381439 0.118652 0.404816
0.479126 0.132233 0.407715
0.578583 0.154144 0.408508
0.679901 0.184845 0.405151
0.756775 0.243378 0.395386
0.000214 0.201050 0.401215
0.000214 0.199921 0.428589
0.173340 0.198181 0.426147
0.287628 0.197296 0.424866
0.388458 0.201050 0.424622
0.488403 0.209442 0.422363
0.589722 0.223694 0.419464
0.677551 0.260498 0.389557
0.762421 0.290253 0.404327
0.002441 0.287659 0.403442
0.070709 0.291534 0.412140
0.144348 0.300842 0.433228
0.278809 0.298035 0.458954
0.400269 0.296631 0.449951
0.505737 0.301453 0.441498
0.607666 0.312836 0.409332
0.673370 0.343872 0.411346
0.767853 0.359711 0.417786
0.144287 0.372650 0.399384
0.171997 0.371124 0.400360
0.232727 0.381470 0.418427
0.311829 0.398193 0.446777
0.399628 0.404877 0.465820
0.500824 0.413116 0.408539
0.592590 0.419830 0.413300
0.681183 0.429504 0.430145
0.774017 0.440430 0.432404
0.178101 0.468170 0.387238
0.199554 0.465759 0.386841
0.243195 0.459839 0.385834
0.305725 0.460754 0.393280
0.380341 0.468811 0.410217
0.464081 0.480347 0.432281
0.595947 0.507294 0.426910
0.693176 0.517639 0.430420
0.777679 0.524536 0.446747
0.228271 0.567566 0.419006
0.245575 0.565948 0.419189
0.283112 0.561462 0.419891
0.335632 0.553436 0.420685
0.395569 0.543304 0.422546
0.464905 0.544586 0.433746
0.554657 0.564850 0.453308
0.670563 0.591461 0.458588
0.773438 0.603638 0.458160
0.294739 0.669464 0.444366
0.307892 0.668304 0.445038
0.337891 0.665070 0.446686
0.383148 0.659485 0.449677
0.438141 0.650604 0.453522
0.496643 0.638306 0.458679
0.560242 0.631500 0.465820
0.635437 0.637817 0.475677
0.720795 0.653381 0.477081
0.350739 0.755920 0.458618
0.360657 0.754211 0.458984
0.383942 0.749573 0.460083
0.420349 0.742401 0.462555
0.468689 0.735016 0.467377
0.522949 0.723206 0.473938
0.578735 0.708740 0.482025
0.640411 0.702057 0.489502
0.707153 0.702545 0.496582
0.092957 0.030792 0.448212
0.133759 0.035553 0.452240
0.203339 0.045471 0.460754
0.287537 0.060852 0.469818
0.377991 0.080048 0.478271
0.471924 0.102936 0.487335
0.570068 0.131073 0.494263
0.671967 0.163818 0.502228
0.770874 0.196899 0.505646
0.077209 0.105438 0.465485
0.124969 0.106995 0.467987
0.200714 0.110992 0.473602
0.287750 0.118073 0.480865
0.379944 0.129303 0.487030
0.474762 0.144562 0.494415
0.573792 0.166565 0.499969
0.675476 0.193420 0.506073
0.773346 0.221344 0.508026
0.000275 0.200806 0.496002
0.086060 0.200439 0.496887
0.192047 0.200287 0.499512
0.288971 0.202759 0.502563
0.384277 0.208405 0.507111
0.482574 0.218323 0.510559
0.582855 0.232880 0.514923
0.682495 0.251434 0.515564
0.779541 0.272156 0.513794
0.000183 0.302429 0.507996
0.000183 0.302307 0.523071
0.155457 0.301300 0.534821
0.281219 0.300629 0.538452
0.392822 0.302032 0.537659
0.495148 0.308228 0.538055
0.595337 0.316559 0.534546
0.693176 0.327637 0.528625
0.788666 0.344360 0.514069
0.112305 0.382568 0.495819
0.145111 0.384857 0.501282
0.206055 0.392517 0.517303
0.273773 0.406311 0.545807
0.390045 0.404968 0.575043
0.506989 0.403412 0.563416
0.609924 0.406616 0.551941
0.710876 0.412872 0.531342
0.772003 0.442749 0.516113
0.208557 0.478119 0.504486
0.228729 0.476593 0.504913
0.271271 0.473022 0.505951
0.338470 0.483246 0.525574
0.417938 0.500305 0.555145
0.502777 0.507172 0.574036
0.600861 0.515106 0.515564
0.691101 0.520782 0.518311
0.776276 0.528168 0.533386
0.243805 0.573639 0.492004
0.259766 0.571686 0.491608
0.294739 0.566895 0.490906
0.344574 0.558960 0.489960
0.409271 0.561401 0.500122
0.482452 0.568909 0.516968
0.563538 0.580078 0.538757
0.687805 0.603333 0.531952
0.780121 0.609406 0.528595
0.287842 0.665314 0.519470
0.300995 0.663849 0.519531
0.331085 0.660156 0.519867
0.376099 0.652924 0.519867
0.430664 0.643524 0.520721
0.490509 0.634277 0.523285
0.559998 0.638397 0.536530
0.641846 0.652832 0.552216
0.745026 0.673126 0.554413
0.342377 0.751495 0.533844
0.352753 0.750427 0.534210
0.377228 0.747650 0.535309
0.415619 0.742676 0.537201
0.464874 0.734894 0.539551
0.519836 0.725098 0.543213
0.577332 0.713837 0.547943
0.636780 0.705963 0.553619
0.707153 0.710602 0.560638
0.141907 0.050995 0.524780
0.169952 0.054871 0.527893
0.226013 0.064362 0.534760
0.299652 0.078735 0.545135
0.383057 0.096863 0.558014
0.473145 0.118988 0.569916
0.569763 0.146423 0.581146
0.670197 0.176605 0.592773
0.767395 0.207458 0.598267
0.131927 0.113678 0.539337
0.162994 0.115753 0.541809
0.222504 0.120392 0.547882
0.298920 0.128479 0.557251
0.384125 0.140259 0.567841
0.475861 0.157104 0.577148
0.572754 0.178955 0.587738
0.672699 0.204376 0.597046
0.769348 0.230804 0.601074
0.104218 0.201965 0.568146
0.147003 0.202057 0.569946
0.216400 0.204010 0.574097
0.298798 0.208252 0.580170
0.387817 0.215454 0.587860
0.482361 0.227142 0.594696
0.580139 0.242737 0.603302
0.677551 0.260315 0.605927
0.773956 0.280670 0.607635
0.000275 0.302368 0.605774
0.076843 0.302307 0.609344
0.188538 0.302826 0.611542
0.294495 0.304108 0.613708
0.394348 0.307678 0.618103
0.491943 0.315033 0.622803
0.589172 0.323395 0.622833
0.686127 0.334381 0.622772
0.781647 0.349365 0.619965
0.081024 0.403595 0.609436
0.116058 0.405701 0.615204
0.167999 0.410492 0.631592
0.279205 0.408508 0.649902
0.391571 0.407166 0.655457
0.499573 0.407806 0.651703
0.598846 0.412231 0.648010
0.696442 0.419098 0.641815
0.791626 0.428558 0.634369
0.192444 0.486023 0.598450
0.212463 0.485046 0.599518
0.255157 0.483215 0.602356
0.318878 0.492462 0.622009
0.385742 0.507599 0.653351
0.494568 0.506989 0.684235
0.607941 0.505402 0.670868
0.707947 0.508331 0.657745
0.805511 0.512238 0.638336
0.269684 0.580475 0.606171
0.285248 0.579285 0.606598
0.320068 0.576355 0.607544
0.371002 0.571411 0.608917
0.441620 0.582825 0.630768
0.519623 0.598602 0.659180
0.600464 0.604218 0.676147
0.693359 0.610321 0.614960
0.777557 0.611908 0.613007
0.308441 0.673035 0.590240
0.320282 0.671387 0.589996
0.348022 0.667236 0.589447
0.390228 0.660339 0.588623
0.442352 0.651306 0.587982
0.506958 0.654816 0.600128
0.575867 0.659393 0.614349
0.650665 0.667206 0.632568
0.760162 0.682617 0.622040
0.338654 0.747620 0.606720
0.348999 0.746429 0.606720
0.373596 0.743408 0.606995
0.412292 0.738129 0.607605
0.460449 0.729034 0.607025
0.513885 0.717560 0.606567
0.573242 0.711975 0.611359
0.637970 0.713959 0.622101
0.710266 0.722046 0.633270
0.188416 0.070343 0.600739
0.208801 0.074402 0.604034
0.252869 0.082520 0.611969
0.316956 0.096161 0.623169
0.394257 0.114075 0.635681
0.479919 0.135773 0.651031
0.572632 0.163116 0.665497
0.669769 0.191864 0.677460
0.765350 0.220001 0.685883
0.182861 0.124786 0.612762
0.204254 0.126648 0.615723
0.250824 0.131775 0.622528
0.317596 0.140869 0.631012
0.395660 0.153687 0.642426
0.482330 0.171143 0.656830
0.575592 0.192810 0.672028
0.671722 0.216766 0.681702
0.767090 0.241974 0.689117
0.165710 0.206848 0.641998
0.191650 0.207794 0.643677
0.244629 0.210693 0.647858
0.315826 0.215973 0.655212
0.398163 0.224365 0.665802
0.487244 0.236786 0.677521
0.581879 0.252716 0.687378
0.675873 0.269409 0.692688
0.771027 0.289276 0.697388
0.120422 0.304443 0.680542
0.160095 0.304749 0.681610
0.230865 0.305878 0.684631
0.316895 0.307770 0.690369
0.403839 0.313812 0.697174
0.494934 0.321136 0.703979
0.588013 0.330231 0.706879
0.682343 0.341888 0.709839
0.776825 0.356598 0.709442
0.068146 0.409546 0.712036
0.120667 0.409576 0.715332
0.203491 0.409424 0.722412
0.298645 0.409119 0.731689
0.401062 0.410095 0.730743
0.499603 0.412384 0.731964
0.594513 0.417847 0.731903
0.689880 0.425079 0.729523
0.784454 0.434357 0.726959
0.186035 0.499390 0.701416
0.206390 0.500549 0.705017
0.248810 0.503784 0.714172
0.300842 0.511230 0.733002
0.389587 0.510498 0.757904
0.495667 0.508911 0.765137
0.600677 0.509369 0.759064
0.696838 0.513031 0.752563
0.790161 0.517975 0.743073
0.261993 0.587189 0.697449
0.276855 0.586365 0.698212
0.310455 0.584259 0.700043
0.359528 0.580841 0.703156
0.424988 0.590668 0.724579
0.490295 0.605255 0.755737
0.592621 0.603363 0.785492
0.699677 0.599884 0.768280
0.792877 0.598969 0.750702
0.327972 0.675781 0.700928
0.340393 0.674805 0.700653
0.368713 0.672180 0.701111
0.412170 0.667725 0.702057
0.465942 0.661346 0.703033
0.535950 0.672272 0.725342
0.607605 0.682800 0.748322
0.681427 0.684906 0.760834
0.768402 0.686737 0.695129
0.380371 0.753082 0.675171
0.387756 0.751923 0.674225
0.405884 0.748749 0.672333
0.435974 0.743317 0.670166
0.475311 0.735687 0.668610
0.527771 0.729034 0.671356
0.588043 0.729370 0.681213
0.651123 0.730774 0.692261
0.718903 0.735107 0.706696
0.233887 0.090851 0.677734
0.249725 0.094147 0.680634
0.286224 0.101990 0.687683
0.341370 0.114471 0.699402
0.410309 0.131165 0.715729
0.491302 0.152649 0.733704
0.580658 0.179169 0.749084
0.671997 0.206726 0.760132
0.764526 0.235413 0.769226
0.230835 0.137543 0.687988
0.247345 0.139496 0.690674
0.284821 0.144928 0.697266
0.341034 0.153961 0.708374
0.411407 0.167084 0.723999
0.493439 0.184814 0.739624
0.582886 0.206543 0.755554
0.673401 0.230164 0.764740
0.766144 0.255432 0.772827
0.221191 0.214722 0.713013
0.239380 0.215759 0.715210
0.280273 0.219360 0.720825
0.340546 0.225708 0.730377
0.415314 0.235413 0.740845
0.498749 0.248657 0.753662
0.586670 0.262909 0.766541
0.676971 0.279938 0.775696
0.769867 0.299927 0.781403
0.198120 0.308472 0.754456
0.222565 0.308838 0.756012
0.273773 0.310333 0.759827
0.340576 0.314819 0.765930
0.419037 0.321014 0.773987
0.502899 0.327820 0.781799
0.591248 0.337311 0.788696
0.682617 0.349548 0.792694
0.774811 0.364044 0.795441
0.155182 0.409973 0.796295
0.186676 0.409943 0.798096
0.248535 0.410309 0.800720
0.328979 0.411377 0.803009
0.417633 0.412964 0.806458
0.506592 0.417114 0.808868
0.596130 0.423157 0.812500
0.687622 0.430908 0.813416
0.779907 0.440735 0.812927
0.156372 0.511322 0.804840
0.185211 0.510681 0.810791
0.238739 0.511139 0.817657
0.314514 0.511292 0.828735
0.403381 0.510895 0.841675
0.502441 0.511444 0.840729
0.599640 0.513397 0.838989
0.691925 0.517548 0.835480
0.782928 0.522583 0.829468
0.263062 0.597412 0.795959
0.277222 0.596985 0.797241
0.309296 0.596283 0.800201
0.358246 0.599945 0.811737
0.413666 0.606873 0.830414
0.492706 0.607483 0.858734
0.592468 0.604401 0.865021
0.691071 0.602295 0.854095
0.780670 0.601959 0.841980
0.324554 0.679962 0.786774
0.336029 0.679169 0.787292
0.362701 0.677124 0.788391
0.404053 0.673645 0.790253
0.455292 0.668762 0.792908
0.519043 0.677429 0.814331
0.578644 0.688080 0.840973
0.672913 0.682648 0.866425
0.771454 0.676056 0.845093
0.373688 0.753448 0.778931
0.383514 0.752502 0.778656
0.407410 0.750183 0.777832
0.444611 0.745972 0.777649
0.492188 0.740021 0.778229
0.546295 0.732758 0.778900
0.612915 0.742828 0.800537
0.677032 0.748169 0.817505
0.743958 0.747131 0.825867
