Kodak Eastman Color Negative 50T (5251) - Only contrast.cube
# Created by Benjamin (IWLTBAP) : http://luts.iwltbap.com
# Copyright: (C) Copyright 2010-2017 Triune Films and IWLTBAP SAS
# Cannot be resold, shared or otherwise redistributed
TITLE "Film Print Emulation LUTs Pack (Rec.709, sRGB, DCI-P3)"
LUT_3D_SIZE 5
0.000000 0.000000 0.000000
0.142059 0.000000 0.000000
0.270935 0.000000 0.000000
0.389557 0.000000 0.000000
0.524902 0.000000 0.000000
0.000000 0.154388 0.005188
0.194366 0.179047 0.003845
0.353302 0.177124 0.000000
0.476685 0.155548 0.000000
0.593292 0.139465 0.000000
0.002655 0.339966 0.025665
0.266266 0.398468 0.059937
0.489532 0.424713 0.053619
0.622467 0.399414 0.000000
0.719757 0.360352 0.000000
0.028870 0.516083 0.062775
0.301575 0.564301 0.095123
0.593658 0.640137 0.147461
0.864502 0.658051 0.173950
0.984436 0.622101 0.136261
0.122681 0.684296 0.093170
0.352264 0.721924 0.132812
0.678223 0.843384 0.242889
0.878265 0.897827 0.303619
0.996490 0.888306 0.303467
0.000000 0.000000 0.141724
0.147949 0.000000 0.150909
0.291809 0.000000 0.150146
0.421570 0.000000 0.128448
0.558075 0.000000 0.088867
0.000000 0.179321 0.181671
0.186615 0.186615 0.186615
0.367584 0.175751 0.171997
0.494904 0.149414 0.120270
0.609436 0.133209 0.089966
0.003998 0.387756 0.226624
0.227661 0.413055 0.227509
0.484863 0.438873 0.220306
0.634857 0.413849 0.174591
0.737976 0.368958 0.092438
0.015686 0.560364 0.249115
0.261719 0.583008 0.249878
0.576050 0.657623 0.310181
0.870331 0.684509 0.353302
0.985840 0.652710 0.316467
0.108154 0.717041 0.273590
0.315491 0.738251 0.289642
0.637756 0.857147 0.399200
0.873749 0.924316 0.462280
0.995483 0.931000 0.476227
0.000000 0.000427 0.302795
0.148315 0.000000 0.322662
0.327911 0.000000 0.342896
0.471985 0.000000 0.333740
0.600372 0.000000 0.302765
0.000000 0.186707 0.368622
0.162750 0.183258 0.378113
0.381042 0.165955 0.384003
0.526489 0.140961 0.346771
0.638367 0.120728 0.299438
0.000336 0.426361 0.456879
0.165161 0.441284 0.461792
0.458344 0.458252 0.458344
0.640442 0.437164 0.408600
0.760803 0.384949 0.346649
0.002716 0.622803 0.520172
0.206055 0.637939 0.520111
0.523987 0.680176 0.519928
0.857300 0.718903 0.551575
0.980804 0.694397 0.531494
0.111603 0.790253 0.565430
0.295929 0.807922 0.566193
0.555481 0.868835 0.570801
0.864960 0.949951 0.622833
0.994202 0.966095 0.653107
0.000000 0.000458 0.461761
0.136078 0.000000 0.479492
0.332214 0.000000 0.507904
0.493622 0.000000 0.509796
0.625580 0.000000 0.492859
0.000000 0.171356 0.520386
0.124451 0.164276 0.526062
0.353271 0.158722 0.548370
0.539551 0.136841 0.536377
0.660187 0.111145 0.505951
0.000000 0.434204 0.619781
0.115936 0.450073 0.631378
0.389801 0.478058 0.654694
0.625397 0.464020 0.619263
0.768707 0.409210 0.564819
0.045258 0.674316 0.725403
0.259338 0.717651 0.761627
0.476715 0.740143 0.765747
0.740387 0.740295 0.740295
0.966064 0.718567 0.717316
0.188568 0.885803 0.792603
0.350525 0.942200 0.842560
0.517853 0.944702 0.829773
0.789581 0.956207 0.804565
0.993622 0.974640 0.823181
0.000000 0.000610 0.590118
0.113281 0.000000 0.602325
0.306183 0.000000 0.628265
0.483643 0.000000 0.636627
0.624603 0.000000 0.630432
0.000000 0.153687 0.633423
0.099457 0.144348 0.636108
0.298065 0.152161 0.664276
0.527283 0.141968 0.669098
0.665985 0.122986 0.650177
0.000000 0.429108 0.733917
0.103302 0.445282 0.744598
0.317108 0.482300 0.776550
0.596924 0.485443 0.766785
0.774811 0.460541 0.735687
0.069672 0.687347 0.867493
0.281799 0.747803 0.939636
0.472626 0.770752 0.959869
0.676361 0.770782 0.928375
0.905701 0.764526 0.903168
0.230988 0.934357 0.999542
0.393738 0.976959 0.999268
0.560974 0.980774 0.998993
0.757812 0.991272 0.998718
0.998505 0.998505 0.998505
