Kodak Vision2 500T (5218) - Look.cube
# Created by Benjamin (IWLTBAP) : http://luts.iwltbap.com
# Copyright: (C) Copyright 2010-2017 Triune Films and IWLTBAP SAS
# Cannot be resold, shared or otherwise redistributed
TITLE "Film Print Emulation LUTs Pack (Rec.709, sRGB, DCI-P3)"
LUT_3D_SIZE 5
0.002380 0.001587 0.001587
0.150452 0.013397 0.002350
0.289185 0.019714 0.009460
0.426605 0.022888 0.009460
0.553467 0.027618 0.009460
0.000000 0.128418 0.092987
0.107513 0.166534 0.031555
0.369690 0.203979 0.008667
0.544220 0.187958 0.008667
0.687256 0.148041 0.009460
0.000000 0.223999 0.149139
0.019714 0.258728 0.108643
0.305725 0.356445 0.022888
0.633362 0.396942 0.020508
0.816406 0.370728 0.019714
0.000000 0.334595 0.207428
0.003143 0.367676 0.191284
0.114990 0.467865 0.115356
0.653625 0.614014 0.029968
0.924164 0.610199 0.009460
0.000000 0.544312 0.357269
0.003143 0.616394 0.391266
0.276489 0.792175 0.398163
0.720947 0.894226 0.336121
0.976257 0.919861 0.267517
0.001587 0.014984 0.101868
0.169617 0.013428 0.115356
0.327454 0.020508 0.134491
0.467865 0.026825 0.135071
0.597260 0.032349 0.131500
0.000000 0.148590 0.209473
0.148865 0.191498 0.193726
0.439148 0.237518 0.187134
0.601898 0.202820 0.141998
0.720276 0.150452 0.125916
0.000000 0.269470 0.263641
0.028381 0.309204 0.259155
0.398254 0.421906 0.231445
0.703979 0.438538 0.161682
0.849426 0.374237 0.107513
0.000000 0.395172 0.343536
0.003143 0.438904 0.353943
0.155151 0.548950 0.321960
0.718903 0.682312 0.253845
0.956329 0.664734 0.137421
0.000000 0.616089 0.509064
0.009460 0.673523 0.515778
0.288513 0.821655 0.524200
0.709229 0.905457 0.495819
0.977478 0.935791 0.480194
0.000793 0.025238 0.190887
0.163391 0.014191 0.213318
0.340271 0.015778 0.255188
0.502380 0.029175 0.282379
0.629395 0.036285 0.286987
0.000000 0.151001 0.299988
0.124969 0.187531 0.326691
0.437592 0.233917 0.361420
0.638519 0.220673 0.359436
0.753357 0.161682 0.309540
0.000000 0.282776 0.363007
0.026794 0.322174 0.379974
0.420349 0.447723 0.427399
0.731934 0.478638 0.423126
0.872314 0.391449 0.325348
0.000000 0.419220 0.431152
0.002350 0.475159 0.461578
0.178711 0.599670 0.490662
0.736572 0.718445 0.498352
0.963470 0.706360 0.443634
0.000000 0.637146 0.596527
0.011047 0.693237 0.614319
0.292114 0.843689 0.646729
0.714203 0.919067 0.637573
0.979553 0.946960 0.639221
0.000000 0.033905 0.265106
0.135956 0.024445 0.306702
0.328003 0.016571 0.332764
0.507965 0.029968 0.384308
0.665741 0.042511 0.417145
0.000000 0.141144 0.373901
0.103760 0.169128 0.414978
0.401978 0.191071 0.455658
0.627075 0.178040 0.490479
0.784668 0.167725 0.489716
0.000000 0.277435 0.443329
0.019714 0.315430 0.483307
0.395508 0.431305 0.561066
0.732300 0.475861 0.588989
0.892334 0.415222 0.564301
0.000000 0.428131 0.527832
0.000793 0.487274 0.564789
0.216217 0.622009 0.636536
0.752258 0.737915 0.680084
0.968384 0.742310 0.675171
0.000000 0.661987 0.683105
0.025238 0.721466 0.711426
0.382080 0.876587 0.771332
0.744446 0.940094 0.788605
0.983826 0.962219 0.798340
0.000000 0.036285 0.334381
0.121735 0.028381 0.382935
0.328888 0.022095 0.409210
0.505707 0.026825 0.450165
0.649719 0.035492 0.489532
0.000000 0.116364 0.428131
0.081940 0.125580 0.464172
0.376801 0.126862 0.515076
0.601776 0.094238 0.552002
0.762390 0.110413 0.578918
0.000000 0.273071 0.525238
0.022064 0.296906 0.562073
0.379761 0.377808 0.646393
0.720520 0.403900 0.688660
0.883301 0.358032 0.690826
0.000000 0.444336 0.624756
0.000793 0.487274 0.660797
0.229584 0.615570 0.768311
0.768616 0.730591 0.827881
0.973572 0.753235 0.851807
0.000000 0.670380 0.772766
0.058655 0.747559 0.826111
0.515564 0.898224 0.902649
0.835327 0.954254 0.939636
0.994446 0.978699 0.962952
