Kodak 16mm - Look.cube
# Created by Benjamin (IWLTBAP) : http://luts.iwltbap.com
# Copyright: (C) Copyright 2010-2017 Triune Films and IWLTBAP SAS
# Cannot be resold, shared or otherwise redistributed
TITLE "Film Print Emulation LUTs Pack (Rec.709, sRGB, DCI-P3)"
LUT_3D_SIZE 33
0.031006 0.031006 0.019897
0.039856 0.031036 0.019958
0.048157 0.030731 0.020050
0.056000 0.030731 0.019989
0.064484 0.030731 0.020477
0.072327 0.030731 0.020508
0.081726 0.030731 0.020660
0.093475 0.030365 0.020630
0.103912 0.029114 0.022095
0.115631 0.028809 0.023071
0.128326 0.028809 0.023712
0.140839 0.027252 0.028381
0.156616 0.026825 0.029816
0.171936 0.026733 0.029572
0.187866 0.026611 0.029297
0.203033 0.026611 0.030609
0.221802 0.026459 0.032227
0.243317 0.026459 0.032227
0.266876 0.024994 0.035126
0.286194 0.024597 0.033966
0.305298 0.024994 0.031982
0.323395 0.026367 0.031982
0.344452 0.026459 0.034576
0.365784 0.026459 0.036011
0.384277 0.026459 0.036469
0.405731 0.026459 0.040771
0.425568 0.026459 0.044312
0.442780 0.026459 0.046661
0.466278 0.026459 0.048492
0.485138 0.025879 0.050537
0.501038 0.025085 0.052460
0.517120 0.024597 0.053619
0.530731 0.024597 0.053619
0.031036 0.038971 0.020050
0.039856 0.038971 0.020050
0.048157 0.038757 0.020355
0.056000 0.038574 0.020508
0.065033 0.038574 0.021027
0.072754 0.038574 0.020935
0.082916 0.038574 0.020844
0.094849 0.037659 0.021362
0.105743 0.036652 0.023224
0.118622 0.036652 0.023193
0.130920 0.035950 0.026337
0.145172 0.034760 0.029999
0.162109 0.034668 0.029816
0.177399 0.034576 0.029633
0.192505 0.034454 0.030029
0.208008 0.034454 0.032166
0.230682 0.034302 0.032227
0.253632 0.033264 0.034302
0.275635 0.032471 0.034912
0.295380 0.032562 0.031982
0.313263 0.033905 0.031982
0.334290 0.034302 0.034149
0.356659 0.034302 0.036011
0.374268 0.034302 0.036011
0.396637 0.034302 0.040405
0.416565 0.034302 0.043945
0.435760 0.034302 0.046753
0.459778 0.034302 0.048706
0.479828 0.033417 0.051239
0.496826 0.032562 0.053375
0.513672 0.032440 0.053619
0.529358 0.032440 0.053619
0.545563 0.032440 0.054077
0.030975 0.047211 0.020630
0.039734 0.047211 0.020630
0.048157 0.046600 0.020630
0.056000 0.046417 0.020844
0.065643 0.046417 0.021667
0.073242 0.046417 0.021332
0.085175 0.046143 0.021210
0.096558 0.044525 0.022491
0.108978 0.044495 0.023376
0.121735 0.043976 0.024750
0.135468 0.042603 0.029724
0.152863 0.042511 0.029816
0.168640 0.042450 0.029724
0.184418 0.042419 0.030029
0.200043 0.042267 0.032104
0.221558 0.042145 0.032349
0.245056 0.041138 0.034180
0.267761 0.040314 0.035034
0.287537 0.040405 0.031982
0.305725 0.041779 0.031982
0.327576 0.042145 0.034393
0.349518 0.042145 0.036011
0.367584 0.042145 0.036194
0.390228 0.042145 0.040863
0.410095 0.042145 0.044403
0.430176 0.042145 0.046936
0.455078 0.042145 0.049225
0.475372 0.040955 0.051971
0.495087 0.040283 0.053619
0.512238 0.040283 0.053619
0.529877 0.040283 0.054077
0.545837 0.040283 0.055267
0.559875 0.040283 0.056213
0.030975 0.055481 0.021179
0.039673 0.055450 0.021149
0.048157 0.054901 0.021149
0.056091 0.054260 0.021088
0.066071 0.054260 0.022186
0.074127 0.054260 0.021698
0.087402 0.053528 0.021545
0.098572 0.052338 0.023621
0.112335 0.052338 0.023773
0.125275 0.050903 0.028534
0.142334 0.050476 0.030090
0.158295 0.050354 0.029907
0.175323 0.050354 0.029755
0.191437 0.050262 0.031982
0.212830 0.049988 0.032349
0.234344 0.049255 0.033752
0.258331 0.048157 0.035370
0.279388 0.048218 0.032043
0.297729 0.049591 0.031982
0.320831 0.049988 0.034576
0.342834 0.049988 0.036011
0.362000 0.049988 0.036835
0.383179 0.049988 0.041168
0.402893 0.049988 0.044586
0.426636 0.049988 0.047302
0.449005 0.049927 0.049530
0.470276 0.048553 0.052612
0.490356 0.048126 0.053619
0.509460 0.048126 0.053650
0.528778 0.048126 0.055084
0.544769 0.048126 0.056305
0.559753 0.048126 0.058105
0.574097 0.048126 0.059509
0.030853 0.063538 0.021454
0.039185 0.063507 0.021393
0.048157 0.063049 0.021332
0.056030 0.062103 0.021179
0.066223 0.062103 0.022400
0.075165 0.062164 0.021729
0.088684 0.060974 0.022369
0.101288 0.060699 0.023438
0.114899 0.060181 0.025543
0.130524 0.058807 0.029358
0.147675 0.058563 0.029205
0.165192 0.058380 0.029144
0.181824 0.058105 0.031219
0.202728 0.057831 0.032349
0.225708 0.057098 0.033386
0.248413 0.056000 0.035797
0.269012 0.056000 0.032471
0.288849 0.057251 0.032013
0.311859 0.057831 0.034393
0.334778 0.057831 0.036011
0.355286 0.057831 0.037170
0.376495 0.057831 0.041656
0.395416 0.057831 0.044739
0.418823 0.057831 0.047302
0.442688 0.057617 0.049866
0.463806 0.056244 0.053009
0.485321 0.055969 0.053619
0.506897 0.055969 0.054138
0.526733 0.055969 0.055878
0.543488 0.055969 0.057922
0.559845 0.055969 0.059814
0.574432 0.055725 0.062134
0.586304 0.055298 0.065186
0.030823 0.071503 0.021637
0.038940 0.071503 0.021576
0.048218 0.071411 0.021515
0.056763 0.070374 0.021210
0.066376 0.070770 0.021332
0.077698 0.070740 0.021637
0.090790 0.069763 0.022888
0.103943 0.069946 0.023468
0.120636 0.068909 0.025726
0.137665 0.068604 0.028473
0.153778 0.068481 0.029205
0.170837 0.068451 0.029175
0.191254 0.068329 0.029999
0.214020 0.067810 0.032715
0.239227 0.065613 0.035950
0.259033 0.065308 0.032898
0.279449 0.066406 0.031982
0.301270 0.066925 0.033844
0.326569 0.066345 0.036865
0.346375 0.065796 0.036865
0.368927 0.065674 0.041748
0.388916 0.065674 0.045166
0.412933 0.065674 0.047607
0.436432 0.065277 0.050201
0.457336 0.063934 0.053314
0.479095 0.063812 0.053619
0.502472 0.063812 0.054718
0.522247 0.063812 0.056580
0.541229 0.063812 0.059235
0.558441 0.063629 0.061981
0.571869 0.063019 0.066071
0.586548 0.062408 0.068909
0.598297 0.062317 0.070618
0.031250 0.080170 0.021698
0.039246 0.079987 0.021576
0.048065 0.079254 0.021515
0.058868 0.079163 0.021210
0.068359 0.079895 0.021088
0.078247 0.079163 0.021545
0.094025 0.078918 0.022522
0.107819 0.079163 0.023071
0.125702 0.079285 0.025543
0.143585 0.079468 0.025360
0.161835 0.078217 0.028870
0.176117 0.078339 0.028809
0.201172 0.078339 0.031128
0.225891 0.078125 0.032043
0.249664 0.078064 0.031982
0.271759 0.077789 0.031982
0.292297 0.077759 0.032928
0.315308 0.077545 0.036285
0.338593 0.077393 0.038940
0.360626 0.076874 0.041412
0.381317 0.076599 0.044617
0.405701 0.076355 0.048492
0.427246 0.075897 0.053925
0.448608 0.073883 0.053650
0.470642 0.073151 0.053619
0.493439 0.072937 0.054504
0.515259 0.072784 0.056793
0.535126 0.072693 0.059601
0.553619 0.072052 0.063171
0.570282 0.071106 0.068085
0.583710 0.070709 0.070404
0.598633 0.070679 0.073578
0.611298 0.070679 0.075653
0.032074 0.090179 0.021729
0.040131 0.090179 0.021637
0.048615 0.088348 0.021454
0.058807 0.090179 0.021210
0.070038 0.090088 0.020996
0.081055 0.091339 0.021545
0.095825 0.090485 0.022461
0.112976 0.092590 0.022400
0.131714 0.093475 0.024323
0.151062 0.094574 0.024994
0.167664 0.094757 0.025055
0.186676 0.095612 0.026154
0.211700 0.095245 0.029816
0.235229 0.092590 0.032013
0.259460 0.092468 0.031982
0.283722 0.092407 0.031952
0.306732 0.092255 0.037964
0.330200 0.092102 0.041199
0.353333 0.091003 0.044250
0.375580 0.090088 0.045654
0.397797 0.088928 0.047577
0.420258 0.088745 0.053680
0.439148 0.087646 0.058258
0.461121 0.086731 0.058929
0.485199 0.086151 0.058411
0.506073 0.085693 0.057983
0.529114 0.084869 0.062439
0.546997 0.084625 0.066986
0.566162 0.084351 0.069092
0.583405 0.083923 0.072266
0.598267 0.083618 0.075562
0.611633 0.083557 0.076324
0.623383 0.083496 0.076324
0.033295 0.100159 0.021729
0.041656 0.100403 0.021637
0.050781 0.100586 0.021332
0.059631 0.101593 0.021088
0.070862 0.102783 0.021149
0.083069 0.104736 0.021149
0.098328 0.103455 0.022278
0.116791 0.105499 0.022003
0.137390 0.108002 0.022766
0.157074 0.110352 0.023193
0.173798 0.111786 0.024536
0.196899 0.112610 0.027649
0.222931 0.113556 0.030975
0.246460 0.112305 0.031982
0.271423 0.111420 0.032104
0.294556 0.111420 0.035065
0.318359 0.111877 0.039978
0.342773 0.111694 0.042999
0.363800 0.111572 0.046356
0.389313 0.110229 0.046234
0.411835 0.106506 0.051514
0.432098 0.105957 0.057098
0.452393 0.106781 0.060913
0.476715 0.108032 0.060913
0.498230 0.105103 0.060974
0.519714 0.104858 0.063049
0.541626 0.102509 0.066650
0.560730 0.102234 0.069031
0.578522 0.101501 0.070648
0.593994 0.101135 0.072662
0.609222 0.100677 0.072662
0.623474 0.100250 0.072662
0.635254 0.100952 0.073273
0.035156 0.109619 0.021698
0.043640 0.109985 0.021545
0.051971 0.111359 0.021545
0.061737 0.113037 0.021912
0.072937 0.114594 0.021362
0.085724 0.116608 0.021149
0.100922 0.117096 0.021515
0.120728 0.120361 0.020538
0.141479 0.123199 0.021576
0.161896 0.127411 0.021362
0.179749 0.129852 0.023193
0.205566 0.132629 0.026093
0.230438 0.134979 0.029724
0.256805 0.132477 0.032013
0.282074 0.133057 0.035553
0.305298 0.133850 0.038330
0.329651 0.134552 0.041199
0.353180 0.135254 0.044800
0.374115 0.135010 0.047882
0.397858 0.132629 0.049377
0.420746 0.128754 0.051819
0.440918 0.128754 0.056885
0.467224 0.132263 0.056946
0.490234 0.133362 0.059509
0.512970 0.130554 0.060974
0.533020 0.127289 0.062134
0.556396 0.126770 0.068634
0.575073 0.126221 0.070526
0.591522 0.126251 0.072906
0.609650 0.123901 0.075073
0.624939 0.123444 0.075745
0.638458 0.123352 0.077972
0.651825 0.124542 0.081055
0.036102 0.119995 0.021973
0.044220 0.120819 0.022217
0.053497 0.122375 0.022583
0.062256 0.125885 0.023163
0.074493 0.127960 0.021027
0.088531 0.130066 0.021667
0.106476 0.131653 0.020905
0.125000 0.137665 0.019684
0.144562 0.143158 0.020203
0.166351 0.146942 0.019775
0.189636 0.150330 0.022552
0.215454 0.152832 0.025635
0.240784 0.154602 0.029907
0.266449 0.154968 0.033203
0.293579 0.156555 0.036865
0.315033 0.157532 0.039642
0.339874 0.158295 0.042603
0.362061 0.155609 0.046234
0.385651 0.156250 0.046295
0.409912 0.156158 0.049042
0.431335 0.155884 0.052521
0.453949 0.155701 0.053772
0.480377 0.155792 0.054535
0.503082 0.156250 0.056702
0.525055 0.156342 0.056671
0.548340 0.154541 0.061340
0.568909 0.153198 0.067047
0.585999 0.153290 0.069305
0.605377 0.151062 0.075653
0.623352 0.149597 0.080841
0.638702 0.150177 0.083618
0.655670 0.151215 0.085876
0.669983 0.152222 0.086914
0.035919 0.130280 0.023010
0.044220 0.131683 0.023376
0.055267 0.135651 0.023468
0.064301 0.138763 0.023254
0.075836 0.141632 0.022247
0.090942 0.146332 0.021881
0.111481 0.149292 0.020630
0.131165 0.155396 0.019623
0.149689 0.158691 0.019623
0.172272 0.163727 0.020081
0.196899 0.167938 0.022858
0.224121 0.171997 0.027496
0.249420 0.174835 0.031555
0.275879 0.177734 0.036316
0.302368 0.177582 0.037811
0.327789 0.179504 0.040710
0.351807 0.180237 0.044128
0.375458 0.180389 0.046234
0.399872 0.181152 0.046234
0.423065 0.181885 0.046509
0.442535 0.182037 0.047211
0.470184 0.182220 0.049744
0.494598 0.181976 0.052765
0.516022 0.182434 0.055145
0.538055 0.181946 0.057800
0.560974 0.180176 0.061279
0.579926 0.180511 0.067993
0.599243 0.179138 0.072174
0.618774 0.177490 0.076538
0.635284 0.175720 0.082397
0.650391 0.175079 0.085876
0.665009 0.176208 0.087677
0.678741 0.177582 0.088867
0.037201 0.143127 0.023773
0.047241 0.145325 0.023621
0.057648 0.149353 0.023254
0.067871 0.152039 0.022949
0.080444 0.159760 0.021729
0.095978 0.163666 0.020264
0.116302 0.167328 0.019745
0.136383 0.170258 0.019623
0.157440 0.175720 0.019836
0.180298 0.182617 0.020538
0.206635 0.186798 0.025177
0.233246 0.189972 0.030640
0.259827 0.197174 0.035309
0.287720 0.200043 0.037781
0.313538 0.200256 0.039124
0.339813 0.201385 0.041626
0.365417 0.203369 0.042969
0.387390 0.204681 0.043488
0.409607 0.206207 0.043182
0.433319 0.207001 0.042938
0.457947 0.207794 0.045044
0.482117 0.208191 0.047668
0.507080 0.207947 0.050415
0.530914 0.205994 0.053558
0.551819 0.206207 0.058563
0.570892 0.204956 0.062744
0.591461 0.202484 0.068146
0.612335 0.200989 0.075378
0.630585 0.200378 0.080414
0.647400 0.199738 0.084167
0.661652 0.200256 0.086243
0.675446 0.201447 0.088989
0.689728 0.202698 0.090210
0.041382 0.155762 0.023499
0.050049 0.159241 0.023315
0.059723 0.164795 0.023010
0.071381 0.169739 0.021942
0.083588 0.175812 0.020142
0.101776 0.179932 0.019775
0.121368 0.184326 0.019684
0.142456 0.188904 0.019714
0.163147 0.195374 0.020508
0.187531 0.201019 0.022125
0.214142 0.205444 0.026642
0.240906 0.211395 0.031464
0.267517 0.216034 0.036011
0.295410 0.221039 0.036377
0.323578 0.225708 0.039124
0.351837 0.228058 0.041473
0.375397 0.230469 0.042145
0.399261 0.232849 0.042603
0.421478 0.234161 0.044800
0.446167 0.235535 0.045105
0.471497 0.236664 0.045929
0.494812 0.235260 0.048492
0.518433 0.235413 0.053680
0.541901 0.234619 0.057465
0.560791 0.232941 0.061707
0.580627 0.230835 0.068573
0.603149 0.228912 0.074005
0.623657 0.228699 0.079468
0.641144 0.230164 0.085480
0.656738 0.229736 0.087860
0.671936 0.229950 0.089661
0.688080 0.230072 0.091431
0.702606 0.231018 0.091858
0.042664 0.170227 0.023193
0.051880 0.176147 0.023010
0.062988 0.179718 0.021545
0.073669 0.185150 0.020355
0.088593 0.192535 0.019897
0.107391 0.197266 0.019714
0.127106 0.201752 0.019684
0.148193 0.207916 0.019714
0.170929 0.214264 0.020935
0.195953 0.218750 0.023895
0.222931 0.223785 0.028656
0.249146 0.234528 0.032104
0.277924 0.240967 0.036011
0.305328 0.245392 0.037018
0.334259 0.250549 0.039124
0.362732 0.253998 0.040405
0.386383 0.256439 0.043304
0.410492 0.259064 0.043945
0.434662 0.261139 0.047485
0.458923 0.261444 0.048035
0.484589 0.261749 0.049011
0.508301 0.261505 0.053223
0.530701 0.260681 0.059235
0.553375 0.261414 0.062897
0.573822 0.259857 0.067108
0.595123 0.258453 0.070923
0.618744 0.256744 0.076538
0.634857 0.255951 0.081726
0.651459 0.256439 0.085297
0.667786 0.257965 0.088501
0.684357 0.258759 0.090393
0.702087 0.259186 0.091797
0.718475 0.259308 0.092682
0.044220 0.185730 0.022186
0.055969 0.188782 0.021088
0.066254 0.194092 0.019989
0.077179 0.201019 0.019897
0.096100 0.208710 0.019745
0.114227 0.213318 0.019623
0.131897 0.217865 0.019623
0.153870 0.225250 0.021149
0.176605 0.231079 0.021820
0.202484 0.241638 0.024353
0.232300 0.248535 0.029205
0.257263 0.256195 0.032745
0.286407 0.265442 0.036011
0.315399 0.270966 0.036011
0.344971 0.277069 0.038757
0.372620 0.282013 0.041168
0.396332 0.283081 0.045044
0.420746 0.285187 0.046844
0.446442 0.286469 0.049500
0.471893 0.287292 0.051300
0.497253 0.287598 0.053864
0.521301 0.287811 0.056885
0.543640 0.287537 0.062073
0.566803 0.288483 0.066315
0.587189 0.286835 0.071259
0.607605 0.285675 0.074738
0.627960 0.285706 0.077606
0.646667 0.286652 0.081207
0.664612 0.286743 0.084473
0.682892 0.286377 0.086609
0.700104 0.287079 0.087341
0.718597 0.287567 0.088104
0.732391 0.287537 0.088989
0.048492 0.198853 0.020721
0.059265 0.205139 0.020081
0.070312 0.212097 0.019897
0.085266 0.218903 0.019775
0.105103 0.225159 0.019684
0.120148 0.230835 0.019592
0.136902 0.232910 0.019806
0.161316 0.245392 0.021820
0.187714 0.252869 0.021820
0.209717 0.263977 0.024628
0.241669 0.272064 0.028503
0.269806 0.280640 0.031067
0.297638 0.289978 0.034332
0.327423 0.296387 0.036682
0.357025 0.303131 0.038513
0.383423 0.307983 0.041748
0.406219 0.309326 0.046143
0.436340 0.312561 0.049408
0.456726 0.311859 0.053589
0.483917 0.314056 0.054352
0.510773 0.316010 0.057770
0.534576 0.316895 0.061615
0.556610 0.316742 0.063416
0.577332 0.317017 0.067535
0.597931 0.316284 0.070129
0.617615 0.317078 0.070801
0.636963 0.318787 0.073273
0.655823 0.319031 0.075439
0.674316 0.319305 0.077057
0.694733 0.319153 0.082031
0.712280 0.319611 0.084869
0.729065 0.319946 0.086731
0.744537 0.319763 0.087769
0.051666 0.215546 0.020081
0.063843 0.223816 0.019989
0.078918 0.230377 0.019836
0.094238 0.238129 0.019714
0.111481 0.242432 0.019684
0.126282 0.247406 0.019592
0.143738 0.256104 0.019592
0.168915 0.265991 0.021271
0.195679 0.275574 0.021820
0.220551 0.286865 0.023224
0.250427 0.296417 0.026703
0.280212 0.307068 0.030884
0.308258 0.316162 0.035187
0.341858 0.322540 0.038849
0.369202 0.327728 0.040161
0.394806 0.331665 0.044220
0.418213 0.332581 0.048584
0.445892 0.334961 0.052887
0.470184 0.337860 0.054291
0.497620 0.340332 0.057892
0.522583 0.341980 0.062592
0.547363 0.343689 0.066650
0.568604 0.343506 0.067108
0.590271 0.342834 0.070007
0.610962 0.341614 0.073395
0.629700 0.343170 0.075470
0.648529 0.344574 0.077698
0.667938 0.346008 0.078583
0.690918 0.346069 0.083221
0.712097 0.346039 0.087006
0.729797 0.345856 0.091736
0.746826 0.345673 0.095459
0.757385 0.346252 0.097504
0.056976 0.233490 0.019989
0.073059 0.240051 0.019897
0.087311 0.247101 0.019775
0.102173 0.254547 0.019714
0.115295 0.261658 0.019958
0.130890 0.268768 0.019623
0.148834 0.277588 0.019623
0.176727 0.289215 0.020081
0.202118 0.298615 0.021820
0.230316 0.311584 0.023010
0.262634 0.322906 0.027557
0.291412 0.334045 0.031433
0.321136 0.340546 0.035950
0.352264 0.346863 0.041382
0.381989 0.351898 0.045563
0.403931 0.355347 0.047150
0.429077 0.357086 0.049591
0.454102 0.358521 0.053284
0.480988 0.363403 0.054993
0.510468 0.366455 0.060425
0.536255 0.367279 0.067627
0.557617 0.367462 0.069580
0.580444 0.369324 0.070435
0.603027 0.368652 0.074585
0.625641 0.367157 0.078857
0.644531 0.367126 0.084351
0.664368 0.366882 0.089142
0.687256 0.367004 0.092560
0.708252 0.366486 0.096588
0.731506 0.366089 0.102264
0.749115 0.365875 0.107056
0.761139 0.366974 0.107544
0.769867 0.368317 0.107117
0.066864 0.249847 0.020050
0.081268 0.256378 0.019958
0.095001 0.263123 0.019836
0.108063 0.274109 0.020111
0.119904 0.283844 0.021454
0.136169 0.290131 0.021027
0.157471 0.298859 0.019623
0.184204 0.311523 0.019684
0.211243 0.321533 0.021881
0.239716 0.336914 0.023773
0.271912 0.346283 0.028290
0.305176 0.357910 0.032043
0.335327 0.364502 0.037018
0.362671 0.371155 0.043365
0.391754 0.375885 0.047485
0.415253 0.379761 0.048950
0.438019 0.383270 0.049438
0.462585 0.388580 0.050934
0.491058 0.393219 0.055511
0.521210 0.396790 0.060089
0.548553 0.397522 0.068298
0.572418 0.396790 0.071198
0.594696 0.398193 0.074799
0.616699 0.398468 0.078644
0.636475 0.395111 0.084137
0.657562 0.395264 0.088928
0.679626 0.395172 0.094330
0.702301 0.394531 0.095093
0.723145 0.395142 0.096649
0.742401 0.395935 0.098236
0.758850 0.397339 0.099518
0.768280 0.398285 0.099915
0.777252 0.399506 0.099945
0.074036 0.265778 0.020081
0.087799 0.272156 0.019989
0.099915 0.282257 0.020264
0.112152 0.294159 0.021515
0.124969 0.304230 0.023102
0.140167 0.311646 0.021942
0.163940 0.318756 0.019897
0.191742 0.335693 0.019714
0.218719 0.345612 0.022919
0.250977 0.360291 0.026886
0.281860 0.370026 0.029510
0.314026 0.382080 0.032745
0.343018 0.392365 0.038177
0.371155 0.398865 0.043793
0.398529 0.403168 0.046997
0.425446 0.407288 0.049469
0.450165 0.412109 0.049438
0.472229 0.417816 0.049683
0.502747 0.421478 0.056610
0.532501 0.422668 0.062500
0.563202 0.425964 0.069397
0.586823 0.425629 0.072388
0.605743 0.425079 0.075684
0.627075 0.424774 0.081299
0.646637 0.424133 0.084747
0.667694 0.424133 0.087250
0.688873 0.424042 0.092194
0.713776 0.422852 0.092438
0.733643 0.423035 0.092102
0.753235 0.423889 0.092743
0.762848 0.426270 0.092010
0.772919 0.428009 0.091370
0.782288 0.430542 0.090302
0.080536 0.282501 0.020081
0.092957 0.292175 0.020630
0.104095 0.303680 0.021637
0.117462 0.316223 0.023132
0.129791 0.324646 0.024841
0.148315 0.332306 0.021912
0.175049 0.343781 0.021149
0.202911 0.356537 0.021393
0.228668 0.369843 0.024902
0.260712 0.383667 0.028229
0.291138 0.396179 0.031525
0.321106 0.407806 0.033356
0.351807 0.416962 0.037720
0.378998 0.424042 0.041687
0.407379 0.429260 0.045593
0.433258 0.432404 0.049072
0.459167 0.436920 0.052032
0.484711 0.442108 0.053223
0.513947 0.446075 0.061218
0.543793 0.446838 0.066223
0.574890 0.450836 0.069855
0.597168 0.451508 0.073547
0.615875 0.450867 0.076538
0.637787 0.450012 0.080353
0.657745 0.452423 0.083160
0.678406 0.452576 0.085358
0.700623 0.450775 0.087311
0.724487 0.448639 0.089752
0.746307 0.448975 0.090179
0.758209 0.449280 0.090210
0.767273 0.451019 0.090210
0.776672 0.452972 0.090210
0.785248 0.453827 0.090210
0.085571 0.301392 0.020813
0.096680 0.313202 0.021942
0.109711 0.323883 0.023438
0.122009 0.335724 0.024902
0.137207 0.346375 0.024902
0.154999 0.355103 0.022675
0.182983 0.366516 0.021942
0.212402 0.378967 0.022919
0.237122 0.392761 0.027405
0.270569 0.408417 0.029480
0.300446 0.421997 0.034180
0.328308 0.433044 0.035645
0.358459 0.440552 0.038177
0.388214 0.447235 0.041748
0.418671 0.451050 0.046356
0.442932 0.455841 0.050415
0.469940 0.461487 0.055298
0.497711 0.468048 0.058044
0.526337 0.472290 0.065643
0.556763 0.474518 0.069000
0.584259 0.475677 0.070404
0.604614 0.477600 0.074280
0.625885 0.477509 0.077362
0.648041 0.476562 0.080994
0.667023 0.477051 0.083740
0.688507 0.475983 0.086121
0.711884 0.475067 0.086456
0.737091 0.474701 0.088470
0.754730 0.475342 0.091278
0.763947 0.476135 0.091797
0.773071 0.477600 0.092194
0.783508 0.479767 0.092529
0.792297 0.480530 0.092682
0.089386 0.322784 0.022125
0.102142 0.332977 0.023621
0.114349 0.343567 0.025269
0.128845 0.355682 0.024841
0.144958 0.368591 0.024841
0.166779 0.376617 0.022644
0.190399 0.388519 0.023224
0.221100 0.402161 0.024841
0.247009 0.418121 0.028015
0.280121 0.432251 0.031769
0.309448 0.444824 0.036652
0.339569 0.456360 0.037811
0.369843 0.463623 0.038849
0.400116 0.470612 0.043274
0.428528 0.475800 0.048553
0.453247 0.481781 0.054047
0.482758 0.487823 0.058990
0.511078 0.492737 0.064758
0.540405 0.496368 0.069214
0.569000 0.498535 0.071350
0.592896 0.499268 0.072174
0.612305 0.502441 0.075165
0.634644 0.502380 0.078094
0.657776 0.501099 0.082153
0.677765 0.500671 0.084595
0.699554 0.499115 0.086975
0.724182 0.496216 0.089203
0.745117 0.496063 0.092896
0.759399 0.497986 0.093842
0.770691 0.501160 0.093842
0.779877 0.503418 0.093842
0.789795 0.505890 0.093842
0.798340 0.506622 0.093842
0.094086 0.341370 0.023804
0.106476 0.352234 0.025543
0.120575 0.365051 0.026733
0.136505 0.375977 0.024902
0.156097 0.387543 0.024902
0.174011 0.395996 0.022583
0.197754 0.409882 0.023712
0.227783 0.428589 0.026520
0.253937 0.441101 0.029266
0.290527 0.456482 0.034180
0.320923 0.468018 0.037750
0.351440 0.478027 0.039215
0.379822 0.488647 0.040985
0.411041 0.494751 0.046661
0.439178 0.498566 0.051239
0.467224 0.504852 0.057037
0.494629 0.511810 0.062653
0.523804 0.516663 0.068604
0.554138 0.521454 0.071960
0.579102 0.522217 0.072662
0.601288 0.525238 0.072662
0.621582 0.526642 0.075928
0.645569 0.524200 0.079193
0.665802 0.524658 0.082764
0.688293 0.524750 0.085480
0.710907 0.524170 0.088013
0.736481 0.521606 0.091492
0.757385 0.521179 0.093842
0.766998 0.523865 0.093842
0.777527 0.527191 0.093842
0.786530 0.529358 0.094025
0.795929 0.531738 0.094330
0.804352 0.532562 0.094482
0.098267 0.359650 0.025574
0.112427 0.372772 0.027100
0.128235 0.385498 0.028595
0.147461 0.394409 0.024902
0.164948 0.407135 0.024902
0.181519 0.416168 0.022888
0.204193 0.432831 0.023895
0.235870 0.451874 0.027924
0.261627 0.464294 0.031189
0.299469 0.479187 0.036560
0.332550 0.492554 0.038300
0.364014 0.501129 0.039215
0.393158 0.510834 0.043121
0.423798 0.516510 0.047485
0.452209 0.522156 0.052032
0.481079 0.528748 0.058777
0.505737 0.535187 0.067230
0.535522 0.540741 0.069214
0.563629 0.547302 0.072662
0.588562 0.548676 0.073029
0.609467 0.552277 0.074310
0.630493 0.552368 0.076660
0.654877 0.551544 0.080322
0.676910 0.552673 0.083405
0.697662 0.550507 0.086121
0.725372 0.550720 0.089233
0.748016 0.549591 0.092590
0.765228 0.548676 0.094727
0.775665 0.550964 0.095917
0.785248 0.554413 0.096497
0.794189 0.556641 0.096863
0.803284 0.558746 0.097290
0.811859 0.559814 0.097412
0.104431 0.380188 0.027069
0.119812 0.393219 0.028931
0.139008 0.404297 0.026459
0.156281 0.416046 0.024933
0.173462 0.428375 0.024902
0.188385 0.442169 0.024567
0.211639 0.456024 0.026337
0.243622 0.474091 0.030365
0.272003 0.486755 0.033661
0.310577 0.504242 0.037537
0.343506 0.514923 0.039215
0.373627 0.524200 0.041107
0.406830 0.533905 0.043854
0.436127 0.538391 0.048096
0.463470 0.546143 0.054718
0.490845 0.553650 0.060425
0.515778 0.560394 0.069458
0.547913 0.566315 0.070526
0.573486 0.571472 0.072662
0.596252 0.575012 0.074005
0.618652 0.576660 0.076782
