Kodak Vision3 500T (5230) - Only color.cube
# Created by Benjamin (IWLTBAP) : http://luts.iwltbap.com
# Copyright: (C) Copyright 2010-2017 Triune Films and IWLTBAP SAS
# Cannot be resold, shared or otherwise redistributed
TITLE "Film Print Emulation LUTs Pack (Rec.709, sRGB, DCI-P3)"
LUT_3D_SIZE 33
0.001587 0.000000 0.000000
0.031677 0.000000 0.000000
0.066406 0.000000 0.000000
0.100739 0.000000 0.000000
0.142670 0.000000 0.000000
0.175232 0.001312 0.000000
0.204712 0.004730 0.000000
0.231964 0.009247 0.000000
0.257965 0.013092 0.000000
0.285309 0.017059 0.000000
0.311829 0.020905 0.000000
0.335022 0.024445 0.000000
0.356659 0.028229 0.000000
0.380676 0.030548 0.000000
0.402374 0.036377 0.000000
0.424438 0.039185 0.000000
0.446503 0.041962 0.000000
0.467957 0.045410 0.000000
0.489197 0.048218 0.000000
0.510834 0.051086 0.000000
0.533325 0.054718 0.000000
0.556671 0.056885 0.000000
0.579742 0.059723 0.000000
0.603577 0.061157 0.000000
0.627441 0.063232 0.000000
0.655548 0.065887 0.000000
0.682831 0.066559 0.000000
0.709198 0.067841 0.000000
0.733063 0.069702 0.000000
0.759155 0.070923 0.000000
0.788605 0.072662 0.000000
0.814270 0.074310 0.000000
0.841492 0.075928 0.000000
0.001312 0.032349 0.000000
0.024933 0.032349 0.000000
0.071777 0.033112 0.000000
0.107971 0.036072 0.000000
0.148895 0.037445 0.000000
0.180206 0.040955 0.000000
0.210144 0.043640 0.000000
0.238037 0.046997 0.000000
0.264801 0.049011 0.000000
0.292053 0.051819 0.000000
0.317169 0.056793 0.000000
0.339600 0.060974 0.000000
0.362823 0.065002 0.000000
0.385254 0.066315 0.000000
0.406769 0.070038 0.000000
0.428589 0.072418 0.000000
0.449982 0.074677 0.000000
0.471588 0.077301 0.000000
0.492889 0.080353 0.000000
0.514435 0.082825 0.000000
0.537048 0.084747 0.000000
0.560181 0.086639 0.000000
0.583466 0.088470 0.000000
0.608063 0.090271 0.000000
0.631683 0.092041 0.000000
0.660034 0.093750 0.000000
0.686859 0.094604 0.000000
0.712952 0.095001 0.000000
0.736816 0.096252 0.000000
0.763550 0.098236 0.000000
0.793152 0.099426 0.000000
0.818665 0.100952 0.000000
0.846375 0.102875 0.000000
0.001160 0.052521 0.000000
0.008911 0.055359 0.000000
0.051422 0.058807 0.000000
0.103607 0.069458 0.000000
0.148926 0.073669 0.000000
0.181580 0.079041 0.000000
0.211365 0.082031 0.000000
0.239899 0.084900 0.000000
0.267365 0.086792 0.000000
0.295288 0.089050 0.000000
0.320831 0.090820 0.000000
0.342529 0.092987 0.000000
0.366058 0.096344 0.000000
0.387817 0.098358 0.000000
0.410736 0.100281 0.000000
0.432953 0.102173 0.000000
0.454132 0.104401 0.000000
0.475098 0.106934 0.000000
0.496063 0.109070 0.000000
0.517609 0.111481 0.000000
0.540710 0.113190 0.000000
0.564056 0.114868 0.000000
0.588257 0.116486 0.000000
0.611572 0.118439 0.000000
0.636108 0.119720 0.000000
0.664520 0.120667 0.000000
0.691711 0.121918 0.000000
0.717621 0.122223 0.000000
0.741211 0.123444 0.000000
0.768585 0.124939 0.000000
0.797760 0.126404 0.000000
0.823090 0.127869 0.000000
0.851074 0.129333 0.000000
0.000977 0.074677 0.000000
0.001068 0.078552 0.000000
0.042267 0.083038 0.000000
0.075867 0.088287 0.000000
0.141449 0.102509 0.000000
0.179169 0.107635 0.000000
0.210693 0.111816 0.000000
0.239929 0.114838 0.000000
0.268494 0.117767 0.000000
0.297333 0.119995 0.000000
0.323303 0.122162 0.000000
0.345856 0.124268 0.000000
0.369263 0.126648 0.000000
0.391754 0.128662 0.000000
0.414764 0.130646 0.000000
0.437042 0.132599 0.000000
0.458405 0.134216 0.000000
0.479309 0.135834 0.000000
0.500153 0.137695 0.000000
0.521545 0.139282 0.000000
0.544861 0.140839 0.000000
0.568390 0.142639 0.000000
0.593414 0.143890 0.000000
0.615601 0.145172 0.000000
0.641357 0.146423 0.000000
0.669342 0.147156 0.000000
0.696442 0.147919 0.000000
0.722412 0.148376 0.000000
0.746368 0.149384 0.000000
0.774658 0.150604 0.000000
0.802673 0.152039 0.000000
0.828674 0.153259 0.000000
0.856781 0.154449 0.000000
0.000793 0.098602 0.000000
0.006012 0.100250 0.000000
0.045532 0.102509 0.000000
0.073822 0.105133 0.000000
0.107269 0.111603 0.000000
0.163574 0.127808 0.000000
0.207703 0.137817 0.000000
0.237946 0.142242 0.000000
0.267639 0.146027 0.000000
0.299377 0.149200 0.000000
0.324890 0.151611 0.000000
0.349152 0.153503 0.000000
0.372589 0.155853 0.000000
0.395538 0.157471 0.000000
0.418457 0.159546 0.000000
0.440887 0.161346 0.000000
0.462738 0.163361 0.000000
0.484100 0.165131 0.000000
0.505341 0.166687 0.000000
0.526947 0.168427 0.000000
0.550049 0.169952 0.000000
0.575378 0.171234 0.000000
0.598511 0.172119 0.000000
0.621002 0.173187 0.000000
0.647736 0.174286 0.000000
0.675415 0.175140 0.000000
0.702820 0.175995 0.000000
0.727905 0.176178 0.000000
0.753235 0.177032 0.000000
0.782410 0.178314 0.000000
0.808807 0.179565 0.000000
0.835114 0.180634 0.000000
0.864136 0.181702 0.000000
0.000641 0.117310 0.000000
0.019440 0.118317 0.000000
0.048584 0.120544 0.000000
0.073792 0.123962 0.000000
0.097473 0.126129 0.000000
0.141815 0.134125 0.000000
0.189911 0.151550 0.000000
0.233215 0.166107 0.000000
0.263702 0.171326 0.000000
0.297119 0.176208 0.000000
0.325623 0.180145 0.000000
0.351196 0.183044 0.000000
0.375275 0.185516 0.000000
0.398407 0.187592 0.000000
0.421875 0.189301 0.000000
0.444672 0.191406 0.000000
0.466827 0.193146 0.000000
0.488647 0.195282 0.000000
0.510010 0.197205 0.000000
0.531921 0.198486 0.000000
0.556488 0.200195 0.000000
0.580902 0.201263 0.000000
0.603882 0.202332 0.000000
0.627045 0.203796 0.000000
0.654327 0.204254 0.000000
0.681885 0.204498 0.000000
0.709717 0.205933 0.000000
0.734772 0.206757 0.000000
0.762024 0.208557 0.000000
0.790527 0.208954 0.000000
0.815552 0.209961 0.000000
0.842682 0.210907 0.000000
0.873627 0.212433 0.000000
0.001556 0.133667 0.000000
0.030029 0.135529 0.000000
0.050049 0.138489 0.000000
0.072083 0.142181 0.000000
0.096680 0.145264 0.000000
0.136658 0.148224 0.000000
0.166290 0.158264 0.000000
0.213379 0.176544 0.000000
0.257416 0.193848 0.000000
0.293121 0.201904 0.000000
0.323395 0.207031 0.000000
0.351837 0.211365 0.000000
0.376953 0.214203 0.000000
0.401215 0.216553 0.000000
0.424713 0.217743 0.000000
0.447906 0.219116 0.000000
0.470917 0.221130 0.000000
0.492767 0.223816 0.000000
0.514648 0.225128 0.000000
0.537170 0.226288 0.000000
0.562805 0.227600 0.000000
0.586792 0.228577 0.000000
0.609619 0.229553 0.000000
0.633881 0.230377 0.000000
0.661896 0.230682 0.000000
0.689667 0.230865 0.000000
0.717743 0.231323 0.000000
0.742859 0.231506 0.000000
0.770966 0.231842 0.000000
0.799072 0.232452 0.000000
0.824005 0.232941 0.000000
0.851562 0.233429 0.000000
0.884003 0.234222 0.000000
0.012512 0.150757 0.000000
0.036224 0.154083 0.000000
0.050751 0.156891 0.000000
0.069458 0.160400 0.000000
0.094208 0.163605 0.000000
0.138641 0.167145 0.000000
0.160400 0.170166 0.000000
0.195587 0.183014 0.000000
0.239471 0.202545 0.000000
0.282654 0.218414 0.000000
0.319702 0.227783 0.000000
0.347961 0.231659 0.000000
0.376617 0.237305 0.000000
0.403442 0.240509 0.000000
0.427582 0.242004 0.000000
0.450928 0.243317 0.000000
0.473999 0.244934 0.000000
0.496643 0.246704 0.000000
0.519135 0.248016 0.000000
0.544617 0.249451 0.000000
0.568848 0.250885 0.000000
0.593048 0.252319 0.000000
0.615967 0.253906 0.000000
0.642090 0.254730 0.000000
0.670502 0.255310 0.000000
0.698090 0.255585 0.000000
0.725006 0.255554 0.000000
0.752075 0.255585 0.000000
0.781677 0.255310 0.000000
0.807678 0.255707 0.000000
0.833740 0.256409 0.000000
0.862213 0.257111 0.000000
0.895660 0.257385 0.000000
0.027344 0.169586 0.000000
0.044006 0.173462 0.000000
0.056946 0.175995 0.000000
0.071198 0.178955 0.000000
0.093384 0.182495 0.000000
0.138000 0.187408 0.000000
0.164001 0.191162 0.000000
0.191040 0.195190 0.000000
0.225769 0.209869 0.000000
0.264832 0.225037 0.000000
0.308380 0.238129 0.000000
0.343048 0.252380 0.000000
0.373413 0.257843 0.000000
0.401825 0.262451 0.000000
0.429047 0.266022 0.000000
0.454041 0.268646 0.000000
0.477325 0.270447 0.000000
0.500214 0.272247 0.000000
0.522949 0.273895 0.000000
0.549255 0.275452 0.000000
0.574463 0.277344 0.000000
0.599121 0.279144 0.000000
0.622925 0.280548 0.000000
0.651093 0.281464 0.000000
0.679291 0.281982 0.000000
0.707428 0.282227 0.000000
0.732971 0.281952 0.000000
0.761353 0.281860 0.000000
0.792725 0.282227 0.000000
0.817474 0.282257 0.000000
0.844360 0.282898 0.000000
0.874878 0.283691 0.000000
0.905640 0.283722 0.000000
0.036285 0.190277 0.000000
0.049377 0.193237 0.000000
0.061768 0.194946 0.000000
0.076477 0.198151 0.000000
0.099213 0.202423 0.000000
0.137695 0.206116 0.000000
0.165771 0.211487 0.000000
0.195862 0.216187 0.000000
0.222687 0.220551 0.000000
0.254822 0.234131 0.000000
0.295715 0.248077 0.000000
0.333374 0.263580 0.000000
0.368958 0.276886 0.000000
0.398499 0.283691 0.000000
0.427124 0.287994 0.000000
0.453979 0.291718 0.000000
0.479553 0.295349 0.000000
0.503540 0.297699 0.000000
0.528992 0.299622 0.000000
0.553894 0.301331 0.000000
0.579163 0.303162 0.000000
0.604065 0.305084 0.000000
0.629547 0.306915 0.000000
0.659576 0.308075 0.000000
0.687561 0.308502 0.000000
0.715851 0.308746 0.000000
0.741150 0.308533 0.000000
0.770721 0.308441 0.000000
0.801788 0.309082 0.000000
0.827576 0.309235 0.000000
0.855591 0.309998 0.000000
0.889069 0.310669 0.000000
0.914062 0.310730 0.000000
0.044037 0.210266 0.000000
0.056335 0.212799 0.000000
0.069397 0.214539 0.000000
0.084717 0.217712 0.000000
0.111755 0.223053 0.000000
0.144135 0.227997 0.000000
0.170441 0.231689 0.000000
0.201599 0.236237 0.000000
0.229279 0.240082 0.000000
0.253876 0.243073 0.000000
0.286194 0.255981 0.000000
0.322327 0.271271 0.000000
0.357697 0.285889 0.000000
0.390930 0.299164 0.000000
0.422852 0.308502 0.000000
0.452362 0.313477 0.000000
0.479401 0.317352 0.000000
0.505035 0.320404 0.000000
0.532410 0.322937 0.000000
0.558289 0.324402 0.000000
0.583954 0.325623 0.000000
0.608765 0.327057 0.000000
0.635193 0.328491 0.000000
0.666016 0.329803 0.000000
0.695343 0.330658 0.000000
0.723694 0.331268 0.000000
0.751068 0.331421 0.000000
0.782532 0.331421 0.000000
0.811035 0.331726 0.000000
0.838654 0.331940 0.000000
0.868317 0.332611 0.000000
0.904327 0.333649 0.000000
0.927917 0.333832 0.000000
0.050079 0.229614 0.000000
0.063751 0.231079 0.000000
0.078156 0.234283 0.000000
0.096741 0.237000 0.000000
0.127686 0.240051 0.000000
0.154419 0.244720 0.000000
0.182404 0.249115 0.000000
0.209991 0.253815 0.000000
0.237305 0.258820 0.000000
0.261963 0.262756 0.000000
0.286377 0.266449 0.000000
0.317444 0.280609 0.000000
0.349915 0.295288 0.000000
0.380859 0.308411 0.000000
0.416077 0.321411 0.000000
0.449127 0.330048 0.000000
0.478180 0.334991 0.000000
0.504883 0.338776 0.000000
0.532776 0.341614 0.000000
0.560669 0.344025 0.000000
0.588409 0.348297 0.000000
0.613495 0.350220 0.000000
0.641449 0.351929 0.000000
0.672394 0.353333 0.000000
0.702972 0.354828 0.000000
0.731445 0.356537 0.000000
0.761475 0.357056 0.000000
0.793793 0.357269 0.000000
0.821411 0.357391 0.000000
0.853577 0.357513 0.000000
0.886841 0.357819 0.000000
0.912964 0.358185 0.000000
0.939362 0.358551 0.000000
0.061218 0.245483 0.000000
0.074097 0.246979 0.000000
0.087982 0.251373 0.000000
0.111023 0.254791 0.000000
0.140686 0.258118 0.000000
0.166443 0.263947 0.000000
0.196472 0.269592 0.000000
0.221466 0.273346 0.000000
0.246399 0.278168 0.000000
0.270905 0.282562 0.000000
0.296967 0.286560 0.000000
0.319489 0.290649 0.000000
0.347778 0.305481 0.000000
0.376221 0.318604 0.000000
0.405853 0.328461 0.000000
0.441193 0.340363 0.000000
0.472656 0.350037 0.000000
0.501862 0.357269 0.000000
0.531067 0.363251 0.000000
0.560669 0.366760 0.000000
0.589966 0.369934 0.000000
0.616486 0.373108 0.000000
0.647156 0.375885 0.000000
0.679291 0.378326 0.000000
0.710785 0.379974 0.000000
0.739288 0.381897 0.000000
0.771454 0.382996 0.000000
0.802795 0.383118 0.000000
0.834045 0.383240 0.000000
0.864746 0.383148 0.000000
0.899261 0.383179 0.000000
0.922760 0.383728 0.000000
0.949707 0.384369 0.002228
0.074890 0.264557 0.000000
0.085266 0.266693 0.000000
0.102570 0.270111 0.000000
0.127716 0.273865 0.000000
0.150757 0.277283 0.000000
0.179504 0.282684 0.000000
0.209595 0.288818 0.000000
0.234253 0.293549 0.000000
0.256439 0.297668 0.000000
0.280518 0.302429 0.000000
0.306732 0.306885 0.000000
0.330353 0.311188 0.000000
0.350037 0.314514 0.000000
0.375519 0.327057 0.000000
0.403687 0.338867 0.000000
0.430603 0.347626 0.000000
0.464691 0.362183 0.000000
0.495636 0.374054 0.000000
0.529694 0.383301 0.000000
0.560638 0.387665 0.000000
0.590637 0.391205 0.000000
0.618256 0.394623 0.000000
0.649811 0.397644 0.000000
0.682922 0.400696 0.000000
0.716614 0.404022 0.000000
0.747406 0.407104 0.000000
0.781006 0.408325 0.000000
0.813171 0.408936 0.000000
0.843933 0.409454 0.000580
0.877563 0.409393 0.003052
0.907745 0.409088 0.005646
0.932739 0.409241 0.007080
0.961487 0.410034 0.009766
0.086578 0.282410 0.000000
0.101776 0.285797 0.000000
0.119476 0.288788 0.000000
0.144226 0.292725 0.000000
0.166504 0.297089 0.000000
0.195251 0.302887 0.000000
0.222168 0.308716 0.000000
0.246429 0.313324 0.000000
0.267700 0.316864 0.000000
0.291962 0.320770 0.000000
0.316895 0.325226 0.000000
0.341064 0.329071 0.000000
0.360474 0.333527 0.000000
0.379333 0.338074 0.000000
0.405243 0.352203 0.000000
0.432343 0.365295 0.000000
0.456879 0.372894 0.000000
0.488892 0.385529 0.000000
0.521545 0.396240 0.000000
0.557312 0.405273 0.000000
0.589813 0.410645 0.000000
0.617950 0.414307 0.000000
0.650818 0.417664 0.000000
0.684357 0.421265 0.000000
0.717957 0.424988 0.000000
0.749481 0.428284 0.000000
0.786713 0.430878 0.002716
0.819641 0.432922 0.005280
0.853058 0.434937 0.009155
0.889954 0.434875 0.010559
0.915924 0.434296 0.013153
0.942230 0.434052 0.014465
0.973206 0.434814 0.016785
0.105072 0.301270 0.000000
0.122803 0.304596 0.000000
0.141998 0.307892 0.000000
0.160278 0.312531 0.000000
0.183868 0.317047 0.000000
0.210571 0.322021 0.000000
0.235321 0.325867 0.000000
0.257782 0.329681 0.000000
0.280548 0.335297 0.000000
0.304718 0.340302 0.000000
0.327942 0.345612 0.000000
0.351196 0.350647 0.000000
0.371948 0.355103 0.000000
0.391449 0.358856 0.000000
0.410065 0.361725 0.000000
0.434875 0.376312 0.000000
0.460358 0.389252 0.000000
0.484192 0.396423 0.000000
0.513519 0.406586 0.000000
0.548737 0.416779 0.000000
0.584229 0.426147 0.000000
0.616272 0.433716 0.000000
0.650848 0.438171 0.000000
0.685394 0.442169 0.000000
0.719116 0.445831 0.000000
0.751343 0.449432 0.000000
0.790405 0.452667 0.003998
0.821808 0.455963 0.007843
0.855560 0.458130 0.012909
0.895844 0.459595 0.015350
0.924011 0.460785 0.018616
0.951813 0.460846 0.019623
0.982819 0.461090 0.021362
0.132568 0.320343 0.000000
0.143616 0.322083 0.000000
0.157898 0.325378 0.000000
0.177887 0.329010 0.000000
0.198792 0.335907 0.000000
0.224213 0.341614 0.000000
0.248230 0.345795 0.000000
0.271881 0.349854 0.000000
0.295715 0.354553 0.000000
0.317810 0.359680 0.000000
0.341339 0.365753 0.000000
0.362518 0.371368 0.000000
0.383484 0.375854 0.000000
0.404053 0.380127 0.000000
0.422821 0.382965 0.000000
0.441010 0.386475 0.000000
0.464783 0.401184 0.000000
0.489502 0.413849 0.000000
0.514069 0.419861 0.000000
0.541046 0.426849 0.000000
0.576569 0.438507 0.000000
0.610077 0.448425 0.000000
0.647644 0.456787 0.000000
0.683746 0.461090 0.000000
0.718292 0.465363 0.000000
0.751099 0.470795 0.000000
0.790070 0.473755 0.004059
0.821228 0.476013 0.007904
0.855042 0.478302 0.011780
0.895660 0.480316 0.015411
0.925659 0.482819 0.019531
0.957123 0.484558 0.022156
0.988373 0.485657 0.023895
0.146484 0.339905 0.000000
0.156097 0.341705 0.000000
0.173157 0.345795 0.000000
0.192017 0.350525 0.000000
0.212494 0.355438 0.000000
0.238251 0.360474 0.000000
0.261902 0.365204 0.000000
0.285858 0.369751 0.000000
0.309967 0.374817 0.000000
0.333038 0.380157 0.000000
0.352844 0.385559 0.000000
0.373413 0.390808 0.000000
0.394897 0.395386 0.000000
0.416473 0.400146 0.000000
0.436127 0.403839 0.000000
0.454132 0.406525 0.000000
0.472687 0.411743 0.000000
0.494995 0.425720 0.000000
0.519714 0.437073 0.000000
0.541779 0.442291 0.000000
0.568329 0.448059 0.000000
0.601074 0.458496 0.000000
0.635559 0.468506 0.000000
0.676758 0.478027 0.000000
0.714874 0.485626 0.000000
0.747925 0.490417 0.000000
0.786682 0.494385 0.001770
0.820221 0.497589 0.006775
0.854858 0.500610 0.010651
0.896210 0.503021 0.015472
0.926758 0.506256 0.019592
0.960449 0.508942 0.023834
0.991058 0.510437 0.025604
0.156433 0.358582 0.000000
0.166595 0.360168 0.000000
0.183411 0.364380 0.000000
0.201782 0.370422 0.000000
0.226868 0.375183 0.000000
0.252533 0.380005 0.000000
0.277069 0.385040 0.000000
0.301208 0.389618 0.000000
0.321869 0.394440 0.000000
0.345032 0.399841 0.000000
0.364899 0.404602 0.000000
0.385620 0.409515 0.000000
0.406952 0.414581 0.000000
0.428467 0.419525 0.000000
0.449097 0.423615 0.000000
0.466919 0.427124 0.000000
0.485016 0.431122 0.000000
0.506531 0.437134 0.000000
0.526459 0.449646 0.000000
0.548187 0.461121 0.000000
0.571136 0.464874 0.000000
0.596771 0.470825 0.000000
0.624176 0.479706 0.000000
0.663940 0.491364 0.000000
0.705963 0.501892 0.000000
0.744812 0.511444 0.000000
0.783203 0.516083 0.000000
0.818787 0.519989 0.006836
0.854034 0.523682 0.013092
0.895813 0.526337 0.017609
0.926727 0.529755 0.022095
0.961243 0.533020 0.025543
0.992584 0.535034 0.028107
0.168060 0.377289 0.000000
0.177979 0.379700 0.000000
0.193085 0.383911 0.000000
0.215973 0.389435 0.000000
0.241943 0.395203 0.000000
0.266541 0.399536 0.000000
0.292908 0.403687 0.000000
0.315186 0.408508 0.000000
0.337769 0.413300 0.000000
0.357910 0.419312 0.000000
0.379303 0.423920 0.000000
0.399414 0.428558 0.000000
0.420441 0.433746 0.000000
0.439758 0.438934 0.000000
0.459351 0.445709 0.000000
0.478699 0.450226 0.000000
0.500244 0.454529 0.000000
0.518799 0.458038 0.000000
0.536499 0.463135 0.000000
0.556335 0.474274 0.000000
0.578583 0.485413 0.000000
0.599792 0.491913 0.000000
0.623474 0.497589 0.000000
0.653900 0.503754 0.000000
0.691956 0.513824 0.000000
0.731842 0.525024 0.000000
0.775635 0.534821 0.000000
0.815125 0.540009 0.005676
0.850311 0.543823 0.014313
0.892120 0.546661 0.018585
0.924011 0.549744 0.023773
0.957947 0.552795 0.026367
0.991638 0.555084 0.030609
0.179932 0.396088 0.000000
0.191833 0.399872 0.000000
0.208801 0.404022 0.000000
0.231628 0.408691 0.000000
0.257874 0.413513 0.000000
0.282257 0.417450 0.000000
0.307678 0.421570 0.000000
0.330811 0.426971 0.000000
0.351135 0.432495 0.000000
0.371765 0.438904 0.000000
0.393341 0.446716 0.000000
0.412964 0.451294 0.000000
0.431793 0.455994 0.000000
0.450165 0.460358 0.000000
0.470032 0.464935 0.000000
0.490326 0.469971 0.000000
0.513214 0.475159 0.000000
0.532135 0.479034 0.000000
0.549683 0.481445 0.000000
0.567505 0.487762 0.000000
0.587524 0.500580 0.000000
0.606934 0.511261 0.000000
0.626617 0.518005 0.000000
0.655518 0.522705 0.000000
0.686310 0.529236 0.000000
0.719391 0.535522 0.000000
0.759094 0.545685 0.000000
0.805786 0.555084 0.000854
0.845245 0.562256 0.012024
0.886841 0.566162 0.018585
0.920380 0.570068 0.023773
0.954712 0.573792 0.028046
0.990387 0.576721 0.033112
0.192383 0.414520 0.000000
0.205963 0.418121 0.000000
0.227356 0.421997 0.000000
0.250458 0.426239 0.000000
0.276062 0.430847 0.000000
0.299957 0.435425 0.000000
0.321899 0.443115 0.000000
0.345062 0.448914 0.000000
0.365692 0.454437 0.000000
0.385406 0.460205 0.000000
0.404663 0.465729 0.000000
0.423615 0.470673 0.000000
0.443054 0.475769 0.000000
0.462158 0.481354 0.000000
0.482330 0.487244 0.000000
0.505066 0.492188 0.000000
0.524078 0.497009 0.000000
0.544128 0.501648 0.000000
0.562866 0.504486 0.000000
0.580322 0.506683 0.000000
0.597290 0.514160 0.000000
0.614655 0.526245 0.000000
0.635681 0.535858 0.000000
0.658356 0.543121 0.000000
0.687256 0.546814 0.000000
0.718506 0.552826 0.000000
0.749420 0.558929 0.000000
0.787964 0.566162 0.000000
0.831421 0.576996 0.008362
0.880676 0.587097 0.017670
0.916962 0.592560 0.022949
0.951660 0.597260 0.028046
0.988831 0.601288 0.033905
0.206940 0.432770 0.000000
0.226074 0.435577 0.000000
0.247559 0.441406 0.000000
0.271088 0.447815 0.000000
0.295837 0.452850 0.000000
0.317596 0.457550 0.000000
0.340088 0.463196 0.000000
0.358948 0.468811 0.000000
0.376831 0.474487 0.000000
0.395844 0.480469 0.000000
0.415558 0.487061 0.000000
0.435394 0.492706 0.000000
0.454102 0.497864 0.000000
0.473389 0.503723 0.000000
0.493622 0.510742 0.000000
0.516571 0.515869 0.000000
0.535461 0.519623 0.000000
0.555145 0.523376 0.000000
0.574524 0.526703 0.000000
0.592438 0.529358 0.000000
0.607483 0.530975 0.000000
0.623047 0.537628 0.000000
0.643951 0.548035 0.000000
0.667633 0.557343 0.000000
0.689758 0.565857 0.000458
0.718292 0.571106 0.000549
0.747253 0.577484 0.000000
0.786438 0.584259 0.006927
0.819000 0.591736 0.011993
0.858765 0.600739 0.017639
0.908112 0.613220 0.022919
0.946075 0.621338 0.026367
0.984802 0.628418 0.032257
0.226746 0.454102 0.000000
0.245026 0.455994 0.000000
0.264038 0.460510 0.000000
0.291809 0.466095 0.000000
0.314178 0.472229 0.000000
0.333618 0.477844 0.000000
0.350647 0.483826 0.000000
0.369263 0.490356 0.000000
0.386505 0.496094 0.000000
0.405029 0.501862 0.000000
0.425323 0.509033 0.000000
0.445862 0.515350 0.000000
0.465607 0.520966 0.000000
0.484467 0.526001 0.000000
0.507446 0.531647 0.000000
0.526917 0.536560 0.000000
0.547455 0.540588 0.000000
0.567505 0.543945 0.000000
0.586884 0.547028 0.000000
0.604309 0.549591 0.005981
0.618835 0.551605 0.014618
0.634003 0.553192 0.018005
0.653442 0.561981 0.020966
0.675171 0.574249 0.022644
0.696167 0.583649 0.021851
0.719910 0.593964 0.022675
0.745117 0.598389 0.020172
0.782654 0.604309 0.021057
0.814240 0.613007 0.023621
0.848663 0.620239 0.025330
0.892303 0.627289 0.025360
0.931549 0.640076 0.028015
0.979065 0.651794 0.030609
0.246429 0.471436 0.000000
0.262024 0.475525 0.000000
0.283875 0.479980 0.000000
0.305206 0.486511 0.000000
0.323334 0.492462 0.000000
0.342529 0.500092 0.000000
0.360260 0.506134 0.000000
0.379242 0.512115 0.000000
0.396667 0.517700 0.000000
0.415497 0.523499 0.000000
0.435211 0.528992 0.000000
0.455933 0.534851 0.000000
0.476990 0.540833 0.000000
0.500366 0.546692 0.000000
0.519531 0.552551 0.000000
0.538025 0.558472 0.000000
0.557922 0.562683 0.000000
0.578766 0.567322 0.007172
0.597900 0.571228 0.021729
0.614594 0.573914 0.029297
0.630493 0.574860 0.033478
0.647644 0.575745 0.035156
0.665527 0.577454 0.039246
0.684479 0.587067 0.040894
0.704254 0.599426 0.039276
0.724396 0.611115 0.037659
0.752136 0.621948 0.036041
0.779663 0.629028 0.034424
0.810211 0.636383 0.035248
0.842773 0.644409 0.035278
0.883423 0.651794 0.035309
0.919403 0.659454 0.034576
0.957092 0.666260 0.033051
0.259277 0.489410 0.000000
0.277222 0.495026 0.000000
0.296570 0.500793 0.000000
0.316315 0.507721 0.000000
0.334686 0.513885 0.000000
0.352936 0.521362 0.000000
0.372925 0.528625 0.000000
0.391937 0.534393 0.000000
0.409454 0.539124 0.000000
0.427765 0.543549 0.000000
0.446655 0.547211 0.000000
0.466797 0.555969 0.000000
0.488129 0.563538 0.000000
0.512146 0.570312 0.000000
0.531494 0.575531 0.000000
0.550110 0.579468 0.008331
0.569183 0.583618 0.017883
0.588867 0.588165 0.026764
0.607513 0.592468 0.036774
0.624939 0.595276 0.043152
0.642365 0.596985 0.048187
0.659973 0.598145 0.050171
0.677429 0.599854 0.053314
0.693665 0.601624 0.056885
0.711212 0.612335 0.054504
0.733368 0.625427 0.052063
0.755707 0.636932 0.049500
0.783264 0.648010 0.048828
0.806976 0.658905 0.048828
0.838043 0.664459 0.047516
0.874939 0.671570 0.046844
0.911438 0.679077 0.046204
0.947968 0.688324 0.044861
0.274384 0.509460 0.000000
0.291351 0.515106 0.000000
0.309662 0.521271 0.000000
0.326141 0.527710 0.000000
0.345367 0.533905 0.000000
0.364380 0.540924 0.000000
0.383759 0.546692 0.000000
0.402863 0.554596 0.000000
0.421600 0.561493 0.000000
0.440765 0.567108 0.000000
0.459259 0.571472 0.000000
0.478180 0.577179 0.000000
0.502228 0.584442 0.002167
0.522583 0.591583 0.011963
0.542450 0.597168 0.020844
0.561584 0.601776 0.026764
0.579926 0.605743 0.032623
0.597473 0.609619 0.039215
0.614563 0.613068 0.046783
0.633667 0.616272 0.055115
0.653046 0.618744 0.059143
