Kodak Vision2 50D (5201) - Only contrast.cube
# Created by Benjamin (IWLTBAP) : http://luts.iwltbap.com
# Copyright: (C) Copyright 2010-2017 Triune Films and IWLTBAP SAS
# Cannot be resold, shared or otherwise redistributed
TITLE "Film Print Emulation LUTs Pack (Rec.709, sRGB, DCI-P3)"
LUT_3D_SIZE 33
0.003876 0.003876 0.003876
0.022614 0.003876 0.003876
0.039246 0.003906 0.003906
0.065277 0.003845 0.003845
0.094269 0.003784 0.003784
0.125732 0.003693 0.003693
0.157928 0.003601 0.003601
0.192413 0.003479 0.003479
0.229218 0.003357 0.003357
0.264648 0.003265 0.003265
0.301147 0.003143 0.003143
0.336517 0.003021 0.003021
0.369110 0.002930 0.002930
0.400269 0.002838 0.002838
0.430115 0.002777 0.002777
0.458954 0.002686 0.002686
0.486542 0.002625 0.002625
0.511444 0.002594 0.002594
0.533417 0.002563 0.002563
0.554230 0.002563 0.002563
0.575867 0.002533 0.002533
0.597076 0.002533 0.002533
0.617310 0.002533 0.002533
0.638397 0.002502 0.002502
0.659363 0.002502 0.002502
0.677734 0.002502 0.002502
0.695984 0.002502 0.002502
0.715729 0.002502 0.002502
0.735352 0.002502 0.002502
0.756409 0.002472 0.002472
0.777740 0.002472 0.002472
0.799011 0.002441 0.002441
0.829865 0.002380 0.002380
0.003876 0.022614 0.003876
0.022583 0.022583 0.003876
0.039246 0.022583 0.003906
0.065338 0.022522 0.003845
0.094360 0.022430 0.003784
0.125824 0.022308 0.003693
0.158020 0.022217 0.003601
0.192535 0.022095 0.003479
0.229340 0.021942 0.003357
0.264771 0.021820 0.003265
0.301270 0.021667 0.003143
0.336639 0.021545 0.003021
0.369202 0.021423 0.002930
0.400330 0.021332 0.002838
0.430206 0.021240 0.002777
0.459045 0.021149 0.002686
0.486603 0.021057 0.002625
0.511475 0.020996 0.002594
0.533447 0.020966 0.002563
0.554260 0.020935 0.002563
0.575897 0.020905 0.002533
0.597107 0.020844 0.002533
0.617340 0.020844 0.002533
0.638428 0.020782 0.002502
0.659363 0.020752 0.002502
0.677734 0.020752 0.002502
0.695984 0.020752 0.002502
0.715729 0.020721 0.002502
0.735352 0.020691 0.002502
0.756439 0.020660 0.002472
0.777771 0.020630 0.002472
0.799042 0.020599 0.002441
0.830048 0.020477 0.002380
0.003906 0.039246 0.003906
0.022583 0.039246 0.003906
0.039246 0.039246 0.003906
0.065399 0.039185 0.003876
0.094452 0.039124 0.003784
0.125916 0.039062 0.003693
0.158142 0.039001 0.003601
0.192657 0.038940 0.003510
0.229462 0.038879 0.003387
0.264893 0.038788 0.003265
0.301392 0.038727 0.003143
0.336761 0.038666 0.003021
0.369293 0.038605 0.002930
0.400421 0.038574 0.002838
0.430298 0.038544 0.002777
0.459106 0.038513 0.002716
0.486664 0.038513 0.002655
0.511505 0.038513 0.002594
0.533478 0.038544 0.002594
0.554260 0.038574 0.002563
0.575928 0.038574 0.002563
0.597107 0.038605 0.002533
0.617340 0.038666 0.002533
0.638458 0.038696 0.002502
0.659393 0.038727 0.002502
0.677734 0.038757 0.002502
0.696014 0.038818 0.002502
0.715759 0.038849 0.002502
0.735352 0.038910 0.002502
0.756470 0.038940 0.002502
0.777771 0.038971 0.002472
0.799072 0.039001 0.002472
0.830200 0.038971 0.002380
0.003845 0.065277 0.003845
0.022522 0.065338 0.003845
0.039185 0.065399 0.003876
0.065399 0.065399 0.003815
0.094513 0.065399 0.003754
0.125946 0.065369 0.003662
0.158173 0.065308 0.003571
0.192719 0.065277 0.003448
0.229523 0.065216 0.003326
0.264984 0.065155 0.003204
0.301483 0.065094 0.003082
0.336823 0.065033 0.002991
0.369324 0.065002 0.002899
0.400482 0.064972 0.002808
0.430298 0.064972 0.002716
0.459137 0.064972 0.002655
0.486664 0.064972 0.002594
0.511505 0.065002 0.002563
0.533447 0.065033 0.002533
0.554230 0.065063 0.002533
0.575897 0.065125 0.002502
0.597076 0.065155 0.002502
0.617279 0.065216 0.002472
0.638428 0.065277 0.002472
0.659332 0.065308 0.002441
0.677673 0.065399 0.002472
0.695953 0.065460 0.002472
0.715698 0.065521 0.002441
0.735321 0.065582 0.002441
0.756439 0.065613 0.002441
0.777740 0.065674 0.002411
0.799042 0.065704 0.002411
0.830322 0.065704 0.002319
0.003784 0.094269 0.003784
0.022430 0.094360 0.003784
0.039124 0.094452 0.003784
0.065399 0.094513 0.003754
0.094513 0.094513 0.003662
0.125977 0.094513 0.003571
0.158203 0.094513 0.003479
0.192780 0.094482 0.003387
0.229584 0.094452 0.003265
0.265015 0.094421 0.003143
0.301514 0.094391 0.003021
0.336853 0.094360 0.002899
0.369354 0.094360 0.002808
0.400482 0.094360 0.002716
0.430298 0.094360 0.002655
0.459106 0.094391 0.002594
0.486633 0.094421 0.002533
0.511444 0.094452 0.002472
0.533386 0.094513 0.002472
0.554169 0.094604 0.002441
0.575836 0.094666 0.002441
0.597015 0.094727 0.002411
0.617218 0.094818 0.002411
0.638367 0.094879 0.002380
0.659271 0.094971 0.002380
0.677582 0.095062 0.002380
0.695862 0.095154 0.002380
0.715637 0.095215 0.002380
0.735229 0.095306 0.002380
0.756378 0.095398 0.002350
0.777679 0.095459 0.002350
0.798981 0.095520 0.002319
0.830383 0.095520 0.002258
0.003693 0.125732 0.003693
0.022308 0.125824 0.003693
0.039062 0.125916 0.003693
0.065369 0.125946 0.003662
0.094513 0.125977 0.003571
0.125977 0.125977 0.003479
0.158203 0.125977 0.003387
0.192810 0.125946 0.003296
0.229614 0.125916 0.003174
0.265045 0.125885 0.003052
0.301544 0.125854 0.002930
0.336884 0.125824 0.002808
0.369354 0.125824 0.002716
0.400482 0.125824 0.002655
0.430298 0.125824 0.002563
0.459106 0.125854 0.002502
0.486603 0.125885 0.002441
0.511383 0.125916 0.002411
0.533325 0.126007 0.002380
0.554108 0.126068 0.002350
0.575775 0.126129 0.002350
0.596954 0.126221 0.002319
0.617157 0.126282 0.002319
0.638306 0.126373 0.002319
0.659210 0.126434 0.002289
0.677490 0.126526 0.002289
0.695801 0.126617 0.002289
0.715576 0.126709 0.002289
0.735168 0.126801 0.002289
0.756317 0.126862 0.002289
0.777588 0.126953 0.002258
0.798920 0.127014 0.002258
0.830475 0.127014 0.002167
0.003601 0.157928 0.003601
0.022217 0.158020 0.003601
0.039001 0.158142 0.003601
0.065308 0.158173 0.003571
0.094513 0.158203 0.003479
0.125977 0.158203 0.003387
0.158203 0.158203 0.003296
0.192841 0.158173 0.003204
0.229645 0.158142 0.003082
0.265076 0.158112 0.002960
0.301575 0.158081 0.002838
0.336914 0.158051 0.002716
0.369324 0.158051 0.002625
0.400482 0.158051 0.002563
0.430267 0.158081 0.002472
0.459076 0.158112 0.002411
0.486572 0.158142 0.002350
0.511322 0.158203 0.002319
0.533264 0.158264 0.002289
0.554016 0.158356 0.002258
0.575714 0.158447 0.002258
0.596863 0.158508 0.002228
0.617065 0.158600 0.002228
0.638245 0.158691 0.002228
0.659119 0.158783 0.002197
0.677399 0.158875 0.002197
0.695709 0.158966 0.002197
0.715485 0.159088 0.002197
0.735077 0.159180 0.002197
0.756226 0.159241 0.002197
0.777527 0.159332 0.002167
0.798828 0.159424 0.002167
0.830536 0.159424 0.002075
0.003479 0.192413 0.003479
0.022095 0.192535 0.003479
0.038940 0.192657 0.003510
0.065277 0.192719 0.003448
0.094482 0.192780 0.003387
0.125946 0.192810 0.003296
0.158173 0.192841 0.003204
0.192841 0.192841 0.003082
0.229675 0.192841 0.002960
0.265076 0.192871 0.002838
0.301605 0.192871 0.002716
0.336914 0.192871 0.002625
0.369324 0.192902 0.002533
0.400452 0.192932 0.002441
0.430237 0.192993 0.002350
0.459045 0.193024 0.002289
0.486511 0.193115 0.002228
0.511261 0.193176 0.002197
0.533173 0.193298 0.002167
0.553925 0.193390 0.002167
0.575623 0.193512 0.002136
0.596771 0.193604 0.002136
0.616943 0.193726 0.002106
0.638153 0.193817 0.002106
0.659027 0.193939 0.002075
0.677277 0.194061 0.002106
0.695587 0.194183 0.002106
0.715363 0.194305 0.002106
0.734955 0.194427 0.002075
0.756134 0.194550 0.002075
0.777435 0.194641 0.002045
0.798737 0.194763 0.002045
0.830597 0.194794 0.001953
0.003357 0.229218 0.003357
0.021942 0.229340 0.003357
0.038879 0.229462 0.003387
0.065216 0.229523 0.003326
0.094452 0.229584 0.003265
0.125916 0.229614 0.003174
0.158142 0.229645 0.003082
0.192841 0.229675 0.002960
0.229645 0.229645 0.002838
0.265076 0.229675 0.002716
0.301605 0.229675 0.002594
0.336884 0.229675 0.002502
0.369263 0.229706 0.002411
0.400421 0.229706 0.002319
0.430176 0.229767 0.002228
0.458984 0.229797 0.002167
0.486450 0.229858 0.002106
0.511169 0.229919 0.002075
0.533051 0.230011 0.002045
0.553802 0.230133 0.002045
0.575500 0.230225 0.002014
0.596680 0.230316 0.002014
0.616852 0.230408 0.001984
0.638031 0.230530 0.001984
0.658905 0.230621 0.001984
0.677124 0.230743 0.001984
0.695465 0.230865 0.001984
0.715271 0.230957 0.001984
0.734833 0.231079 0.001953
0.756042 0.231171 0.001953
0.777313 0.231262 0.001923
0.798645 0.231384 0.001923
0.830627 0.231384 0.001831
0.003265 0.264648 0.003265
0.021820 0.264771 0.003265
0.038788 0.264893 0.003265
0.065155 0.264984 0.003204
0.094421 0.265015 0.003143
0.125885 0.265045 0.003052
0.158112 0.265076 0.002960
0.192871 0.265076 0.002838
0.229675 0.265076 0.002716
0.265076 0.265076 0.002625
0.301605 0.265076 0.002502
0.336884 0.265106 0.002380
0.369263 0.265106 0.002289
0.400391 0.265167 0.002197
0.430145 0.265198 0.002136
0.458923 0.265259 0.002045
0.486389 0.265320 0.001984
0.511078 0.265381 0.001953
0.532959 0.265503 0.001953
0.553711 0.265594 0.001923
0.575409 0.265717 0.001892
0.596558 0.265808 0.001892
0.616730 0.265930 0.001892
0.637939 0.266022 0.001862
0.658783 0.266144 0.001862
0.677002 0.266266 0.001862
0.695343 0.266388 0.001862
0.715149 0.266510 0.001862
0.734711 0.266602 0.001862
0.755951 0.266724 0.001831
0.777222 0.266815 0.001831
0.798553 0.266937 0.001801
0.830688 0.266968 0.001709
0.003143 0.301147 0.003143
0.021667 0.301270 0.003143
0.038727 0.301392 0.003143
0.065094 0.301483 0.003082
0.094391 0.301514 0.003021
0.125854 0.301544 0.002930
0.158081 0.301575 0.002838
0.192871 0.301605 0.002716
0.229675 0.301605 0.002594
0.265076 0.301605 0.002502
0.301605 0.301605 0.002380
0.336884 0.301605 0.002258
0.369202 0.301636 0.002167
0.400330 0.301666 0.002075
0.430084 0.301727 0.002014
0.458893 0.301758 0.001923
0.486328 0.301819 0.001892
0.510986 0.301910 0.001831
0.532867 0.302002 0.001831
0.553589 0.302094 0.001801
0.575317 0.302185 0.001801
0.596466 0.302307 0.001770
0.616608 0.302399 0.001770
0.637848 0.302490 0.001740
0.658691 0.302612 0.001740
0.676880 0.302734 0.001740
0.695221 0.302856 0.001740
0.715027 0.302948 0.001740
0.734589 0.303070 0.001740
0.755859 0.303162 0.001709
0.777100 0.303253 0.001709
0.798431 0.303375 0.001678
0.830719 0.303375 0.001587
0.003021 0.336517 0.003021
0.021545 0.336639 0.003021
0.038666 0.336761 0.003021
0.065033 0.336823 0.002991
0.094360 0.336853 0.002899
0.125824 0.336884 0.002808
0.158051 0.336914 0.002716
0.192871 0.336914 0.002625
0.229675 0.336884 0.002502
0.265106 0.336884 0.002380
0.301605 0.336884 0.002258
0.336884 0.336884 0.002136
0.369202 0.336914 0.002045
0.400299 0.336914 0.001953
0.430054 0.336975 0.001892
0.458832 0.337006 0.001831
0.486267 0.337067 0.001770
0.510925 0.337128 0.001740
0.532776 0.337219 0.001709
0.553497 0.337311 0.001709
0.575226 0.337402 0.001678
0.596375 0.337494 0.001648
0.616516 0.337555 0.001648
0.637756 0.337646 0.001648
0.658569 0.337738 0.001617
0.676758 0.337830 0.001617
0.695099 0.337921 0.001648
0.714935 0.338013 0.001617
0.734497 0.338104 0.001617
0.755768 0.338196 0.001617
0.777008 0.338287 0.001587
0.798340 0.338348 0.001587
0.830780 0.338348 0.001495
0.002930 0.369110 0.002930
0.021423 0.369202 0.002930
0.038605 0.369293 0.002930
0.065002 0.369324 0.002899
0.094360 0.369354 0.002808
0.125824 0.369354 0.002716
0.158051 0.369324 0.002625
0.192902 0.369324 0.002533
0.229706 0.369263 0.002411
0.265106 0.369263 0.002289
0.301636 0.369202 0.002167
0.336914 0.369202 0.002045
0.369171 0.369171 0.001953
0.400299 0.369171 0.001862
0.430023 0.369202 0.001801
0.458801 0.369202 0.001740
0.486237 0.369232 0.001678
0.510864 0.369293 0.001648
0.532684 0.369354 0.001617
0.553436 0.369415 0.001617
0.575134 0.369507 0.001587
0.596283 0.369568 0.001556
0.616425 0.369629 0.001556
0.637665 0.369720 0.001556
0.658508 0.369781 0.001526
0.676666 0.369873 0.001526
0.695038 0.369965 0.001556
0.714844 0.370056 0.001526
0.734406 0.370117 0.001526
0.755707 0.370178 0.001526
0.776917 0.370270 0.001495
0.798279 0.370331 0.001495
0.830841 0.370331 0.001404
0.002838 0.400269 0.002838
0.021332 0.400330 0.002838
0.038574 0.400421 0.002838
0.064972 0.400482 0.002808
0.094360 0.400482 0.002716
0.125824 0.400482 0.002655
0.158051 0.400482 0.002563
0.192932 0.400452 0.002441
0.229706 0.400421 0.002319
0.265167 0.400391 0.002197
0.301666 0.400330 0.002075
0.336914 0.400299 0.001953
0.369171 0.400299 0.001862
0.400299 0.400299 0.001801
0.430023 0.400299 0.001709
0.458801 0.400330 0.001648
0.486206 0.400360 0.001587
0.510803 0.400391 0.001556
0.532623 0.400452 0.001526
0.553345 0.400543 0.001526
0.575073 0.400604 0.001495
0.596222 0.400665 0.001495
0.616364 0.400726 0.001465
0.637604 0.400787 0.001465
0.658417 0.400848 0.001465
0.676575 0.400940 0.001465
0.694946 0.401001 0.001465
0.714783 0.401093 0.001465
0.734314 0.401154 0.001465
0.755646 0.401215 0.001434
0.776855 0.401276 0.001434
0.798218 0.401337 0.001404
0.830933 0.401306 0.001312
0.002777 0.430115 0.002777
0.021240 0.430206 0.002777
0.038544 0.430298 0.002777
0.064972 0.430298 0.002716
0.094360 0.430298 0.002655
0.125824 0.430298 0.002563
0.158081 0.430267 0.002472
0.192993 0.430237 0.002350
0.229767 0.430176 0.002228
0.265198 0.430145 0.002136
0.301727 0.430084 0.002014
0.336975 0.430054 0.001892
0.369202 0.430023 0.001801
0.400299 0.430023 0.001709
0.430023 0.430023 0.001648
0.458801 0.430023 0.001587
0.486176 0.430023 0.001526
0.510742 0.430084 0.001465
0.532562 0.430115 0.001465
0.553314 0.430176 0.001434
0.575012 0.430237 0.001434
0.596161 0.430298 0.001404
0.616272 0.430359 0.001404
0.637543 0.430420 0.001404
0.658356 0.430481 0.001373
0.676483 0.430542 0.001373
0.694855 0.430603 0.001404
0.714722 0.430695 0.001373
0.734253 0.430756 0.001373
0.755585 0.430786 0.001373
0.776794 0.430847 0.001343
0.798157 0.430908 0.001343
0.831024 0.430878 0.001251
0.002686 0.458954 0.002686
0.021149 0.459045 0.002686
0.038513 0.459106 0.002716
0.064972 0.459137 0.002655
0.094391 0.459106 0.002594
0.125854 0.459106 0.002502
0.158112 0.459076 0.002411
0.193024 0.459045 0.002289
0.229797 0.458984 0.002167
0.265259 0.458923 0.002045
0.301758 0.458893 0.001923
0.337006 0.458832 0.001831
0.369202 0.458801 0.001740
0.400330 0.458801 0.001648
0.430023 0.458801 0.001587
0.458801 0.458801 0.001495
0.486176 0.458801 0.001465
0.510712 0.458832 0.001404
0.532532 0.458862 0.001404
0.553253 0.458923 0.001373
0.574982 0.458984 0.001373
0.596100 0.459015 0.001343
0.616211 0.459076 0.001343
0.637512 0.459137 0.001312
0.658295 0.459198 0.001312
0.676422 0.459259 0.001312
0.694794 0.459320 0.001312
0.714661 0.459381 0.001312
0.734192 0.459442 0.001312
0.755524 0.459503 0.001312
0.776733 0.459534 0.001282
0.798096 0.459595 0.001251
0.831116 0.459564 0.001160
0.002625 0.486542 0.002625
0.021057 0.486603 0.002625
0.038513 0.486664 0.002655
0.064972 0.486664 0.002594
0.094421 0.486633 0.002533
0.125885 0.486603 0.002441
0.158142 0.486572 0.002350
0.193115 0.486511 0.002228
0.229858 0.486450 0.002106
0.265320 0.486389 0.001984
0.301819 0.486328 0.001892
0.337067 0.486267 0.001770
0.369232 0.486237 0.001678
0.400360 0.486206 0.001587
0.430023 0.486176 0.001526
0.458801 0.486176 0.001465
0.486176 0.486176 0.001404
0.510681 0.486176 0.001343
0.532471 0.486206 0.001343
0.553192 0.486267 0.001312
0.574921 0.486298 0.001312
0.596069 0.486328 0.001282
0.616180 0.486389 0.001282
0.637451 0.486420 0.001282
0.658264 0.486450 0.001251
0.676361 0.486511 0.001251
0.694733 0.486572 0.001251
0.714600 0.486603 0.001251
0.734131 0.486664 0.001251
0.755493 0.486694 0.001251
0.776703 0.486725 0.001221
0.798065 0.486755 0.001221
0.831207 0.486694 0.001099
0.002594 0.511444 0.002594
0.020996 0.511475 0.002594
0.038513 0.511505 0.002594
0.065002 0.511505 0.002563
0.094452 0.511444 0.002472
0.125916 0.511383 0.002411
0.158203 0.511322 0.002319
0.193176 0.511261 0.002197
0.229919 0.511169 0.002075
0.265381 0.511078 0.001953
0.301910 0.510986 0.001831
0.337128 0.510925 0.001740
0.369293 0.510864 0.001648
0.400391 0.510803 0.001556
0.430084 0.510742 0.001465
0.458832 0.510712 0.001404
0.486176 0.510681 0.001343
0.510681 0.510681 0.001312
0.532471 0.510712 0.001312
0.553192 0.510712 0.001282
0.574921 0.510742 0.001282
0.596039 0.510742 0.001251
0.616150 0.510773 0.001251
0.637451 0.510773 0.001221
0.658234 0.510803 0.001221
0.676300 0.510834 0.001221
0.694702 0.510864 0.001221
0.714569 0.510895 0.001221
0.734100 0.510925 0.001221
0.755493 0.510925 0.001221
0.776672 0.510925 0.001190
0.798035 0.510956 0.001160
0.831360 0.510864 0.001068
0.002563 0.533417 0.002563
0.020966 0.533447 0.002563
0.038544 0.533478 0.002594
0.065033 0.533447 0.002533
0.094513 0.533386 0.002472
0.126007 0.533325 0.002380
0.158264 0.533264 0.002289
0.193298 0.533173 0.002167
0.230011 0.533051 0.002045
0.265503 0.532959 0.001953
0.302002 0.532867 0.001831
0.337219 0.532776 0.001709
0.369354 0.532684 0.001617
0.400452 0.532623 0.001526
0.430115 0.532562 0.001465
0.458862 0.532532 0.001404
0.486206 0.532471 0.001343
0.510712 0.532471 0.001312
0.532471 0.532471 0.001282
0.553192 0.532471 0.001282
0.574921 0.532471 0.001251
0.596039 0.532471 0.001221
0.616119 0.532471 0.001221
0.637451 0.532471 0.001221
0.658203 0.532471 0.001190
0.676270 0.532501 0.001221
0.694702 0.532532 0.001221
0.714569 0.532532 0.001221
0.734070 0.532562 0.001190
0.755493 0.532562 0.001190
0.776672 0.532562 0.001160
0.798035 0.532562 0.001160
0.831482 0.532471 0.001068
0.002563 0.554230 0.002563
0.020935 0.554260 0.002563
0.038574 0.554260 0.002563
0.065063 0.554230 0.002533
0.094604 0.554169 0.002441
0.126068 0.554108 0.002350
0.158356 0.554016 0.002258
0.193390 0.553925 0.002167
0.230133 0.553802 0.002045
0.265594 0.553711 0.001923
0.302094 0.553589 0.001801
0.337311 0.553497 0.001709
0.369415 0.553436 0.001617
0.400543 0.553345 0.001526
0.430176 0.553314 0.001434
0.458923 0.553253 0.001373
0.486267 0.553192 0.001312
0.510712 0.553192 0.001282
0.532471 0.553192 0.001282
0.553192 0.553192 0.001251
0.574921 0.553192 0.001251
0.596039 0.553192 0.001221
0.616119 0.553192 0.001221
0.637451 0.553192 0.001190
0.658203 0.553192 0.001190
0.676270 0.553223 0.001190
0.694672 0.553253 0.001190
0.714569 0.553253 0.001190
0.734070 0.553253 0.001190
0.755493 0.553253 0.001190
0.776672 0.553284 0.001160
0.798065 0.553284 0.001160
0.831635 0.553192 0.001038
0.002533 0.575867 0.002533
0.020905 0.575897 0.002533
0.038574 0.575928 0.002563
0.065125 0.575897 0.002502
0.094666 0.575836 0.002441
0.126129 0.575775 0.002350
0.158447 0.575714 0.002258
0.193512 0.575623 0.002136
0.230225 0.575500 0.002014
0.265717 0.575409 0.001892
0.302185 0.575317 0.001801
0.337402 0.575226 0.001678
0.369507 0.575134 0.001587
0.400604 0.575073 0.001495
0.430237 0.575012 0.001434
0.458984 0.574982 0.001373
0.486298 0.574921 0.001312
0.510742 0.574921 0.001282
0.532471 0.574921 0.001251
0.553192 0.574921 0.001251
0.574921 0.574921 0.001221
0.596039 0.574921 0.001221
0.616119 0.574921 0.001190
0.637451 0.574921 0.001190
0.658203 0.574921 0.001160
0.676239 0.574951 0.001190
0.694672 0.574982 0.001190
0.714539 0.574982 0.001190
0.734070 0.575012 0.001160
0.755493 0.575012 0.001160
0.776672 0.575012 0.001129
0.798035 0.575012 0.001129
0.831787 0.574921 0.001038
0.002533 0.597076 0.002533
0.020844 0.597107 0.002533
0.038605 0.597107 0.002533
0.065155 0.597076 0.002502
0.094727 0.597015 0.002411
0.126221 0.596954 0.002319
0.158508 0.596863 0.002228
0.193604 0.596771 0.002136
0.230316 0.596680 0.002014
0.265808 0.596558 0.001892
0.302307 0.596466 0.001770
0.337494 0.596375 0.001648
0.369568 0.596283 0.001556
0.400665 0.596222 0.001495
0.430298 0.596161 0.001404
0.459015 0.596100 0.001343
0.486328 0.596069 0.001282
0.510742 0.596039 0.001251
0.532471 0.596039 0.001221
0.553192 0.596039 0.001221
0.574921 0.596039 0.001221
0.596039 0.596039 0.001190
0.616089 0.596039 0.001190
0.637451 0.596039 0.001160
0.658203 0.596039 0.001160
0.676208 0.596069 0.001160
0.694641 0.596100 0.001160
0.714539 0.596100 0.001160
0.734039 0.596100 0.001160
0.755493 0.596100 0.001129
0.776672 0.596100 0.001129
0.798065 0.596100 0.001099
0.831940 0.596008 0.001007
0.002533 0.617310 0.002533
0.020844 0.617340 0.002533
0.038666 0.617340 0.002533
0.065216 0.617279 0.002472
0.094818 0.617218 0.002411
0.126282 0.617157 0.002319
0.158600 0.617065 0.002228
0.193726 0.616943 0.002106
0.230408 0.616852 0.001984
0.265930 0.616730 0.001892
0.302399 0.616608 0.001770
0.337555 0.616516 0.001648
0.369629 0.616425 0.001556
0.400726 0.616364 0.001465
0.430359 0.616272 0.001404
0.459076 0.616211 0.001343
0.486389 0.616180 0.001282
0.510773 0.616150 0.001251
0.532471 0.616119 0.001221
0.553192 0.616119 0.001221
0.574921 0.616119 0.001190
0.596039 0.616089 0.001190
0.616089 0.616089 0.001190
0.637451 0.616089 0.001160
0.658203 0.616089 0.001160
0.676208 0.616089 0.001160
0.694641 0.616119 0.001160
0.714539 0.616119 0.001160
0.734039 0.616119 0.001160
0.755524 0.616089 0.001129
0.776672 0.616089 0.001129
0.798065 0.616089 0.001099
0.832092 0.615997 0.001007
0.002502 0.638397 0.002502
0.020782 0.638428 0.002502
0.038696 0.638458 0.002502
0.065277 0.638428 0.002472
0.094879 0.638367 0.002380
0.126373 0.638306 0.002319
0.158691 0.638245 0.002228
0.193817 0.638153 0.002106
0.230530 0.638031 0.001984
0.266022 0.637939 0.001862
0.302490 0.637848 0.001740
0.337646 0.637756 0.001648
0.369720 0.637665 0.001556
0.400787 0.637604 0.001465
0.430420 0.637543 0.001404
0.459137 0.637512 0.001312
0.486420 0.637451 0.001282
0.510773 0.637451 0.001221
0.532471 0.637451 0.001221
0.553192 0.637451 0.001190
0.574921 0.637451 0.001190
0.596039 0.637451 0.001160
0.616089 0.637451 0.001160
0.637451 0.637451 0.001160
0.658173 0.637451 0.001129
0.676178 0.637482 0.001129
0.694611 0.637512 0.001160
0.714539 0.637512 0.001129
0.734039 0.637512 0.001129
0.755524 0.637512 0.001129
0.776672 0.637512 0.001099
0.798065 0.637512 0.001099
0.832214 0.637421 0.000977
0.002502 0.659363 0.002502
0.020752 0.659363 0.002502
0.038727 0.659393 0.002502
0.065308 0.659332 0.002441
0.094971 0.659271 0.002380
0.126434 0.659210 0.002289
0.158783 0.659119 0.002197
0.193939 0.659027 0.002075
0.230621 0.658905 0.001984
0.266144 0.658783 0.001862
0.302612 0.658691 0.001740
0.337738 0.658569 0.001617
0.369781 0.658508 0.001526
0.400848 0.658417 0.001465
0.430481 0.658356 0.001373
0.459198 0.658295 0.001312
0.486450 0.658264 0.001251
0.510803 0.658234 0.001221
0.532471 0.658203 0.001190
0.553192 0.658203 0.001190
0.574921 0.658203 0.001160
0.596039 0.658203 0.001160
0.616089 0.658203 0.001160
0.637451 0.658173 0.001129
0.658173 0.658173 0.001129
0.676147 0.658203 0.001129
0.694611 0.658203 0.001129
0.714508 0.658203 0.001129
0.734009 0.658203 0.001129
0.755524 0.658203 0.001099
0.776672 0.658203 0.001099
0.798065 0.658173 0.001068
0.832367 0.658081 0.000977
0.002502 0.677734 0.002502
0.020752 0.677734 0.002502
0.038757 0.677734 0.002502
0.065399 0.677673 0.002472
0.095062 0.677582 0.002380
0.126526 0.677490 0.002289
0.158875 0.677399 0.002197
0.194061 0.677277 0.002106
0.230743 0.677124 0.001984
0.266266 0.677002 0.001862
0.302734 0.676880 0.001740
0.337830 0.676758 0.001617
0.369873 0.676666 0.001526
0.400940 0.676575 0.001465
0.430542 0.676483 0.001373
0.459259 0.676422 0.001312
0.486511 0.676361 0.001251
0.510834 0.676300 0.001221
0.532501 0.676270 0.001221
0.553223 0.676270 0.001190
0.574951 0.676239 0.001190
0.596069 0.676208 0.001160
0.616089 0.676208 0.001160
0.637482 0.676178 0.001129
0.658203 0.676147 0.001129
0.676147 0.676147 0.001129
0.694611 0.676147 0.001129
0.714539 0.676147 0.001129
0.734039 0.676117 0.001129
0.755554 0.676086 0.001129
0.776703 0.676086 0.001099
0.798096 0.676056 0.001099
0.832550 0.675934 0.000977
0.002502 0.695984 0.002502
0.020752 0.695984 0.002502
0.038818 0.696014 0.002502
0.065460 0.695953 0.002472
0.095154 0.695862 0.002380
0.126617 0.695801 0.002289
0.158966 0.695709 0.002197
0.194183 0.695587 0.002106
0.230865 0.695465 0.001984
0.266388 0.695343 0.001862
0.302856 0.695221 0.001740
0.337921 0.695099 0.001648
0.369965 0.695038 0.001556
0.401001 0.694946 0.001465
0.430603 0.694855 0.001404
0.459320 0.694794 0.001312
0.486572 0.694733 0.001251
0.510864 0.694702 0.001221
0.532532 0.694702 0.001221
0.553253 0.694672 0.001190
0.574982 0.694672 0.001190
