Kodak Vision2 500T (5218) - Look.cube
# Created by Benjamin (IWLTBAP) : http://luts.iwltbap.com
# Copyright: (C) Copyright 2010-2017 Triune Films and IWLTBAP SAS
# Cannot be resold, shared or otherwise redistributed
TITLE "Film Print Emulation LUTs Pack (Rec.709, sRGB, DCI-P3)"
LUT_3D_SIZE 33
0.002380 0.001587 0.001587
0.020508 0.003143 0.000793
0.039429 0.005524 0.000793
0.058044 0.007080 0.000000
0.076660 0.008667 0.000793
0.095490 0.010254 0.000793
0.113953 0.011810 0.000793
0.132385 0.012604 0.001556
0.150452 0.013397 0.002350
0.168182 0.013428 0.003143
0.185638 0.014191 0.003937
0.203033 0.014984 0.005524
0.220154 0.015778 0.006287
0.237335 0.017334 0.007080
0.254425 0.018158 0.007874
0.271820 0.018921 0.008667
0.289185 0.019714 0.009460
0.306335 0.019714 0.009460
0.323547 0.020508 0.009460
0.340820 0.020508 0.009460
0.357971 0.021301 0.009460
0.375031 0.021301 0.009460
0.392242 0.022095 0.009460
0.409454 0.022095 0.009460
0.426605 0.022888 0.009460
0.443726 0.023651 0.009460
0.460693 0.024445 0.009460
0.477417 0.025238 0.009460
0.493561 0.026031 0.009460
0.509277 0.026031 0.009460
0.524445 0.026825 0.009460
0.539093 0.027618 0.009460
0.553467 0.027618 0.009460
0.000793 0.019714 0.014191
0.018127 0.021271 0.011810
0.035492 0.022858 0.009460
0.053650 0.025238 0.007080
0.072601 0.026794 0.005524
0.092590 0.028381 0.004730
0.112549 0.029968 0.003937
0.132690 0.031525 0.003143
0.152557 0.032318 0.003937
0.171936 0.033112 0.003937
0.190857 0.033905 0.004730
0.209473 0.034698 0.006287
0.227753 0.035492 0.007080
0.245911 0.036255 0.007874
0.263794 0.037048 0.008667
0.281860 0.037048 0.008667
0.299622 0.037048 0.008667
0.317505 0.037048 0.009460
0.335236 0.037048 0.009460
0.352814 0.036255 0.009460
0.370453 0.036255 0.009460
0.388031 0.035492 0.009460
0.405701 0.035492 0.009460
0.423370 0.034698 0.009460
0.440918 0.034698 0.009460
0.458405 0.034698 0.008667
0.475708 0.035492 0.008667
0.492615 0.035492 0.008667
0.509003 0.035492 0.008667
0.524933 0.036255 0.008667
0.540283 0.036255 0.008667
0.555267 0.037048 0.008667
0.569977 0.037048 0.008667
0.000793 0.037048 0.026794
0.015778 0.039429 0.022858
0.031525 0.040985 0.018921
0.048981 0.043243 0.014984
0.068390 0.045441 0.011810
0.088715 0.046875 0.008667
0.110077 0.048981 0.007080
0.131805 0.050354 0.005524
0.153595 0.051666 0.005524
0.174896 0.052979 0.005524
0.195557 0.054291 0.006287
0.215515 0.054932 0.006287
0.235077 0.055573 0.007080
0.254272 0.056183 0.007874
0.273193 0.056824 0.008667
0.291840 0.056824 0.008667
0.310394 0.056183 0.008667
0.328674 0.055573 0.008667
0.346954 0.054932 0.008667
0.365051 0.053650 0.008667
0.383087 0.052338 0.008667
0.401215 0.051025 0.008667
0.419281 0.050354 0.008667
0.437347 0.048981 0.008667
0.455383 0.048279 0.008667
0.473175 0.047577 0.008667
0.490784 0.046875 0.008667
0.507843 0.046875 0.008667
0.524536 0.046875 0.008667
0.540649 0.046875 0.008667
0.556305 0.046875 0.008667
0.571472 0.046875 0.008667
0.586456 0.046875 0.008667
0.000000 0.054291 0.039429
0.013397 0.056824 0.033905
0.027588 0.058655 0.028381
0.044006 0.061035 0.023651
0.062225 0.063385 0.018921
0.082886 0.065643 0.014984
0.105652 0.067841 0.011047
0.129028 0.070007 0.008667
0.152832 0.072083 0.007874
0.176239 0.073639 0.007080
0.199127 0.075165 0.007080
0.221008 0.076172 0.007080
0.242126 0.077148 0.007874
0.262634 0.077637 0.007874
0.282654 0.078125 0.008667
0.302094 0.077637 0.008667
0.321289 0.077148 0.008667
0.340271 0.076172 0.008667
0.359039 0.074646 0.008667
0.377533 0.073120 0.008667
0.396149 0.071045 0.008667
0.414551 0.069458 0.008667
0.433136 0.067291 0.008667
0.451569 0.065643 0.008667
0.469971 0.063934 0.008667
0.488068 0.062225 0.008667
0.505890 0.061035 0.008667
0.523254 0.060455 0.008667
0.540100 0.059845 0.008667
0.556396 0.059265 0.007904
0.572235 0.058655 0.007904
0.587769 0.058044 0.007904
0.603058 0.058044 0.007904
0.000000 0.070526 0.051666
0.011047 0.073120 0.045441
0.022858 0.076172 0.039429
0.037048 0.078613 0.033112
0.054932 0.081482 0.027588
0.075653 0.084259 0.022064
0.098724 0.086945 0.016541
0.123688 0.089600 0.013397
0.149658 0.092590 0.010254
0.175568 0.095093 0.008667
0.200897 0.097107 0.007874
0.225189 0.098724 0.007874
0.248383 0.100311 0.007874
0.270569 0.101074 0.008667
0.291840 0.101471 0.008667
0.312378 0.101074 0.008667
0.332397 0.100311 0.008667
0.351990 0.099121 0.008667
0.371307 0.097534 0.008667
0.390442 0.095490 0.008667
0.409363 0.092987 0.008667
0.428345 0.090454 0.008667
0.447266 0.087830 0.008667
0.466125 0.085175 0.008667
0.484802 0.082886 0.008667
0.503204 0.080536 0.008667
0.521240 0.078613 0.008667
0.538788 0.076660 0.007904
0.555786 0.075165 0.007904
0.572235 0.074158 0.007904
0.588409 0.073120 0.007904
0.604156 0.072083 0.007904
0.619720 0.071045 0.007904
0.000000 0.086517 0.063385
0.008667 0.089142 0.057434
0.018127 0.092163 0.051025
0.030731 0.095490 0.044006
0.046173 0.098724 0.037048
0.066193 0.101868 0.029968
0.089142 0.105652 0.023651
0.115356 0.108978 0.018127
0.143127 0.112549 0.014191
0.171692 0.116028 0.011047
0.199921 0.119415 0.009460
0.227234 0.121735 0.008667
0.253082 0.123993 0.008667
0.277435 0.125275 0.008667
0.300354 0.125916 0.008667
0.322418 0.126221 0.008667
0.343414 0.125580 0.008667
0.363770 0.124329 0.008667
0.383728 0.122711 0.008667
0.403381 0.120422 0.008667
0.422882 0.117737 0.008667
0.442230 0.114655 0.008667
0.461639 0.111481 0.008667
0.480804 0.108246 0.008667
0.499878 0.105286 0.008667
0.518494 0.102234 0.008667
0.536682 0.099121 0.007904
0.554382 0.096710 0.007904
0.571533 0.094238 0.007904
0.588226 0.092163 0.007904
0.604614 0.090027 0.007904
0.620605 0.088287 0.007904
0.636414 0.086517 0.007904
0.000000 0.101074 0.074158
0.006287 0.104156 0.068390
0.013397 0.107513 0.062225
0.023651 0.111145 0.055573
0.037842 0.114990 0.047577
0.056183 0.118744 0.039429
0.078125 0.123016 0.032318
0.104523 0.127472 0.025238
0.133911 0.132385 0.018921
0.164612 0.136841 0.014191
0.195740 0.140869 0.011810
0.226196 0.144501 0.009460
0.255188 0.147522 0.008667
0.282379 0.149933 0.008667
0.307648 0.151245 0.008667
0.331329 0.152039 0.008667
0.353729 0.151764 0.008667
0.375092 0.151001 0.008667
0.395782 0.149384 0.008667
0.416138 0.147247 0.008667
0.436096 0.144501 0.008667
0.456116 0.141449 0.008667
0.475922 0.138306 0.008667
0.495605 0.134491 0.008667
0.514954 0.130890 0.008667
0.533844 0.127167 0.008667
0.552246 0.123352 0.007904
0.570129 0.119751 0.007904
0.587494 0.116364 0.007904
0.604431 0.113251 0.007904
0.620911 0.110077 0.007904
0.637146 0.107147 0.007904
0.653168 0.104523 0.007904
0.000000 0.114990 0.083801
0.003937 0.118408 0.078613
0.010254 0.122040 0.073120
0.018127 0.125916 0.066193
0.029968 0.129974 0.058655
0.045441 0.134491 0.049683
0.066742 0.139435 0.041016
0.092163 0.144775 0.032349
0.121735 0.150208 0.025238
0.153870 0.155914 0.018921
0.187744 0.161194 0.014191
0.221558 0.166290 0.011047
0.253845 0.170532 0.009460
0.284363 0.173981 0.008667
0.312500 0.176239 0.008667
0.338440 0.177826 0.008667
0.362701 0.178253 0.008667
0.385376 0.177826 0.008667
0.407135 0.176697 0.008667
0.428192 0.174896 0.008667
0.448944 0.172607 0.008667
0.469543 0.169830 0.008667
0.489899 0.166534 0.008667
0.510101 0.162903 0.008667
0.529877 0.158722 0.008667
0.549103 0.154633 0.008667
0.567719 0.150208 0.008667
0.585876 0.145874 0.008667
0.603546 0.141724 0.008667
0.620667 0.137421 0.008667
0.637451 0.133301 0.008667
0.653870 0.129028 0.008667
0.670135 0.124969 0.008667
0.000000 0.128418 0.092987
0.003143 0.131805 0.088287
0.007080 0.135376 0.082886
0.013397 0.139435 0.076660
0.022858 0.143951 0.068939
0.036255 0.148865 0.059875
0.054932 0.154114 0.050354
0.078613 0.160217 0.041016
0.107513 0.166534 0.031555
0.140289 0.173309 0.023651
0.176025 0.179810 0.018158
0.212585 0.186066 0.013428
0.248383 0.191681 0.011047
0.282501 0.196564 0.009460
0.314148 0.200104 0.008667
0.343109 0.202637 0.008667
0.369690 0.203979 0.008667
0.394196 0.204376 0.008667
0.417297 0.203979 0.008667
0.439453 0.202820 0.008667
0.460968 0.200897 0.008667
0.482269 0.198334 0.008667
0.503265 0.195343 0.008667
0.524017 0.191895 0.008667
0.544220 0.187958 0.008667
0.563904 0.183502 0.008667
0.583008 0.178925 0.008667
0.601501 0.173981 0.008667
0.619446 0.168915 0.008667
0.636963 0.163879 0.008667
0.654053 0.158722 0.009460
0.670746 0.153351 0.009460
0.687256 0.148041 0.009460
0.000000 0.141144 0.101074
0.002350 0.144501 0.097137
0.004730 0.148041 0.091736
0.009460 0.152039 0.086090
0.017334 0.156677 0.078613
0.028381 0.161926 0.070007
0.044006 0.167725 0.059875
0.065643 0.174225 0.049683
0.092163 0.181122 0.039429
0.124634 0.188599 0.029968
0.160706 0.196350 0.022888
0.199310 0.203979 0.016571
0.238464 0.210938 0.012634
0.276489 0.217133 0.010254
0.311920 0.222076 0.009460
0.344574 0.225861 0.008667
0.374146 0.228424 0.008667
0.401123 0.229767 0.009460
0.426025 0.230103 0.009460
0.449463 0.229584 0.009460
0.472046 0.228424 0.009460
0.494080 0.226379 0.009460
0.515717 0.223816 0.009460
0.537048 0.220673 0.009460
0.557861 0.216949 0.009460
0.578094 0.212769 0.009460
0.597778 0.207977 0.009460
0.616730 0.203033 0.010254
0.635223 0.197540 0.010254
0.653168 0.191895 0.010254
0.670654 0.185852 0.010254
0.687836 0.179810 0.010254
0.704559 0.173523 0.010254
0.000000 0.153595 0.108978
0.001556 0.156677 0.104919
0.003143 0.160217 0.100311
0.007080 0.164124 0.094696
0.012604 0.168671 0.087860
0.021271 0.173981 0.079590
0.034698 0.180023 0.069489
0.052979 0.186707 0.059265
0.077148 0.194153 0.048309
0.107513 0.202240 0.037872
0.143402 0.210938 0.028381
0.182861 0.219604 0.021301
0.224335 0.228088 0.015778
0.265778 0.235718 0.011841
0.305359 0.242310 0.010254
0.342163 0.247437 0.009460
0.375488 0.251282 0.009460
0.405518 0.253845 0.009460
0.432892 0.255035 0.009460
0.458038 0.255341 0.010254
0.481903 0.254730 0.010254
0.504852 0.253387 0.010254
0.527283 0.251434 0.010254
0.549255 0.248688 0.010254
0.570679 0.245270 0.011047
0.591614 0.241180 0.011047
0.611816 0.236847 0.011047
0.631470 0.231781 0.011047
0.650574 0.226379 0.011047
0.669067 0.220306 0.011810
0.687134 0.214050 0.011810
0.704773 0.207397 0.011810
0.722046 0.200684 0.011810
0.000000 0.165588 0.116364
0.000793 0.168427 0.112579
0.002350 0.171692 0.107910
0.004730 0.175568 0.102631
0.009460 0.180023 0.096313
0.016541 0.185211 0.088287
0.026794 0.191284 0.079102
0.042511 0.198151 0.068939
0.063385 0.205902 0.057434
0.090881 0.214600 0.046173
0.124634 0.223816 0.035492
0.163635 0.233429 0.026825
0.206635 0.243073 0.019714
0.250977 0.252167 0.014984
0.294525 0.260315 0.011841
0.335663 0.267212 0.010254
0.373291 0.272522 0.010254
0.407043 0.276337 0.010254
0.437500 0.278625 0.010254
0.465027 0.279846 0.011047
0.490479 0.279968 0.011047
0.514648 0.279175 0.011047
0.537872 0.277710 0.011810
0.560608 0.275391 0.011810
0.582672 0.272369 0.011810
0.604248 0.268768 0.012604
0.625183 0.264648 0.012604
0.645538 0.259888 0.012604
0.665344 0.254578 0.013397
0.684509 0.248688 0.013397
0.703247 0.242310 0.013397
0.721466 0.235718 0.013397
0.739349 0.228760 0.014191
0.000000 0.177368 0.123352
0.000793 0.180023 0.119415
0.001556 0.183075 0.115356
0.003937 0.186707 0.110443
0.007080 0.191071 0.104553
0.012604 0.196136 0.097137
0.020508 0.202240 0.088745
0.033112 0.209076 0.078613
0.051025 0.216949 0.067322
0.074646 0.225708 0.055573
0.105652 0.235382 0.044006
0.143402 0.245758 0.033905
0.186279 0.256500 0.025238
0.232605 0.267059 0.018158
0.279572 0.276764 0.014191
0.325012 0.285278 0.011841
0.367279 0.292114 0.011047
0.405426 0.297394 0.011047
0.439545 0.300964 0.011810
0.470001 0.303192 0.011810
0.497681 0.304016 0.012604
0.523315 0.303894 0.012604
0.547699 0.302948 0.013397
0.571198 0.300964 0.013397
0.593994 0.298523 0.013397
0.616180 0.295258 0.014191
0.637878 0.291351 0.014191
0.658936 0.286957 0.014984
0.679413 0.281982 0.014984
0.699402 0.276489 0.014984
0.718781 0.270447 0.015778
0.737732 0.263947 0.015778
0.756226 0.257263 0.015778
0.000000 0.188995 0.130280
0.000793 0.191498 0.126556
0.001556 0.194336 0.122406
0.002350 0.197754 0.117737
0.005524 0.201874 0.112213
0.009460 0.207031 0.105682
0.015778 0.212769 0.097931
0.026001 0.219604 0.088287
0.040222 0.227386 0.077667
0.060455 0.236206 0.065643
0.088287 0.246216 0.053650
0.123016 0.257111 0.041779
0.164856 0.268616 0.031555
0.211670 0.280243 0.023651
0.261047 0.291473 0.018158
0.310486 0.301605 0.014191
0.357361 0.310272 0.012604
0.400269 0.317047 0.012604
0.438599 0.322083 0.012604
0.472626 0.325439 0.013397
0.503021 0.327240 0.014191
0.530792 0.327789 0.014191
0.556580 0.327240 0.014984
0.581055 0.325897 0.014984
0.604675 0.323547 0.015778
0.627563 0.320831 0.015778
0.649902 0.317261 0.016541
0.671692 0.313324 0.016541
0.692932 0.308716 0.016541
0.713623 0.303680 0.017334
0.733704 0.298126 0.017334
0.753265 0.291992 0.017334
0.772522 0.285675 0.017334
0.000000 0.200684 0.136566
0.000000 0.203033 0.133026
0.000793 0.205688 0.129364
0.002350 0.208893 0.124969
0.003937 0.212769 0.120087
0.007080 0.217651 0.113983
0.011810 0.223450 0.106781
0.019714 0.230103 0.098328
0.031525 0.237823 0.087860
0.048279 0.246521 0.076660
0.072083 0.256500 0.063965
0.103760 0.267639 0.051697
0.143127 0.279724 0.040222
0.189209 0.292358 0.029968
0.239929 0.304871 0.022888
0.292358 0.316589 0.018158
0.343536 0.326904 0.014984
0.391266 0.335449 0.014191
0.434387 0.342072 0.014191
0.472626 0.346649 0.014984
0.506470 0.349548 0.015778
0.536804 0.350891 0.015778
0.564453 0.350983 0.016541
0.590271 0.350067 0.017334
0.614868 0.348206 0.017334
0.638519 0.345734 0.017334
0.661469 0.342682 0.018127
0.683899 0.339081 0.018127
0.705811 0.335022 0.018921
0.727081 0.330322 0.018921
0.747925 0.325348 0.018921
0.768127 0.319916 0.018921
0.787964 0.314148 0.018921
0.000000 0.212250 0.143127
0.000000 0.214600 0.139465
0.000793 0.216949 0.135986
0.001556 0.219971 0.131805
0.003143 0.223816 0.127502
0.005524 0.228577 0.122070
0.009460 0.234070 0.115692
0.015778 0.240540 0.107910
0.024445 0.248230 0.098328
0.038635 0.256805 0.087402
0.058655 0.266632 0.075165
0.086060 0.277832 0.062225
0.122040 0.290192 0.049683
0.166290 0.303436 0.037872
0.217133 0.317169 0.029175
0.271393 0.330322 0.022095
0.326233 0.342377 0.018158
0.378571 0.352600 0.016541
0.426605 0.360931 0.015778
0.469513 0.366974 0.016541
0.507385 0.371124 0.016541
0.540924 0.373505 0.017334
0.571075 0.374359 0.018127
0.598694 0.373962 0.018921
0.624451 0.372650 0.018921
0.648956 0.370453 0.019714
0.672607 0.367859 0.019714
0.695618 0.364655 0.019714
0.718079 0.361023 0.019714
0.739990 0.356934 0.019714
0.761353 0.352417 0.019714
0.782166 0.347473 0.019714
0.802551 0.342377 0.019714
0.000000 0.223999 0.149139
0.000000 0.226196 0.145905
0.000793 0.228577 0.142303
0.000793 0.231445 0.138611
0.002350 0.235077 0.134521
0.003937 0.239594 0.129669
0.007080 0.244965 0.124023
0.011810 0.251434 0.117065
0.019714 0.258728 0.108643
0.030731 0.267212 0.098328
0.046875 0.276886 0.086517
0.070526 0.287872 0.073669
0.102631 0.300354 0.060486
0.143951 0.313904 0.047607
0.193329 0.328339 0.036285
0.248383 0.342804 0.028381
0.305725 0.356445 0.022888
0.362305 0.368622 0.019714
0.415131 0.378754 0.018127
0.463104 0.386475 0.018127
0.505524 0.392090 0.018127
0.542969 0.395630 0.018921
0.576172 0.397400 0.019714
0.606018 0.397736 0.019714
0.633362 0.396942 0.020508
0.658997 0.395355 0.020508
0.683319 0.393066 0.020508
0.707001 0.390259 0.020508
0.729889 0.387115 0.020508
0.752289 0.383362 0.020508
0.774170 0.379395 0.019714
0.795471 0.375183 0.019714
0.816406 0.370728 0.019714
0.000000 0.235901 0.155426
0.000000 0.237976 0.151794
0.000000 0.240234 0.148621
0.000793 0.243073 0.145081
0.001556 0.246521 0.141174
0.003143 0.250977 0.137146
0.005524 0.256378 0.132111
0.009460 0.262512 0.126251
0.015778 0.269867 0.118439
0.024445 0.277954 0.108978
0.037842 0.287354 0.097931
0.057434 0.298126 0.085632
0.085175 0.310394 0.071594
0.122711 0.324097 0.058075
0.169373 0.338989 0.045471
0.223816 0.354431 0.035492
0.282776 0.369598 0.027618
0.342590 0.383453 0.022888
0.399994 0.395538 0.020508
0.452911 0.405182 0.019714
0.500275 0.412384 0.019714
0.542175 0.417389 0.020508
0.579071 0.420349 0.020508
0.611816 0.421570 0.021271
0.641296 0.421509 0.021301
0.668365 0.420441 0.021301
0.693665 0.418549 0.021301
0.717957 0.416229 0.020508
0.741394 0.413391 0.020508
0.764191 0.410217 0.020508
0.786560 0.406738 0.019714
0.808289 0.403015 0.018921
0.829681 0.399048 0.018921
0.000000 0.248230 0.161469
0.000000 0.250061 0.157959
0.000000 0.252350 0.154663
0.000793 0.255035 0.151276
0.001556 0.258575 0.148071
0.002350 0.262787 0.144531
0.004730 0.268066 0.140045
0.007874 0.274170 0.134796
0.012604 0.281189 0.128113
0.019714 0.289307 0.119751
0.029968 0.298401 0.109711
0.046173 0.308838 0.097534
0.070007 0.320709 0.084259
0.102997 0.334381 0.070007
0.146149 0.349457 0.056213
0.198730 0.365540 0.044006
0.257690 0.381805 0.034698
0.319794 0.397461 0.027618
0.381073 0.411377 0.023651
0.438904 0.423126 0.021301
0.491547 0.432343 0.021271
0.538239 0.438934 0.021301
0.579468 0.443329 0.021301
0.615692 0.445618 0.021301
0.647827 0.446381 0.021301
0.676849 0.445923 0.021301
0.703522 0.444550 0.021301
0.728638 0.442566 0.020508
0.752747 0.440155 0.019714
0.776031 0.437378 0.019714
0.798767 0.434326 0.018921
0.820923 0.431000 0.018158
0.842712 0.427582 0.017365
0.000000 0.260651 0.167511
0.000000 0.262665 0.164154
0.000000 0.264801 0.160950
0.000793 0.267517 0.157715
0.000793 0.270996 0.154663
0.001556 0.275146 0.151520
0.003143 0.280243 0.147797
0.006287 0.286316 0.143402
0.009460 0.293243 0.137451
0.015778 0.301086 0.130280
0.023651 0.310028 0.121094
0.037048 0.320038 0.110077
0.056824 0.331635 0.097137
0.085175 0.344879 0.082428
0.124329 0.359924 0.067871
0.173523 0.376404 0.054291
0.231262 0.393585 0.042511
0.294250 0.410706 0.033905
0.358643 0.426605 0.027618
0.420990 0.440399 0.024445
0.478729 0.451752 0.022095
0.530792 0.460327 0.022095
0.576782 0.466278 0.021301
0.617157 0.470001 0.021301
0.652649 0.471710 0.021301
0.684204 0.472076 0.021301
0.712708 0.471283 0.020508
0.739105 0.469635 0.019714
0.764038 0.467560 0.018921
0.787964 0.465118 0.018158
0.811096 0.462372 0.017365
0.833618 0.459442 0.016571
0.855682 0.456268 0.015778
0.000000 0.273773 0.174225
0.000000 0.275665 0.170563
0.000000 0.277710 0.167267
0.000000 0.280396 0.164398
0.000793 0.283844 0.161469
0.001556 0.288025 0.158722
0.002350 0.293152 0.155670
0.004730 0.299011 0.151794
0.007874 0.305847 0.146973
0.012604 0.313568 0.140594
0.019714 0.322296 0.132416
0.029968 0.332184 0.122406
0.046173 0.343323 0.110077
0.070007 0.356140 0.096313
0.103760 0.370911 0.081024
0.148865 0.387482 0.066223
0.204163 0.405334 0.052368
0.266785 0.423706 0.041779
0.333282 0.441406 0.033142
0.399567 0.457397 0.027618
0.462341 0.470917 0.024445
0.519745 0.481720 0.022888
0.570953 0.489594 0.022095
0.616028 0.494751 0.021301
0.655487 0.497772 0.021301
0.690216 0.498962 0.020508
0.721283 0.498810 0.019714
0.749359 0.497681 0.018921
0.775452 0.495911 0.018158
0.800110 0.493683 0.016571
0.823730 0.491211 0.015778
0.846558 0.488434 0.014984
0.868866 0.485504 0.013428
0.000000 0.287384 0.181122
0.000000 0.289307 0.177612
0.000000 0.291473 0.174225
0.000000 0.294159 0.171234
0.000793 0.297546 0.168671
0.000793 0.301605 0.166321
0.002350 0.306702 0.163910
0.003937 0.312531 0.160706
0.006287 0.319366 0.156708
0.010254 0.326904 0.151276
0.015778 0.335571 0.144257
0.023651 0.345215 0.135406
0.037048 0.356140 0.124023
0.056824 0.368622 0.110809
0.085602 0.383087 0.095490
0.125916 0.399567 0.079590
0.177582 0.417786 0.064514
0.238800 0.437134 0.051025
0.306091 0.456421 0.040222
0.375580 0.474548 0.033142
0.443085 0.490387 0.027618
0.505890 0.503418 0.025238
0.562469 0.513306 0.022888
0.612518 0.520264 0.022095
0.656433 0.524628 0.020508
0.694916 0.526917 0.019714
0.728912 0.527466 0.018921
0.759338 0.526794 0.018158
0.787048 0.525299 0.016571
0.812683 0.523315 0.015778
0.836853 0.520874 0.014191
0.859955 0.518250 0.013428
0.882446 0.515411 0.011841
0.000000 0.301971 0.188812
0.000000 0.303802 0.185242
0.000000 0.305969 0.181793
0.000000 0.308624 0.178925
0.000000 0.312042 0.176483
0.000793 0.316132 0.174469
0.001556 0.321198 0.172638
0.003143 0.327148 0.170074
0.004730 0.333832 0.166779
0.007874 0.341553 0.162445
0.012604 0.350067 0.156433
0.019714 0.359650 0.148865
0.029968 0.370453 0.138611
0.046173 0.382660 0.126251
0.070007 0.396851 0.111511
0.105286 0.413208 0.095093
0.152832 0.431702 0.078613
0.211670 0.451813 0.063385
0.279053 0.472626 0.050354
0.350983 0.492767 0.040222
0.422638 0.510864 0.033142
0.490387 0.526123 0.028381
0.552246 0.538055 0.025238
0.607361 0.546875 0.022888
0.655853 0.552704 0.021301
0.698425 0.556061 0.020508
0.735840 0.557434 0.018921
0.768951 0.557343 0.017365
0.798645 0.556061 0.015778
0.825562 0.554169 0.014191
0.850403 0.551727 0.013428
0.873779 0.549042 0.011841
0.896271 0.546051 0.010254
0.000000 0.317535 0.197571
0.000000 0.319458 0.193756
0.000000 0.321533 0.190460
0.000000 0.324249 0.187561
0.000000 0.327698 0.185455
0.000793 0.332001 0.183960
0.001556 0.337067 0.182434
0.002350 0.343018 0.180695
0.003937 0.349884 0.178284
0.006287 0.357574 0.174927
0.010254 0.366211 0.170074
0.015778 0.375854 0.163422
0.024445 0.386688 0.154663
0.037048 0.398773 0.143127
0.057434 0.412811 0.129059
0.088287 0.429169 0.112579
0.131500 0.448059 0.095490
0.187531 0.468994 0.078613
0.254425 0.491150 0.063385
0.327911 0.512970 0.051025
0.403015 0.533234 0.041779
0.475281 0.550629 0.035492
0.541901 0.564575 0.030762
0.601654 0.575073 0.026825
0.654572 0.582397 0.024445
0.701172 0.586853 0.022095
0.742096 0.589050 0.020508
0.778259 0.589417 0.018158
0.810089 0.588440 0.016571
0.838501 0.586456 0.014984
0.864136 0.583862 0.012634
0.887756 0.580872 0.011047
0.910339 0.577545 0.009460
0.000000 0.334595 0.207428
0.000000 0.336426 0.203796
0.000000 0.338562 0.200317
0.000000 0.341339 0.197571
0.000000 0.344910 0.195770
0.000793 0.349365 0.194550
0.000793 0.354645 0.193756
0.001556 0.360748 0.192719
0.003143 0.367676 0.191284
0.005524 0.375580 0.188812
0.008667 0.384491 0.185028
0.013397 0.394287 0.179596
0.019714 0.405273 0.172180
0.030731 0.417633 0.161713
0.048279 0.431793 0.148621
0.075165 0.448517 0.132721
0.114990 0.467865 0.115356
0.168915 0.489655 0.097534
0.234894 0.513062 0.081024
0.309540 0.536560 0.066223
0.387115 0.558533 0.054932
0.462860 0.577728 0.046173
0.533325 0.593353 0.039429
0.597015 0.605408 0.033905
0.653625 0.614014 0.029968
0.703796 0.619568 0.026825
0.748108 0.622498 0.024445
0.787048 0.623352 0.022095
0.821167 0.622559 0.019714
0.851135 0.620453 0.016571
0.877594 0.617554 0.014191
0.901611 0.614014 0.011841
0.924164 0.610199 0.009460
0.000000 0.353333 0.218903
0.000000 0.355255 0.215332
0.000000 0.357452 0.211884
0.000000 0.360443 0.209473
0.000000 0.364166 0.207977
0.000000 0.368835 0.207214
0.000793 0.374359 0.207214
0.001556 0.380707 0.207031
0.002350 0.388031 0.206482
0.004730 0.396149 0.204956
0.007080 0.405365 0.202454
0.011047 0.415497 0.198151
0.017334 0.426849 0.191711
0.026794 0.439697 0.182648
0.042511 0.454498 0.170563
0.067291 0.471771 0.155670
0.105286 0.492004 0.138611
0.157440 0.514893 0.120422
0.222931 0.539490 0.103027
0.298248 0.564331 0.086975
0.377441 0.587646 0.073669
0.455536 0.608093 0.062225
0.528503 0.625000 0.053650
0.594727 0.638123 0.046906
0.654083 0.647797 0.040985
0.707001 0.654236 0.036255
0.753906 0.657928 0.032318
0.795288 0.659180 0.029175
0.831543 0.658508 0.026001
0.862976 0.656250 0.022064
0.890381 0.652863 0.018921
0.914734 0.648682 0.014984
0.937378 0.644135 0.011047
0.000000 0.373993 0.232269
0.000000 0.376068 0.228760
0.000000 0.378571 0.225708
0.000000 0.381744 0.223480
0.000000 0.385773 0.222595
0.000000 0.390808 0.222595
0.000793 0.396759 0.223114
0.000793 0.403564 0.223999
0.001556 0.411224 0.224335
0.003937 0.419769 0.223999
0.006287 0.429413 0.222443
0.009460 0.440094 0.219269
0.015778 0.452118 0.213898
0.025238 0.465698 0.206085
0.040222 0.481506 0.195374
0.065063 0.499939 0.181793
0.102997 0.521332 0.165588
0.154907 0.545319 0.148071
0.220673 0.571014 0.130585
0.296265 0.596741 0.113617
0.376129 0.620758 0.098724
