Kodak Vision 320T (5277) - Only contrast.cube
# Created by Benjamin (IWLTBAP) : http://luts.iwltbap.com
# Copyright: (C) Copyright 2010-2017 Triune Films and IWLTBAP SAS
# Cannot be resold, shared or otherwise redistributed
TITLE "Film Print Emulation LUTs Pack (Rec.709, sRGB, DCI-P3)"
LUT_3D_SIZE 33
0.001373 0.001373 0.001373
0.028656 0.001373 0.001373
0.053833 0.001404 0.001404
0.080597 0.001404 0.001404
0.108582 0.001404 0.001404
0.137451 0.001373 0.001373
0.168213 0.001343 0.001343
0.200592 0.001312 0.001312
0.234253 0.001282 0.001282
0.267731 0.001221 0.001221
0.301697 0.001190 0.001190
0.336578 0.001129 0.001129
0.372345 0.001068 0.001068
0.407806 0.001007 0.001007
0.442657 0.000946 0.000946
0.475983 0.000916 0.000916
0.508759 0.000885 0.000885
0.540405 0.000854 0.000854
0.571960 0.000824 0.000824
0.603577 0.000793 0.000793
0.635162 0.000763 0.000763
0.666199 0.000732 0.000732
0.697205 0.000702 0.000702
0.728394 0.000671 0.000671
0.759308 0.000641 0.000641
0.789795 0.000610 0.000610
0.820099 0.000610 0.000610
0.850403 0.000580 0.000580
0.880035 0.000549 0.000549
0.908234 0.000549 0.000549
0.931000 0.000580 0.000580
0.952301 0.000641 0.000641
0.972900 0.000671 0.000671
0.001373 0.028656 0.001373
0.028656 0.028656 0.001373
0.053802 0.028656 0.001404
0.080597 0.028656 0.001404
0.108582 0.028656 0.001404
0.137451 0.028625 0.001373
0.168274 0.028595 0.001343
0.200623 0.028564 0.001312
0.234283 0.028503 0.001282
0.267792 0.028442 0.001221
0.301758 0.028412 0.001190
0.336639 0.028351 0.001129
0.372406 0.028290 0.001068
0.407867 0.028198 0.001007
0.442688 0.028137 0.000946
0.476044 0.028107 0.000916
0.508789 0.028046 0.000885
0.540436 0.028015 0.000854
0.571991 0.027985 0.000824
0.603607 0.027924 0.000793
0.635193 0.027893 0.000763
0.666199 0.027863 0.000732
0.697235 0.027832 0.000702
0.728424 0.027802 0.000671
0.759338 0.027771 0.000641
0.789825 0.027710 0.000610
0.820129 0.027679 0.000610
0.850433 0.027649 0.000580
0.880066 0.027649 0.000580
0.908234 0.027618 0.000549
0.930939 0.027649 0.000580
0.952271 0.027679 0.000641
0.972839 0.027710 0.000671
0.001404 0.053833 0.001404
0.028656 0.053802 0.001404
0.053802 0.053802 0.001404
0.080627 0.053802 0.001404
0.108612 0.053802 0.001404
0.137482 0.053772 0.001373
0.168304 0.053741 0.001373
0.200684 0.053711 0.001312
0.234344 0.053650 0.001282
0.267853 0.053589 0.001251
0.301819 0.053528 0.001190
0.336700 0.053467 0.001129
0.372467 0.053406 0.001068
0.407928 0.053345 0.001007
0.442749 0.053284 0.000977
0.476074 0.053223 0.000916
0.508820 0.053192 0.000885
0.540466 0.053162 0.000854
0.572052 0.053101 0.000824
0.603638 0.053070 0.000793
0.635223 0.053040 0.000763
0.666260 0.053009 0.000732
0.697266 0.052979 0.000702
0.728455 0.052948 0.000671
0.759369 0.052887 0.000671
0.789856 0.052856 0.000641
0.820160 0.052856 0.000610
0.850464 0.052826 0.000580
0.880066 0.052795 0.000580
0.908234 0.052765 0.000580
0.930908 0.052795 0.000610
0.952240 0.052826 0.000641
0.972809 0.052856 0.000702
0.001404 0.080597 0.001404
0.028656 0.080597 0.001404
0.053802 0.080627 0.001404
0.080627 0.080627 0.001404
0.108612 0.080627 0.001404
0.137512 0.080597 0.001404
0.168335 0.080597 0.001373
0.200714 0.080536 0.001343
0.234406 0.080505 0.001282
0.267883 0.080475 0.001251
0.301880 0.080414 0.001190
0.336761 0.080353 0.001129
0.372528 0.080322 0.001068
0.407990 0.080261 0.001038
0.442810 0.080200 0.000977
0.476135 0.080170 0.000916
0.508850 0.080139 0.000885
0.540527 0.080109 0.000854
0.572083 0.080078 0.000824
0.603668 0.080048 0.000793
0.635254 0.080017 0.000763
0.666260 0.079987 0.000732
0.697296 0.079956 0.000702
0.728485 0.079956 0.000702
0.759399 0.079926 0.000671
0.789886 0.079895 0.000641
0.820190 0.079895 0.000610
0.850494 0.079865 0.000610
0.880096 0.079865 0.000580
0.908234 0.079834 0.000580
0.930878 0.079895 0.000610
0.952209 0.079926 0.000641
0.972778 0.079987 0.000702
0.001404 0.108582 0.001404
0.028656 0.108582 0.001404
0.053802 0.108612 0.001404
0.080627 0.108612 0.001404
0.108612 0.108612 0.001404
0.137512 0.108612 0.001373
0.168365 0.108612 0.001373
0.200745 0.108582 0.001312
0.234436 0.108551 0.001282
0.267944 0.108490 0.001221
0.301910 0.108459 0.001190
0.336823 0.108429 0.001129
0.372589 0.108368 0.001068
0.408051 0.108307 0.001007
0.442841 0.108276 0.000977
0.476166 0.108246 0.000916
0.508881 0.108215 0.000885
0.540527 0.108185 0.000854
0.572083 0.108185 0.000824
0.603699 0.108154 0.000793
0.635284 0.108124 0.000763
0.666290 0.108124 0.000732
0.697327 0.108093 0.000702
0.728516 0.108093 0.000671
0.759430 0.108063 0.000641
0.789886 0.108063 0.000641
0.820190 0.108032 0.000610
0.850494 0.108032 0.000580
0.880096 0.108032 0.000580
0.908234 0.108032 0.000580
0.930847 0.108063 0.000610
0.952148 0.108124 0.000641
0.972717 0.108185 0.000671
0.001373 0.137451 0.001373
0.028625 0.137451 0.001373
0.053772 0.137482 0.001373
0.080597 0.137512 0.001404
0.108612 0.137512 0.001373
0.137512 0.137512 0.001373
0.168396 0.137512 0.001343
0.200775 0.137482 0.001312
0.234467 0.137451 0.001251
0.267975 0.137421 0.001221
0.301941 0.137390 0.001160
0.336853 0.137360 0.001129
0.372620 0.137329 0.001068
0.408081 0.137268 0.001007
0.442871 0.137238 0.000946
0.476196 0.137238 0.000916
0.508911 0.137207 0.000854
0.540558 0.137177 0.000824
0.572113 0.137177 0.000793
0.603699 0.137177 0.000763
0.635284 0.137146 0.000763
0.666290 0.137146 0.000732
0.697327 0.137146 0.000702
0.728516 0.137115 0.000671
0.759430 0.137115 0.000641
0.789917 0.137115 0.000610
0.820190 0.137115 0.000610
0.850494 0.137115 0.000580
0.880096 0.137115 0.000549
0.908203 0.137115 0.000549
0.930786 0.137177 0.000580
0.952087 0.137238 0.000641
0.972626 0.137299 0.000671
0.001343 0.168213 0.001343
0.028595 0.168274 0.001343
0.053741 0.168304 0.001373
0.080597 0.168335 0.001373
0.108612 0.168365 0.001373
0.137512 0.168396 0.001343
0.168396 0.168396 0.001312
0.200806 0.168396 0.001282
0.234497 0.168365 0.001251
0.267975 0.168365 0.001190
0.301971 0.168365 0.001160
0.336884 0.168335 0.001099
0.372650 0.168304 0.001038
0.408112 0.168274 0.000977
0.442902 0.168274 0.000916
0.476196 0.168243 0.000885
0.508911 0.168243 0.000854
0.540558 0.168243 0.000824
0.572113 0.168243 0.000793
0.603729 0.168243 0.000763
0.635284 0.168274 0.000732
0.666290 0.168274 0.000702
0.697327 0.168274 0.000671
0.728516 0.168274 0.000641
0.759430 0.168274 0.000610
0.789886 0.168304 0.000580
0.820190 0.168304 0.000580
0.850494 0.168335 0.000549
0.880066 0.168335 0.000519
0.908173 0.168365 0.000519
0.930725 0.168427 0.000549
0.952026 0.168518 0.000610
0.972565 0.168579 0.000641
0.001312 0.200592 0.001312
0.028564 0.200623 0.001312
0.053711 0.200684 0.001312
0.080536 0.200714 0.001343
0.108582 0.200745 0.001312
0.137482 0.200775 0.001312
0.168396 0.200806 0.001282
0.200806 0.200806 0.001251
0.234497 0.200806 0.001190
0.268005 0.200806 0.001160
0.301971 0.200806 0.001099
0.336914 0.200806 0.001068
0.372681 0.200775 0.001007
0.408142 0.200775 0.000946
0.442902 0.200775 0.000885
0.476196 0.200775 0.000854
0.508911 0.200775 0.000793
0.540558 0.200775 0.000763
0.572113 0.200806 0.000732
0.603699 0.200806 0.000702
0.635284 0.200836 0.000671
0.666290 0.200836 0.000671
0.697327 0.200867 0.000641
0.728516 0.200897 0.000610
0.759399 0.200897 0.000580
0.789886 0.200928 0.000549
0.820190 0.200958 0.000519
0.850494 0.200958 0.000519
0.880035 0.200989 0.000488
0.908112 0.201050 0.000488
0.930634 0.201111 0.000519
0.951935 0.201202 0.000549
0.972473 0.201294 0.000610
0.001282 0.234253 0.001282
0.028503 0.234283 0.001282
0.053650 0.234344 0.001282
0.080505 0.234406 0.001282
0.108551 0.234436 0.001282
0.137451 0.234467 0.001251
0.168365 0.234497 0.001251
0.200806 0.234497 0.001190
0.234497 0.234497 0.001160
0.268005 0.234497 0.001099
0.302002 0.234497 0.001068
0.336914 0.234497 0.001007
0.372711 0.234467 0.000946
0.408142 0.234467 0.000885
0.442932 0.234467 0.000854
0.476196 0.234467 0.000793
0.508911 0.234467 0.000763
0.540527 0.234467 0.000732
0.572113 0.234497 0.000702
0.603699 0.234497 0.000671
0.635284 0.234528 0.000641
0.666260 0.234528 0.000610
0.697327 0.234558 0.000580
0.728516 0.234558 0.000549
0.759399 0.234589 0.000519
0.789856 0.234619 0.000519
0.820160 0.234650 0.000488
0.850464 0.234650 0.000458
0.880005 0.234680 0.000458
0.908081 0.234741 0.000458
0.930542 0.234802 0.000488
0.951874 0.234894 0.000519
0.972382 0.234985 0.000580
0.001221 0.267731 0.001221
0.028442 0.267792 0.001221
0.053589 0.267853 0.001251
0.080475 0.267883 0.001251
0.108490 0.267944 0.001221
0.137421 0.267975 0.001221
0.168365 0.267975 0.001190
0.200806 0.268005 0.001160
0.234497 0.268005 0.001099
0.268005 0.268005 0.001068
0.302002 0.268005 0.001007
0.336945 0.267975 0.000977
0.372711 0.267975 0.000916
0.408173 0.267944 0.000854
0.442932 0.267944 0.000793
0.476196 0.267944 0.000763
0.508911 0.267944 0.000732
0.540527 0.267975 0.000671
0.572083 0.267975 0.000641
0.603668 0.268005 0.000610
0.635254 0.268005 0.000610
0.666260 0.268036 0.000580
0.697296 0.268066 0.000549
0.728485 0.268066 0.000519
0.759369 0.268097 0.000488
0.789856 0.268097 0.000458
0.820129 0.268127 0.000458
0.850433 0.268158 0.000427
0.879974 0.268188 0.000397
0.908020 0.268219 0.000397
0.930450 0.268311 0.000427
0.951782 0.268402 0.000488
0.972290 0.268494 0.000519
0.001190 0.301697 0.001190
0.028412 0.301758 0.001190
0.053528 0.301819 0.001190
0.080414 0.301880 0.001190
0.108459 0.301910 0.001190
0.137390 0.301941 0.001160
0.168365 0.301971 0.001160
0.200806 0.301971 0.001099
0.234497 0.302002 0.001068
0.268005 0.302002 0.001007
0.302002 0.302002 0.000977
0.336945 0.302002 0.000916
0.372711 0.301971 0.000854
0.408173 0.301971 0.000793
0.442932 0.301971 0.000763
0.476196 0.301971 0.000702
0.508881 0.302002 0.000671
0.540497 0.302002 0.000641
0.572083 0.302032 0.000610
0.603668 0.302032 0.000580
0.635254 0.302063 0.000549
0.666229 0.302094 0.000519
0.697266 0.302124 0.000488
0.728455 0.302124 0.000458
0.759338 0.302155 0.000427
0.789825 0.302185 0.000427
0.820099 0.302216 0.000397
0.850403 0.302246 0.000366
0.879913 0.302277 0.000366
0.907959 0.302307 0.000366
0.930359 0.302399 0.000397
0.951691 0.302490 0.000427
0.972168 0.302582 0.000488
0.001129 0.336578 0.001129
0.028351 0.336639 0.001129
0.053467 0.336700 0.001129
0.080353 0.336761 0.001129
0.108429 0.336823 0.001129
0.137360 0.336853 0.001129
0.168335 0.336884 0.001099
0.200806 0.336914 0.001068
0.234497 0.336914 0.001007
0.267975 0.336945 0.000977
0.302002 0.336945 0.000916
0.336945 0.336945 0.000854
0.372742 0.336945 0.000793
0.408173 0.336945 0.000763
0.442902 0.336945 0.000702
0.476166 0.336975 0.000641
0.508850 0.337006 0.000610
0.540497 0.337036 0.000580
0.572052 0.337036 0.000549
0.603638 0.337067 0.000519
0.635223 0.337097 0.000488
0.666199 0.337128 0.000458
0.697235 0.337158 0.000427
0.728455 0.337189 0.000427
0.759308 0.337250 0.000397
0.789795 0.337280 0.000366
0.820068 0.337311 0.000336
0.850372 0.337341 0.000336
0.879883 0.337402 0.000305
0.907898 0.337433 0.000305
0.930267 0.337524 0.000336
0.951599 0.337646 0.000366
0.972076 0.337738 0.000427
0.001068 0.372345 0.001068
0.028290 0.372406 0.001068
0.053406 0.372467 0.001068
0.080322 0.372528 0.001068
0.108368 0.372589 0.001068
0.137329 0.372620 0.001068
0.168304 0.372650 0.001038
0.200775 0.372681 0.001007
0.234467 0.372711 0.000946
0.267975 0.372711 0.000916
0.301971 0.372711 0.000854
0.336945 0.372742 0.000793
0.372742 0.372742 0.000732
0.408173 0.372742 0.000702
0.442902 0.372742 0.000641
0.476166 0.372742 0.000580
0.508850 0.372772 0.000549
0.540466 0.372803 0.000519
0.572021 0.372833 0.000488
0.603607 0.372864 0.000458
0.635193 0.372894 0.000427
0.666168 0.372925 0.000397
0.697205 0.372955 0.000397
0.728394 0.372986 0.000366
0.759277 0.373016 0.000336
0.789734 0.373047 0.000305
0.820038 0.373108 0.000275
0.850342 0.373138 0.000275
0.879822 0.373169 0.000244
0.907837 0.373230 0.000244
0.930176 0.373322 0.000275
0.951477 0.373413 0.000305
0.971954 0.373535 0.000366
0.001007 0.407806 0.001007
0.028198 0.407867 0.001007
0.053345 0.407928 0.001007
0.080261 0.407990 0.001038
0.108307 0.408051 0.001007
0.137268 0.408081 0.001007
0.168274 0.408112 0.000977
0.200775 0.408142 0.000946
0.234467 0.408142 0.000885
0.267944 0.408173 0.000854
0.301971 0.408173 0.000793
0.336945 0.408173 0.000763
0.372742 0.408173 0.000702
0.408173 0.408173 0.000641
0.442902 0.408173 0.000580
0.476135 0.408173 0.000549
0.508820 0.408203 0.000488
0.540436 0.408234 0.000458
0.571991 0.408264 0.000427
0.603577 0.408295 0.000397
0.635162 0.408295 0.000366
0.666138 0.408325 0.000366
0.697174 0.408356 0.000336
0.728394 0.408386 0.000305
0.759247 0.408417 0.000275
0.789703 0.408478 0.000244
0.820007 0.408508 0.000214
0.850311 0.408539 0.000214
0.879791 0.408569 0.000183
0.907776 0.408630 0.000183
0.930084 0.408722 0.000214
0.951385 0.408813 0.000244
0.971863 0.408905 0.000305
0.000946 0.442657 0.000946
0.028137 0.442688 0.000946
0.053284 0.442749 0.000977
0.080200 0.442810 0.000977
0.108276 0.442841 0.000977
0.137238 0.442871 0.000946
0.168274 0.442902 0.000916
0.200775 0.442902 0.000885
0.234467 0.442932 0.000854
0.267944 0.442932 0.000793
0.301971 0.442932 0.000763
0.336945 0.442902 0.000702
0.372742 0.442902 0.000641
0.408173 0.442902 0.000580
0.442902 0.442902 0.000519
0.476135 0.442902 0.000488
0.508789 0.442902 0.000458
0.540405 0.442902 0.000427
0.571960 0.442932 0.000397
0.603577 0.442963 0.000366
0.635132 0.442963 0.000336
0.666107 0.442993 0.000305
0.697174 0.442993 0.000275
0.728363 0.443024 0.000244
0.759216 0.443054 0.000214
0.789673 0.443054 0.000183
0.819977 0.443085 0.000183
0.850281 0.443115 0.000153
0.879730 0.443146 0.000153
0.907715 0.443176 0.000122
0.929993 0.443268 0.000183
0.951294 0.443359 0.000214
0.971741 0.443451 0.000244
0.000916 0.475983 0.000916
0.028107 0.476044 0.000916
0.053223 0.476074 0.000916
0.080170 0.476135 0.000916
0.108246 0.476166 0.000916
0.137238 0.476196 0.000916
0.168243 0.476196 0.000885
0.200775 0.476196 0.000854
0.234467 0.476196 0.000793
0.267944 0.476196 0.000763
0.301971 0.476196 0.000702
0.336975 0.476166 0.000641
0.372742 0.476166 0.000580
0.408173 0.476135 0.000549
0.442902 0.476135 0.000488
0.476135 0.476135 0.000458
0.508789 0.476135 0.000397
0.540405 0.476135 0.000366
0.571960 0.476135 0.000336
0.603546 0.476166 0.000305
0.635132 0.476166 0.000275
0.666077 0.476166 0.000244
0.697144 0.476196 0.000244
0.728333 0.476196 0.000214
0.759216 0.476196 0.000183
0.789673 0.476227 0.000153
0.819946 0.476257 0.000122
0.850250 0.476257 0.000122
0.879700 0.476288 0.000092
0.907654 0.476318 0.000092
0.929901 0.476379 0.000122
0.951202 0.476471 0.000183
0.971649 0.476562 0.000214
0.000885 0.508759 0.000885
0.028046 0.508789 0.000885
0.053192 0.508820 0.000885
0.080139 0.508850 0.000885
0.108215 0.508881 0.000885
0.137207 0.508911 0.000854
0.168243 0.508911 0.000854
0.200775 0.508911 0.000793
0.234467 0.508911 0.000763
0.267944 0.508911 0.000732
0.302002 0.508881 0.000671
0.337006 0.508850 0.000610
0.372772 0.508850 0.000549
0.408203 0.508820 0.000488
0.442902 0.508789 0.000458
0.476135 0.508789 0.000397
0.508789 0.508789 0.000366
0.540405 0.508789 0.000336
0.571960 0.508789 0.000305
0.603546 0.508789 0.000275
0.635132 0.508789 0.000244
0.666077 0.508789 0.000214
0.697144 0.508820 0.000183
0.728333 0.508820 0.000153
0.759186 0.508820 0.000153
0.789642 0.508820 0.000122
0.819946 0.508850 0.000092
0.850250 0.508850 0.000092
0.879669 0.508850 0.000061
0.907593 0.508881 0.000061
0.929840 0.508942 0.000092
0.951141 0.509033 0.000122
0.971558 0.509094 0.000183
0.000854 0.540405 0.000854
0.028015 0.540436 0.000854
0.053162 0.540466 0.000854
0.080109 0.540527 0.000854
0.108185 0.540527 0.000854
0.137177 0.540558 0.000824
0.168243 0.540558 0.000824
0.200775 0.540558 0.000763
0.234467 0.540527 0.000732
0.267975 0.540527 0.000671
0.302002 0.540497 0.000641
0.337036 0.540497 0.000580
0.372803 0.540466 0.000519
0.408234 0.540436 0.000458
0.442902 0.540405 0.000427
0.476135 0.540405 0.000366
0.508789 0.540405 0.000336
0.540405 0.540405 0.000305
0.571960 0.540405 0.000275
0.603546 0.540405 0.000244
0.635132 0.540405 0.000214
0.666077 0.540405 0.000183
0.697144 0.540405 0.000153
0.728333 0.540405 0.000153
0.759186 0.540405 0.000122
0.789642 0.540405 0.000092
0.819916 0.540436 0.000061
0.850250 0.540436 0.000061
0.879669 0.540436 0.000031
0.907562 0.540466 0.000031
0.929749 0.540527 0.000061
0.951080 0.540619 0.000092
0.971497 0.540680 0.000153
0.000824 0.571960 0.000824
0.027985 0.571991 0.000824
0.053101 0.572052 0.000824
0.080078 0.572083 0.000824
0.108185 0.572083 0.000824
0.137177 0.572113 0.000793
0.168243 0.572113 0.000793
0.200806 0.572113 0.000732
0.234497 0.572113 0.000702
0.267975 0.572083 0.000641
0.302032 0.572083 0.000610
0.337036 0.572052 0.000549
0.372833 0.572021 0.000488
0.408264 0.571991 0.000427
0.442932 0.571960 0.000397
0.476135 0.571960 0.000336
0.508789 0.571960 0.000305
0.540405 0.571960 0.000275
0.571960 0.571960 0.000244
0.603546 0.571960 0.000214
0.635132 0.571960 0.000183
0.666077 0.571960 0.000153
0.697144 0.571960 0.000122
0.728333 0.571960 0.000122
0.759186 0.571960 0.000092
0.789642 0.571991 0.000061
0.819916 0.571991 0.000031
0.850220 0.571991 0.000031
0.879639 0.572021 0.000000
0.907532 0.572052 0.000000
0.929688 0.572113 0.000031
0.950989 0.572174 0.000061
0.971405 0.572266 0.000122
0.000793 0.603577 0.000793
0.027924 0.603607 0.000793
0.053070 0.603638 0.000793
0.080048 0.603668 0.000793
0.108154 0.603699 0.000793
0.137177 0.603699 0.000763
0.168243 0.603729 0.000763
0.200806 0.603699 0.000702
0.234497 0.603699 0.000671
0.268005 0.603668 0.000610
0.302032 0.603668 0.000580
0.337067 0.603638 0.000519
0.372864 0.603607 0.000458
0.408295 0.603577 0.000397
0.442963 0.603577 0.000366
0.476166 0.603546 0.000305
0.508789 0.603546 0.000275
0.540405 0.603546 0.000244
0.571960 0.603546 0.000214
0.603546 0.603546 0.000183
0.635132 0.603546 0.000153
0.666077 0.603546 0.000122
0.697113 0.603546 0.000092
0.728333 0.603546 0.000092
0.759155 0.603577 0.000061
0.789612 0.603577 0.000031
0.819916 0.603577 0.000000
0.850220 0.603607 0.000000
0.879608 0.603607 0.000000
0.907471 0.603638 0.000000
0.929626 0.603699 0.000000
0.950928 0.603760 0.000031
0.971313 0.603851 0.000092
0.000763 0.635162 0.000763
0.027893 0.635193 0.000763
0.053040 0.635223 0.000763
0.080017 0.635254 0.000763
0.108124 0.635284 0.000763
0.137146 0.635284 0.000763
0.168274 0.635284 0.000732
0.200836 0.635284 0.000671
0.234528 0.635284 0.000641
0.268005 0.635254 0.000610
0.302063 0.635254 0.000549
0.337097 0.635223 0.000488
0.372894 0.635193 0.000427
0.408295 0.635162 0.000366
0.442963 0.635132 0.000336
0.476166 0.635132 0.000275
0.508789 0.635132 0.000244
0.540405 0.635132 0.000214
0.571960 0.635132 0.000183
0.603546 0.635132 0.000153
0.635132 0.635132 0.000122
0.666046 0.635132 0.000092
0.697113 0.635132 0.000061
0.728333 0.635132 0.000061
0.759155 0.635132 0.000031
0.789612 0.635132 0.000000
0.819885 0.635132 0.000000
0.850220 0.635162 0.000000
0.879578 0.635162 0.000000
0.907440 0.635193 0.000000
0.929535 0.635254 0.000000
0.950836 0.635315 0.000000
0.971252 0.635406 0.000061
0.000732 0.666199 0.000732
0.027863 0.666199 0.000732
0.053009 0.666260 0.000732
0.079987 0.666260 0.000732
0.108124 0.666290 0.000732
0.137146 0.666290 0.000732
0.168274 0.666290 0.000702
0.200836 0.666290 0.000671
0.234528 0.666260 0.000610
0.268036 0.666260 0.000580
0.302094 0.666229 0.000519
0.337128 0.666199 0.000458
0.372925 0.666168 0.000397
0.408325 0.666138 0.000366
0.442993 0.666107 0.000305
0.476166 0.666077 0.000244
0.508789 0.666077 0.000214
0.540405 0.666077 0.000183
0.571960 0.666077 0.000153
0.603546 0.666077 0.000122
0.635132 0.666046 0.000092
0.666046 0.666046 0.000061
0.697113 0.666046 0.000061
0.728333 0.666046 0.000031
0.759155 0.666046 0.000000
0.789612 0.666046 0.000000
0.819885 0.666077 0.000000
0.850220 0.666077 0.000000
0.879578 0.666077 0.000000
0.907379 0.666107 0.000000
0.929474 0.666168 0.000000
0.950775 0.666229 0.000000
0.971161 0.666290 0.000031
0.000702 0.697205 0.000702
0.027832 0.697235 0.000702
0.052979 0.697266 0.000702
0.079956 0.697296 0.000702
0.108093 0.697327 0.000702
0.137146 0.697327 0.000702
0.168274 0.697327 0.000671
0.200867 0.697327 0.000641
0.234558 0.697327 0.000580
0.268066 0.697296 0.000549
0.302124 0.697266 0.000488
0.337158 0.697235 0.000427
0.372955 0.697205 0.000397
0.408356 0.697174 0.000336
0.442993 0.697174 0.000275
0.476196 0.697144 0.000244
0.508820 0.697144 0.000183
0.540405 0.697144 0.000153
0.571960 0.697144 0.000122
0.603546 0.697113 0.000092
0.635132 0.697113 0.000061
0.666046 0.697113 0.000061
0.697113 0.697113 0.000031
0.728333 0.697113 0.000000
0.759155 0.697113 0.000000
0.789612 0.697144 0.000000
0.819885 0.697144 0.000000
0.850189 0.697144 0.000000
0.879547 0.697144 0.000000
0.907349 0.697174 0.000000
0.929413 0.697235 0.000000
0.950714 0.697296 0.000000
0.971069 0.697388 0.000000
0.000671 0.728394 0.000671
0.027802 0.728424 0.000671
0.052948 0.728455 0.000671
0.079956 0.728485 0.000702
0.108093 0.728516 0.000671
0.137115 0.728516 0.000671
0.168274 0.728516 0.000641
0.200897 0.728516 0.000610
0.234558 0.728516 0.000549
0.268066 0.728485 0.000519
0.302124 0.728455 0.000458
0.337189 0.728455 0.000427
0.372986 0.728394 0.000366
0.408386 0.728394 0.000305
0.443024 0.728363 0.000244
0.476196 0.728333 0.000214
0.508820 0.728333 0.000153
0.540405 0.728333 0.000153
0.571960 0.728333 0.000122
0.603546 0.728333 0.000092
0.635132 0.728333 0.000061
0.666046 0.728333 0.000031
0.697113 0.728333 0.000000
0.728333 0.728333 0.000000
0.759155 0.728333 0.000000
0.789612 0.728333 0.000000
0.819885 0.728333 0.000000
0.850189 0.728333 0.000000
0.879547 0.728363 0.000000
0.907318 0.728394 0.000000
0.929352 0.728455 0.000000
0.950653 0.728516 0.000000
0.971008 0.728577 0.000000
0.000641 0.759308 0.000641
0.027771 0.759338 0.000641
0.052887 0.759369 0.000671
0.079926 0.759399 0.000671
0.108063 0.759430 0.000641
0.137115 0.759430 0.000641
0.168274 0.759430 0.000610
0.200897 0.759399 0.000580
0.234589 0.759399 0.000519
0.268097 0.759369 0.000488
0.302155 0.759338 0.000427
0.337250 0.759308 0.000397
0.373016 0.759277 0.000336
0.408417 0.759247 0.000275
0.443054 0.759216 0.000214
0.476196 0.759216 0.000183
0.508820 0.759186 0.000153
0.540405 0.759186 0.000122
0.571960 0.759186 0.000092
0.603577 0.759155 0.000061
0.635132 0.759155 0.000031
0.666046 0.759155 0.000000
0.697113 0.759155 0.000000
0.728333 0.759155 0.000000
0.759155 0.759155 0.000000
0.789612 0.759155 0.000000
0.819885 0.759155 0.000000
0.850189 0.759155 0.000000
0.879517 0.759155 0.000000
0.907257 0.759186 0.000000
0.929260 0.759247 0.000000
0.950592 0.759308 0.000000
0.970917 0.759369 0.000000
0.000610 0.789795 0.000610
0.027710 0.789825 0.000610
0.052856 0.789856 0.000641
0.079895 0.789886 0.000641
0.108063 0.789886 0.000641
0.137115 0.789917 0.000610
0.168304 0.789886 0.000580
0.200928 0.789886 0.000549
0.234619 0.789856 0.000519
0.268097 0.789856 0.000458
0.302185 0.789825 0.000427
0.337280 0.789795 0.000366
0.373047 0.789734 0.000305
0.408478 0.789703 0.000244
0.443054 0.789673 0.000183
0.476227 0.789673 0.000153
0.508820 0.789642 0.000122
0.540405 0.789642 0.000092
0.571991 0.789642 0.000061
0.603577 0.789612 0.000031
0.635132 0.789612 0.000000
0.666046 0.789612 0.000000
0.697144 0.789612 0.000000
0.728333 0.789612 0.000000
0.759155 0.789612 0.000000
0.789612 0.789612 0.000000
0.819885 0.789612 0.000000
0.850189 0.789612 0.000000
0.879517 0.789612 0.000000
0.907227 0.789612 0.000000
0.929199 0.789673 0.000000
0.950500 0.789734 0.000000
0.970856 0.789825 0.000000
0.000610 0.820099 0.000610
0.027679 0.820129 0.000610
0.052856 0.820160 0.000610
0.079895 0.820190 0.000610
0.108032 0.820190 0.000610
0.137115 0.820190 0.000610
0.168304 0.820190 0.000580
0.200958 0.820190 0.000519
0.234650 0.820160 0.000488
0.268127 0.820129 0.000458
0.302216 0.820099 0.000397
0.337311 0.820068 0.000336
0.373108 0.820038 0.000275
0.408508 0.820007 0.000214
0.443085 0.819977 0.000183
0.476257 0.819946 0.000122
0.508850 0.819946 0.000092
0.540436 0.819916 0.000061
0.571991 0.819916 0.000031
0.603577 0.819916 0.000000
0.635132 0.819885 0.000000
