Kodak Vision3 50D (5203) - Only color.cube
# Created by Benjamin (IWLTBAP) : http://luts.iwltbap.com
# Copyright: (C) Copyright 2010-2017 Triune Films and IWLTBAP SAS
# Cannot be resold, shared or otherwise redistributed
TITLE "Film Print Emulation LUTs Pack (Rec.709, sRGB, DCI-P3)"
LUT_3D_SIZE 5
0.001587 0.000000 0.000000
0.289185 0.000000 0.000000
0.526276 0.000000 0.000000
0.736298 0.000793 0.000000
0.992157 0.000946 0.000000
0.067535 0.205841 0.080292
0.263580 0.255096 0.065033
0.525452 0.290497 0.000000
0.736450 0.291077 0.000000
0.990234 0.290466 0.000000
0.102539 0.402130 0.178711
0.309357 0.437988 0.201508
0.489594 0.485016 0.113403
0.735382 0.526855 0.000000
0.988617 0.528137 0.000549
0.163422 0.606506 0.296936
0.361908 0.625580 0.292633
0.538300 0.656311 0.299103
0.700378 0.690460 0.164337
0.986877 0.738586 0.047516
0.222992 0.784790 0.374329
0.426849 0.791260 0.363861
0.622650 0.820038 0.360291
0.744812 0.835327 0.345795
0.939301 0.886810 0.201843
0.000275 0.046906 0.174683
0.230652 0.081848 0.223145
0.526062 0.000000 0.279572
0.736755 0.000000 0.280273
0.990326 0.000000 0.279785
0.000000 0.209351 0.214081
0.273254 0.249939 0.227051
0.525421 0.290894 0.279694
0.736694 0.291351 0.280243
0.988373 0.290192 0.279602
0.000000 0.408356 0.303864
0.290344 0.461456 0.321960
0.507080 0.508209 0.296234
0.735565 0.527191 0.279175
0.986755 0.528412 0.280365
0.000000 0.596069 0.385895
0.306824 0.654724 0.395691
0.560394 0.693481 0.392578
0.718964 0.721893 0.330505
0.985229 0.742981 0.286743
0.000000 0.774384 0.460175
0.362213 0.831116 0.478271
0.613434 0.851868 0.471924
0.775055 0.893494 0.464600
0.983063 0.944977 0.357330
0.000000 0.089325 0.320892
0.121979 0.102936 0.377899
0.354950 0.127960 0.363159
0.634888 0.092773 0.446838
0.988739 0.000000 0.515015
0.000000 0.240509 0.376190
0.124451 0.267151 0.484253
0.406647 0.277313 0.410645
0.668915 0.304565 0.473175
0.986786 0.290222 0.514709
0.000000 0.413330 0.416046
0.186096 0.452820 0.453278
0.472778 0.525513 0.499298
0.736786 0.549835 0.527679
0.985138 0.528290 0.515747
0.000000 0.619415 0.510437
0.000000 0.654449 0.524933
0.509613 0.714172 0.562225
0.727875 0.742981 0.539795
0.983612 0.745331 0.518616
0.000000 0.778839 0.574036
0.000000 0.816864 0.584320
0.544891 0.894196 0.615814
0.786987 0.939117 0.615082
0.981750 0.977692 0.552765
0.000000 0.143555 0.447449
0.000000 0.139801 0.511169
0.317596 0.146057 0.497437
0.468475 0.164581 0.489594
0.680786 0.174255 0.576111
0.000000 0.285126 0.515106
0.000000 0.299438 0.640045
0.335022 0.301636 0.569458
0.526611 0.297363 0.545105
0.756653 0.309387 0.619446
0.000000 0.460022 0.596527
0.000000 0.496094 0.652924
0.353943 0.526398 0.727600
0.639130 0.545746 0.639374
0.850555 0.557922 0.680939
0.000000 0.655273 0.644409
0.184296 0.683167 0.665253
0.424591 0.713043 0.690308
0.734528 0.774811 0.739532
0.957184 0.788116 0.771790
0.000000 0.807312 0.684998
0.000000 0.837769 0.697540
0.382721 0.879059 0.725128
0.740173 0.951874 0.768311
0.980316 0.996124 0.735718
0.000000 0.201019 0.619202
0.000000 0.189209 0.618958
0.224976 0.180511 0.649872
0.422180 0.190552 0.639679
0.553955 0.197693 0.607727
0.000000 0.335510 0.683594
0.000000 0.347076 0.775330
0.000000 0.317352 0.792511
0.437347 0.321442 0.697266
0.602844 0.294281 0.657440
0.000000 0.503052 0.755280
0.000000 0.539917 0.819580
0.370300 0.573669 0.867645
0.480530 0.553802 0.864838
0.723694 0.544312 0.763977
0.000000 0.678894 0.799042
0.190643 0.708130 0.831177
0.432678 0.736145 0.877106
0.721649 0.778931 0.943909
0.869537 0.792725 0.876556
0.177094 0.823151 0.812866
0.273193 0.854462 0.845825
0.499451 0.888641 0.882355
0.718048 0.927338 0.933380
0.978760 0.993439 0.970215
