Kodak Vision2 200T (5217) - Look.cube
# Created by Benjamin (IWLTBAP) : http://luts.iwltbap.com
# Copyright: (C) Copyright 2010-2017 Triune Films and IWLTBAP SAS
# Cannot be resold, shared or otherwise redistributed
TITLE "Film Print Emulation LUTs Pack (Rec.709, sRGB, DCI-P3)"
LUT_3D_SIZE 9
0.000000 0.000000 0.001160
0.103333 0.015015 0.017609
0.211761 0.027283 0.030029
0.317261 0.034698 0.036987
0.420074 0.039673 0.041626
0.526459 0.046112 0.048340
0.636536 0.060516 0.062103
0.748535 0.087280 0.088318
0.848846 0.131653 0.131836
0.000000 0.054871 0.000000
0.102173 0.097839 0.023041
0.218719 0.109406 0.036224
0.327179 0.111664 0.044159
0.431519 0.117157 0.048920
0.542542 0.124237 0.055847
0.654510 0.140289 0.071503
0.771515 0.178772 0.106781
0.865875 0.216583 0.143890
0.000000 0.113556 0.000000
0.045319 0.138092 0.000000
0.212341 0.203064 0.043427
0.326599 0.213806 0.047577
0.440277 0.207550 0.054596
0.556854 0.209991 0.065582
0.671875 0.227905 0.084564
0.788635 0.271606 0.127441
0.879700 0.300537 0.159149
0.000000 0.179993 0.000000
0.000000 0.191040 0.000000
0.171692 0.259949 0.009399
0.323212 0.308472 0.059418
0.444550 0.323273 0.063599
0.569641 0.327026 0.076538
0.693665 0.337860 0.101013
0.812134 0.382355 0.157410
0.898834 0.405151 0.190247
0.000000 0.243317 0.000000
0.000000 0.246918 0.000000
0.070343 0.288116 0.003387
0.290680 0.383087 0.049530
0.444733 0.425568 0.075653
0.578033 0.449860 0.087830
0.710449 0.467682 0.119354
0.838196 0.501343 0.174164
0.917053 0.520203 0.211456
0.000000 0.303802 0.000000
0.000000 0.308472 0.000000
0.019012 0.340424 0.002380
0.237244 0.432709 0.016327
0.423157 0.519684 0.074982
0.586121 0.562378 0.103607
0.723114 0.595306 0.140472
0.853058 0.621582 0.195770
0.930389 0.630463 0.231140
0.000000 0.362946 0.011810
0.000000 0.368439 0.013397
0.005188 0.389862 0.018097
0.177948 0.468994 0.015625
0.390839 0.593445 0.038879
0.571442 0.659180 0.110199
0.724731 0.702209 0.158112
0.859619 0.731964 0.222839
0.939484 0.735443 0.265778
0.000000 0.420868 0.038055
0.000000 0.427887 0.041595
0.000000 0.441223 0.043945
0.095245 0.506744 0.015442
0.347870 0.651611 0.040924
0.536621 0.738953 0.077301
0.708923 0.787750 0.163757
0.862701 0.835754 0.244263
0.946716 0.843475 0.304291
0.000000 0.481842 0.070740
0.000000 0.489532 0.074280
0.000000 0.504272 0.076721
0.052307 0.560730 0.076996
0.291534 0.687592 0.039337
0.475708 0.797729 0.063965
0.664612 0.871582 0.137360
0.839630 0.922028 0.238617
0.950012 0.944702 0.323151
0.014679 0.020935 0.144196
0.120575 0.037659 0.121704
0.217194 0.031891 0.107819
0.319122 0.037598 0.110718
0.422211 0.042572 0.115601
0.532135 0.048706 0.120880
0.641144 0.063568 0.135345
0.756805 0.093933 0.164093
0.855011 0.134216 0.203156
0.000000 0.102692 0.114197
0.106018 0.104858 0.115112
0.224792 0.108368 0.111938
0.330505 0.113983 0.117584
0.436218 0.119202 0.123108
0.548309 0.126648 0.130157
0.661652 0.144867 0.148193
0.780884 0.188110 0.186401
0.872681 0.223907 0.222382
0.000000 0.136353 0.062500
0.020996 0.145386 0.050079
0.215271 0.207153 0.104980
0.331268 0.214935 0.121521
0.446442 0.208832 0.129608
0.563507 0.212250 0.140137
0.680298 0.231964 0.160309
0.798706 0.288818 0.217163
0.889130 0.316101 0.248016
0.000000 0.180695 0.000000
0.000000 0.195496 0.002380
0.152161 0.257874 0.047913
0.329285 0.315460 0.121735
0.453796 0.329681 0.138306
0.578033 0.330383 0.151917
0.704224 0.344727 0.180450
0.816620 0.387756 0.235962
0.903931 0.410553 0.270813
0.000000 0.244507 0.000000
0.000000 0.250366 0.000000
0.042175 0.292542 0.025208
0.284454 0.385803 0.086578
0.452942 0.435577 0.139435
0.588928 0.459229 0.163116
0.719330 0.475372 0.199158
0.841522 0.505920 0.254608
0.919861 0.522797 0.289398
0.000000 0.304352 0.000000
0.000000 0.310699 0.000000
0.018097 0.342133 0.010925
0.219879 0.429291 0.049652
0.426025 0.527466 0.124847
0.591064 0.570374 0.168243
0.727753 0.600708 0.211823
0.855957 0.625763 0.274841
0.932251 0.632843 0.308746
0.000000 0.363129 0.000000
0.000000 0.370850 0.000702
0.003693 0.392151 0.011810
0.126770 0.456512 0.039398
0.385071 0.597046 0.081299
0.570435 0.664215 0.162598
0.724274 0.704193 0.217957
0.859985 0.734222 0.291962
0.940796 0.737915 0.334961
0.000000 0.421753 0.023682
0.000000 0.429779 0.028381
0.000000 0.445312 0.035278
0.063904 0.508087 0.063232
0.330719 0.643646 0.073578
0.528290 0.740051 0.119293
0.704742 0.790192 0.214844
0.861237 0.836853 0.305054
0.947235 0.845032 0.365906
0.000000 0.484406 0.057587
0.000000 0.493591 0.062286
0.000000 0.510559 0.067200
0.050842 0.564728 0.089386
0.266754 0.671143 0.064514
0.462219 0.794464 0.102539
0.656281 0.872772 0.157593
0.832977 0.921936 0.290283
0.950806 0.946564 0.380463
0.000000 0.000000 0.285950
0.123444 0.000000 0.288086
0.255432 0.059296 0.258789
0.347717 0.058929 0.223022
0.437012 0.052673 0.207672
0.542511 0.056305 0.203705
0.653076 0.070923 0.213501
0.767334 0.101257 0.243805
0.861938 0.139832 0.285583
0.000000 0.111267 0.284729
0.002869 0.057129 0.296844
0.257355 0.096161 0.273804
0.359741 0.119110 0.232239
0.450653 0.125580 0.213043
0.557892 0.133484 0.211670
0.672729 0.151978 0.226837
0.789703 0.200806 0.274750
0.880219 0.231628 0.307251
0.000000 0.213776 0.245941
0.000000 0.218079 0.257843
0.216797 0.209625 0.259796
0.358673 0.215424 0.229004
0.459625 0.208893 0.211182
0.571960 0.216309 0.217438
0.692719 0.241364 0.242798
0.807465 0.303589 0.308411
0.896576 0.326294 0.332550
0.000000 0.261017 0.189575
0.000000 0.270050 0.191559
0.080170 0.292877 0.179840
0.343292 0.329010 0.191803
0.470306 0.330017 0.215179
0.590393 0.336456 0.231750
0.713196 0.349731 0.265594
0.823883 0.394287 0.321075
0.911133 0.416260 0.349762
0.000000 0.290894 0.132416
0.000000 0.290527 0.119781
0.043488 0.312988 0.110687
0.270325 0.389557 0.113708
0.464783 0.449036 0.205688
0.600250 0.469666 0.239838
0.729675 0.482300 0.284058
0.846588 0.510406 0.333313
0.923279 0.526001 0.364197
0.000000 0.318665 0.065979
0.000000 0.316193 0.031433
0.017426 0.346893 0.029755
0.171326 0.417023 0.084991
0.424591 0.536743 0.174927
0.597900 0.579895 0.233887
0.735565 0.607605 0.289429
0.859497 0.630371 0.351166
0.935242 0.636078 0.383240
0.000000 0.367188 0.000000
0.000000 0.373688 0.000000
0.003967 0.396179 0.008148
0.081329 0.456757 0.063751
0.371613 0.596710 0.125305
0.567657 0.669556 0.214325
0.727539 0.710175 0.286224
0.862915 0.738983 0.360840
0.942047 0.740662 0.404572
0.000000 0.424774 0.005615
0.000000 0.432648 0.015503
0.000000 0.449890 0.026276
0.063141 0.513855 0.073395
0.303192 0.627777 0.105133
0.515472 0.740143 0.155853
0.698822 0.792908 0.268921
0.861877 0.840607 0.365234
0.948853 0.848053 0.428925
0.000000 0.488159 0.044739
0.000000 0.500671 0.049896
0.000000 0.514801 0.056824
0.051453 0.570190 0.094177
0.229309 0.648865 0.089081
0.444366 0.787262 0.139832
0.645477 0.872742 0.199097
0.825928 0.923065 0.338654
0.951904 0.948517 0.438965
0.000000 0.000000 0.413391
0.108765 0.000000 0.421173
0.252472 0.000000 0.416809
0.382172 0.072113 0.389984
0.477692 0.078430 0.354828
0.578339 0.081848 0.337891
0.677155 0.090607 0.332275
0.784790 0.122284 0.351807
0.874023 0.148651 0.367432
0.000000 0.103882 0.420929
0.000000 0.053345 0.437012
0.237579 0.010406 0.434357
0.389435 0.100586 0.407043
0.493866 0.132507 0.365112
0.597565 0.150940 0.348907
0.699738 0.176697 0.348969
0.803741 0.223267 0.378204
0.888977 0.244568 0.394836
0.000000 0.215179 0.406372
0.000000 0.214447 0.424835
0.154449 0.177612 0.427490
0.382843 0.188751 0.414398
0.507507 0.207367 0.367096
0.611267 0.222351 0.351807
0.717529 0.258362 0.359222
0.815338 0.307709 0.390991
0.901398 0.333405 0.413727
0.000000 0.312103 0.369476
0.000000 0.320618 0.383850
0.026886 0.325623 0.391235
0.331635 0.329834 0.392670
0.502655 0.342834 0.371368
0.619781 0.340668 0.352509
0.734436 0.357544 0.363892
0.836639 0.400818 0.405090
0.917725 0.422363 0.428894
0.000000 0.370361 0.318329
0.000000 0.379944 0.323456
0.027496 0.396881 0.327057
0.209930 0.434631 0.314728
0.490875 0.468201 0.333191
0.625916 0.475800 0.359344
0.747803 0.489960 0.374542
0.851959 0.514008 0.412445
0.926880 0.528961 0.441193
0.000000 0.408173 0.269989
0.000000 0.414978 0.268616
0.020264 0.434479 0.272522
0.116760 0.466644 0.273407
0.401550 0.556854 0.258331
0.615814 0.592773 0.312744
0.743835 0.612183 0.368774
0.862396 0.634369 0.426788
0.936340 0.637909 0.456268
0.000000 0.438690 0.225861
0.000000 0.441498 0.218994
0.005676 0.452545 0.207275
0.084717 0.486969 0.204895
0.340942 0.592377 0.168030
0.562988 0.677307 0.270905
0.731934 0.716583 0.350616
0.865906 0.743195 0.429260
0.945068 0.744446 0.473419
0.000000 0.468811 0.194092
0.000000 0.470520 0.180725
0.000000 0.475220 0.156616
0.065033 0.521515 0.140594
0.269470 0.610687 0.138092
0.502075 0.739685 0.201965
0.694885 0.797272 0.320740
0.862732 0.843994 0.424774
0.950989 0.851135 0.491821
0.000000 0.511230 0.166412
0.000000 0.511505 0.142822
0.000000 0.520111 0.098083
0.052460 0.575226 0.103699
0.171478 0.627838 0.115326
0.425568 0.778748 0.177582
0.634918 0.873077 0.240326
0.821503 0.924683 0.387054
0.953583 0.950745 0.498322
0.000519 0.000000 0.519318
0.102844 0.000000 0.531830
0.241089 0.000000 0.550446
0.386505 0.061035 0.539337
0.514435 0.095886 0.513794
0.609863 0.109894 0.486267
0.711273 0.128021 0.472809
0.819489 0.169678 0.482635
0.885284 0.179688 0.479004
0.000000 0.104218 0.533783
0.000000 0.051331 0.555939
0.225739 0.000000 0.568817
0.390167 0.023773 0.558105
0.532288 0.133514 0.533844
0.631836 0.172089 0.504364
0.738312 0.209930 0.497772
0.839874 0.252930 0.503632
0.897278 0.275482 0.508850
0.000000 0.216003 0.530365
0.000000 0.214813 0.551453
0.119598 0.162567 0.571838
0.362091 0.168762 0.564362
0.539490 0.191681 0.546661
0.652374 0.234436 0.518494
0.759399 0.285736 0.514343
0.850067 0.329163 0.513672
0.908752 0.359344 0.524078
0.000000 0.318939 0.507935
0.000000 0.328156 0.527222
0.000000 0.329071 0.543915
0.280975 0.302124 0.543793
0.525482 0.319794 0.544312
0.655762 0.346588 0.516510
0.770935 0.374817 0.514496
0.859436 0.412384 0.522247
0.921082 0.441101 0.536743
0.000000 0.407562 0.466064
0.000000 0.419281 0.480499
0.000946 0.433868 0.491333
0.159210 0.445221 0.501740
0.472656 0.469604 0.504944
0.647644 0.486755 0.504517
0.771912 0.506073 0.508698
0.869080 0.527283 0.528778
0.928925 0.543274 0.546936
0.000000 0.460114 0.424591
0.000000 0.471680 0.432526
0.002686 0.488129 0.441162
0.076935 0.517426 0.449158
0.389771 0.573486 0.446716
0.630585 0.611877 0.472809
0.756897 0.628479 0.505341
0.874634 0.646179 0.536194
0.936646 0.645966 0.554565
0.000000 0.505066 0.391052
0.000000 0.513947 0.396820
0.006714 0.531586 0.398987
0.081146 0.565369 0.412201
0.277527 0.632690 0.392151
0.533997 0.699432 0.403992
0.749146 0.730927 0.464203
0.870422 0.750977 0.528778
0.944489 0.749512 0.566071
0.000000 0.540680 0.367035
0.000000 0.549408 0.369232
0.002533 0.563538 0.367279
0.070129 0.598450 0.373016
0.171875 0.668091 0.342377
0.401672 0.762634 0.259827
0.672455 0.818298 0.363403
0.866455 0.850983 0.500916
0.950592 0.854919 0.565552
0.000000 0.577759 0.353149
0.000000 0.581512 0.346313
0.000000 0.589722 0.337738
0.054596 0.623199 0.332611
0.137848 0.662689 0.323059
0.367096 0.795563 0.214691
0.612579 0.890808 0.280823
0.815704 0.932312 0.434448
0.954895 0.953064 0.560364
0.013458 0.000000 0.628784
0.106842 0.000000 0.643585
0.238312 0.000000 0.665924
0.394318 0.000000 0.670776
0.539612 0.115540 0.658936
0.652832 0.156250 0.643372
0.736298 0.179657 0.620911
0.840515 0.217743 0.615753
0.897980 0.248322 0.607941
0.000000 0.111023 0.645905
0.000000 0.053314 0.666748
0.222046 0.000000 0.686005
0.398193 0.005981 0.690094
0.559021 0.138550 0.678467
0.676270 0.211945 0.667358
0.761749 0.250336 0.649750
0.859802 0.302917 0.642517
0.908203 0.333954 0.633423
0.000000 0.226929 0.648041
0.000000 0.229065 0.669037
0.058594 0.163544 0.696808
0.358337 0.142212 0.698395
0.556305 0.187408 0.691101
0.691528 0.259460 0.683960
0.784485 0.319519 0.668610
0.867188 0.372864 0.654449
0.916962 0.406586 0.649261
0.000000 0.333282 0.632721
0.000000 0.346161 0.650421
0.000000 0.346466 0.670380
0.247009 0.302673 0.682770
0.516632 0.305481 0.685638
0.687683 0.353455 0.684387
0.791718 0.399506 0.673523
0.873627 0.444702 0.661041
0.924011 0.474121 0.655273
0.000000 0.426331 0.595093
0.000000 0.441681 0.613159
0.000000 0.454742 0.627319
0.065125 0.449158 0.637970
0.420532 0.431824 0.649628
0.661621 0.467438 0.664917
0.787476 0.506775 0.656891
0.879608 0.544739 0.662598
0.928528 0.563843 0.661194
0.000000 0.499512 0.546997
0.000000 0.514801 0.559814
0.000000 0.529266 0.573730
0.041656 0.545105 0.581757
0.360535 0.572906 0.611237
0.596039 0.615417 0.590851
0.763672 0.636017 0.627106
0.882812 0.655548 0.659027
0.933411 0.660889 0.668518
0.000000 0.544281 0.516632
0.000000 0.554474 0.524048
0.000000 0.567688 0.530304
0.046295 0.590546 0.538483
0.137421 0.642883 0.549347
0.523590 0.700012 0.564423
0.745636 0.739319 0.599304
0.879181 0.758667 0.652802
0.939331 0.755798 0.676575
0.000000 0.580383 0.492950
0.000000 0.589539 0.498077
0.000000 0.599609 0.498718
0.052002 0.630341 0.509033
0.134338 0.671906 0.521271
0.417725 0.759583 0.526825
0.651154 0.832916 0.526642
0.871918 0.859467 0.617340
0.944824 0.858276 0.676727
0.000000 0.613525 0.478119
0.000000 0.619415 0.478088
0.000000 0.629913 0.475372
0.056580 0.664978 0.484619
0.138031 0.698975 0.489136
0.261902 0.823303 0.482086
0.521088 0.913940 0.439117
0.802032 0.942749 0.556244
0.953125 0.952728 0.657867
0.018036 0.000000 0.724091
0.112732 0.000000 0.743744
0.234192 0.000000 0.771210
0.396057 0.000000 0.788422
0.556000 0.119019 0.778229
0.685455 0.209015 0.770050
0.779877 0.256256 0.768341
0.857147 0.286896 0.750031
0.902466 0.314972 0.718719
0.000000 0.123413 0.750458
0.000000 0.073547 0.775330
0.220612 0.000000 0.796753
0.396271 0.000000 0.810059
0.579620 0.108368 0.803436
0.714630 0.254059 0.797150
0.806732 0.321198 0.793915
0.873444 0.361694 0.771362
0.911316 0.390411 0.742371
0.000000 0.245911 0.757904
0.000000 0.247253 0.781525
0.000000 0.187622 0.810120
0.334381 0.001556 0.824615
0.562805 0.131592 0.813873
0.721069 0.283081 0.809814
0.821472 0.374329 0.811249
0.879669 0.424377 0.785706
0.918915 0.453766 0.762329
0.000000 0.354462 0.736206
0.000000 0.365570 0.760101
0.000000 0.365631 0.782745
0.147064 0.297882 0.806183
0.499268 0.274170 0.813477
0.702362 0.353760 0.806061
0.822601 0.436829 0.814026
0.884125 0.488007 0.793396
0.923645 0.515503 0.767548
0.000000 0.445740 0.698059
0.000000 0.463409 0.714966
0.000000 0.473297 0.730499
0.013733 0.460144 0.748383
0.380768 0.414001 0.773102
0.647400 0.440582 0.789795
0.804688 0.517273 0.797913
0.887573 0.571228 0.794067
0.927399 0.591187 0.771881
0.000000 0.539978 0.645538
0.000000 0.555817 0.654877
0.000000 0.569336 0.665680
0.018433 0.575775 0.671936
0.286255 0.560760 0.714172
0.553802 0.565857 0.737122
0.769043 0.612518 0.770020
0.888275 0.660187 0.783997
0.930176 0.675781 0.774078
0.000000 0.576874 0.621613
0.000000 0.587860 0.629486
0.000000 0.600647 0.637085
0.021271 0.613586 0.643097
0.089722 0.640625 0.671570
0.485291 0.684540 0.707611
0.701324 0.735931 0.693848
0.881134 0.758179 0.769257
0.933350 0.765869 0.781494
0.000000 0.609314 0.598083
0.000000 0.617767 0.604858
0.000000 0.623779 0.605560
0.024384 0.642578 0.614166
0.090515 0.670044 0.629150
0.351776 0.747009 0.665955
0.637817 0.819031 0.686188
0.868347 0.859619 0.741425
0.938812 0.862122 0.782684
0.000000 0.632935 0.576599
0.000000 0.637085 0.578613
0.000000 0.639130 0.573334
0.028961 0.664581 0.580811
0.095764 0.694397 0.588348
0.187012 0.813599 0.608429
0.503143 0.890961 0.636047
0.771332 0.937683 0.663452
0.946747 0.948944 0.765808
0.022247 0.000000 0.823425
0.116852 0.000000 0.837769
0.229065 0.000000 0.852997
0.375122 0.000000 0.865570
0.543365 0.014832 0.877777
0.693176 0.224091 0.873108
0.799957 0.314972 0.871918
0.880951 0.368042 0.869843
0.906647 0.384796 0.831970
0.000000 0.133636 0.840363
0.000000 0.097839 0.846252
0.214905 0.000000 0.850006
0.372253 0.000000 0.862793
0.551849 0.008698 0.882782
0.710114 0.253693 0.890411
0.824219 0.366913 0.886749
0.887482 0.429749 0.880676
0.912415 0.446625 0.851898
0.000000 0.257660 0.841736
0.000000 0.259155 0.840485
0.000000 0.207489 0.843231
0.298859 0.053162 0.858307
0.526917 0.066437 0.877014
0.714050 0.274445 0.892609
0.840912 0.408386 0.892700
0.890289 0.484589 0.885040
0.918091 0.495667 0.866943
0.000000 0.364380 0.835663
0.000000 0.370575 0.837982
0.000000 0.365814 0.833954
0.026031 0.289001 0.847107
0.449280 0.261627 0.864319
0.678162 0.324005 0.887177
0.828522 0.444885 0.893860
0.891510 0.533875 0.886658
0.921326 0.545685 0.869659
0.000000 0.457092 0.797577
0.000000 0.472931 0.813019
0.000000 0.489105 0.816315
0.000000 0.455963 0.831085
0.318665 0.386658 0.852722
0.607086 0.399933 0.879425
0.797363 0.491272 0.891144
0.892700 0.594971 0.888336
0.923859 0.614075 0.876587
0.000000 0.569763 0.717041
0.000000 0.585083 0.725983
0.000000 0.593872 0.733673
0.000000 0.594025 0.739868
0.060913 0.540314 0.815247
0.490173 0.511566 0.857574
0.744965 0.564697 0.881287
0.894531 0.663300 0.888733
0.925354 0.689240 0.876556
0.000000 0.609039 0.689301
0.000000 0.618683 0.695923
0.000000 0.626343 0.701447
0.001495 0.631226 0.705109
0.056183 0.647400 0.735657
0.393311 0.655029 0.803040
0.668488 0.673615 0.855042
0.877991 0.737762 0.882568
0.927002 0.769684 0.877716
0.000000 0.631012 0.666931
0.000000 0.637451 0.672516
0.000000 0.641663 0.673309
0.003387 0.650330 0.678345
0.058075 0.670258 0.696411
0.152679 0.737427 0.773010
0.578613 0.791504 0.818604
0.839813 0.847321 0.840607
0.930328 0.863190 0.876007
0.000000 0.648285 0.644073
0.000000 0.651672 0.642365
0.000000 0.653564 0.639404
0.006042 0.665192 0.644470
0.061768 0.690552 0.662323
0.136139 0.776672 0.726166
0.296661 0.863403 0.772003
0.752075 0.926544 0.805267
0.937897 0.942200 0.864197
0.043152 0.000000 0.839386
0.113190 0.000000 0.841064
0.224945 0.065460 0.847290
0.350128 0.157867 0.855316
0.500488 0.202057 0.871460
0.649048 0.260986 0.890381
0.773987 0.338806 0.904541
0.885315 0.425415 0.908112
0.910675 0.463165 0.903198
0.022675 0.128967 0.839569
0.095703 0.133484 0.840088
0.252686 0.177734 0.845306
0.358185 0.195984 0.853699
0.508423 0.208252 0.871277
0.662476 0.275635 0.892181
0.790497 0.373535 0.907135
0.895447 0.472137 0.911285
0.915405 0.506622 0.907745
0.002563 0.239349 0.836792
0.026215 0.242584 0.835693
0.143097 0.223694 0.836456
0.307983 0.203857 0.844727
0.486603 0.205658 0.867645
0.667572 0.279968 0.893005
0.803040 0.401489 0.909668
0.901337 0.518616 0.914856
0.920624 0.543945 0.913086
0.000000 0.345398 0.828674
0.000000 0.356262 0.823700
0.000000 0.354980 0.820648
0.036621 0.296692 0.832214
0.418762 0.263000 0.856750
0.641235 0.315521 0.888977
0.795746 0.428833 0.907959
0.906586 0.553406 0.916931
0.923401 0.584412 0.916809
0.000000 0.460999 0.823120
0.000000 0.489685 0.818420
0.000000 0.512054 0.810486
0.000000 0.448975 0.816467
0.279907 0.385223 0.843414
0.569183 0.385406 0.878113
0.769867 0.467194 0.905212
0.899780 0.588898 0.916779
0.923584 0.639587 0.917145
0.000000 0.573273 0.777405
0.000000 0.585419 0.764557
0.000000 0.592926 0.755951
0.000000 0.592224 0.754089
0.027924 0.526154 0.833069
0.450104 0.484192 0.865021
0.710815 0.531677 0.898010
0.884674 0.635498 0.915955
0.923981 0.702240 0.918427
0.000000 0.618103 0.730408
0.000000 0.623718 0.725128
0.000000 0.628235 0.718872
0.000000 0.629303 0.715607
0.029785 0.639435 0.745026
0.300934 0.619781 0.846619
0.619690 0.624969 0.889435
0.845764 0.696381 0.912292
0.924377 0.769958 0.918915
0.000000 0.638550 0.705231
0.000000 0.642456 0.700745
0.000000 0.645020 0.697083
0.000000 0.646271 0.694489
0.032898 0.661865 0.713135
0.095306 0.710480 0.807983
0.501465 0.736664 0.879181
0.792572 0.780151 0.908508
0.925690 0.852875 0.920227
0.000000 0.653748 0.682587
0.000000 0.657288 0.680237
0.000000 0.659973 0.678864
0.000000 0.661499 0.677185
0.035126 0.683685 0.697327
0.098846 0.759918 0.774597
0.209442 0.846405 0.856781
0.712280 0.902130 0.904297
0.929962 0.934814 0.926178
