Kodak Vision2 250D (5205) - Only contrast.cube
# Created by Benjamin (IWLTBAP) : http://luts.iwltbap.com
# Copyright: (C) Copyright 2010-2017 Triune Films and IWLTBAP SAS
# Cannot be resold, shared or otherwise redistributed
TITLE "Film Print Emulation LUTs Pack (Rec.709, sRGB, DCI-P3)"
LUT_3D_SIZE 33
0.000610 0.000610 0.000610
0.013031 0.000610 0.000610
0.029663 0.000580 0.000580
0.051880 0.000519 0.000519
0.080414 0.000397 0.000397
0.110321 0.000275 0.000275
0.141174 0.000122 0.000122
0.170898 0.000000 0.000000
0.201172 0.000000 0.000000
0.231018 0.000000 0.000000
0.263702 0.000000 0.000000
0.293640 0.000000 0.000000
0.322083 0.000000 0.000000
0.349579 0.000000 0.000000
0.376526 0.000000 0.000000
0.403870 0.000000 0.000000
0.431244 0.000000 0.000000
0.457245 0.000000 0.000000
0.484009 0.000000 0.000000
0.509888 0.000000 0.000000
0.536957 0.000000 0.000000
0.563507 0.000000 0.000000
0.591797 0.000000 0.000000
0.620270 0.000000 0.000000
0.649139 0.000000 0.000000
0.680420 0.000000 0.000000
0.711060 0.000000 0.000000
0.741425 0.000000 0.000000
0.772644 0.000000 0.000000
0.806519 0.000000 0.000000
0.840607 0.000000 0.000000
0.877747 0.000000 0.000000
0.915833 0.000000 0.000000
0.000610 0.013031 0.000610
0.013062 0.013062 0.000610
0.029724 0.013031 0.000580
0.051971 0.012970 0.000488
0.080536 0.012878 0.000366
0.110443 0.012756 0.000244
0.141296 0.012634 0.000122
0.171021 0.012543 0.000000
0.201294 0.012421 0.000000
0.231140 0.012329 0.000000
0.263824 0.012207 0.000000
0.293762 0.012085 0.000000
0.322205 0.011993 0.000000
0.349701 0.011902 0.000000
0.376648 0.011810 0.000000
0.403992 0.011719 0.000000
0.431335 0.011627 0.000000
0.457336 0.011566 0.000000
0.484100 0.011475 0.000000
0.509979 0.011414 0.000000
0.537079 0.011322 0.000000
0.563599 0.011230 0.000000
0.591888 0.011139 0.000000
0.620392 0.011047 0.000000
0.649261 0.010956 0.000000
0.680573 0.010834 0.000000
0.711182 0.010742 0.000000
0.741547 0.010620 0.000000
0.772766 0.010529 0.000000
0.806671 0.010406 0.000000
0.840759 0.010254 0.000000
0.877960 0.010101 0.000000
0.916016 0.009949 0.000000
0.000580 0.029663 0.000580
0.013031 0.029724 0.000580
0.029724 0.029724 0.000519
0.052032 0.029724 0.000458
0.080627 0.029633 0.000336
0.110535 0.029572 0.000214
0.141388 0.029480 0.000092
0.171082 0.029419 0.000000
0.201385 0.029358 0.000000
0.231232 0.029266 0.000000
0.263916 0.029175 0.000000
0.293823 0.029114 0.000000
0.322266 0.029053 0.000000
0.349762 0.028992 0.000000
0.376709 0.028931 0.000000
0.404053 0.028870 0.000000
0.431396 0.028839 0.000000
0.457397 0.028778 0.000000
0.484161 0.028717 0.000000
0.510040 0.028687 0.000000
0.537140 0.028625 0.000000
0.563660 0.028595 0.000000
0.591980 0.028534 0.000000
0.620453 0.028473 0.000000
0.649353 0.028412 0.000000
0.680664 0.028320 0.000000
0.711273 0.028229 0.000000
0.741638 0.028168 0.000000
0.772888 0.028076 0.000000
0.806763 0.027985 0.000000
0.840881 0.027893 0.000000
0.878113 0.027771 0.000000
0.916138 0.027649 0.000000
0.000519 0.051880 0.000519
0.012970 0.051971 0.000488
0.029724 0.052032 0.000458
0.052094 0.052094 0.000397
0.080688 0.052063 0.000275
0.110596 0.052063 0.000153
0.141449 0.052032 0.000000
0.171143 0.052032 0.000000
0.201416 0.052002 0.000000
0.231293 0.052002 0.000000
0.264008 0.051941 0.000000
0.293884 0.051941 0.000000
0.322296 0.051941 0.000000
0.349792 0.051941 0.000000
0.376740 0.051941 0.000000
0.404083 0.051941 0.000000
0.431427 0.051941 0.000000
0.457397 0.051971 0.000000
0.484192 0.051971 0.000000
0.510071 0.051971 0.000000
0.537170 0.052002 0.000000
0.563690 0.052002 0.000000
0.592010 0.052002 0.000000
0.620514 0.052002 0.000000
0.649384 0.052002 0.000000
0.680725 0.051971 0.000000
0.711304 0.051941 0.000000
0.741699 0.051941 0.000000
0.772949 0.051910 0.000000
0.806854 0.051880 0.000000
0.840942 0.051819 0.000000
0.878235 0.051758 0.000000
0.916229 0.051697 0.000000
0.000397 0.080414 0.000397
0.012878 0.080536 0.000366
0.029633 0.080627 0.000336
0.052063 0.080688 0.000275
0.080688 0.080688 0.000153
0.110596 0.080688 0.000031
0.141449 0.080688 0.000000
0.171173 0.080688 0.000000
0.201447 0.080688 0.000000
0.231293 0.080688 0.000000
0.264008 0.080658 0.000000
0.293884 0.080658 0.000000
0.322296 0.080658 0.000000
0.349792 0.080688 0.000000
0.376709 0.080719 0.000000
0.404083 0.080719 0.000000
0.431427 0.080750 0.000000
0.457367 0.080780 0.000000
0.484192 0.080811 0.000000
0.510040 0.080811 0.000000
0.537170 0.080841 0.000000
0.563690 0.080872 0.000000
0.592010 0.080872 0.000000
0.620514 0.080902 0.000000
0.649384 0.080902 0.000000
0.680756 0.080872 0.000000
0.711334 0.080872 0.000000
0.741699 0.080872 0.000000
0.772980 0.080872 0.000000
0.806885 0.080841 0.000000
0.840973 0.080811 0.000000
0.878326 0.080750 0.000000
0.916260 0.080719 0.000000
0.000275 0.110321 0.000275
0.012756 0.110443 0.000244
0.029572 0.110535 0.000214
0.052063 0.110596 0.000153
0.080688 0.110596 0.000031
0.110596 0.110596 0.000000
0.141479 0.110596 0.000000
0.171173 0.110626 0.000000
0.201447 0.110626 0.000000
0.231293 0.110626 0.000000
0.264038 0.110596 0.000000
0.293884 0.110596 0.000000
0.322296 0.110626 0.000000
0.349762 0.110657 0.000000
0.376709 0.110657 0.000000
0.404053 0.110687 0.000000
0.431396 0.110718 0.000000
0.457336 0.110748 0.000000
0.484161 0.110779 0.000000
0.510010 0.110809 0.000000
0.537140 0.110840 0.000000
0.563660 0.110870 0.000000
0.592010 0.110870 0.000000
0.620483 0.110901 0.000000
0.649384 0.110901 0.000000
0.680756 0.110901 0.000000
0.711334 0.110901 0.000000
0.741730 0.110901 0.000000
0.772980 0.110901 0.000000
0.806915 0.110870 0.000000
0.841003 0.110870 0.000000
0.878418 0.110809 0.000000
0.916321 0.110748 0.000000
0.000122 0.141174 0.000122
0.012634 0.141296 0.000122
0.029480 0.141388 0.000092
0.052032 0.141449 0.000000
0.080688 0.141449 0.000000
0.110596 0.141479 0.000000
0.141449 0.141449 0.000000
0.171143 0.141479 0.000000
0.201447 0.141479 0.000000
0.231293 0.141479 0.000000
0.264038 0.141449 0.000000
0.293854 0.141449 0.000000
0.322266 0.141479 0.000000
0.349731 0.141479 0.000000
0.376678 0.141510 0.000000
0.404053 0.141541 0.000000
0.431366 0.141541 0.000000
0.457306 0.141571 0.000000
0.484131 0.141602 0.000000
0.509979 0.141632 0.000000
0.537140 0.141663 0.000000
0.563629 0.141693 0.000000
0.592010 0.141693 0.000000
0.620483 0.141693 0.000000
0.649384 0.141724 0.000000
0.680786 0.141693 0.000000
0.711334 0.141693 0.000000
0.741730 0.141693 0.000000
0.773010 0.141693 0.000000
0.806946 0.141663 0.000000
0.841034 0.141632 0.000000
0.878479 0.141571 0.000000
0.916351 0.141541 0.000000
0.000000 0.170898 0.000000
0.012543 0.171021 0.000000
0.029419 0.171082 0.000000
0.052032 0.171143 0.000000
0.080688 0.171173 0.000000
0.110626 0.171173 0.000000
0.141479 0.171143 0.000000
0.171173 0.171173 0.000000
0.201447 0.171173 0.000000
0.231293 0.171173 0.000000
0.264069 0.171143 0.000000
0.293854 0.171143 0.000000
0.322266 0.171143 0.000000
0.349731 0.171173 0.000000
0.376648 0.171204 0.000000
0.404022 0.171234 0.000000
0.431366 0.171234 0.000000
0.457275 0.171265 0.000000
0.484131 0.171295 0.000000
0.509949 0.171326 0.000000
0.537109 0.171356 0.000000
0.563599 0.171356 0.000000
0.591980 0.171387 0.000000
0.620453 0.171387 0.000000
0.649384 0.171417 0.000000
0.680786 0.171387 0.000000
0.711334 0.171387 0.000000
0.741730 0.171387 0.000000
0.773010 0.171387 0.000000
0.806976 0.171356 0.000000
0.841064 0.171326 0.000000
0.878571 0.171295 0.000000
0.916382 0.171234 0.000000
0.000000 0.201172 0.000000
0.012421 0.201294 0.000000
0.029358 0.201385 0.000000
0.052002 0.201416 0.000000
0.080688 0.201447 0.000000
0.110626 0.201447 0.000000
0.141479 0.201447 0.000000
0.171173 0.201447 0.000000
0.201447 0.201447 0.000000
0.231293 0.201447 0.000000
0.264069 0.201447 0.000000
0.293854 0.201447 0.000000
0.322235 0.201447 0.000000
0.349701 0.201477 0.000000
0.376648 0.201477 0.000000
0.404022 0.201508 0.000000
0.431335 0.201538 0.000000
0.457245 0.201569 0.000000
0.484100 0.201599 0.000000
0.509918 0.201630 0.000000
0.537109 0.201630 0.000000
0.563599 0.201660 0.000000
0.591980 0.201691 0.000000
0.620453 0.201691 0.000000
0.649384 0.201691 0.000000
0.680817 0.201691 0.000000
0.711334 0.201691 0.000000
0.741730 0.201691 0.000000
0.773041 0.201691 0.000000
0.807007 0.201660 0.000000
0.841095 0.201630 0.000000
0.878662 0.201569 0.000000
0.916443 0.201538 0.000000
0.000000 0.231018 0.000000
0.012329 0.231140 0.000000
0.029266 0.231232 0.000000
0.052002 0.231293 0.000000
0.080688 0.231293 0.000000
0.110626 0.231293 0.000000
0.141479 0.231293 0.000000
0.171173 0.231293 0.000000
0.201447 0.231293 0.000000
0.231293 0.231293 0.000000
0.264069 0.231293 0.000000
0.293823 0.231293 0.000000
0.322235 0.231293 0.000000
0.349670 0.231323 0.000000
0.376617 0.231354 0.000000
0.403992 0.231354 0.000000
0.431305 0.231384 0.000000
0.457214 0.231415 0.000000
0.484070 0.231445 0.000000
0.509888 0.231476 0.000000
0.537079 0.231476 0.000000
0.563568 0.231506 0.000000
0.591980 0.231537 0.000000
0.620453 0.231537 0.000000
0.649384 0.231567 0.000000
0.680817 0.231567 0.000000
0.711334 0.231567 0.000000
0.741730 0.231567 0.000000
0.773041 0.231567 0.000000
0.807037 0.231537 0.000000
0.841125 0.231537 0.000000
0.878723 0.231476 0.000000
0.916473 0.231445 0.000000
0.000000 0.263702 0.000000
0.012207 0.263824 0.000000
0.029175 0.263916 0.000000
0.051941 0.264008 0.000000
0.080658 0.264008 0.000000
0.110596 0.264038 0.000000
0.141449 0.264038 0.000000
0.171143 0.264069 0.000000
0.201447 0.264069 0.000000
0.231293 0.264069 0.000000
0.264069 0.264069 0.000000
0.293823 0.264069 0.000000
0.322205 0.264099 0.000000
0.349640 0.264130 0.000000
0.376587 0.264160 0.000000
0.403961 0.264191 0.000000
0.431274 0.264221 0.000000
0.457184 0.264252 0.000000
0.484039 0.264282 0.000000
0.509857 0.264313 0.000000
0.537048 0.264343 0.000000
0.563538 0.264374 0.000000
0.591949 0.264374 0.000000
0.620422 0.264404 0.000000
0.649353 0.264404 0.000000
0.680817 0.264404 0.000000
0.711304 0.264404 0.000000
0.741730 0.264404 0.000000
0.773041 0.264404 0.000000
0.807068 0.264374 0.000000
0.841125 0.264343 0.000000
0.878784 0.264313 0.000000
0.916504 0.264252 0.000000
0.000000 0.293640 0.000000
0.012085 0.293762 0.000000
0.029114 0.293823 0.000000
0.051941 0.293884 0.000000
0.080658 0.293884 0.000000
0.110596 0.293884 0.000000
0.141449 0.293854 0.000000
0.171143 0.293854 0.000000
0.201447 0.293854 0.000000
0.231293 0.293823 0.000000
0.264069 0.293823 0.000000
0.293793 0.293793 0.000000
0.322174 0.293793 0.000000
0.349640 0.293823 0.000000
0.376556 0.293823 0.000000
0.403931 0.293823 0.000000
0.431274 0.293854 0.000000
0.457153 0.293854 0.000000
0.484009 0.293884 0.000000
0.509827 0.293915 0.000000
0.537018 0.293915 0.000000
0.563507 0.293915 0.000000
0.591949 0.293915 0.000000
0.620422 0.293915 0.000000
0.649353 0.293915 0.000000
0.680847 0.293915 0.000000
0.711304 0.293884 0.000000
0.741730 0.293884 0.000000
0.773071 0.293854 0.000000
0.807098 0.293823 0.000000
0.841156 0.293793 0.000000
0.878876 0.293732 0.000000
0.916565 0.293671 0.000000
0.000000 0.322083 0.000000
0.011993 0.322205 0.000000
0.029053 0.322266 0.000000
0.051941 0.322296 0.000000
0.080658 0.322296 0.000000
0.110626 0.322296 0.000000
0.141479 0.322266 0.000000
0.171143 0.322266 0.000000
0.201447 0.322235 0.000000
0.231293 0.322235 0.000000
0.264099 0.322205 0.000000
0.293793 0.322174 0.000000
0.322174 0.322174 0.000000
0.349609 0.322174 0.000000
0.376556 0.322174 0.000000
0.403931 0.322205 0.000000
0.431244 0.322205 0.000000
0.457123 0.322205 0.000000
0.484009 0.322205 0.000000
0.509796 0.322235 0.000000
0.537018 0.322235 0.000000
0.563507 0.322235 0.000000
0.591949 0.322235 0.000000
0.620422 0.322235 0.000000
0.649384 0.322235 0.000000
0.680878 0.322205 0.000000
0.711334 0.322174 0.000000
0.741730 0.322174 0.000000
0.773102 0.322144 0.000000
0.807129 0.322083 0.000000
0.841187 0.322052 0.000000
0.878967 0.321991 0.000000
0.916626 0.321930 0.000000
0.000000 0.349579 0.000000
0.011902 0.349701 0.000000
0.028992 0.349762 0.000000
0.051941 0.349792 0.000000
0.080688 0.349792 0.000000
0.110657 0.349762 0.000000
0.141479 0.349731 0.000000
0.171173 0.349731 0.000000
0.201477 0.349701 0.000000
0.231323 0.349670 0.000000
0.264130 0.349640 0.000000
0.293823 0.349640 0.000000
0.322174 0.349609 0.000000
0.349609 0.349609 0.000000
0.376556 0.349640 0.000000
0.403931 0.349609 0.000000
0.431244 0.349609 0.000000
0.457123 0.349640 0.000000
0.484009 0.349640 0.000000
0.509796 0.349640 0.000000
0.537018 0.349640 0.000000
0.563507 0.349640 0.000000
0.591949 0.349640 0.000000
0.620422 0.349640 0.000000
0.649384 0.349609 0.000000
0.680908 0.349579 0.000000
0.711334 0.349579 0.000000
0.741760 0.349548 0.000000
0.773132 0.349518 0.000000
0.807190 0.349487 0.000000
0.841248 0.349426 0.000000
0.879059 0.349365 0.000000
0.916687 0.349274 0.000000
0.000000 0.376526 0.000000
0.011810 0.376648 0.000000
0.028931 0.376709 0.000000
0.051941 0.376740 0.000000
0.080719 0.376709 0.000000
0.110657 0.376709 0.000000
0.141510 0.376678 0.000000
0.171204 0.376648 0.000000
0.201477 0.376648 0.000000
0.231354 0.376617 0.000000
0.264160 0.376587 0.000000
0.293823 0.376556 0.000000
0.322174 0.376556 0.000000
0.349640 0.376556 0.000000
0.376556 0.376556 0.000000
0.403931 0.376556 0.000000
0.431244 0.376556 0.000000
0.457123 0.376556 0.000000
0.484009 0.376556 0.000000
0.509796 0.376587 0.000000
0.537018 0.376587 0.000000
0.563507 0.376587 0.000000
0.591980 0.376587 0.000000
0.620422 0.376556 0.000000
0.649414 0.376556 0.000000
0.680939 0.376526 0.000000
0.711365 0.376495 0.000000
0.741791 0.376495 0.000000
0.773193 0.376465 0.000000
0.807251 0.376404 0.000000
0.841278 0.376373 0.000000
0.879181 0.376282 0.000000
0.916748 0.376221 0.000000
0.000000 0.403870 0.000000
0.011719 0.403992 0.000000
0.028870 0.404053 0.000000
0.051941 0.404083 0.000000
0.080719 0.404083 0.000000
0.110687 0.404053 0.000000
0.141541 0.404053 0.000000
0.171234 0.404022 0.000000
0.201508 0.404022 0.000000
0.231354 0.403992 0.000000
0.264191 0.403961 0.000000
0.293823 0.403931 0.000000
0.322205 0.403931 0.000000
0.349609 0.403931 0.000000
0.376556 0.403931 0.000000
0.403931 0.403931 0.000000
0.431244 0.403961 0.000000
0.457123 0.403961 0.000000
0.484009 0.403961 0.000000
0.509766 0.403961 0.000000
0.537018 0.403992 0.000000
0.563507 0.403992 0.000000
0.591980 0.403992 0.000000
0.620422 0.403961 0.000000
0.649414 0.403961 0.000000
0.680969 0.403931 0.000000
0.711395 0.403900 0.000000
0.741821 0.403900 0.000000
0.773224 0.403870 0.000000
0.807281 0.403809 0.000000
0.841339 0.403778 0.000000
0.879272 0.403717 0.000000
0.916809 0.403625 0.000000
0.000000 0.431244 0.000000
0.011627 0.431335 0.000000
0.028839 0.431396 0.000000
0.051941 0.431427 0.000000
0.080750 0.431427 0.000000
0.110718 0.431396 0.000000
0.141541 0.431366 0.000000
0.171234 0.431366 0.000000
0.201538 0.431335 0.000000
0.231384 0.431305 0.000000
0.264221 0.431274 0.000000
0.293854 0.431274 0.000000
0.322205 0.431244 0.000000
0.349609 0.431244 0.000000
0.376556 0.431244 0.000000
0.403961 0.431244 0.000000
0.431244 0.431244 0.000000
0.457092 0.431274 0.000000
0.484009 0.431274 0.000000
0.509766 0.431274 0.000000
0.537018 0.431274 0.000000
0.563507 0.431274 0.000000
0.591980 0.431274 0.000000
0.620453 0.431244 0.000000
0.649445 0.431244 0.000000
0.681000 0.431213 0.000000
0.711395 0.431183 0.000000
0.741852 0.431152 0.000000
0.773254 0.431122 0.000000
0.807343 0.431091 0.000000
0.841370 0.431030 0.000000
0.879364 0.430969 0.000000
0.916870 0.430908 0.000000
0.000000 0.457245 0.000000
0.011566 0.457336 0.000000
0.028778 0.457397 0.000000
0.051971 0.457397 0.000000
0.080780 0.457367 0.000000
0.110748 0.457336 0.000000
0.141571 0.457306 0.000000
0.171265 0.457275 0.000000
0.201569 0.457245 0.000000
0.231415 0.457214 0.000000
0.264252 0.457184 0.000000
0.293854 0.457153 0.000000
0.322205 0.457123 0.000000
0.349640 0.457123 0.000000
0.376556 0.457123 0.000000
0.403961 0.457123 0.000000
0.431274 0.457092 0.000000
0.457092 0.457092 0.000000
0.484009 0.457092 0.000000
0.509766 0.457092 0.000000
0.537048 0.457092 0.000000
0.563507 0.457092 0.000000
0.592010 0.457062 0.000000
0.620453 0.457062 0.000000
0.649475 0.457031 0.000000
0.681061 0.457001 0.000000
0.711426 0.456970 0.000000
0.741882 0.456940 0.000000
0.773315 0.456909 0.000000
0.807404 0.456848 0.000000
0.841431 0.456787 0.000000
0.879486 0.456726 0.000000
0.916931 0.456635 0.000000
0.000000 0.484009 0.000000
0.011475 0.484100 0.000000
0.028717 0.484161 0.000000
0.051971 0.484192 0.000000
0.080811 0.484192 0.000000
0.110779 0.484161 0.000000
0.141602 0.484131 0.000000
0.171295 0.484131 0.000000
0.201599 0.484100 0.000000
0.231445 0.484070 0.000000
0.264282 0.484039 0.000000
0.293884 0.484009 0.000000
0.322205 0.484009 0.000000
0.349640 0.484009 0.000000
0.376556 0.484009 0.000000
0.403961 0.484009 0.000000
0.431274 0.484009 0.000000
0.457092 0.484009 0.000000
0.484009 0.484009 0.000000
0.509766 0.484009 0.000000
0.537048 0.484009 0.000000
0.563507 0.484009 0.000000
0.592010 0.484009 0.000000
0.620483 0.484009 0.000000
0.649506 0.483978 0.000000
0.681091 0.483948 0.000000
0.711456 0.483917 0.000000
0.741913 0.483887 0.000000
0.773346 0.483856 0.000000
0.807465 0.483826 0.000000
0.841492 0.483765 0.000000
0.879578 0.483673 0.000000
0.916992 0.483612 0.000000
0.000000 0.509888 0.000000
0.011414 0.509979 0.000000
0.028687 0.510040 0.000000
0.051971 0.510071 0.000000
0.080811 0.510040 0.000000
0.110809 0.510010 0.000000
0.141632 0.509979 0.000000
0.171326 0.509949 0.000000
0.201630 0.509918 0.000000
0.231476 0.509888 0.000000
0.264313 0.509857 0.000000
0.293915 0.509827 0.000000
0.322235 0.509796 0.000000
0.349640 0.509796 0.000000
0.376587 0.509796 0.000000
0.403961 0.509766 0.000000
0.431274 0.509766 0.000000
0.457092 0.509766 0.000000
0.484009 0.509766 0.000000
0.509766 0.509766 0.000000
0.537048 0.509766 0.000000
0.563507 0.509766 0.000000
0.592041 0.509735 0.000000
0.620483 0.509735 0.000000
0.649536 0.509705 0.000000
0.681122 0.509674 0.000000
0.711487 0.509644 0.000000
0.741943 0.509613 0.000000
0.773407 0.509583 0.000000
0.807526 0.509521 0.000000
0.841553 0.509491 0.000000
0.879669 0.509399 0.000000
0.917084 0.509338 0.000000
0.000000 0.536957 0.000000
0.011322 0.537079 0.000000
0.028625 0.537140 0.000000
0.052002 0.537170 0.000000
0.080841 0.537170 0.000000
0.110840 0.537140 0.000000
0.141663 0.537140 0.000000
0.171356 0.537109 0.000000
0.201630 0.537109 0.000000
0.231476 0.537079 0.000000
0.264343 0.537048 0.000000
0.293915 0.537018 0.000000
0.322235 0.537018 0.000000
0.349640 0.537018 0.000000
0.376587 0.537018 0.000000
0.403992 0.537018 0.000000
0.431274 0.537018 0.000000
0.457092 0.537048 0.000000
0.484009 0.537048 0.000000
0.509766 0.537048 0.000000
0.537048 0.537048 0.000000
0.563507 0.537079 0.000000
0.592041 0.537048 0.000000
0.620514 0.537048 0.000000
0.649536 0.537048 0.000000
0.681152 0.537018 0.000000
0.711517 0.536987 0.000000
0.741974 0.536957 0.000000
0.773438 0.536926 0.000000
0.807556 0.536896 0.000000
0.841583 0.536835 0.000000
0.879761 0.536774 0.000000
0.917145 0.536713 0.000000
0.000000 0.563507 0.000000
0.011230 0.563599 0.000000
0.028595 0.563660 0.000000
0.052002 0.563690 0.000000
0.080872 0.563690 0.000000
0.110870 0.563660 0.000000
0.141693 0.563629 0.000000
0.171356 0.563599 0.000000
0.201660 0.563599 0.000000
0.231506 0.563568 0.000000
0.264374 0.563538 0.000000
0.293915 0.563507 0.000000
0.322235 0.563507 0.000000
0.349640 0.563507 0.000000
0.376587 0.563507 0.000000
0.403992 0.563507 0.000000
0.431274 0.563507 0.000000
0.457092 0.563507 0.000000
0.484009 0.563507 0.000000
0.509766 0.563507 0.000000
0.537079 0.563507 0.000000
0.563507 0.563507 0.000000
0.592072 0.563507 0.000000
0.620514 0.563507 0.000000
0.649567 0.563507 0.000000
0.681213 0.563477 0.000000
0.711548 0.563446 0.000000
0.742004 0.563416 0.000000
0.773499 0.563416 0.000000
0.807617 0.563354 0.000000
0.841644 0.563324 0.000000
0.879883 0.563232 0.000000
0.917206 0.563171 0.000000
0.000000 0.591797 0.000000
0.011139 0.591888 0.000000
0.028534 0.591980 0.000000
0.052002 0.592010 0.000000
0.080872 0.592010 0.000000
0.110870 0.592010 0.000000
0.141693 0.592010 0.000000
0.171387 0.591980 0.000000
0.201691 0.591980 0.000000
0.231537 0.591980 0.000000
0.264374 0.591949 0.000000
0.293915 0.591949 0.000000
0.322235 0.591949 0.000000
0.349640 0.591949 0.000000
0.376587 0.591980 0.000000
0.403992 0.591980 0.000000
0.431274 0.591980 0.000000
0.457062 0.592010 0.000000
0.484009 0.592010 0.000000
0.509735 0.592041 0.000000
0.537048 0.592041 0.000000
0.563507 0.592072 0.000000
0.592072 0.592072 0.000000
0.620514 0.592072 0.000000
0.649567 0.592072 0.000000
0.681213 0.592041 0.000000
0.711548 0.592041 0.000000
0.742004 0.592041 0.000000
0.773529 0.592010 0.000000
0.807678 0.591980 0.000000
0.841675 0.591949 0.000000
0.879974 0.591888 0.000000
0.917267 0.591827 0.000000
0.000000 0.620270 0.000000
0.011047 0.620392 0.000000
0.028473 0.620453 0.000000
0.052002 0.620514 0.000000
0.080902 0.620514 0.000000
0.110901 0.620483 0.000000
0.141693 0.620483 0.000000
0.171387 0.620453 0.000000
0.201691 0.620453 0.000000
0.231537 0.620453 0.000000
0.264404 0.620422 0.000000
0.293915 0.620422 0.000000
0.322235 0.620422 0.000000
0.349640 0.620422 0.000000
0.376556 0.620422 0.000000
0.403961 0.620422 0.000000
0.431244 0.620453 0.000000
0.457062 0.620453 0.000000
0.484009 0.620483 0.000000
0.509735 0.620483 0.000000
0.537048 0.620514 0.000000
0.563507 0.620514 0.000000
0.592072 0.620514 0.000000
0.620514 0.620514 0.000000
0.649597 0.620514 0.000000
0.681244 0.620483 0.000000
0.711578 0.620483 0.000000
0.742035 0.620483 0.000000
0.773560 0.620453 0.000000
0.807709 0.620422 0.000000
0.841736 0.620361 0.000000
0.880066 0.620300 0.000000
0.917297 0.620239 0.000000
0.000000 0.649139 0.000000
0.010956 0.649261 0.000000
0.028412 0.649353 0.000000
0.052002 0.649384 0.000000
0.080902 0.649384 0.000000
0.110901 0.649384 0.000000
0.141724 0.649384 0.000000
0.171417 0.649384 0.000000
0.201691 0.649384 0.000000
0.231567 0.649384 0.000000
0.264404 0.649353 0.000000
0.293915 0.649353 0.000000
0.322235 0.649384 0.000000
0.349609 0.649384 0.000000
0.376556 0.649414 0.000000
0.403961 0.649414 0.000000
0.431244 0.649445 0.000000
0.457031 0.649475 0.000000
0.483978 0.649506 0.000000
0.509705 0.649536 0.000000
0.537048 0.649536 0.000000
0.563507 0.649567 0.000000
0.592072 0.649567 0.000000
0.620514 0.649597 0.000000
0.649597 0.649597 0.000000
0.681274 0.649597 0.000000
0.711578 0.649597 0.000000
0.742035 0.649567 0.000000
0.773590 0.649567 0.000000
0.807739 0.649536 0.000000
0.841766 0.649506 0.000000
0.880127 0.649445 0.000000
0.917358 0.649414 0.000000
0.000000 0.680420 0.000000
0.010834 0.680573 0.000000
0.028320 0.680664 0.000000
0.051971 0.680725 0.000000
0.080872 0.680756 0.000000
0.110901 0.680756 0.000000
0.141693 0.680786 0.000000
0.171387 0.680786 0.000000
0.201691 0.680817 0.000000
0.231567 0.680817 0.000000
0.264404 0.680817 0.000000
0.293915 0.680847 0.000000
0.322205 0.680878 0.000000
0.349579 0.680908 0.000000
0.376526 0.680939 0.000000
0.403931 0.680969 0.000000
0.431213 0.681000 0.000000
0.457001 0.681061 0.000000
0.483948 0.681091 0.000000
0.509674 0.681122 0.000000
0.537018 0.681152 0.000000
0.563477 0.681213 0.000000
0.592041 0.681213 0.000000
0.620483 0.681244 0.000000
0.649597 0.681274 0.000000
0.681274 0.681274 0.000000
0.711548 0.681274 0.000000
0.742035 0.681305 0.000000
0.773590 0.681305 0.000000
0.807770 0.681274 0.000000
0.841766 0.681274 0.000000
0.880188 0.681213 0.000000
0.917389 0.681183 0.000000
0.000000 0.711060 0.000000
0.010742 0.711182 0.000000
0.028229 0.711273 0.000000
0.051941 0.711304 0.000000
0.080872 0.711334 0.000000
0.110901 0.711334 0.000000
0.141693 0.711334 0.000000
0.171387 0.711334 0.000000
0.201691 0.711334 0.000000
0.231567 0.711334 0.000000
0.264404 0.711304 0.000000
0.293884 0.711304 0.000000
0.322174 0.711334 0.000000
0.349579 0.711334 0.000000
0.376495 0.711365 0.000000
0.403900 0.711395 0.000000
0.431183 0.711395 0.000000
0.456970 0.711426 0.000000
0.483917 0.711456 0.000000
0.509644 0.711487 0.000000
0.536987 0.711517 0.000000
