Kodak 8mm - Only contrast.cube
# Created by Benjamin (IWLTBAP) : http://luts.iwltbap.com
# Copyright: (C) Copyright 2010-2017 Triune Films and IWLTBAP SAS
# Cannot be resold, shared or otherwise redistributed
TITLE "Film Print Emulation LUTs Pack (Rec.709, sRGB, DCI-P3)"
LUT_3D_SIZE 33
0.000397 0.000397 0.000397
0.020111 0.000397 0.000397
0.038025 0.000397 0.000397
0.060699 0.000397 0.000397
0.082153 0.000366 0.000366
0.112854 0.000305 0.000305
0.143524 0.000214 0.000214
0.180695 0.000092 0.000092
0.219391 0.000000 0.000000
0.259430 0.000000 0.000000
0.298218 0.000000 0.000000
0.338348 0.000000 0.000000
0.379486 0.000000 0.000000
0.419098 0.000000 0.000000
0.460205 0.000000 0.000000
0.498474 0.000000 0.000000
0.537231 0.000000 0.000000
0.574097 0.000000 0.000000
0.608643 0.000000 0.000000
0.645325 0.000000 0.000000
0.682312 0.000000 0.000000
0.716461 0.000000 0.000000
0.749664 0.000000 0.000000
0.782928 0.000000 0.000000
0.814880 0.000000 0.000000
0.846893 0.000000 0.000000
0.879211 0.000000 0.000000
0.907684 0.000000 0.000000
0.934937 0.000000 0.000000
0.958527 0.000000 0.000000
0.979736 0.000000 0.000000
0.997528 0.000000 0.000000
1.000000 0.000000 0.000000
0.000397 0.020111 0.000397
0.020111 0.020111 0.000397
0.038025 0.020111 0.000397
0.060730 0.020081 0.000397
0.082214 0.020081 0.000366
0.112915 0.019989 0.000305
0.143616 0.019897 0.000214
0.180847 0.019775 0.000092
0.219513 0.019653 0.000000
0.259583 0.019501 0.000000
0.298370 0.019379 0.000000
0.338501 0.019226 0.000000
0.379639 0.019073 0.000000
0.419250 0.018921 0.000000
0.460358 0.018768 0.000000
0.498596 0.018616 0.000000
0.537354 0.018494 0.000000
0.574188 0.018372 0.000000
0.608765 0.018250 0.000000
0.645447 0.018127 0.000000
0.682434 0.018005 0.000000
0.716522 0.017883 0.000000
0.749756 0.017792 0.000000
0.783020 0.017670 0.000000
0.814941 0.017578 0.000000
0.846985 0.017487 0.000000
0.879303 0.017395 0.000000
0.907715 0.017303 0.000000
0.934998 0.017242 0.000000
0.958527 0.017212 0.000000
0.979767 0.017181 0.000000
0.997498 0.017181 0.000000
1.000000 0.017242 0.000000
0.000397 0.038025 0.000397
0.020111 0.038025 0.000397
0.038055 0.038055 0.000397
0.060760 0.038025 0.000397
0.082275 0.038025 0.000397
0.113007 0.037964 0.000305
0.143707 0.037903 0.000244
0.180969 0.037781 0.000122
0.219666 0.037659 0.000000
0.259735 0.037537 0.000000
0.298523 0.037415 0.000000
0.338654 0.037292 0.000000
0.379791 0.037140 0.000000
0.419373 0.037018 0.000000
0.460510 0.036896 0.000000
0.498718 0.036774 0.000000
0.537506 0.036652 0.000000
0.574310 0.036560 0.000000
0.608856 0.036469 0.000000
0.645569 0.036346 0.000000
0.682556 0.036255 0.000000
0.716614 0.036163 0.000000
0.749847 0.036072 0.000000
0.783112 0.036011 0.000000
0.815033 0.035919 0.000000
0.847076 0.035858 0.000000
0.879395 0.035797 0.000000
0.907776 0.035736 0.000000
0.935059 0.035706 0.000000
0.958557 0.035706 0.000000
0.979767 0.035706 0.000000
0.997437 0.035736 0.000000
1.000000 0.035797 0.000000
0.000397 0.060699 0.000397
0.020081 0.060730 0.000397
0.038025 0.060760 0.000397
0.060730 0.060730 0.000397
0.082306 0.060760 0.000366
0.113068 0.060699 0.000305
0.143768 0.060638 0.000214
0.181091 0.060516 0.000092
0.219757 0.060425 0.000000
0.259857 0.060303 0.000000
0.298615 0.060181 0.000000
0.338776 0.060059 0.000000
0.379913 0.059906 0.000000
0.419495 0.059784 0.000000
0.460632 0.059662 0.000000
0.498840 0.059540 0.000000
0.537598 0.059418 0.000000
0.574402 0.059296 0.000000
0.608948 0.059204 0.000000
0.645691 0.059113 0.000000
0.682678 0.058990 0.000000
0.716675 0.058899 0.000000
0.749939 0.058838 0.000000
0.783173 0.058746 0.000000
0.815094 0.058655 0.000000
0.847137 0.058594 0.000000
0.879456 0.058502 0.000000
0.907806 0.058441 0.000000
0.935089 0.058411 0.000000
0.958527 0.058380 0.000000
0.979767 0.058380 0.000000
0.997375 0.058411 0.000000
1.000000 0.058472 0.000000
0.000366 0.082153 0.000366
0.020081 0.082214 0.000366
0.038025 0.082275 0.000397
0.060760 0.082306 0.000366
0.082336 0.082336 0.000366
0.113129 0.082306 0.000275
0.143860 0.082306 0.000183
0.181213 0.082245 0.000061
0.219879 0.082153 0.000000
0.259979 0.082092 0.000000
0.298737 0.082001 0.000000
0.338898 0.081940 0.000000
0.380066 0.081848 0.000000
0.419617 0.081757 0.000000
0.460754 0.081696 0.000000
0.498962 0.081604 0.000000
0.537720 0.081543 0.000000
0.574493 0.081482 0.000000
0.609039 0.081451 0.000000
0.645782 0.081390 0.000000
0.682770 0.081360 0.000000
0.716736 0.081329 0.000000
0.750000 0.081299 0.000000
0.783264 0.081268 0.000000
0.815155 0.081238 0.000000
0.847198 0.081238 0.000000
0.879517 0.081207 0.000000
0.907806 0.081207 0.000000
0.935120 0.081238 0.000000
0.958527 0.081268 0.000000
0.979767 0.081329 0.000000
0.997284 0.081421 0.000000
1.000000 0.081543 0.000000
0.000305 0.112854 0.000305
0.019989 0.112915 0.000305
0.037964 0.113007 0.000305
0.060699 0.113068 0.000305
0.082306 0.113129 0.000275
0.113129 0.113129 0.000183
0.143860 0.113129 0.000122
0.181274 0.113098 0.000000
0.219940 0.113037 0.000000
0.260040 0.112976 0.000000
0.298798 0.112915 0.000000
0.338959 0.112854 0.000000
0.380127 0.112793 0.000000
0.419678 0.112732 0.000000
0.460846 0.112671 0.000000
0.498993 0.112610 0.000000
0.537781 0.112549 0.000000
0.574524 0.112518 0.000000
0.609070 0.112488 0.000000
0.645813 0.112457 0.000000
0.682800 0.112396 0.000000
0.716766 0.112366 0.000000
0.750031 0.112366 0.000000
0.783264 0.112335 0.000000
0.815155 0.112335 0.000000
0.847198 0.112305 0.000000
0.879547 0.112305 0.000000
0.907776 0.112335 0.000000
0.935089 0.112335 0.000000
0.958435 0.112396 0.000000
0.979675 0.112457 0.000000
0.997162 0.112549 0.000000
1.000000 0.112671 0.000000
0.000214 0.143524 0.000214
0.019897 0.143616 0.000214
0.037903 0.143707 0.000244
0.060638 0.143768 0.000214
0.082306 0.143860 0.000183
0.113129 0.143860 0.000122
0.143860 0.143860 0.000031
0.181335 0.143829 0.000000
0.220001 0.143799 0.000000
0.260101 0.143738 0.000000
0.298859 0.143677 0.000000
0.339050 0.143646 0.000000
0.380188 0.143585 0.000000
0.419739 0.143524 0.000000
0.460907 0.143463 0.000000
0.499054 0.143433 0.000000
0.537811 0.143402 0.000000
0.574554 0.143372 0.000000
0.609100 0.143372 0.000000
0.645874 0.143341 0.000000
0.682861 0.143311 0.000000
0.716766 0.143311 0.000000
0.750031 0.143311 0.000000
0.783295 0.143311 0.000000
0.815155 0.143341 0.000000
0.847229 0.143341 0.000000
0.879547 0.143372 0.000000
0.907745 0.143402 0.000000
0.935089 0.143463 0.000000
0.958374 0.143524 0.000000
0.979614 0.143616 0.000000
0.997040 0.143738 0.000000
1.000000 0.143890 0.000000
0.000092 0.180695 0.000092
0.019775 0.180847 0.000092
0.037781 0.180969 0.000122
0.060516 0.181091 0.000092
0.082245 0.181213 0.000061
0.113098 0.181274 0.000000
0.143829 0.181335 0.000000
0.181335 0.181335 0.000000
0.220032 0.181335 0.000000
0.260132 0.181335 0.000000
0.298889 0.181335 0.000000
0.339050 0.181335 0.000000
0.380219 0.181305 0.000000
0.419769 0.181305 0.000000
0.460907 0.181274 0.000000
0.499054 0.181274 0.000000
0.537842 0.181274 0.000000
0.574554 0.181305 0.000000
0.609070 0.181335 0.000000
0.645874 0.181335 0.000000
0.682831 0.181335 0.000000
0.716705 0.181366 0.000000
0.750000 0.181427 0.000000
0.783234 0.181458 0.000000
0.815125 0.181488 0.000000
0.847168 0.181549 0.000000
0.879486 0.181580 0.000000
0.907654 0.181671 0.000000
0.934998 0.181732 0.000000
0.958252 0.181854 0.000000
0.979492 0.181976 0.000000
0.996857 0.182098 0.000000
1.000000 0.182281 0.000000
0.000000 0.219391 0.000000
0.019653 0.219513 0.000000
0.037659 0.219666 0.000000
0.060425 0.219757 0.000000
0.082153 0.219879 0.000000
0.113037 0.219940 0.000000
0.143799 0.220001 0.000000
0.181335 0.220032 0.000000
0.220032 0.220032 0.000000
0.260132 0.220001 0.000000
0.298889 0.220032 0.000000
0.339081 0.220001 0.000000
0.380249 0.220001 0.000000
0.419769 0.220001 0.000000
0.460938 0.219971 0.000000
0.499054 0.220001 0.000000
0.537842 0.220001 0.000000
0.574524 0.220001 0.000000
0.609070 0.220032 0.000000
0.645844 0.220062 0.000000
0.682831 0.220093 0.000000
0.716675 0.220123 0.000000
0.749969 0.220154 0.000000
0.783203 0.220215 0.000000
0.815063 0.220245 0.000000
0.847137 0.220306 0.000000
0.879456 0.220367 0.000000
0.907562 0.220428 0.000000
0.934937 0.220520 0.000000
0.958130 0.220642 0.000000
0.979370 0.220764 0.000000
0.996674 0.220917 0.000000
1.000000 0.221130 0.000000
0.000000 0.259430 0.000000
0.019501 0.259583 0.000000
0.037537 0.259735 0.000000
0.060303 0.259857 0.000000
0.082092 0.259979 0.000000
0.112976 0.260040 0.000000
0.143738 0.260101 0.000000
0.181335 0.260132 0.000000
0.220001 0.260132 0.000000
0.260132 0.260132 0.000000
0.298889 0.260132 0.000000
0.339081 0.260132 0.000000
0.380249 0.260132 0.000000
0.419769 0.260132 0.000000
0.460938 0.260101 0.000000
0.499023 0.260132 0.000000
0.537811 0.260132 0.000000
0.574493 0.260162 0.000000
0.609039 0.260193 0.000000
0.645844 0.260193 0.000000
0.682800 0.260223 0.000000
0.716614 0.260254 0.000000
0.749939 0.260315 0.000000
0.783142 0.260345 0.000000
0.815002 0.260406 0.000000
0.847076 0.260468 0.000000
0.879395 0.260498 0.000000
0.907471 0.260590 0.000000
0.934845 0.260651 0.000000
0.958008 0.260773 0.000000
0.979248 0.260895 0.000000
0.996460 0.261047 0.000000
1.000000 0.261230 0.000000
0.000000 0.298218 0.000000
0.019379 0.298370 0.000000
0.037415 0.298523 0.000000
0.060181 0.298615 0.000000
0.082001 0.298737 0.000000
0.112915 0.298798 0.000000
0.143677 0.298859 0.000000
0.181335 0.298889 0.000000
0.220032 0.298889 0.000000
0.260132 0.298889 0.000000
0.298889 0.298889 0.000000
0.339081 0.298889 0.000000
0.380249 0.298859 0.000000
0.419769 0.298859 0.000000
0.460938 0.298859 0.000000
0.499023 0.298859 0.000000
0.537811 0.298859 0.000000
0.574463 0.298889 0.000000
0.609009 0.298920 0.000000
0.645813 0.298950 0.000000
0.682800 0.298981 0.000000
0.716553 0.299011 0.000000
0.749878 0.299072 0.000000
0.783112 0.299103 0.000000
0.814972 0.299164 0.000000
0.847046 0.299225 0.000000
0.879333 0.299255 0.000000
0.907379 0.299347 0.000000
0.934753 0.299438 0.000000
0.957886 0.299561 0.000000
0.979126 0.299683 0.000000
0.996277 0.299835 0.000000
1.000000 0.300049 0.000000
0.000000 0.338348 0.000000
0.019226 0.338501 0.000000
0.037292 0.338654 0.000000
0.060059 0.338776 0.000000
0.081940 0.338898 0.000000
0.112854 0.338959 0.000000
0.143646 0.339050 0.000000
0.181335 0.339050 0.000000
0.220001 0.339081 0.000000
0.260132 0.339081 0.000000
0.298889 0.339081 0.000000
0.339111 0.339111 0.000000
0.380249 0.339111 0.000000
0.419769 0.339111 0.000000
0.460938 0.339111 0.000000
0.499023 0.339111 0.000000
0.537811 0.339142 0.000000
0.574432 0.339172 0.000000
0.608978 0.339203 0.000000
0.645813 0.339233 0.000000
0.682770 0.339264 0.000000
0.716492 0.339325 0.000000
0.749847 0.339355 0.000000
0.783081 0.339417 0.000000
0.814911 0.339478 0.000000
0.846985 0.339539 0.000000
0.879272 0.339600 0.000000
0.907257 0.339691 0.000000
0.934662 0.339783 0.000000
0.957733 0.339905 0.000000
0.979004 0.340057 0.000000
0.996094 0.340210 0.000000
1.000000 0.340424 0.000000
0.000000 0.379486 0.000000
0.019073 0.379639 0.000000
0.037140 0.379791 0.000000
0.059906 0.379913 0.000000
0.081848 0.380066 0.000000
0.112793 0.380127 0.000000
0.143585 0.380188 0.000000
0.181305 0.380219 0.000000
0.220001 0.380249 0.000000
0.260132 0.380249 0.000000
0.298859 0.380249 0.000000
0.339111 0.380249 0.000000
0.380249 0.380249 0.000000
0.419739 0.380280 0.000000
0.460938 0.380280 0.000000
0.498993 0.380280 0.000000
0.537781 0.380310 0.000000
0.574402 0.380341 0.000000
0.608948 0.380371 0.000000
0.645782 0.380402 0.000000
0.682739 0.380432 0.000000
0.716431 0.380493 0.000000
0.749786 0.380524 0.000000
0.783020 0.380585 0.000000
0.814819 0.380646 0.000000
0.846924 0.380707 0.000000
0.879211 0.380768 0.000000
0.907166 0.380859 0.000000
0.934570 0.380951 0.000000
0.957611 0.381073 0.000000
0.978851 0.381195 0.000000
0.995880 0.381348 0.000000
1.000000 0.381561 0.000000
0.000000 0.419098 0.000000
0.018921 0.419250 0.000000
0.037018 0.419373 0.000000
0.059784 0.419495 0.000000
0.081757 0.419617 0.000000
0.112732 0.419678 0.000000
0.143524 0.419739 0.000000
0.181305 0.419769 0.000000
0.220001 0.419769 0.000000
0.260132 0.419769 0.000000
0.298859 0.419769 0.000000
0.339111 0.419769 0.000000
0.380280 0.419739 0.000000
0.419769 0.419769 0.000000
0.460938 0.419739 0.000000
0.498993 0.419769 0.000000
0.537781 0.419769 0.000000
0.574371 0.419800 0.000000
0.608917 0.419830 0.000000
0.645752 0.419861 0.000000
0.682739 0.419861 0.000000
0.716400 0.419922 0.000000
0.749756 0.419952 0.000000
0.782959 0.420013 0.000000
0.814789 0.420074 0.000000
0.846863 0.420105 0.000000
0.879150 0.420166 0.000000
0.907074 0.420258 0.000000
0.934479 0.420349 0.000000
0.957458 0.420471 0.000000
0.978729 0.420593 0.000000
0.995697 0.420746 0.000000
1.000000 0.420959 0.000000
0.000000 0.460205 0.000000
0.018768 0.460358 0.000000
0.036896 0.460510 0.000000
0.059662 0.460632 0.000000
0.081696 0.460754 0.000000
0.112671 0.460846 0.000000
0.143463 0.460907 0.000000
0.181274 0.460907 0.000000
0.219971 0.460938 0.000000
0.260101 0.460938 0.000000
0.298859 0.460938 0.000000
0.339111 0.460938 0.000000
0.380280 0.460938 0.000000
0.419739 0.460938 0.000000
0.460938 0.460938 0.000000
0.498962 0.460938 0.000000
0.537750 0.460938 0.000000
0.574341 0.460968 0.000000
0.608856 0.460999 0.000000
0.645721 0.461029 0.000000
0.682709 0.461060 0.000000
0.716339 0.461090 0.000000
0.749695 0.461121 0.000000
0.782898 0.461182 0.000000
0.814697 0.461243 0.000000
0.846802 0.461273 0.000000
0.879089 0.461334 0.000000
0.906952 0.461395 0.000000
0.934387 0.461487 0.000000
0.957336 0.461609 0.000000
0.978577 0.461731 0.000000
0.995483 0.461884 0.000000
1.000000 0.462067 0.000000
0.000000 0.498474 0.000000
0.018616 0.498596 0.000000
0.036774 0.498718 0.000000
0.059540 0.498840 0.000000
0.081604 0.498962 0.000000
0.112610 0.498993 0.000000
0.143433 0.499054 0.000000
0.181274 0.499054 0.000000
0.220001 0.499054 0.000000
0.260132 0.499023 0.000000
0.298859 0.499023 0.000000
0.339111 0.499023 0.000000
0.380280 0.498993 0.000000
0.419769 0.498993 0.000000
0.460938 0.498962 0.000000
0.498962 0.498962 0.000000
0.537750 0.498962 0.000000
0.574310 0.498962 0.000000
0.608856 0.498993 0.000000
0.645721 0.498993 0.000000
0.682709 0.499023 0.000000
0.716278 0.499054 0.000000
0.749664 0.499084 0.000000
0.782867 0.499115 0.000000
0.814667 0.499146 0.000000
0.846771 0.499207 0.000000
0.879059 0.499237 0.000000
0.906891 0.499329 0.000000
0.934326 0.499390 0.000000
0.957214 0.499512 0.000000
0.978485 0.499634 0.000000
0.995300 0.499786 0.000000
1.000000 0.499969 0.000000
0.000000 0.537231 0.000000
0.018494 0.537354 0.000000
0.036652 0.537506 0.000000
0.059418 0.537598 0.000000
0.081543 0.537720 0.000000
0.112549 0.537781 0.000000
0.143402 0.537811 0.000000
0.181274 0.537842 0.000000
0.220001 0.537842 0.000000
0.260132 0.537811 0.000000
0.298859 0.537811 0.000000
0.339142 0.537811 0.000000
0.380310 0.537781 0.000000
0.419769 0.537781 0.000000
0.460938 0.537750 0.000000
0.498962 0.537750 0.000000
0.537750 0.537750 0.000000
0.574310 0.537781 0.000000
0.608826 0.537811 0.000000
0.645721 0.537811 0.000000
0.682678 0.537811 0.000000
0.716248 0.537842 0.000000
0.749634 0.537903 0.000000
0.782837 0.537933 0.000000
0.814606 0.537964 0.000000
0.846741 0.537994 0.000000
0.878998 0.538055 0.000000
0.906799 0.538116 0.000000
0.934235 0.538208 0.000000
0.957092 0.538300 0.000000
0.978363 0.538422 0.000000
0.995117 0.538574 0.000000
1.000000 0.538757 0.000000
0.000000 0.574097 0.000000
0.018372 0.574188 0.000000
0.036560 0.574310 0.000000
0.059296 0.574402 0.000000
0.081482 0.574493 0.000000
0.112518 0.574524 0.000000
0.143372 0.574554 0.000000
0.181305 0.574554 0.000000
0.220001 0.574524 0.000000
0.260162 0.574493 0.000000
0.298889 0.574463 0.000000
0.339172 0.574432 0.000000
0.380341 0.574402 0.000000
0.419800 0.574371 0.000000
0.460968 0.574341 0.000000
0.498962 0.574310 0.000000
0.537781 0.574310 0.000000
0.574280 0.574280 0.000000
0.608826 0.574310 0.000000
0.645721 0.574280 0.000000
0.682678 0.574280 0.000000
0.716217 0.574280 0.000000
0.749603 0.574310 0.000000
0.782806 0.574310 0.000000
0.814575 0.574341 0.000000
0.846710 0.574371 0.000000
0.878967 0.574402 0.000000
0.906708 0.574463 0.000000
0.934174 0.574493 0.000000
0.956970 0.574585 0.000000
0.978241 0.574677 0.000000
0.994965 0.574829 0.000000
1.000000 0.574982 0.000000
0.000000 0.608643 0.000000
0.018250 0.608765 0.000000
0.036469 0.608856 0.000000
0.059204 0.608948 0.000000
0.081451 0.609039 0.000000
0.112488 0.609070 0.000000
0.143372 0.609100 0.000000
0.181335 0.609070 0.000000
0.220032 0.609070 0.000000
0.260193 0.609039 0.000000
0.298920 0.609009 0.000000
0.339203 0.608978 0.000000
0.380371 0.608948 0.000000
0.419830 0.608917 0.000000
0.460999 0.608856 0.000000
0.498993 0.608856 0.000000
0.537811 0.608826 0.000000
0.574310 0.608826 0.000000
0.608826 0.608826 0.000000
0.645721 0.608826 0.000000
0.682709 0.608826 0.000000
0.716187 0.608856 0.000000
0.749603 0.608856 0.000000
0.782806 0.608887 0.000000
0.814575 0.608917 0.000000
0.846680 0.608948 0.000000
0.878937 0.608978 0.000000
0.906647 0.609039 0.000000
0.934113 0.609100 0.000000
0.956879 0.609192 0.000000
0.978149 0.609283 0.000000
0.994781 0.609436 0.000000
1.000000 0.609619 0.000000
0.000000 0.645325 0.000000
0.018127 0.645447 0.000000
0.036346 0.645569 0.000000
0.059113 0.645691 0.000000
0.081390 0.645782 0.000000
0.112457 0.645813 0.000000
0.143341 0.645874 0.000000
0.181335 0.645874 0.000000
0.220062 0.645844 0.000000
0.260193 0.645844 0.000000
0.298950 0.645813 0.000000
0.339233 0.645813 0.000000
0.380402 0.645782 0.000000
0.419861 0.645752 0.000000
0.461029 0.645721 0.000000
0.498993 0.645721 0.000000
0.537811 0.645721 0.000000
0.574280 0.645721 0.000000
0.608826 0.645721 0.000000
0.645721 0.645721 0.000000
0.682709 0.645721 0.000000
0.716156 0.645752 0.000000
0.749573 0.645782 0.000000
0.782776 0.645813 0.000000
0.814514 0.645844 0.000000
0.846649 0.645874 0.000000
0.878906 0.645905 0.000000
0.906586 0.645966 0.000000
0.934052 0.646057 0.000000
0.956787 0.646149 0.000000
0.978058 0.646240 0.000000
0.994629 0.646393 0.000000
1.000000 0.646576 0.000000
0.000000 0.682312 0.000000
0.018005 0.682434 0.000000
0.036255 0.682556 0.000000
0.058990 0.682678 0.000000
0.081360 0.682770 0.000000
0.112396 0.682800 0.000000
0.143311 0.682861 0.000000
0.181335 0.682831 0.000000
0.220093 0.682831 0.000000
0.260223 0.682800 0.000000
0.298981 0.682800 0.000000
0.339264 0.682770 0.000000
0.380432 0.682739 0.000000
0.419861 0.682739 0.000000
0.461060 0.682709 0.000000
0.499023 0.682709 0.000000
0.537811 0.682678 0.000000
0.574280 0.682678 0.000000
0.608826 0.682709 0.000000
0.645721 0.682709 0.000000
0.682709 0.682709 0.000000
0.716125 0.682739 0.000000
0.749573 0.682770 0.000000
0.782745 0.682800 0.000000
0.814484 0.682831 0.000000
0.846619 0.682861 0.000000
0.878876 0.682892 0.000000
0.906494 0.682953 0.000000
0.933960 0.683014 0.000000
0.956665 0.683136 0.000000
0.977936 0.683228 0.000000
0.994446 0.683380 0.000000
1.000000 0.683563 0.000000
0.000000 0.716461 0.000000
0.017883 0.716522 0.000000
0.036163 0.716614 0.000000
0.058899 0.716675 0.000000
0.081329 0.716736 0.000000
0.112366 0.716766 0.000000
0.143311 0.716766 0.000000
0.181366 0.716705 0.000000
0.220123 0.716675 0.000000
0.260254 0.716614 0.000000
0.299011 0.716553 0.000000
0.339325 0.716492 0.000000
0.380493 0.716431 0.000000
0.419922 0.716400 0.000000
0.461090 0.716339 0.000000
0.499054 0.716278 0.000000
0.537842 0.716248 0.000000
0.574280 0.716217 0.000000
0.608856 0.716187 0.000000
0.645752 0.716156 0.000000
0.682739 0.716125 0.000000
0.716125 0.716125 0.000000
0.749573 0.716125 0.000000
0.782745 0.716095 0.000000
0.814484 0.716125 0.000000
0.846619 0.716125 0.000000
0.878845 0.716125 0.000000
0.906433 0.716156 0.000000
0.933929 0.716187 0.000000
0.956573 0.716248 0.000000
0.977844 0.716339 0.000000
0.994293 0.716431 0.000000
1.000000 0.716583 0.000000
0.000000 0.749664 0.000000
0.017792 0.749756 0.000000
0.036072 0.749847 0.000000
0.058838 0.749939 0.000000
0.081299 0.750000 0.000000
0.112366 0.750031 0.000000
0.143311 0.750031 0.000000
0.181427 0.750000 0.000000
0.220154 0.749969 0.000000
0.260315 0.749939 0.000000
0.299072 0.749878 0.000000
0.339355 0.749847 0.000000
0.380524 0.749786 0.000000
0.419952 0.749756 0.000000
0.461121 0.749695 0.000000
0.499084 0.749664 0.000000
0.537903 0.749634 0.000000
0.574310 0.749603 0.000000
0.608856 0.749603 0.000000
0.645782 0.749573 0.000000
0.682770 0.749573 0.000000
0.716125 0.749573 0.000000
0.749573 0.749573 0.000000
0.782745 0.749573 0.000000
0.814453 0.749573 0.000000
0.846619 0.749603 0.000000
0.878845 0.749603 0.000000
0.906403 0.749634 0.000000
0.933868 0.749695 0.000000
0.956482 0.749756 0.000000
0.977753 0.749847 0.000000
0.994141 0.749969 0.000000
1.000000 0.750122 0.000000
0.000000 0.782928 0.000000
0.017670 0.783020 0.000000
0.036011 0.783112 0.000000
0.058746 0.783173 0.000000
0.081268 0.783264 0.000000
0.112335 0.783264 0.000000
0.143311 0.783295 0.000000
0.181458 0.783234 0.000000
0.220215 0.783203 0.000000
0.260345 0.783142 0.000000
0.299103 0.783112 0.000000
0.339417 0.783081 0.000000
0.380585 0.783020 0.000000
0.420013 0.782959 0.000000
0.461182 0.782898 0.000000
0.499115 0.782867 0.000000
0.537933 0.782837 0.000000
0.574310 0.782806 0.000000
0.608887 0.782806 0.000000
0.645813 0.782776 0.000000
0.682800 0.782745 0.000000
0.716095 0.782745 0.000000
0.749573 0.782745 0.000000
0.782715 0.782715 0.000000
0.814453 0.782745 0.000000
0.846588 0.782745 0.000000
0.878815 0.782745 0.000000
0.906342 0.782776 0.000000
0.933838 0.782806 0.000000
0.956390 0.782898 0.000000
0.977692 0.782959 0.000000
0.993988 0.783081 0.000000
1.000000 0.783234 0.000000
0.000000 0.814880 0.000000
0.017578 0.814941 0.000000
0.035919 0.815033 0.000000
0.058655 0.815094 0.000000
0.081238 0.815155 0.000000
0.112335 0.815155 0.000000
0.143341 0.815155 0.000000
0.181488 0.815125 0.000000
0.220245 0.815063 0.000000
0.260406 0.815002 0.000000
0.299164 0.814972 0.000000
0.339478 0.814911 0.000000
0.380646 0.814819 0.000000
0.420074 0.814789 0.000000
0.461243 0.814697 0.000000
0.499146 0.814667 0.000000
0.537964 0.814606 0.000000
0.574341 0.814575 0.000000
0.608917 0.814575 0.000000
0.645844 0.814514 0.000000
0.682831 0.814484 0.000000
0.716125 0.814484 0.000000
0.749573 0.814453 0.000000
0.782745 0.814453 0.000000
0.814453 0.814453 0.000000
0.846619 0.814453 0.000000
0.878815 0.814453 0.000000
0.906311 0.814484 0.000000
0.933807 0.814514 0.000000
0.956329 0.814575 0.000000
0.977600 0.814636 0.000000
0.993866 0.814758 0.000000
1.000000 0.814880 0.000000
0.000000 0.846893 0.000000
0.017487 0.846985 0.000000
0.035858 0.847076 0.000000
0.058594 0.847137 0.000000
0.081238 0.847198 0.000000
0.112305 0.847198 0.000000
0.143341 0.847229 0.000000
0.181549 0.847168 0.000000
0.220306 0.847137 0.000000
0.260468 0.847076 0.000000
0.299225 0.847046 0.000000
0.339539 0.846985 0.000000
0.380707 0.846924 0.000000
0.420105 0.846863 0.000000
0.461273 0.846802 0.000000
0.499207 0.846771 0.000000
0.537994 0.846741 0.000000
0.574371 0.846710 0.000000
0.608948 0.846680 0.000000
0.645874 0.846649 0.000000
0.682861 0.846619 0.000000
0.716125 0.846619 0.000000
0.749603 0.846619 0.000000
0.782745 0.846588 0.000000
0.814453 0.846619 0.000000
0.846619 0.846619 0.000000
0.878815 0.846619 0.000000
0.906250 0.846649 0.000000
0.933746 0.846680 0.000000
0.956238 0.846741 0.000000
0.977539 0.846832 0.000000
0.993713 0.846924 0.000000
1.000000 0.847076 0.000000
0.000000 0.879211 0.000000
0.017395 0.879303 0.000000
0.035797 0.879395 0.000000
0.058502 0.879456 0.000000
0.081207 0.879517 0.000000
0.112305 0.879547 0.000000
0.143372 0.879547 0.000000
0.181580 0.879486 0.000000
0.220367 0.879456 0.000000
0.260498 0.879395 0.000000
0.299255 0.879333 0.000000
0.339600 0.879272 0.000000
0.380768 0.879211 0.000000
0.420166 0.879150 0.000000
0.461334 0.879089 0.000000
0.499237 0.879059 0.000000
0.538055 0.878998 0.000000
0.574402 0.878967 0.000000
0.608978 0.878937 0.000000
0.645905 0.878906 0.000000
0.682892 0.878876 0.000000
