Kodak Vision2 500T (5218) - Only color.cube
# Created by Benjamin (IWLTBAP) : http://luts.iwltbap.com
# Copyright: (C) Copyright 2010-2017 Triune Films and IWLTBAP SAS
# Cannot be resold, shared or otherwise redistributed
TITLE "Film Print Emulation LUTs Pack (Rec.709, sRGB, DCI-P3)"
LUT_3D_SIZE 9
0.002350 0.001556 0.001556
0.123810 0.006683 0.000427
0.221588 0.017181 0.000000
0.301849 0.021088 0.000885
0.371887 0.027893 0.006195
0.436127 0.030426 0.006439
0.500183 0.032959 0.006683
0.562775 0.038879 0.006958
0.615814 0.041351 0.007141
0.000854 0.113831 0.079590
0.088501 0.131500 0.038788
0.220581 0.148376 0.008759
0.331573 0.159027 0.004028
0.412415 0.158997 0.005524
0.483917 0.148682 0.005737
0.554779 0.133789 0.005951
0.617828 0.121704 0.004791
0.671539 0.115021 0.004913
0.000000 0.195587 0.142426
0.031586 0.214294 0.106262
0.167267 0.240234 0.046478
0.331604 0.267334 0.011169
0.446960 0.280029 0.006165
0.532776 0.276733 0.006500
0.607941 0.263245 0.006714
0.671387 0.242615 0.006836
0.727112 0.219330 0.008331
0.000000 0.251678 0.183228
0.000000 0.266418 0.158783
0.081573 0.293365 0.104126
0.263794 0.332733 0.035522
0.444763 0.366821 0.012207
0.566681 0.378082 0.015411
0.650421 0.372742 0.017944
0.720734 0.356934 0.019867
0.784698 0.333008 0.020782
0.000000 0.300262 0.214020
0.000000 0.311432 0.196930
0.026459 0.334717 0.164337
0.160553 0.374786 0.093750
0.387726 0.428284 0.032013
0.573853 0.462860 0.024658
0.683075 0.467529 0.028412
0.762604 0.457825 0.028412
0.836823 0.441772 0.027496
0.000000 0.349213 0.242218
0.000000 0.358887 0.228210
0.000000 0.379822 0.211700
0.072205 0.415741 0.166321
0.284424 0.475952 0.081421
0.534271 0.539032 0.034973
0.701263 0.563477 0.029449
0.801331 0.561768 0.024811
0.883026 0.552338 0.018341
0.000000 0.407318 0.276642
0.000000 0.417114 0.264862
0.000000 0.439056 0.260315
0.026123 0.475708 0.239929
0.177063 0.536285 0.173401
0.463257 0.615906 0.085419
0.699890 0.661224 0.044403
0.841034 0.667938 0.027771
0.933899 0.658051 0.011444
0.000000 0.492645 0.333893
0.000000 0.507294 0.328918
0.000000 0.536377 0.338135
0.022797 0.579132 0.335327
0.191071 0.647186 0.300995
0.477448 0.729034 0.238739
0.714172 0.780121 0.177765
0.870819 0.793854 0.134186
0.979065 0.779266 0.082184
0.000000 0.604004 0.422821
0.000000 0.628082 0.435059
0.000000 0.663452 0.454559
0.094971 0.720825 0.460510
0.360626 0.810913 0.460663
0.599731 0.869934 0.438843
0.756104 0.903625 0.401825
0.882263 0.924683 0.370850
0.988434 0.929382 0.334961
0.001678 0.004303 0.082581
0.130707 0.011322 0.082886
0.235809 0.017303 0.091675
0.320343 0.022705 0.100525
0.390991 0.029510 0.102386
0.455933 0.032043 0.099548
0.521912 0.037109 0.095154
0.584106 0.041321 0.090576
0.635559 0.045319 0.087891
0.000183 0.119812 0.166199
0.100525 0.133606 0.140015
0.249268 0.155090 0.121796
0.361664 0.168335 0.116608
0.441864 0.167511 0.108185
0.513885 0.155670 0.098083
0.580048 0.139862 0.090546
0.637817 0.127991 0.086273
0.688385 0.122375 0.081726
0.000000 0.209442 0.211914
0.043396 0.225830 0.191559
0.211182 0.258301 0.160950
0.378815 0.288605 0.135620
0.488129 0.298035 0.116577
0.569946 0.289337 0.098083
0.635345 0.268494 0.086273
0.689880 0.242523 0.081177
0.739288 0.218445 0.078766
0.000000 0.273254 0.246826
0.000549 0.286652 0.235138
0.116882 0.317932 0.207672
0.326752 0.363342 0.164703
0.500275 0.395142 0.132843
0.609985 0.398407 0.109467
0.682495 0.383026 0.090576
0.742584 0.357147 0.084045
0.795074 0.324158 0.081177
0.000000 0.327393 0.281158
0.000000 0.338562 0.274139
0.035492 0.362610 0.256714
0.207306 0.408600 0.212433
0.444794 0.465332 0.163300
0.621063 0.492523 0.127411
0.717682 0.487823 0.098083
0.789764 0.469666 0.082977
0.852753 0.443939 0.077087
0.000000 0.379761 0.313232
0.000000 0.390778 0.308044
0.000366 0.410919 0.299377
0.091156 0.450073 0.270294
0.327393 0.517426 0.214447
0.580780 0.575195 0.157654
0.737640 0.591278 0.109467
0.832245 0.584198 0.078979
0.904236 0.568451 0.060730
0.000000 0.442596 0.352295
0.000000 0.456055 0.349030
0.000000 0.476196 0.347137
0.030670 0.513123 0.332458
0.210175 0.578156 0.289368
0.507172 0.654480 0.231842
0.734558 0.692505 0.177216
0.869537 0.695465 0.130249
0.952576 0.680054 0.076111
0.000000 0.535095 0.416046
0.000000 0.554993 0.420380
0.000000 0.576050 0.422028
0.033203 0.612762 0.413757
0.222046 0.680298 0.392059
0.505768 0.757355 0.354889
0.730347 0.803314 0.309692
0.882874 0.816589 0.271149
0.986145 0.803894 0.212891
0.000000 0.645935 0.507385
0.000000 0.669891 0.519226
0.000000 0.691711 0.514496
0.127289 0.747925 0.515350
0.374207 0.827118 0.518555
0.592987 0.875641 0.503723
0.749390 0.909088 0.481598
0.879303 0.931671 0.464264
0.987457 0.939545 0.447968
0.001007 0.019684 0.155090
0.127136 0.018188 0.162933
0.244476 0.017456 0.173492
0.335297 0.021027 0.189911
0.407867 0.029541 0.197113
0.473053 0.032928 0.197723
0.539154 0.039673 0.197662
0.600708 0.045349 0.195435
0.652985 0.049164 0.193207
0.000000 0.125153 0.232147
0.090363 0.135040 0.225586
0.253479 0.155762 0.221558
0.376892 0.172485 0.227936
0.463318 0.175140 0.225739
0.537292 0.164764 0.213806
0.600342 0.149261 0.202148
0.655884 0.137177 0.195312
0.705536 0.130890 0.190887
0.000000 0.219849 0.278809
0.039337 0.233307 0.271179
0.219574 0.267181 0.263000
0.396759 0.301697 0.262787
0.512115 0.313812 0.255737
0.595734 0.303802 0.232361
0.656952 0.278625 0.205505
0.707611 0.248138 0.191925
0.754425 0.221863 0.186249
0.000000 0.288239 0.305176
0.000458 0.300842 0.299438
0.130981 0.333405 0.293213
0.353668 0.383423 0.287018
0.527344 0.416809 0.279388
0.635620 0.417450 0.254211
0.705109 0.395020 0.216034
0.760040 0.360504 0.190308
0.806854 0.318604 0.181732
0.000000 0.345154 0.332245
0.000000 0.357178 0.330627
0.040497 0.383148 0.327789
0.233398 0.433624 0.315063
0.473785 0.492126 0.300171
0.646790 0.517090 0.274231
0.741241 0.508026 0.227966
0.809540 0.481903 0.183380
0.865723 0.445129 0.162445
0.000000 0.400238 0.366943
0.000000 0.413727 0.367828
0.000397 0.436707 0.369141
0.101990 0.478699 0.356476
0.349579 0.547852 0.331665
0.606415 0.601715 0.299561
0.760559 0.615631 0.252441
0.852875 0.605103 0.193726
0.919830 0.581940 0.137848
0.000000 0.465942 0.409821
0.000000 0.484955 0.414215
0.000000 0.508636 0.419739
0.032227 0.543976 0.411560
0.227386 0.608093 0.388977
0.532288 0.681396 0.360596
0.753937 0.716400 0.321747
0.885071 0.719025 0.274200
0.966217 0.701904 0.200195
0.000000 0.558136 0.473938
0.000000 0.582947 0.485809
0.000000 0.604980 0.489807
0.036835 0.638031 0.481476
0.231262 0.702789 0.471527
0.518066 0.777191 0.456879
0.740173 0.819794 0.429993
0.889954 0.833557 0.400970
0.991364 0.825439 0.349762
0.000000 0.663330 0.560272
0.000000 0.688446 0.573669
0.002930 0.709717 0.565979
0.138977 0.766022 0.568542
0.372406 0.837189 0.572784
0.587891 0.881805 0.562805
0.746735 0.914703 0.547607
0.879364 0.937683 0.538635
0.989410 0.946808 0.533722
0.000488 0.027527 0.213959
0.116425 0.022675 0.226562
0.244965 0.015533 0.233398
0.340851 0.017639 0.254822
0.419495 0.025360 0.272247
0.489685 0.033020 0.278748
0.555237 0.041412 0.281067
0.614685 0.047760 0.282379
0.666626 0.051453 0.282928
0.000000 0.128510 0.279541
0.073883 0.135071 0.285919
0.240540 0.150024 0.290161
0.375214 0.164581 0.303986
0.472717 0.172577 0.316162
0.554260 0.170410 0.313568
0.617035 0.158478 0.301727
0.670868 0.146484 0.292511
0.720184 0.139923 0.288452
0.000000 0.223480 0.328461
0.028809 0.235748 0.331726
0.202698 0.266144 0.336945
0.392212 0.302155 0.348083
0.519287 0.319794 0.358612
0.611633 0.315796 0.349365
0.674347 0.290985 0.323090
0.723328 0.256958 0.299957
0.768738 0.228546 0.289856
0.000000 0.294830 0.358978
0.000000 0.306641 0.358429
0.123199 0.337891 0.364319
0.357513 0.391418 0.376099
0.534912 0.429199 0.388916
0.648438 0.433716 0.379761
0.721710 0.410156 0.345093
0.775299 0.368774 0.307312
0.819183 0.320068 0.287018
0.000000 0.353973 0.380859
0.000000 0.366394 0.380096
0.042877 0.393097 0.387085
0.249359 0.448395 0.397705
0.487000 0.509064 0.408844
0.657837 0.536224 0.402283
0.756073 0.528748 0.367126
0.824371 0.497955 0.314545
0.876221 0.450989 0.272247
0.000000 0.411499 0.409851
0.000000 0.427002 0.413239
0.000458 0.452606 0.422791
0.111877 0.499390 0.428833
0.361877 0.569000 0.430511
0.618408 0.620636 0.423584
0.772644 0.636169 0.397339
0.865051 0.625183 0.345001
0.928955 0.596405 0.276459
0.000000 0.480103 0.452301
0.000000 0.502899 0.461639
0.000000 0.530457 0.474121
0.034851 0.567657 0.476562
0.238098 0.630951 0.472290
0.545532 0.700012 0.466919
0.763611 0.733154 0.450378
0.891846 0.736938 0.419159
0.971649 0.720673 0.359314
0.000000 0.571381 0.516479
0.000000 0.598022 0.532043
0.000000 0.622925 0.541321
0.039825 0.657684 0.539246
0.236145 0.721527 0.538940
0.525208 0.792175 0.536621
0.746277 0.831177 0.523468
0.893860 0.844757 0.508606
0.992554 0.841003 0.482269
0.000000 0.671051 0.598389
0.000000 0.695526 0.612518
0.007690 0.718964 0.609467
0.142303 0.778076 0.617004
0.368896 0.846008 0.623657
0.586761 0.888489 0.617126
0.747650 0.920349 0.606689
0.880981 0.942688 0.602142
0.990265 0.952972 0.603668
0.000092 0.036896 0.260132
0.098602 0.027832 0.277802
0.237091 0.018585 0.282898
0.337585 0.014801 0.299622
0.419922 0.021149 0.324066
0.499725 0.033081 0.342621
0.571014 0.043945 0.350494
0.629242 0.050812 0.352997
0.679840 0.055786 0.354828
0.000000 0.129303 0.318726
0.059998 0.135132 0.333282
0.225647 0.145996 0.343475
0.364716 0.151337 0.357239
0.466858 0.157745 0.376984
0.559570 0.162994 0.390381
0.631348 0.162384 0.388550
0.686127 0.154663 0.377533
0.734344 0.147522 0.368073
0.000000 0.222748 0.367950
0.024536 0.236176 0.379059
0.189911 0.263000 0.393799
0.378876 0.293488 0.408569
0.510956 0.310425 0.426605
0.615417 0.313477 0.435577
0.687592 0.296936 0.424500
0.738373 0.264801 0.399445
0.782532 0.234650 0.376495
0.000000 0.295410 0.401428
0.000000 0.308228 0.407776
0.111969 0.337128 0.424072
0.348022 0.389160 0.443390
0.531158 0.428253 0.462250
0.652283 0.438934 0.470459
0.733521 0.421753 0.455078
0.789032 0.379089 0.420471
0.831116 0.325165 0.382263
0.000000 0.357971 0.428375
0.000000 0.370605 0.431061
0.037292 0.395599 0.444336
0.253204 0.452881 0.466125
0.494904 0.517334 0.487488
0.662781 0.548401 0.497070
0.764984 0.546234 0.483154
0.836121 0.516022 0.444977
0.886078 0.462097 0.391510
0.000000 0.417999 0.455139
0.000000 0.434662 0.458405
0.000000 0.459930 0.471161
0.119965 0.509979 0.489014
0.378357 0.583405 0.508575
0.628265 0.634979 0.519592
0.778961 0.652679 0.512970
0.872742 0.643677 0.484161
0.936127 0.613037 0.429474
0.000000 0.489624 0.491333
0.000000 0.514557 0.502258
0.000000 0.543091 0.518738
0.036865 0.582367 0.531311
0.255737 0.650116 0.544159
0.559875 0.715820 0.553314
0.769257 0.746521 0.549957
0.894806 0.751556 0.535950
0.973846 0.736328 0.501373
0.000000 0.582184 0.553223
0.000000 0.609161 0.570770
0.000000 0.635010 0.584106
0.043701 0.672119 0.590118
0.253052 0.740448 0.601044
0.539337 0.807098 0.606232
0.751678 0.841003 0.600128
0.895874 0.853851 0.593231
0.992432 0.852264 0.580719
0.000000 0.680298 0.633820
0.000000 0.702698 0.647552
0.007751 0.726074 0.648682
0.145355 0.786987 0.662262
0.376038 0.856995 0.675903
0.594818 0.898743 0.674042
0.751160 0.928711 0.667511
0.883118 0.949432 0.665222
0.991364 0.959717 0.668793
0.000000 0.045227 0.297913
0.075409 0.034637 0.322021
0.220978 0.028015 0.330383
0.330170 0.018646 0.340912
0.414124 0.020355 0.363190
0.497498 0.032288 0.388763
0.578888 0.046387 0.407776
0.644318 0.055878 0.416901
0.695770 0.059937 0.419312
0.000000 0.126068 0.354218
0.047577 0.130951 0.373749
0.208588 0.140167 0.389374
0.351685 0.140839 0.402130
0.454285 0.138855 0.420441
0.550934 0.144165 0.441406
0.634827 0.153900 0.455048
0.700043 0.157776 0.455292
0.750214 0.153229 0.445038
0.000000 0.218567 0.404694
0.023254 0.232483 0.420441
0.179962 0.256683 0.440186
0.363770 0.280609 0.457458
0.494110 0.291260 0.474701
0.604584 0.294220 0.491791
0.689026 0.285919 0.497925
0.750610 0.264404 0.487305
0.797852 0.241119 0.465179
0.000000 0.291870 0.437531
0.000000 0.306061 0.448975
0.110168 0.333954 0.471436
0.336304 0.380798 0.497528
0.517487 0.414215 0.516815
0.645660 0.426361 0.532318
0.737335 0.418671 0.534729
0.800537 0.383820 0.516968
0.844238 0.334167 0.483643
0.000000 0.356964 0.467865
0.000000 0.370911 0.476440
0.030701 0.394531 0.496643
0.238892 0.449493 0.528412
0.489471 0.514435 0.551605
0.662018 0.547943 0.565521
0.769135 0.553528 0.567535
0.845428 0.530487 0.549896
0.896027 0.477570 0.511932
0.000000 0.420776 0.500275
0.000000 0.439514 0.506989
0.000000 0.463684 0.522644
0.115997 0.512604 0.547791
0.388458 0.589996 0.575897
0.637695 0.643311 0.594147
0.782715 0.663849 0.599792
0.877899 0.659210 0.588287
0.943054 0.631439 0.556091
0.000000 0.494934 0.534210
0.000000 0.521912 0.545258
0.000000 0.549957 0.562683
0.038361 0.589264 0.581696
0.281189 0.662476 0.607025
0.581146 0.727264 0.626221
0.775330 0.757446 0.632172
0.895996 0.764557 0.627716
0.976196 0.752319 0.608246
0.000000 0.589996 0.590179
0.000000 0.617279 0.607178
0.000000 0.643433 0.623291
0.056244 0.683655 0.637939
0.287903 0.757599 0.660187
0.564575 0.820648 0.673218
0.759125 0.850403 0.673157
0.897308 0.862854 0.670990
0.992462 0.863159 0.665039
0.000000 0.691040 0.669067
0.000000 0.711395 0.681946
0.014252 0.736603 0.688232
0.166412 0.802368 0.710632
0.402618 0.871429 0.731171
0.614105 0.912384 0.736389
0.756989 0.940186 0.734497
0.886078 0.959076 0.734253
0.992981 0.967926 0.737885
0.000000 0.051300 0.333954
0.056061 0.039734 0.360413
0.203827 0.035706 0.374725
0.322449 0.028076 0.383331
0.408600 0.022980 0.399719
0.492188 0.029785 0.423737
0.576294 0.045654 0.448181
0.650238 0.060028 0.467560
0.709900 0.066467 0.478271
0.000000 0.121613 0.387543
0.036835 0.123993 0.407257
0.190002 0.131226 0.426910
0.337952 0.129120 0.441101
0.443451 0.121307 0.456573
0.540009 0.121338 0.477203
0.627716 0.132050 0.497925
0.701782 0.144867 0.511292
0.762177 0.152130 0.514374
0.000000 0.211182 0.438751
0.016998 0.223663 0.455536
0.162231 0.243195 0.476868
0.344513 0.261932 0.496735
0.477539 0.266846 0.513306
0.589478 0.263000 0.530334
0.678436 0.252930 0.543701
0.749908 0.242676 0.547699
0.809662 0.241577 0.542786
0.000000 0.287537 0.472931
0.000000 0.301270 0.487335
0.104034 0.325958 0.510254
0.319366 0.365967 0.539520
0.500031 0.393585 0.561279
0.632904 0.401031 0.577545
0.729431 0.393677 0.587250
0.801422 0.367554 0.583954
0.854736 0.338318 0.569702
0.000000 0.352905 0.502502
0.000000 0.367493 0.515533
0.025970 0.389191 0.538086
0.219055 0.438782 0.574677
0.471710 0.501587 0.603973
0.653534 0.534363 0.617981
0.765594 0.543823 0.626740
0.848969 0.529144 0.623962
0.904175 0.485626 0.605988
0.000000 0.420898 0.539825
0.000000 0.441406 0.551056
0.000000 0.464905 0.569366
0.096039 0.509552 0.599518
0.376465 0.587555 0.636658
0.636688 0.642365 0.655945
0.782898 0.665192 0.666260
0.880951 0.665955 0.666351
0.949432 0.644867 0.651642
0.000000 0.498413 0.576477
0.000000 0.526672 0.589050
0.000000 0.554443 0.607452
0.039856 0.592957 0.631348
0.298767 0.668213 0.667328
0.599335 0.731537 0.692200
0.782684 0.763153 0.704620
0.897858 0.773865 0.708038
0.979279 0.766907 0.700226
0.000000 0.594879 0.629333
0.000000 0.620758 0.644592
0.000000 0.648102 0.663391
0.086578 0.694092 0.687592
0.337433 0.771179 0.719818
0.600555 0.828217 0.738373
0.774841 0.857178 0.746735
0.901703 0.871979 0.751831
0.993011 0.875244 0.752869
0.000000 0.700439 0.707916
0.000000 0.717773 0.718994
0.034271 0.749756 0.733215
0.219421 0.823792 0.764832
0.459747 0.887177 0.787872
0.650330 0.924774 0.798401
0.776520 0.951691 0.803650
0.895264 0.969788 0.807831
0.995056 0.977020 0.813019
0.000000 0.054199 0.368683
0.047729 0.042267 0.394196
0.193695 0.041656 0.414001
0.318512 0.034912 0.424377
0.407837 0.028137 0.436279
0.491211 0.029846 0.455994
0.574249 0.042480 0.480011
0.646454 0.056030 0.502167
0.710785 0.066528 0.520569
0.000000 0.114990 0.416687
0.028961 0.113464 0.434937
0.173981 0.118958 0.456909
0.326843 0.118225 0.474854
0.437469 0.108429 0.489777
0.533997 0.102814 0.508392
0.621033 0.106781 0.528900
0.693665 0.114716 0.545929
0.758850 0.132111 0.558319
0.000000 0.199402 0.466705
0.008698 0.207611 0.482147
0.144196 0.221191 0.502716
0.325928 0.235077 0.525208
0.463898 0.234131 0.542480
0.577179 0.220978 0.558655
0.666595 0.204407 0.573364
0.739777 0.198578 0.583984
0.806946 0.219299 0.590851
0.000000 0.281860 0.507507
0.000000 0.293060 0.521576
0.092102 0.311310 0.541656
0.300323 0.343231 0.570862
0.483978 0.363861 0.594482
0.620972 0.363037 0.611298
0.717438 0.348145 0.622253
0.791290 0.326233 0.625916
0.854065 0.319977 0.624237
0.000000 0.350616 0.537842
0.000000 0.363495 0.552368
0.024139 0.381592 0.573792
0.208038 0.423920 0.609314
0.458069 0.480988 0.644287
0.645599 0.510986 0.662231
0.759094 0.518372 0.673157
0.843994 0.504700 0.676941
0.905121 0.467957 0.669342
0.000000 0.421448 0.576904
0.000000 0.440094 0.589417
0.000000 0.461029 0.608124
0.082031 0.500031 0.639648
0.359680 0.576874 0.686432
0.630310 0.633331 0.712006
0.780518 0.656372 0.723877
0.880188 0.660187 0.731354
0.953217 0.642426 0.726410
0.000000 0.505707 0.617157
0.000000 0.530670 0.629486
0.000000 0.556519 0.648987
0.038269 0.592651 0.677399
0.299744 0.666229 0.727417
0.605011 0.729340 0.760712
0.788544 0.762146 0.773560
0.900635 0.776367 0.783081
0.984283 0.773804 0.784485
0.000000 0.602478 0.671570
0.000000 0.624756 0.685791
0.000000 0.652893 0.708496
0.116638 0.701782 0.741608
0.375732 0.777679 0.783142
0.633270 0.830566 0.807495
0.796936 0.860657 0.820984
0.912231 0.879761 0.833923
0.996216 0.886963 0.842041
0.000000 0.707367 0.752441
0.000000 0.721863 0.761505
0.070404 0.764709 0.785828
0.290131 0.843689 0.823853
0.531067 0.899231 0.846741
0.700928 0.933685 0.862000
0.815460 0.960754 0.875488
0.916473 0.978668 0.887817
0.996124 0.981018 0.897491
0.000000 0.055634 0.401459
0.041046 0.042267 0.424286
0.186005 0.042511 0.447449
0.315704 0.039185 0.461975
0.409607 0.032410 0.471527
0.493652 0.032440 0.487762
0.574371 0.040039 0.508514
0.641479 0.049561 0.528290
0.696869 0.054657 0.543121
0.000000 0.108856 0.442841
0.023468 0.104614 0.459106
0.160736 0.108398 0.482910
0.318329 0.109314 0.505768
0.434540 0.102844 0.521576
0.532288 0.095001 0.537994
0.616913 0.087555 0.554901
0.685364 0.082825 0.570953
0.742340 0.091614 0.582611
0.000000 0.180634 0.488953
0.003906 0.183716 0.501648
0.131134 0.192780 0.521454
0.312164 0.201630 0.546753
0.454071 0.194519 0.565491
0.568451 0.174591 0.581970
0.657623 0.151093 0.596436
0.730103 0.146332 0.609924
0.790649 0.173218 0.618652
0.000000 0.270477 0.537476
0.000000 0.276733 0.548035
0.087006 0.287659 0.564575
0.288818 0.309723 0.592316
0.471558 0.319336 0.616516
0.610291 0.306458 0.635040
0.706085 0.283081 0.647369
0.781006 0.271454 0.656281
0.841400 0.281860 0.658630
0.000000 0.348816 0.574432
0.000000 0.358185 0.586853
0.029480 0.371643 0.605377
0.215454 0.405731 0.639069
0.457092 0.449280 0.675781
0.642761 0.471527 0.699066
0.755920 0.474701 0.712433
0.838593 0.463226 0.719849
0.896118 0.429779 0.714233
0.000000 0.421906 0.612518
0.000000 0.436707 0.624359
0.000000 0.454437 0.643494
0.093994 0.491150 0.678070
0.370209 0.564606 0.730835
0.635254 0.617401 0.761993
0.783081 0.639282 0.777496
0.879852 0.645325 0.789978
0.949554 0.627014 0.787659
0.000000 0.514221 0.657593
0.000000 0.532684 0.668304
0.000000 0.554535 0.688354
0.047943 0.590363 0.722839
0.313416 0.663055 0.784973
0.614624 0.723724 0.825256
0.796631 0.756836 0.840118
0.903687 0.774261 0.855621
0.984924 0.776245 0.863617
0.000000 0.613129 0.716888
0.000000 0.630981 0.730713
0.005219 0.656830 0.755371
0.141022 0.707336 0.796234
0.402252 0.780670 0.849518
0.653931 0.830536 0.886627
0.815552 0.863403 0.903595
0.922272 0.886200 0.920593
0.996399 0.897705 0.936493
0.000000 0.707214 0.788818
0.000000 0.722748 0.802765
0.093628 0.772064 0.838196
0.340149 0.855865 0.888794
0.584595 0.907654 0.915985
0.745941 0.940643 0.938782
0.854065 0.967804 0.958221
0.939453 0.980927 0.965668
0.995026 0.979095 0.963348
