Kodak Vision2 100T (5212) - Only contrast.cube
# Created by Benjamin (IWLTBAP) : http://luts.iwltbap.com
# Copyright: (C) Copyright 2010-2017 Triune Films and IWLTBAP SAS
# Cannot be resold, shared or otherwise redistributed
TITLE "Film Print Emulation LUTs Pack (Rec.709, sRGB, DCI-P3)"
LUT_3D_SIZE 5
0.000000 0.000000 0.000000
0.192810 0.000000 0.000000
0.459686 0.000000 0.000000
0.727020 0.000000 0.000000
0.995758 0.000000 0.000000
0.000000 0.192810 0.000000
0.193146 0.193146 0.000000
0.460236 0.192963 0.000000
0.727539 0.192810 0.000000
0.996277 0.192657 0.000000
0.000000 0.459686 0.000000
0.192963 0.460236 0.000000
0.460266 0.460266 0.000000
0.727539 0.460327 0.000000
0.996277 0.460358 0.000000
0.000000 0.727020 0.000000
0.192810 0.727539 0.000000
0.460327 0.727539 0.000000
0.727570 0.727570 0.000000
0.996277 0.727539 0.000000
0.000000 0.995758 0.000000
0.192657 0.996277 0.000000
0.460358 0.996277 0.000000
0.727539 0.996277 0.000000
0.996338 0.996155 0.011871
0.000000 0.000000 0.192810
0.193146 0.000000 0.193146
0.460236 0.000000 0.192963
0.727539 0.000000 0.192810
0.996277 0.000000 0.192657
0.000000 0.193146 0.193146
0.193481 0.193481 0.193481
0.460785 0.193329 0.193329
0.728058 0.193146 0.193146
0.996765 0.192993 0.192993
0.000000 0.460236 0.192963
0.193329 0.460785 0.193329
0.460815 0.460815 0.193146
0.728058 0.460846 0.192993
0.996765 0.460876 0.192841
0.000000 0.727539 0.192810
0.193146 0.728058 0.193146
0.460846 0.728058 0.192993
0.728058 0.728058 0.192841
0.996765 0.728058 0.192688
0.000000 0.996277 0.192657
0.192993 0.996765 0.192993
0.460876 0.996765 0.192841
0.728058 0.996765 0.192688
0.996765 0.996765 0.192535
0.000000 0.000000 0.459686
0.192963 0.000000 0.460236
0.460266 0.000000 0.460266
0.727539 0.000000 0.460327
0.996277 0.000000 0.460358
0.000000 0.192963 0.460236
0.193329 0.193329 0.460785
0.460815 0.193146 0.460815
0.728058 0.192993 0.460846
0.996765 0.192841 0.460876
0.000000 0.460266 0.460266
0.193146 0.460815 0.460815
0.460846 0.460846 0.460846
0.728058 0.460876 0.460876
0.996765 0.460907 0.460907
0.000000 0.727539 0.460327
0.192993 0.728058 0.460846
0.460876 0.728058 0.460876
0.728058 0.728058 0.460907
0.996765 0.728058 0.460907
0.000000 0.996277 0.460358
0.192841 0.996765 0.460876
0.460907 0.996765 0.460907
0.728058 0.996765 0.460907
0.996765 0.996765 0.460938
0.000000 0.000000 0.727020
0.192810 0.000000 0.727539
0.460327 0.000000 0.727539
0.727570 0.000000 0.727570
0.996277 0.000000 0.727539
0.000000 0.192810 0.727539
0.193146 0.193146 0.728058
0.460846 0.192993 0.728058
0.728058 0.192841 0.728058
0.996765 0.192688 0.728058
0.000000 0.460327 0.727539
0.192993 0.460846 0.728058
0.460876 0.460876 0.728058
0.728058 0.460907 0.728058
0.996765 0.460907 0.728058
0.000000 0.727570 0.727570
0.192841 0.728058 0.728058
0.460907 0.728058 0.728058
0.728058 0.728058 0.728058
0.996765 0.728058 0.728058
0.000000 0.996277 0.727539
0.192688 0.996765 0.728058
0.460907 0.996765 0.728058
0.728058 0.996765 0.728058
0.996765 0.996765 0.728027
0.000000 0.000000 0.995667
0.192657 0.000000 0.996277
0.460358 0.000000 0.996277
0.727539 0.000000 0.996277
0.996277 0.000000 0.996277
0.000000 0.192657 0.996277
0.192993 0.192993 0.996765
0.460876 0.192841 0.996765
0.728058 0.192688 0.996765
0.996765 0.192535 0.996765
0.000000 0.460358 0.996277
0.192841 0.460876 0.996765
0.460907 0.460907 0.996765
0.728058 0.460907 0.996765
0.996765 0.460938 0.996765
0.000000 0.727539 0.996277
0.192688 0.728058 0.996765
0.460907 0.728058 0.996765
0.728058 0.728058 0.996765
0.996765 0.728027 0.996765
0.000000 0.996277 0.996277
0.192535 0.996765 0.996765
0.460938 0.996765 0.996765
0.728027 0.996765 0.996765
0.996765 0.996765 0.996765
