Kodak Eastman EXR 100T (5248) - Look.cube
# Created by Benjamin (IWLTBAP) : http://luts.iwltbap.com
# Copyright: (C) Copyright 2010-2017 Triune Films and IWLTBAP SAS
# Cannot be resold, shared or otherwise redistributed
TITLE "Film Print Emulation LUTs Pack (Rec.709, sRGB, DCI-P3)"
LUT_3D_SIZE 9
0.004700 0.002960 0.021515
0.075531 0.012512 0.015045
0.159363 0.028961 0.019165
0.253998 0.043518 0.030121
0.359772 0.062836 0.034393
0.471497 0.079132 0.045837
0.583801 0.119751 0.057312
0.692047 0.157806 0.077667
0.792023 0.206818 0.112305
0.022827 0.080322 0.053864
0.097107 0.093933 0.063660
0.201080 0.107086 0.039307
0.301880 0.119385 0.035919
0.410126 0.135559 0.048462
0.521118 0.158051 0.062714
0.634766 0.184875 0.089142
0.745270 0.221466 0.135345
0.839233 0.265991 0.198273
0.051605 0.167511 0.080475
0.131714 0.188293 0.088379
0.239716 0.212555 0.096619
0.351715 0.226135 0.057709
0.459625 0.239807 0.053680
0.563690 0.258728 0.069305
0.666565 0.279388 0.098297
0.766479 0.306183 0.132477
0.856232 0.339294 0.174347
0.089508 0.261383 0.114929
0.175446 0.287384 0.123260
0.281311 0.313721 0.130890
0.390778 0.338043 0.145996
0.504517 0.351624 0.109833
0.610260 0.364532 0.103516
0.709869 0.384186 0.128418
0.804962 0.407623 0.157684
0.887451 0.435089 0.200043
0.151550 0.367371 0.158112
0.231140 0.396271 0.172943
0.328400 0.422241 0.181580
0.435760 0.446442 0.192139
0.545013 0.468903 0.207977
0.650482 0.483002 0.194885
0.754089 0.496521 0.171387
0.845764 0.516052 0.198029
0.922424 0.539429 0.232880
0.226807 0.475464 0.207306
0.287933 0.505310 0.226349
0.378784 0.531372 0.238037
0.480621 0.554413 0.249390
0.586517 0.576324 0.260498
0.690948 0.596283 0.274017
0.785645 0.612396 0.280884
0.883850 0.627441 0.256134
0.955719 0.646637 0.280762
0.292389 0.584045 0.259491
0.351349 0.615021 0.280762
0.433746 0.640503 0.292786
0.530792 0.664001 0.300446
0.629181 0.683685 0.311340
0.730438 0.703156 0.323334
0.825317 0.720917 0.339966
0.913940 0.739410 0.357635
0.980164 0.753387 0.349396
0.364258 0.693268 0.312347
0.416504 0.725098 0.336639
0.490692 0.749878 0.351288
0.580170 0.772369 0.360992
0.675140 0.793060 0.372314
0.771393 0.811615 0.384247
0.864380 0.828766 0.398041
0.946442 0.845551 0.415833
0.988525 0.860840 0.441101
0.433777 0.796906 0.375397
0.479797 0.824646 0.404480
0.548492 0.846619 0.422882
0.626953 0.865356 0.435486
0.717773 0.884186 0.446564
0.806854 0.900543 0.458374
0.898041 0.916473 0.471283
0.965881 0.929474 0.486786
0.996094 0.938538 0.507019
0.003387 0.011230 0.096558
0.070190 0.021393 0.102997
0.165527 0.032410 0.111511
0.261139 0.054535 0.116577
0.368347 0.071777 0.128998
0.478729 0.091248 0.146729
0.592133 0.133179 0.168854
0.697662 0.173187 0.192780
0.796570 0.222107 0.218781
0.012970 0.089355 0.143372
0.086914 0.102570 0.160309
0.201752 0.119049 0.135681
0.308624 0.132904 0.142487
0.419891 0.150208 0.156769
0.529724 0.175140 0.181549
0.641815 0.203674 0.211700
0.751251 0.239532 0.249969
0.841980 0.282654 0.298706
0.034821 0.180328 0.158325
0.124786 0.197968 0.172333
0.233307 0.225647 0.194641
0.353241 0.240845 0.167847
0.466858 0.256104 0.170074
0.570923 0.275909 0.191803
0.672760 0.297058 0.215057
0.772827 0.323608 0.242767
0.860962 0.355713 0.274384
0.075806 0.275482 0.194763
0.162262 0.299957 0.212585
0.276947 0.324585 0.231720
0.382019 0.350769 0.251587
0.505981 0.366547 0.215454
0.616333 0.380707 0.212097
0.714386 0.400055 0.236603
0.809998 0.423462 0.261932
0.891663 0.450562 0.290649
0.124268 0.381866 0.234467
0.218201 0.409393 0.253326
0.324646 0.434052 0.268127
0.431732 0.458618 0.283661
0.541351 0.481659 0.297516
0.653076 0.496857 0.280670
0.758514 0.510834 0.265747
0.850647 0.530518 0.286224
0.925934 0.552826 0.315277
0.210693 0.489777 0.273438
0.280334 0.519196 0.294250
0.376495 0.544861 0.306549
0.481354 0.566956 0.319611
0.586761 0.588684 0.331116
0.692444 0.609314 0.345520
0.789673 0.624817 0.345673
0.888580 0.640320 0.328705
0.959198 0.659760 0.351196
0.287354 0.597260 0.313416
0.348663 0.628632 0.335968
0.433990 0.653900 0.349823
0.532959 0.677307 0.361084
0.632050 0.696716 0.372498
0.733551 0.715973 0.384705
0.828766 0.733856 0.399994
0.917450 0.752075 0.415375
0.982056 0.766022 0.405792
0.361938 0.706482 0.359863
0.417175 0.738342 0.385315
0.491852 0.762787 0.400665
0.583771 0.784943 0.412201
0.679749 0.805511 0.423248
0.776001 0.823883 0.435211
0.868988 0.840698 0.447418
0.950531 0.856964 0.463989
0.990295 0.871979 0.487579
0.433655 0.808228 0.416687
0.480713 0.835052 0.446014
0.551849 0.856781 0.464142
0.630341 0.874939 0.476471
0.722076 0.893524 0.487213
0.811188 0.909698 0.499054
0.902496 0.925568 0.512390
0.968719 0.938568 0.529053
0.996674 0.946930 0.570343
0.008606 0.018646 0.169861
0.054718 0.029449 0.184723
0.159698 0.042419 0.206329
0.263184 0.050415 0.226318
0.371765 0.070129 0.244629
0.482697 0.106110 0.261261
0.594635 0.148071 0.281250
0.699860 0.186432 0.302216
0.798767 0.237396 0.326660
0.000000 0.096466 0.237671
0.052399 0.109161 0.254822
0.196716 0.128296 0.252380
0.309723 0.140900 0.267548
0.421692 0.160706 0.281158
0.532593 0.192352 0.296997
0.644196 0.219879 0.320129
0.753479 0.254700 0.351349
0.843475 0.297607 0.393158
0.032990 0.195282 0.276215
0.088318 0.214691 0.294373
0.237610 0.244293 0.312897
0.346710 0.263794 0.290283
0.460846 0.277161 0.299347
0.573059 0.293640 0.311432
0.675476 0.313354 0.327759
0.774994 0.339905 0.350555
0.862915 0.372498 0.377899
0.061676 0.293793 0.291473
0.142334 0.316101 0.305695
0.278534 0.340851 0.320435
0.379120 0.369110 0.343994
0.498077 0.384521 0.329102
0.617554 0.396423 0.326569
0.716309 0.415466 0.345154
0.811951 0.438965 0.366364
0.893188 0.466034 0.391113
0.105530 0.398438 0.327911
0.197937 0.423615 0.345428
0.320465 0.444458 0.363434
0.427460 0.467651 0.384277
0.525604 0.493164 0.406464
0.650452 0.509949 0.376251
0.759430 0.524567 0.369354
0.851318 0.544586 0.388641
0.926422 0.566833 0.412598
0.183289 0.504913 0.360687
0.261230 0.533264 0.380951
0.368378 0.556732 0.396667
0.476379 0.577454 0.411377
0.577637 0.599396 0.428955
0.683380 0.621002 0.441681
0.788147 0.636444 0.429932
0.888763 0.652649 0.420135
0.959167 0.672150 0.439575
0.264069 0.611816 0.394501
0.330872 0.641693 0.417786
0.424255 0.666840 0.432709
0.526855 0.689575 0.445129
0.627045 0.708008 0.457306
0.729462 0.727325 0.468994
0.824615 0.744965 0.483032
0.915100 0.762909 0.492157
0.982849 0.776154 0.479950
0.345215 0.719238 0.433258
0.404327 0.750214 0.458313
0.484497 0.773895 0.473969
0.577667 0.795593 0.485474
0.674835 0.815460 0.496735
0.772705 0.834106 0.509247
0.865631 0.850769 0.522003
0.948853 0.867126 0.538483
0.989929 0.881744 0.564941
0.422180 0.818420 0.480194
0.472382 0.844482 0.509857
0.545624 0.866302 0.527863
0.624817 0.883728 0.540375
0.717834 0.902161 0.551910
0.808197 0.918457 0.564178
0.899658 0.933960 0.577209
0.968140 0.946869 0.592896
0.996368 0.954834 0.646729
0.021545 0.028534 0.240234
0.049072 0.042755 0.263000
0.155487 0.054657 0.288116
0.263184 0.064117 0.314056
0.375427 0.084656 0.339539
0.486481 0.105743 0.361786
0.598053 0.152130 0.382416
0.701294 0.202576 0.400421
0.799927 0.252014 0.421661
0.017578 0.104767 0.303528
0.053009 0.122192 0.326660
0.186981 0.139130 0.340027
0.305908 0.154541 0.359161
0.423157 0.173401 0.380920
0.535217 0.197205 0.401245
0.646881 0.225616 0.422882
0.753571 0.270721 0.448425
0.844635 0.313110 0.483551
0.011871 0.198822 0.351746
0.037323 0.221771 0.385162
0.206818 0.252441 0.409515
0.348694 0.276978 0.397919
0.463531 0.289948 0.413086
0.574493 0.303314 0.424530
0.673615 0.329590 0.434204
0.774628 0.355286 0.449585
0.863495 0.387421 0.472534
0.054169 0.312073 0.405121
0.117981 0.333771 0.423309
0.252197 0.359009 0.438873
0.390900 0.388184 0.461853
0.497864 0.406158 0.438934
0.605774 0.417847 0.444275
0.714478 0.431885 0.450806
0.811859 0.453979 0.465668
0.893311 0.480621 0.487457
0.122833 0.423401 0.423553
0.199707 0.441925 0.434082
0.319916 0.462463 0.446747
0.432251 0.486847 0.467743
0.524353 0.514252 0.493256
0.642487 0.527863 0.475037
0.759583 0.538361 0.467072
0.851379 0.558167 0.484772
0.926056 0.580109 0.507019
0.159698 0.522736 0.453918
0.241882 0.547638 0.471619
0.358734 0.569946 0.486176
0.474365 0.587372 0.505432
0.574066 0.609070 0.526642
0.666748 0.632996 0.547424
0.786102 0.647980 0.516266
0.888916 0.663757 0.510223
0.958038 0.683655 0.530792
0.234131 0.627197 0.484924
0.305847 0.655823 0.506836
0.409973 0.679565 0.521393
0.518646 0.700897 0.536041
0.621490 0.718506 0.549988
0.719238 0.737366 0.566010
0.817383 0.757294 0.577423
0.913727 0.773285 0.571655
0.982117 0.786591 0.564575
0.315247 0.732361 0.518402
0.382324 0.762024 0.542572
0.466492 0.784821 0.557739
0.567230 0.806183 0.570282
0.666321 0.825684 0.580933
0.764954 0.843506 0.592407
0.859955 0.860413 0.605560
0.945038 0.876465 0.620544
0.989380 0.891022 0.643616
0.401184 0.829468 0.558868
0.454529 0.854095 0.586060
0.532623 0.874939 0.603302
0.616180 0.892456 0.616028
0.710419 0.910309 0.626465
0.801514 0.926239 0.638611
0.894684 0.941895 0.652405
0.966858 0.954590 0.667236
0.995850 0.963104 0.728058
0.031891 0.042664 0.316864
0.056396 0.058838 0.344421
0.156494 0.066071 0.365906
0.264038 0.081360 0.393433
0.376251 0.102600 0.422302
0.489227 0.127533 0.449097
0.599762 0.169342 0.472321
0.703674 0.207581 0.493500
0.801849 0.260986 0.513824
0.034027 0.119171 0.372437
0.056915 0.142090 0.402863
0.182190 0.153595 0.419556
0.303070 0.169952 0.440979
0.421173 0.190979 0.465149
0.534729 0.214630 0.488373
0.646484 0.242462 0.512543
0.756104 0.277649 0.540955
0.846680 0.322174 0.572662
0.022522 0.210846 0.439117
0.042908 0.238953 0.473572
0.189240 0.263519 0.484344
0.341827 0.284668 0.485504
0.458984 0.302795 0.500336
0.569855 0.318329 0.516571
0.675323 0.337677 0.531708
0.776276 0.363770 0.548584
0.864258 0.400269 0.566406
0.042816 0.316650 0.481232
0.066772 0.344421 0.507294
0.172272 0.368774 0.536407
0.370728 0.395660 0.551880
0.498749 0.421387 0.537994
0.609589 0.432159 0.549316
0.715118 0.443085 0.559479
0.809601 0.467773 0.567535
0.891998 0.495148 0.581085
0.103210 0.438812 0.530243
0.165344 0.459717 0.546722
0.290741 0.479645 0.561493
0.412872 0.503998 0.580353
0.540314 0.530487 0.605194
0.644775 0.546967 0.580872
0.747650 0.558136 0.580811
0.847748 0.572662 0.584167
0.924591 0.593414 0.600006
0.201324 0.554291 0.560699
0.285828 0.570618 0.570465
0.386322 0.587128 0.570679
0.480743 0.604462 0.583069
0.577240 0.626312 0.607697
0.661438 0.651428 0.634674
0.781097 0.662537 0.608032
0.888397 0.675751 0.600311
0.957458 0.695831 0.618988
0.206329 0.645813 0.575531
0.285950 0.670441 0.593353
0.397278 0.691711 0.606781
0.510284 0.711334 0.620178
0.617676 0.727661 0.638245
0.712769 0.745758 0.659912
0.800934 0.767273 0.676208
0.913605 0.782532 0.647217
0.982880 0.795959 0.646790
0.294189 0.748230 0.605927
0.365112 0.775543 0.627930
0.452576 0.796661 0.642151
0.554932 0.816833 0.654175
0.657288 0.836670 0.667084
0.757477 0.853821 0.680206
0.851654 0.869843 0.694427
0.939148 0.886475 0.708038
0.990234 0.899048 0.715607
0.384430 0.840942 0.640717
0.437653 0.864044 0.666992
0.517120 0.883636 0.683563
0.602814 0.900909 0.696625
0.700928 0.918945 0.709442
0.793213 0.934357 0.720123
0.887482 0.949768 0.733215
0.963776 0.962128 0.746857
0.995453 0.970062 0.801361
0.052185 0.056641 0.395599
0.064056 0.082153 0.434906
0.163605 0.081818 0.445648
0.269897 0.101044 0.472748
0.379456 0.123474 0.501190
0.490967 0.151917 0.529694
0.601715 0.191162 0.555298
0.705719 0.229248 0.578583
0.803650 0.276703 0.601288
0.049622 0.135437 0.448547
0.059479 0.171875 0.491089
0.184113 0.171661 0.497772
0.305023 0.188171 0.519196
0.420563 0.209808 0.543579
0.534241 0.233704 0.570129
0.647064 0.261810 0.595978
0.757721 0.296753 0.626373
0.849670 0.339905 0.657318
0.042816 0.232758 0.512848
0.052460 0.268341 0.553070
0.193970 0.279724 0.554840
0.335632 0.297424 0.566986
0.454773 0.315552 0.581177
0.566681 0.334381 0.599701
0.673340 0.354492 0.617279
0.775543 0.381165 0.636902
0.865143 0.413513 0.657867
0.037537 0.323456 0.559235
0.049438 0.360840 0.596008
0.171265 0.383636 0.621887
0.359528 0.406616 0.628174
0.494812 0.426910 0.623322
0.606689 0.444672 0.635742
0.711304 0.459229 0.648224
0.810455 0.480621 0.662811
0.893250 0.506073 0.678284
0.077759 0.447906 0.608093
0.107361 0.476624 0.633087
0.213959 0.492584 0.647247
0.350189 0.516083 0.676270
0.525909 0.538513 0.692413
0.644470 0.559845 0.674988
0.749420 0.570862 0.682129
0.848022 0.583435 0.690979
0.924927 0.603210 0.698669
0.136719 0.565704 0.651062
0.198639 0.586151 0.667511
0.331360 0.602356 0.679810
0.452911 0.621155 0.696960
0.557373 0.642090 0.717957
0.680084 0.663727 0.741608
0.782318 0.677795 0.713867
0.879578 0.690979 0.708649
0.953400 0.708771 0.715973
0.266510 0.681305 0.687622
0.344055 0.695007 0.697296
0.442505 0.710754 0.707825
0.551758 0.726227 0.708313
0.626953 0.740875 0.717041
0.715576 0.758942 0.740814
0.790649 0.780182 0.765564
0.911133 0.793091 0.732880
0.982330 0.805267 0.732819
0.284729 0.768250 0.697449
0.353851 0.790192 0.714813
0.443115 0.809021 0.727173
0.547699 0.828125 0.738556
0.648254 0.845551 0.750122
0.750366 0.861420 0.765442
0.843109 0.875763 0.784637
0.930206 0.894745 0.795349
0.992004 0.905548 0.781708
0.369507 0.854095 0.727722
0.423676 0.874786 0.750458
0.504120 0.892487 0.764557
0.591003 0.908722 0.776154
0.688507 0.925842 0.787140
0.783142 0.941498 0.798737
0.879364 0.956757 0.811737
0.959839 0.969482 0.826538
0.995087 0.977661 0.877228
0.070374 0.076202 0.480652
0.084106 0.105377 0.520813
0.173218 0.107025 0.528595
0.279419 0.122742 0.552399
0.387695 0.146759 0.580963
0.496704 0.179932 0.609619
0.606689 0.215210 0.636780
0.709686 0.253510 0.660248
0.807648 0.299316 0.684601
0.069214 0.156586 0.530487
0.092468 0.196838 0.575165
0.192291 0.195526 0.579346
0.313049 0.210236 0.599640
0.427460 0.231384 0.624359
0.538879 0.255554 0.649231
0.651337 0.283936 0.677277
0.761719 0.319061 0.708832
0.854553 0.362152 0.740601
0.069855 0.258118 0.587463
0.088867 0.297821 0.630463
0.207245 0.301361 0.629486
0.338989 0.315247 0.643921
0.457947 0.332977 0.661041
0.568024 0.352325 0.678711
0.675079 0.373474 0.698547
0.777069 0.400177 0.719391
0.867096 0.432495 0.742249
0.050751 0.349701 0.647034
0.064087 0.393829 0.689758
0.180237 0.404083 0.695160
0.362854 0.422913 0.697388
0.492615 0.440094 0.704254
0.604889 0.457306 0.716522
0.709839 0.475342 0.730713
0.808197 0.496552 0.746613
0.892303 0.521942 0.764038
0.057465 0.453766 0.681488
0.074219 0.502472 0.725281
0.151062 0.507660 0.734467
0.356171 0.530548 0.763000
0.518036 0.549622 0.766510
0.641602 0.566406 0.759094
0.746887 0.582611 0.767487
0.843109 0.598663 0.778595
0.921814 0.618683 0.792053
0.118591 0.577637 0.730408
0.159576 0.610901 0.760468
0.285034 0.618073 0.764923
0.406921 0.635376 0.783722
0.514313 0.654602 0.812561
0.667297 0.671417 0.828613
0.779236 0.688385 0.807617
0.878906 0.701996 0.812683
0.952423 0.718597 0.822479
0.214874 0.689575 0.769897
0.278046 0.711426 0.789398
0.382141 0.722504 0.797577
0.494934 0.739624 0.812683
0.597076 0.755768 0.831635
0.689880 0.774475 0.854950
0.807739 0.789612 0.875183
0.911774 0.803375 0.845825
0.976746 0.817261 0.840271
0.338196 0.800659 0.808655
0.391876 0.812195 0.817749
0.478851 0.826141 0.827972
0.575043 0.840637 0.839813
0.682800 0.857056 0.848907
0.762421 0.871277 0.855194
0.845367 0.885651 0.869415
0.917236 0.903900 0.888550
0.993225 0.913452 0.864746
0.363678 0.871216 0.819366
0.416138 0.887604 0.837036
0.495728 0.902802 0.848846
0.582336 0.917755 0.859436
0.680634 0.934418 0.871216
0.773010 0.949188 0.882263
0.869385 0.964203 0.894257
0.953888 0.976044 0.908630
0.993774 0.984650 0.945190
0.101074 0.103607 0.569214
0.125336 0.132446 0.608185
0.189362 0.137817 0.618134
0.294067 0.150269 0.636322
0.399902 0.175903 0.662567
0.507141 0.208740 0.690796
0.614532 0.241882 0.718140
0.716949 0.281006 0.744232
0.813904 0.325317 0.770416
0.110657 0.180908 0.614685
0.134308 0.221069 0.658508
0.208069 0.225159 0.666901
0.324768 0.235748 0.682098
0.437103 0.255981 0.705688
0.548523 0.280731 0.732971
0.659271 0.309631 0.762787
0.769257 0.345093 0.796478
0.862000 0.389008 0.829102
0.110260 0.282867 0.666779
0.125610 0.323639 0.710083
0.219299 0.329224 0.715149
0.347412 0.338531 0.726196
0.464722 0.354706 0.743286
0.574249 0.374298 0.763519
0.679932 0.395996 0.784821
0.781494 0.422852 0.807404
0.870972 0.455505 0.831451
0.082947 0.381927 0.725922
0.091644 0.424225 0.771118
0.198181 0.432495 0.772034
0.370239 0.445129 0.775482
0.495605 0.460449 0.787323
0.607483 0.477631 0.801941
0.711975 0.496185 0.817902
0.810211 0.517731 0.835388
0.894501 0.543610 0.854126
0.070404 0.481171 0.778076
0.086639 0.524933 0.818420
0.177643 0.532928 0.826721
0.361084 0.550140 0.841064
0.519165 0.567352 0.841003
0.637604 0.581879 0.844055
0.743927 0.598755 0.855255
0.841614 0.616791 0.867920
0.921204 0.637543 0.881989
0.112061 0.592072 0.813232
0.149933 0.634430 0.850922
0.235779 0.636047 0.852509
0.362671 0.651520 0.872742
0.519745 0.669037 0.896698
0.660065 0.686249 0.900665
0.773132 0.699646 0.893890
0.874451 0.717163 0.901367
0.949127 0.734680 0.910858
0.204865 0.703247 0.853119
0.246307 0.742554 0.887299
0.343231 0.739380 0.883453
0.457550 0.753479 0.895752
0.561188 0.769623 0.913116
0.660583 0.785950 0.938171
0.794342 0.798584 0.949799
0.903412 0.814026 0.935089
0.975494 0.826904 0.938538
0.298645 0.809570 0.889008
0.336609 0.831757 0.908417
0.425171 0.837769 0.911469
0.529785 0.851501 0.922913
0.631104 0.866425 0.936676
0.729431 0.881500 0.953278
0.811798 0.895874 0.971375
0.927551 0.907562 0.984650
0.995239 0.917694 0.964966
0.396393 0.895050 0.921082
0.440918 0.904541 0.929169
0.514923 0.914795 0.935974
0.597565 0.926910 0.945374
0.697571 0.941559 0.957458
0.791534 0.954590 0.968231
0.881256 0.968567 0.973572
0.953796 0.980621 0.978241
0.995483 0.989044 0.990051
0.145905 0.136322 0.661560
0.161530 0.162292 0.689453
0.202576 0.174957 0.701935
0.308777 0.185577 0.723358
0.414124 0.210968 0.750427
0.518372 0.241943 0.777344
0.623993 0.274780 0.803467
0.725128 0.313416 0.828796
0.819702 0.354919 0.852264
0.150879 0.210266 0.705170
0.161926 0.246033 0.729645
0.212646 0.260468 0.742310
0.333710 0.265808 0.758942
0.443604 0.284271 0.780609
0.549805 0.309143 0.802948
0.653107 0.336517 0.824768
0.750916 0.368469 0.846344
0.838074 0.404846 0.866699
0.143066 0.310577 0.754395
0.155853 0.345306 0.773865
0.219757 0.360535 0.785797
0.354492 0.365448 0.799500
0.469574 0.381165 0.816467
0.575256 0.401276 0.834198
0.676910 0.423584 0.852020
0.772034 0.449951 0.870117
0.857574 0.480377 0.886658
0.124512 0.411407 0.803619
0.139862 0.444244 0.819885
0.218903 0.459747 0.830353
0.376862 0.468719 0.840088
0.498322 0.483185 0.853516
0.605225 0.501007 0.867249
0.706421 0.521027 0.881744
0.799866 0.543549 0.896057
0.882721 0.570282 0.910431
0.102142 0.505859 0.851715
0.122986 0.537170 0.865051
0.208588 0.553497 0.878845
0.379547 0.567627 0.888641
0.521698 0.585052 0.895081
0.635742 0.601807 0.902100
0.736511 0.619598 0.912323
0.830444 0.640106 0.923309
0.908569 0.663177 0.934235
0.107452 0.601898 0.880615
0.140289 0.632782 0.891083
0.232635 0.648743 0.906555
0.386963 0.664093 0.924988
0.526245 0.680695 0.941986
0.662903 0.701630 0.945129
0.766846 0.717834 0.944244
0.862793 0.738617 0.952362
0.935120 0.759277 0.959412
0.201996 0.707245 0.908966
0.256195 0.733704 0.918762
0.342285 0.744080 0.928589
0.449371 0.757568 0.942230
0.545349 0.774109 0.958740
0.686035 0.791412 0.973175
0.795898 0.809235 0.978210
0.893829 0.830383 0.980927
0.960114 0.850769 0.984131
0.289612 0.805786 0.936493
0.341705 0.825470 0.944244
0.435211 0.834991 0.953400
0.539642 0.849243 0.964783
0.645508 0.866577 0.975800
0.740326 0.882721 0.984924
0.832458 0.900940 0.991272
0.928436 0.918365 0.996674
0.981079 0.937622 0.998993
0.367218 0.882385 0.957764
0.431183 0.894287 0.964172
0.524353 0.905548 0.972076
0.627533 0.920044 0.980408
0.743073 0.935242 0.988831
0.845490 0.949615 0.995453
0.927917 0.963562 0.999207
0.973816 0.979034 0.999969
0.997925 0.995880 1.000000
