Kodak Vision3 500T (5230) - Only contrast.cube
# Created by Benjamin (IWLTBAP) : http://luts.iwltbap.com
# Copyright: (C) Copyright 2010-2017 Triune Films and IWLTBAP SAS
# Cannot be resold, shared or otherwise redistributed
TITLE "Film Print Emulation LUTs Pack (Rec.709, sRGB, DCI-P3)"
LUT_3D_SIZE 5
0.000519 0.000519 0.000519
0.218384 0.000641 0.000641
0.505432 0.000305 0.000305
0.721039 0.000458 0.000458
0.876434 0.001038 0.001038
0.000641 0.218384 0.000641
0.218719 0.218719 0.000793
0.505676 0.218536 0.000458
0.720703 0.218872 0.000610
0.875824 0.219574 0.001190
0.000305 0.505432 0.000305
0.218536 0.505676 0.000458
0.505463 0.505463 0.000122
0.719940 0.505707 0.000275
0.874725 0.506409 0.000854
0.000458 0.721039 0.000458
0.218872 0.720703 0.000610
0.505707 0.719940 0.000275
0.719666 0.719666 0.000458
0.874146 0.719849 0.001038
0.001038 0.876434 0.001038
0.219574 0.875824 0.001190
0.506409 0.874725 0.000854
0.719849 0.874146 0.001038
0.873901 0.873810 0.022278
0.000641 0.000641 0.218384
0.218719 0.000793 0.218719
0.505676 0.000458 0.218536
0.720703 0.000610 0.218872
0.875824 0.001190 0.219574
0.000793 0.218719 0.218719
0.219025 0.219025 0.219025
0.505920 0.218842 0.218842
0.720398 0.219147 0.219147
0.875183 0.219818 0.219818
0.000458 0.505676 0.218536
0.218842 0.505920 0.218842
0.505676 0.505676 0.218628
0.719635 0.505951 0.218903
0.874115 0.506653 0.219574
0.000610 0.720703 0.218872
0.219147 0.720398 0.219147
0.505951 0.719635 0.218903
0.719391 0.719391 0.219177
0.873535 0.719574 0.219818
0.001190 0.875824 0.219574
0.219818 0.875183 0.219818
0.506653 0.874115 0.219574
0.719574 0.873535 0.219818
0.873352 0.873352 0.220459
0.000305 0.000305 0.505432
0.218536 0.000458 0.505676
0.505463 0.000122 0.505463
0.719940 0.000275 0.505707
0.874725 0.000854 0.506409
0.000458 0.218536 0.505676
0.218842 0.218842 0.505920
0.505676 0.218628 0.505676
0.719635 0.218903 0.505951
0.874115 0.219574 0.506653
0.000122 0.505463 0.505463
0.218628 0.505676 0.505676
0.505463 0.505463 0.505463
0.718872 0.505737 0.505737
0.873016 0.506378 0.506378
0.000275 0.719940 0.505707
0.218903 0.719635 0.505951
0.505737 0.718872 0.505737
0.718658 0.718658 0.505981
0.872437 0.718872 0.506653
0.000854 0.874725 0.506409
0.219574 0.874115 0.506653
0.506378 0.873016 0.506378
0.718872 0.872437 0.506653
0.872253 0.872253 0.507294
0.000458 0.000458 0.721039
0.218872 0.000610 0.720703
0.505707 0.000275 0.719940
0.719666 0.000458 0.719666
0.874146 0.001038 0.719849
0.000610 0.218872 0.720703
0.219147 0.219147 0.720398
0.505951 0.218903 0.719635
0.719391 0.219177 0.719391
0.873535 0.219818 0.719574
0.000275 0.505707 0.719940
0.218903 0.505951 0.719635
0.505737 0.505737 0.718872
0.718658 0.505981 0.718658
0.872437 0.506653 0.718872
0.000458 0.719666 0.719666
0.219177 0.719391 0.719391
0.505981 0.718658 0.718658
0.718475 0.718475 0.718475
0.871857 0.718689 0.718689
0.001038 0.874146 0.719849
0.219818 0.873535 0.719574
0.506653 0.872437 0.718872
0.718689 0.871857 0.718689
0.871704 0.871704 0.718933
0.001038 0.001038 0.876373
0.219574 0.001190 0.875824
0.506409 0.000854 0.874725
0.719849 0.001038 0.874146
0.873962 0.001648 0.873962
0.001190 0.219574 0.875824
0.219818 0.219818 0.875183
0.506653 0.219574 0.874115
0.719574 0.219818 0.873535
0.873352 0.220459 0.873352
0.000854 0.506409 0.874725
0.219574 0.506653 0.874115
0.506378 0.506378 0.873016
0.718872 0.506653 0.872437
0.872253 0.507294 0.872253
0.001038 0.719849 0.874146
0.219818 0.719574 0.873535
0.506653 0.718872 0.872437
0.718689 0.718689 0.871857
0.871704 0.718933 0.871704
0.001648 0.873962 0.873962
0.220459 0.873352 0.873352
0.507294 0.872253 0.872253
0.718933 0.871704 0.871704
0.871552 0.871552 0.871552
