Kodak 16mm (Variant) - Only contrast.cube
# Created by Benjamin (IWLTBAP) : http://luts.iwltbap.com
# Copyright: (C) Copyright 2010-2017 Triune Films and IWLTBAP SAS
# Cannot be resold, shared or otherwise redistributed
TITLE "Film Print Emulation LUTs Pack (Rec.709, sRGB, DCI-P3)"
LUT_3D_SIZE 5
0.000000 0.000000 0.000000
0.222992 0.000153 0.000153
0.492157 0.000000 0.000000
0.761200 0.000000 0.000000
0.999237 0.000000 0.000000
0.000153 0.222992 0.000153
0.223297 0.223297 0.000305
0.492615 0.223328 0.000122
0.761536 0.223358 0.000000
0.999512 0.223633 0.000000
0.000000 0.492157 0.000000
0.223328 0.492615 0.000122
0.492737 0.492737 0.000000
0.761536 0.492889 0.000000
0.999481 0.493256 0.000000
0.000000 0.761200 0.000000
0.223358 0.761536 0.000000
0.492889 0.761536 0.000000
0.761536 0.761536 0.000000
0.999420 0.761780 0.000000
0.000000 0.999237 0.000000
0.223633 0.999512 0.000000
0.493256 0.999481 0.000000
0.761780 0.999420 0.000000
0.999603 0.999451 0.021545
0.000153 0.000153 0.222992
0.223297 0.000305 0.223297
0.492615 0.000122 0.223328
0.761536 0.000000 0.223358
0.999512 0.000000 0.223633
0.000305 0.223297 0.223297
0.223633 0.223633 0.223633
0.493073 0.223663 0.223663
0.761841 0.223724 0.223724
0.999786 0.223969 0.223969
0.000122 0.492615 0.223328
0.223663 0.493073 0.223663
0.493195 0.493195 0.223724
0.761841 0.493347 0.223755
0.999725 0.493713 0.223999
0.000000 0.761536 0.223358
0.223724 0.761841 0.223724
0.493347 0.761841 0.223755
0.761871 0.761871 0.223816
0.999695 0.762115 0.224060
0.000000 0.999512 0.223633
0.223969 0.999786 0.223969
0.493713 0.999725 0.223999
0.762115 0.999695 0.224060
0.999847 0.999847 0.224335
0.000000 0.000000 0.492157
0.223328 0.000122 0.492615
0.492737 0.000000 0.492737
0.761536 0.000000 0.492889
0.999481 0.000000 0.493256
0.000122 0.223328 0.492615
0.223663 0.223663 0.493073
0.493195 0.223724 0.493195
0.761841 0.223755 0.493347
0.999725 0.223999 0.493713
0.000000 0.492737 0.492737
0.223724 0.493195 0.493195
0.493347 0.493347 0.493347
0.761871 0.493500 0.493500
0.999664 0.493896 0.493896
0.000000 0.761536 0.492889
0.223755 0.761841 0.493347
0.493500 0.761871 0.493500
0.761871 0.761871 0.493683
0.999634 0.762115 0.494080
0.000000 0.999481 0.493256
0.223999 0.999725 0.493713
0.493896 0.999664 0.493896
0.762115 0.999634 0.494080
0.999817 0.999817 0.494476
0.000000 0.000000 0.761200
0.223358 0.000000 0.761536
0.492889 0.000000 0.761536
0.761536 0.000000 0.761536
0.999420 0.000000 0.761780
0.000000 0.223358 0.761536
0.223724 0.223724 0.761841
0.493347 0.223755 0.761841
0.761871 0.223816 0.761871
0.999695 0.224060 0.762115
0.000000 0.492889 0.761536
0.223755 0.493347 0.761841
0.493500 0.493500 0.761871
0.761871 0.493683 0.761871
0.999634 0.494080 0.762115
0.000000 0.761536 0.761536
0.223816 0.761871 0.761871
0.493683 0.761871 0.761871
0.761902 0.761902 0.761902
0.999603 0.762115 0.762115
0.000000 0.999420 0.761780
0.224060 0.999695 0.762115
0.494080 0.999634 0.762115
0.762115 0.999603 0.762115
0.999786 0.999786 0.762360
0.000000 0.000000 0.999146
0.223633 0.000000 0.999512
0.493256 0.000000 0.999481
0.761780 0.000000 0.999420
0.999603 0.000000 0.999603
0.000000 0.223633 0.999512
0.223969 0.223969 0.999786
0.493713 0.223999 0.999725
0.762115 0.224060 0.999695
0.999847 0.224335 0.999847
0.000000 0.493256 0.999481
0.223999 0.493713 0.999725
0.493896 0.493896 0.999664
0.762115 0.494080 0.999634
0.999817 0.494476 0.999817
0.000000 0.761780 0.999420
0.224060 0.762115 0.999695
0.494080 0.762115 0.999634
0.762115 0.762115 0.999603
0.999786 0.762360 0.999786
0.000000 0.999603 0.999603
0.224335 0.999847 0.999847
0.494476 0.999817 0.999817
0.762360 0.999786 0.999786
0.999939 0.999939 0.999939
