Kodak Vision2 100T (5212) - Only color.cube
# Created by Benjamin (IWLTBAP) : http://luts.iwltbap.com
# Copyright: (C) Copyright 2010-2017 Triune Films and IWLTBAP SAS
# Cannot be resold, shared or otherwise redistributed
TITLE "Film Print Emulation LUTs Pack (Rec.709, sRGB, DCI-P3)"
LUT_3D_SIZE 33
0.000000 0.000000 0.000000
0.027466 0.000000 0.001221
0.055939 0.000000 0.002472
0.085114 0.000031 0.003693
0.113373 0.000031 0.004913
0.141785 0.000061 0.006775
0.168915 0.000061 0.008026
0.195007 0.000092 0.009247
0.219238 0.000092 0.010529
0.242126 0.000122 0.011780
0.264008 0.000122 0.013733
0.284943 0.000153 0.015045
0.305298 0.000153 0.016357
0.325470 0.000153 0.017700
0.345306 0.000183 0.019073
0.365204 0.000183 0.021118
0.384796 0.000214 0.022491
0.404236 0.000244 0.023895
0.423645 0.000244 0.025299
0.443146 0.000244 0.026703
0.462677 0.000275 0.028107
0.482544 0.000275 0.030243
0.502533 0.000305 0.031677
0.522705 0.000305 0.033112
0.543457 0.000336 0.034546
0.564789 0.000336 0.036652
0.586823 0.000366 0.037994
0.609283 0.000366 0.040009
0.632080 0.000397 0.041290
0.655182 0.000397 0.043182
0.678589 0.000427 0.045044
0.702301 0.000458 0.046844
0.726471 0.000458 0.048584
0.000000 0.030792 0.000000
0.044922 0.025757 0.000000
0.076355 0.022369 0.000000
0.120331 0.011261 0.000427
0.140228 0.011292 0.008026
0.160828 0.011292 0.008636
0.180115 0.011322 0.009247
0.196930 0.011322 0.009247
0.220367 0.011322 0.010498
0.242981 0.011353 0.012421
0.264618 0.011353 0.013702
0.285492 0.011383 0.015015
0.305817 0.011383 0.016357
0.325928 0.011383 0.017700
0.345734 0.011414 0.019043
0.365601 0.011414 0.021088
0.385193 0.011444 0.022491
0.404572 0.011444 0.023865
0.423889 0.011444 0.025269
0.443390 0.011475 0.026672
0.462982 0.011475 0.028076
0.482819 0.011505 0.030243
0.502747 0.011505 0.031677
0.522949 0.011536 0.033112
0.543701 0.011536 0.034546
0.565155 0.011536 0.036652
0.587067 0.011566 0.037994
0.609497 0.011597 0.039978
0.632294 0.011597 0.041290
0.655426 0.011627 0.043182
0.678772 0.011627 0.045013
0.702576 0.011658 0.046814
0.726624 0.011688 0.048584
0.000000 0.064178 0.000000
0.036682 0.060394 0.000000
0.086060 0.052307 0.000000
0.123505 0.044830 0.000000
0.149170 0.043213 0.000000
0.192139 0.031647 0.000000
0.221649 0.022430 0.006012
0.234344 0.022461 0.014404
0.247803 0.022461 0.014374
0.259521 0.022461 0.014374
0.269440 0.022461 0.014343
0.286163 0.022491 0.015015
0.306458 0.022491 0.016327
0.326416 0.022491 0.017670
0.346283 0.022522 0.019012
0.366028 0.022522 0.021088
0.385559 0.022522 0.022461
0.404938 0.022522 0.023865
0.424316 0.022552 0.025269
0.443695 0.022552 0.026672
0.463287 0.022552 0.028076
0.483032 0.022583 0.030212
0.503082 0.022583 0.031647
0.523193 0.022583 0.033081
0.543945 0.022614 0.034546
0.565369 0.022614 0.036621
0.587311 0.022614 0.037994
0.609741 0.022644 0.039978
0.632538 0.022644 0.041260
0.655640 0.022675 0.043152
0.679047 0.022675 0.045013
0.702728 0.022705 0.046814
0.726898 0.022705 0.048584
0.000031 0.104950 0.000000
0.036682 0.095642 0.000000
0.071411 0.091125 0.000000
0.125946 0.079895 0.000000
0.168854 0.068390 0.000000
0.193237 0.066620 0.000000
0.215942 0.064789 0.000000
0.251526 0.053009 0.000000
0.289307 0.037476 0.000000
0.304504 0.034180 0.011017
0.313751 0.034210 0.021820
0.323639 0.034210 0.021118
0.330658 0.034210 0.020416
0.336060 0.034210 0.019012
0.346954 0.034210 0.019714
0.366730 0.034210 0.021057
0.386139 0.034241 0.022461
0.405487 0.034241 0.023834
0.424744 0.034241 0.025238
0.444183 0.034241 0.026642
0.463745 0.034241 0.028778
0.483459 0.034271 0.030212
0.503418 0.034271 0.031647
0.523590 0.034271 0.033081
0.544373 0.034271 0.034515
0.565796 0.034302 0.036621
0.587646 0.034302 0.037964
0.610107 0.034302 0.039978
0.632935 0.034302 0.041260
0.656006 0.034332 0.043152
0.679382 0.034332 0.045013
0.703094 0.034363 0.046814
0.727234 0.034363 0.048553
0.006073 0.143372 0.000000
0.040009 0.134064 0.000000
0.069122 0.128815 0.000000
0.110260 0.120514 0.000000
0.165039 0.106964 0.000000
0.211456 0.091125 0.000000
0.232574 0.089752 0.000000
0.253479 0.088318 0.000000
0.273407 0.086426 0.000000
0.303833 0.075684 0.000000
0.333405 0.064819 0.000000
0.365845 0.050873 0.000000
0.382782 0.045654 0.010223
0.389648 0.045685 0.025970
0.397186 0.045685 0.028809
0.402008 0.045685 0.026672
0.402740 0.045685 0.025238
0.406219 0.045685 0.023834
0.425446 0.045685 0.025238
0.444824 0.045685 0.026642
0.464355 0.045685 0.028778
0.484039 0.045685 0.030182
0.503967 0.045685 0.031616
0.524170 0.045685 0.033081
0.544922 0.045715 0.035217
0.566315 0.045715 0.036621
0.588196 0.045715 0.037964
0.610687 0.045715 0.039948
0.633423 0.045715 0.041901
0.656494 0.045746 0.043152
0.679840 0.045746 0.044983
0.703583 0.045746 0.046783
0.727661 0.045776 0.048553
0.019897 0.174377 0.011841
0.047272 0.167877 0.006012
0.070831 0.163757 0.000000
0.102661 0.161133 0.000000
0.145081 0.154602 0.000000
0.202789 0.134369 0.000000
0.247101 0.116913 0.000000
0.269409 0.113556 0.000000
0.288757 0.112061 0.000000
0.306152 0.111664 0.000000
0.317841 0.115051 0.000000
0.340576 0.110107 0.000000
0.371277 0.098267 0.000000
0.403961 0.083496 0.000000
0.441193 0.064209 0.000000
0.458527 0.056519 0.012756
0.464111 0.056549 0.030914
0.470001 0.056549 0.036652
0.474182 0.056549 0.034546
0.471893 0.056549 0.031616
0.465881 0.056519 0.028748
0.484833 0.056549 0.030182
0.504700 0.056549 0.031616
0.524811 0.056549 0.033081
0.545593 0.056549 0.035217
0.566956 0.056549 0.036591
0.588867 0.056549 0.037964
0.611267 0.056580 0.039948
0.634003 0.056580 0.041870
0.657104 0.056580 0.043121
0.680450 0.056580 0.044983
0.704163 0.056610 0.046783
0.728271 0.056610 0.048553
0.033417 0.204224 0.025421
0.056641 0.198395 0.026123
0.076935 0.196259 0.008514
0.104309 0.195374 0.000000
0.137146 0.191711 0.008423
0.180786 0.186096 0.000000
0.234161 0.166351 0.000000
0.278931 0.144562 0.000000
0.304626 0.137543 0.000000
0.318298 0.139709 0.000000
0.329773 0.143677 0.000000
0.341461 0.147217 0.000000
0.353577 0.150116 0.000000
0.376495 0.145142 0.000000
0.410461 0.130798 0.000000
0.446869 0.113953 0.000000
0.484344 0.095215 0.000000
0.523407 0.074646 0.000000
0.539795 0.067871 0.014008
0.544464 0.067871 0.033783
0.548462 0.067902 0.044403
0.551575 0.067902 0.041901
0.547852 0.067871 0.038635
0.534943 0.067871 0.035187
0.546448 0.067871 0.035217
0.567810 0.067871 0.036591
0.589691 0.067902 0.038635
0.612061 0.067902 0.039948
0.634857 0.067902 0.041870
0.657867 0.067902 0.043762
0.681213 0.067932 0.044983
0.704895 0.067932 0.047363
0.728973 0.067932 0.049103
0.048096 0.232361 0.040161
0.067413 0.227325 0.042725
0.085632 0.225128 0.031067
0.109131 0.225128 0.011017
0.138702 0.224182 0.005157
0.171417 0.219177 0.026703
0.214996 0.214539 0.005707
0.262268 0.199402 0.000000
0.306427 0.174835 0.000000
0.330963 0.168396 0.000000
0.341705 0.172150 0.000000
0.353424 0.176270 0.000000
0.365662 0.180328 0.000000
0.377960 0.183807 0.000000
0.392853 0.185181 0.000000
0.419434 0.177704 0.000000
0.455109 0.163239 0.000000
0.491852 0.147217 0.000000
0.529938 0.129822 0.000000
0.569397 0.110168 0.000000
0.610321 0.088837 0.000000
0.630646 0.078949 0.012543
0.634033 0.078979 0.035156
0.635223 0.079010 0.053070
0.637421 0.079010 0.050842
0.632996 0.078979 0.046783
0.614807 0.078979 0.041870
0.613037 0.078979 0.039917
0.635803 0.078979 0.041870
0.658752 0.079010 0.043732
0.682068 0.079010 0.045563
0.705780 0.079010 0.047363
0.729797 0.079041 0.049103
0.063782 0.260040 0.054932
0.080658 0.256256 0.057556
0.097198 0.253571 0.053284
0.117889 0.252594 0.036743
0.144501 0.254150 0.014893
0.174377 0.251282 0.025970
0.205902 0.246887 0.046326
0.248138 0.242523 0.014099
0.292053 0.230347 0.000000
0.335358 0.211426 0.000000
0.355377 0.202545 0.000000
0.366272 0.205811 0.000000
0.378082 0.209625 0.000000
0.390198 0.213379 0.000000
0.406403 0.214539 0.000000
0.422699 0.215302 0.000000
0.439178 0.215698 0.000000
0.465210 0.209808 0.000000
0.501434 0.196655 0.000000
0.538910 0.181976 0.000000
0.577515 0.165588 0.000000
0.617279 0.147827 0.000000
0.657898 0.127838 0.000000
0.699585 0.105835 0.000031
0.728363 0.090302 0.007812
0.730499 0.090332 0.032227
0.731842 0.090363 0.047333
0.729492 0.090363 0.058838
0.723938 0.090363 0.056274
0.705078 0.090332 0.050812
0.683105 0.090332 0.045563
0.706757 0.090332 0.047363
0.730804 0.090363 0.049103
0.082184 0.288239 0.072723
0.097198 0.285339 0.075317
0.112701 0.282257 0.076141
0.131073 0.281097 0.063049
0.154083 0.282074 0.043884
0.181305 0.282928 0.026642
0.210144 0.278687 0.048096
0.238739 0.274506 0.066772
0.280823 0.270477 0.025146
0.322540 0.260742 0.000000
0.363281 0.244843 0.000000
0.381805 0.238739 0.000000
0.391235 0.238068 0.000000
0.404236 0.240631 0.000000
0.420197 0.242157 0.000000
0.436615 0.243683 0.000000
0.453369 0.244690 0.000000
0.470123 0.245667 0.000000
0.487244 0.246185 0.000000
0.512695 0.241302 0.000000
0.549713 0.229431 0.000000
0.587738 0.216461 0.000000
0.626556 0.202148 0.000000
0.666199 0.185669 0.000000
0.706543 0.167419 0.000000
0.747803 0.147278 0.000000
0.785797 0.127899 0.000000
0.814545 0.113312 0.000031
0.836914 0.101379 0.001892
0.837311 0.101410 0.017853
0.833588 0.101410 0.033630
0.823364 0.101440 0.049622
0.802277 0.101440 0.059326
0.102753 0.317322 0.092346
0.116089 0.314850 0.094788
0.130096 0.311981 0.097198
0.146942 0.310486 0.089050
0.167175 0.310608 0.072662
0.191528 0.311951 0.052063
0.217346 0.310699 0.050934
0.244202 0.306671 0.070404
0.271576 0.302277 0.086731
0.313416 0.298584 0.037262
0.353973 0.290894 0.000000
0.389343 0.278778 0.000000
0.408844 0.273987 0.000000
0.420471 0.268066 0.000000
0.435120 0.269257 0.000000
0.450989 0.270752 0.000000
0.467621 0.272247 0.000000
0.484619 0.273560 0.000000
0.501678 0.274445 0.000000
0.518951 0.275299 0.000000
0.536377 0.276031 0.000000
0.561584 0.272095 0.000000
0.599182 0.261078 0.000000
0.637390 0.249146 0.000000
0.676270 0.235840 0.000000
0.715698 0.221436 0.000000
0.755859 0.205658 0.000000
0.787537 0.193726 0.000000
0.816650 0.182037 0.000000
0.844025 0.170258 0.000000
0.869812 0.158295 0.000000
0.893951 0.145630 0.000031
0.916565 0.131653 0.000031
0.125397 0.347565 0.114288
0.136932 0.345337 0.116638
0.149597 0.343018 0.118927
0.165161 0.340881 0.116028
0.183472 0.340210 0.102478
0.204529 0.341431 0.082916
0.227448 0.342529 0.061981
0.251923 0.339294 0.075592
0.277161 0.335083 0.093964
0.305725 0.330811 0.098755
0.346191 0.326904 0.050293
0.385193 0.321136 0.000000
0.415314 0.312042 0.000000
0.435944 0.307220 0.000000
0.446136 0.306213 0.000000
0.466644 0.297363 0.000000
0.482391 0.298676 0.000000
0.499207 0.300262 0.000000
0.516357 0.301697 0.000000
0.533783 0.302856 0.000000
0.551453 0.303772 0.000000
0.569153 0.304565 0.000000
0.586914 0.305206 0.000000
0.611450 0.301971 0.000000
0.649200 0.291351 0.000000
0.687439 0.280090 0.000000
0.726349 0.267975 0.000000
0.761993 0.256897 0.000000
0.793488 0.247559 0.000000
0.823029 0.238312 0.000000
0.850891 0.229187 0.000000
0.877106 0.220367 0.000000
0.901855 0.211334 0.000000
0.148743 0.378021 0.136749
0.158813 0.376129 0.138733
0.170013 0.374146 0.140930
0.184631 0.371521 0.142609
0.201019 0.370605 0.131378
0.218750 0.371185 0.113953
0.239288 0.372192 0.093628
0.261749 0.371979 0.081299
0.284851 0.367737 0.100098
0.309204 0.363434 0.117676
0.339417 0.359253 0.110870
0.378906 0.355286 0.062836
0.412781 0.350739 0.020020
0.441681 0.345032 0.000000
0.463440 0.340118 0.000000
0.475189 0.339447 0.000000
0.498993 0.325684 0.000000
0.514404 0.326630 0.000000
0.531219 0.328156 0.000000
0.548767 0.329681 0.000000
0.566467 0.330963 0.000000
0.584259 0.332153 0.000000
0.602234 0.333069 0.000000
0.620300 0.333862 0.000000
0.638275 0.334351 0.000000
0.661804 0.331696 0.000000
0.699677 0.321411 0.000000
0.737274 0.310944 0.000000
0.771118 0.302002 0.000000
0.802948 0.293701 0.000000
0.832947 0.285919 0.000000
0.861298 0.278442 0.000000
0.888092 0.271179 0.000000
0.172028 0.408203 0.159332
0.181183 0.406586 0.161255
0.190948 0.404785 0.163147
0.203949 0.402313 0.165649
0.218384 0.400940 0.159119
0.234283 0.400848 0.144470
0.252441 0.401672 0.125244
0.272644 0.402374 0.104340
0.294159 0.400085 0.106842
0.316803 0.395844 0.124664
0.340668 0.391449 0.141052
0.372986 0.387329 0.123260
0.409271 0.383942 0.078796
0.440491 0.380219 0.041107
0.468475 0.377014 0.005096
0.491486 0.372620 0.000000
0.505463 0.371094 0.000000
0.525909 0.364044 0.000000
0.547424 0.354797 0.000000
0.563934 0.355988 0.000000
0.581635 0.357697 0.000000
0.599548 0.359039 0.000000
0.617554 0.360413 0.000000
0.635712 0.361481 0.000000
0.653900 0.362305 0.000000
0.672058 0.363129 0.000000
0.690369 0.363678 0.000000
0.712860 0.361786 0.000000
0.749268 0.352722 0.000000
0.783386 0.344208 0.000000
0.815582 0.336334 0.000000
0.845978 0.329071 0.000000
0.874725 0.322327 0.000000
0.195343 0.438568 0.181580
0.203156 0.437073 0.183075
0.211426 0.435516 0.184723
0.222534 0.433289 0.186920
0.236053 0.431274 0.185089
0.250854 0.430603 0.174255
0.266541 0.431335 0.156036
0.284729 0.431915 0.136169
0.304840 0.432495 0.114746
0.326111 0.428223 0.132050
0.348663 0.423889 0.148346
0.372192 0.419312 0.164093
0.405334 0.415375 0.136597
0.438751 0.412628 0.096252
0.468750 0.409302 0.061768
0.495972 0.406494 0.029175
0.520050 0.404480 0.000000
0.536865 0.402100 0.000000
0.556885 0.396576 0.000000
0.581177 0.382904 0.000000
0.597321 0.383972 0.000000
0.614929 0.385620 0.000000
0.633057 0.387054 0.000000
0.651215 0.388397 0.000000
0.669525 0.389648 0.000000
0.687836 0.390686 0.000000
0.706177 0.391541 0.000000
0.724487 0.392212 0.000000
0.742737 0.392792 0.000000
0.763733 0.391663 0.000000
0.798004 0.383636 0.000000
0.830414 0.376282 0.000000
0.861115 0.369385 0.000000
0.217468 0.469421 0.202301
0.224030 0.468140 0.203644
0.231323 0.466614 0.205139
0.241425 0.464569 0.207092
0.253967 0.462067 0.208893
0.267334 0.461273 0.200287
0.281647 0.461487 0.185425
0.297943 0.462036 0.167236
0.316589 0.462555 0.146973
0.336731 0.461151 0.140045
0.358032 0.456696 0.156616
0.380371 0.452148 0.171997
0.403290 0.447388 0.186279
0.436798 0.444061 0.151703
0.468628 0.441772 0.114349
0.497620 0.438660 0.082306
0.524292 0.436188 0.052368
0.550385 0.434174 0.015656
0.569427 0.432800 0.000000
0.589111 0.427948 0.000000
0.615631 0.410950 0.000000
0.631500 0.411835 0.000000
0.648621 0.413177 0.000000
0.666840 0.414673 0.000000
0.685089 0.416077 0.000000
0.703308 0.417236 0.000000
0.721619 0.418365 0.000000
0.739929 0.419250 0.000000
0.758240 0.419952 0.000000
0.776459 0.420563 0.000000
0.794647 0.420990 0.000000
0.814575 0.420319 0.000000
0.847168 0.413239 0.000000
0.238861 0.501007 0.222839
0.244965 0.499847 0.224030
0.251373 0.498444 0.225372
0.260437 0.496582 0.227173
0.271667 0.494141 0.229523
0.284363 0.492859 0.224487
0.297699 0.492615 0.212891
0.312500 0.493042 0.196472
0.329681 0.493469 0.178284
0.348572 0.493713 0.158142
0.368744 0.490295 0.165314
0.389740 0.485596 0.180328
0.411560 0.480804 0.193787
0.435089 0.475983 0.203033
0.468140 0.473145 0.166901
0.498657 0.471100 0.132202
0.526825 0.468140 0.102203
0.552887 0.465942 0.073639
0.581818 0.463623 0.029114
0.602234 0.463226 0.000000
0.621765 0.458435 0.000000
0.644348 0.448792 0.000000
0.665771 0.439453 0.000000
0.682312 0.440430 0.000000
0.700287 0.441895 0.000000
0.718506 0.443207 0.000000
0.736786 0.444489 0.000000
0.755096 0.445557 0.000000
0.773285 0.446533 0.000000
0.791595 0.447327 0.000000
0.809814 0.447968 0.000000
0.828064 0.448456 0.000000
0.846313 0.448761 0.000000
0.259979 0.533264 0.242584
0.265228 0.532135 0.243683
0.270935 0.530914 0.244904
0.279114 0.529114 0.246521
0.289368 0.526733 0.248566
0.301300 0.524872 0.247192
0.314392 0.524078 0.238525
0.327606 0.524475 0.223236
0.343292 0.524658 0.206238
0.360901 0.524780 0.188110
0.379883 0.524109 0.173370
0.399597 0.519226 0.188080
0.420349 0.514252 0.201172
0.442139 0.509247 0.213898
0.467529 0.504700 0.213928
0.499176 0.502136 0.181213
0.528656 0.500214 0.149139
0.556183 0.497559 0.121185
0.584320 0.495239 0.085297
0.613312 0.493103 0.040955
0.634979 0.492523 0.004089
0.654602 0.488525 0.000000
0.676666 0.479584 0.000000
0.699982 0.466980 0.000000
0.716125 0.467743 0.000000
0.733551 0.469025 0.000000
0.751709 0.470367 0.000000
0.769928 0.471588 0.000000
0.788177 0.472717 0.000000
0.806366 0.473694 0.000000
0.824615 0.474579 0.000000
0.842834 0.475250 0.000000
0.861084 0.475800 0.000000
0.279572 0.565460 0.261200
0.284393 0.564392 0.262207
0.289520 0.563263 0.263214
0.296936 0.561493 0.264709
0.306488 0.559326 0.266571
0.318115 0.556763 0.268433
0.330322 0.556030 0.260803
0.342865 0.555969 0.247864
0.357239 0.556061 0.232239
0.373535 0.556122 0.215057
0.391296 0.556122 0.196564
0.410065 0.553284 0.195343
0.429901 0.548126 0.208618
0.450836 0.543030 0.220886
0.472809 0.537750 0.232605
0.499603 0.533508 0.224518
0.530090 0.531342 0.194275
0.558746 0.529602 0.165192
0.586792 0.526947 0.134430
0.615936 0.524597 0.095062
0.644714 0.522491 0.049988
0.667847 0.521698 0.009308
0.687500 0.518005 0.000000
0.709656 0.508911 0.000000
0.734039 0.494415 0.000000
0.749878 0.495056 0.000000
0.766449 0.495911 0.000000
0.784515 0.497314 0.000000
0.802612 0.498505 0.000000
0.820831 0.499603 0.000000
0.838928 0.500580 0.000000
0.857147 0.501404 0.000000
0.875397 0.502106 0.000000
0.298431 0.597565 0.279144
0.302612 0.596588 0.280090
0.307526 0.595428 0.281128
0.314301 0.593842 0.282410
0.323212 0.591766 0.284271
0.334167 0.589142 0.286438
0.346008 0.587891 0.281586
0.358307 0.587433 0.271240
0.371429 0.587463 0.256287
0.386444 0.587402 0.240021
0.402924 0.587250 0.222870
0.420959 0.587067 0.204010
0.439789 0.582031 0.215454
0.459900 0.576691 0.227631
0.481079 0.571350 0.238861
0.503296 0.565948 0.249908
0.531433 0.562408 0.234314
0.560913 0.560455 0.206116
0.589264 0.558655 0.177734
0.618378 0.556091 0.143250
0.647247 0.553833 0.102753
0.675964 0.551819 0.056519
0.700592 0.550781 0.010590
0.720520 0.546844 0.000000
0.743164 0.536804 0.000000
0.767578 0.521759 0.000000
0.783112 0.522156 0.000000
0.799286 0.522797 0.000000
0.816803 0.523987 0.000000
0.834808 0.525177 0.000000
0.852997 0.526276 0.000000
0.871155 0.527252 0.000000
0.889343 0.528107 0.000000
0.316437 0.629395 0.296509
0.320465 0.628418 0.297272
0.324921 0.627411 0.298279
0.331268 0.625885 0.299469
0.339539 0.623871 0.301086
0.349731 0.621399 0.303131
0.361267 0.619385 0.301514
0.373688 0.618561 0.293518
0.385498 0.618561 0.278870
0.399292 0.618439 0.263275
0.414703 0.618225 0.246857
0.431702 0.617950 0.229279
0.449951 0.615784 0.221802
0.469208 0.610382 0.233734
0.489655 0.604858 0.244781
0.511169 0.599335 0.255585
0.533752 0.593658 0.266113
0.562805 0.590942 0.243408
0.591553 0.589111 0.216187
0.620758 0.587372 0.185059
0.649719 0.584961 0.149994
0.678467 0.582703 0.108124
0.707062 0.580872 0.060089
0.733185 0.579620 0.007172
0.753510 0.574646 0.000000
0.777405 0.562439 0.000000
0.800568 0.548889 0.000000
0.816040 0.549164 0.000000
0.831848 0.549652 0.000000
0.848633 0.550568 0.000000
0.866699 0.551666 0.000000
0.884827 0.552887 0.000000
0.903015 0.553864 0.000000
0.333618 0.660522 0.313019
0.337402 0.659637 0.313721
0.341583 0.658600 0.314545
0.347473 0.657227 0.315674
0.355255 0.655273 0.317200
0.364838 0.652893 0.319031
0.376099 0.650238 0.320343
0.387634 0.649506 0.312897
0.399292 0.649078 0.300415
0.411896 0.648987 0.285248
0.426483 0.648621 0.269104
0.442505 0.648346 0.252197
0.460236 0.647949 0.234314
0.478760 0.643616 0.239258
0.498474 0.638031 0.250427
0.519348 0.632446 0.260956
0.541351 0.626831 0.271271
0.564819 0.621277 0.278198
0.594025 0.619354 0.251343
0.623138 0.617676 0.222321
0.652100 0.615906 0.190460
0.680969 0.613647 0.154449
0.709686 0.611603 0.111176
0.738281 0.609833 0.060059
0.766022 0.608307 0.000000
0.787018 0.601227 0.000000
0.814667 0.582214 0.000000
0.833221 0.575806 0.000000
0.848511 0.575989 0.000000
0.864197 0.576294 0.000000
0.880463 0.576965 0.000000
0.898315 0.578125 0.000000
0.916412 0.579254 0.000000
0.350006 0.691071 0.328583
0.353455 0.690247 0.329346
0.357422 0.689301 0.330048
0.363007 0.687897 0.331116
0.370300 0.686127 0.332550
0.379272 0.683838 0.334290
0.389954 0.681061 0.336273
0.401154 0.679840 0.331085
0.412903 0.679230 0.321136
0.424652 0.679047 0.306183
0.438293 0.678741 0.290466
0.453552 0.678406 0.273834
0.470459 0.678009 0.256470
0.488617 0.676544 0.244232
0.507660 0.670868 0.255554
0.527863 0.665253 0.266235
0.549286 0.659607 0.276306
0.571655 0.653839 0.286316
0.596680 0.649109 0.284485
0.625641 0.647339 0.256683
0.654602 0.645874 0.226654
0.683472 0.644165 0.194000
0.712280 0.642059 0.156403
0.740997 0.640137 0.110565
0.769440 0.638489 0.056458
0.797791 0.635803 0.000000
0.821350 0.626007 0.000000
0.850464 0.602753 0.000000
0.865540 0.602539 0.000000
0.880829 0.602539 0.000000
0.896271 0.602875 0.000000
0.912231 0.603363 0.000000
0.929657 0.604340 0.000000
0.365692 0.721161 0.343628
0.368988 0.720337 0.344177
0.372742 0.719421 0.345001
0.377930 0.718140 0.345917
0.384796 0.716400 0.347198
0.393188 0.714264 0.348846
0.403320 0.711609 0.350677
0.414429 0.709717 0.348480
0.426208 0.708893 0.340698
0.437347 0.708679 0.326294
0.450195 0.708435 0.310760
0.464813 0.708038 0.294464
0.480927 0.707703 0.277496
0.498474 0.707214 0.259674
0.517059 0.703430 0.260071
0.536652 0.697723 0.270874
0.557434 0.692078 0.281006
0.579285 0.686279 0.290863
0.601990 0.680389 0.300415
0.628326 0.676819 0.289154
0.657166 0.675171 0.260284
0.686066 0.673828 0.229156
0.714905 0.672211 0.195038
0.743683 0.670227 0.155304
0.772278 0.668457 0.106201
0.800751 0.666962 0.046997
0.829254 0.662048 0.000000
0.857483 0.646973 0.000000
0.882599 0.629272 0.000000
0.897552 0.628967 0.000000
0.912659 0.628937 0.000000
0.928131 0.629150 0.000000
0.943970 0.629486 0.000000
0.380615 0.750854 0.357758
0.383728 0.750122 0.358368
0.387207 0.749237 0.358978
0.392090 0.747986 0.359955
0.398529 0.746338 0.361176
0.406586 0.744263 0.362671
0.416290 0.741699 0.364410
0.427246 0.739136 0.364838
0.438599 0.738434 0.357391
0.449982 0.737946 0.345520
0.462158 0.737793 0.330292
0.476013 0.737427 0.314270
0.491425 0.737061 0.297516
0.508362 0.736603 0.279968
0.526611 0.735718 0.264221
0.545746 0.729950 0.274994
0.565918 0.724152 0.285400
0.587219 0.718384 0.295074
0.609344 0.712524 0.304596
0.632263 0.706512 0.313812
0.660004 0.704102 0.292175
0.688782 0.702728 0.262024
0.717590 0.701538 0.229431
0.746368 0.700043 0.193268
0.775085 0.698181 0.149933
0.803772 0.696564 0.095978
0.832397 0.695160 0.028168
0.861115 0.686188 0.000000
0.888672 0.661438 0.000000
0.913422 0.655884 0.000000
0.929138 0.655182 0.000000
0.944336 0.654999 0.000000
0.959717 0.655029 0.000000
0.394836 0.779968 0.371368
0.397705 0.779266 0.371857
0.401031 0.778442 0.372467
0.405701 0.777252 0.373291
0.411804 0.775665 0.374481
0.419525 0.773682 0.375885
0.428864 0.771301 0.377563
0.439667 0.768463 0.379395
0.450714 0.767487 0.373291
0.462494 0.766815 0.363678
0.474030 0.766571 0.348999
0.487244 0.766357 0.333282
0.502045 0.765930 0.316620
0.518341 0.765533 0.299347
0.536102 0.765076 0.281250
0.554871 0.761749 0.278656
0.574493 0.755951 0.289032
0.595276 0.750183 0.298889
0.616943 0.744385 0.308319
0.639374 0.738464 0.317413
0.662964 0.732727 0.323029
0.691711 0.731323 0.293152
0.720459 0.730103 0.261383
0.749176 0.729065 0.226929
0.777985 0.727631 0.187897
0.806732 0.726044 0.139282
0.835510 0.724518 0.078033
0.864471 0.722900 0.000000
0.893402 0.705719 0.000000
0.918884 0.687897 0.000000
0.943634 0.682343 0.000000
0.960510 0.680969 0.000000
0.975708 0.680786 0.000000
0.408417 0.808716 0.384247
0.411194 0.808044 0.384796
0.414307 0.807281 0.385376
0.418762 0.806091 0.386200
0.424713 0.804565 0.387238
0.432068 0.802704 0.388611
0.441010 0.800354 0.390137
0.451447 0.797638 0.391876
0.462585 0.796021 0.388580
0.474579 0.795319 0.380524
0.485748 0.795013 0.366547
0.498322 0.794769 0.351166
0.512573 0.794464 0.334991
0.528381 0.794128 0.317841
0.545654 0.793671 0.299774
0.564148 0.793182 0.281708
0.583313 0.787415 0.292175
0.603455 0.781616 0.302155
0.624664 0.775787 0.311646
0.646545 0.769897 0.320648
0.669403 0.763855 0.329346
