Kodak Vision2 500T Expression (5229) - Look.cube
# Created by Benjamin (IWLTBAP) : http://luts.iwltbap.com
# Copyright: (C) Copyright 2010-2017 Triune Films and IWLTBAP SAS
# Cannot be resold, shared or otherwise redistributed
TITLE "Film Print Emulation LUTs Pack (Rec.709, sRGB, DCI-P3)"
LUT_3D_SIZE 33
0.000793 0.002380 0.003174
0.013672 0.002136 0.001434
0.033752 0.002838 0.000732
0.058594 0.002869 0.000732
0.081665 0.004272 0.000732
0.108398 0.003571 0.000000
0.135956 0.004272 0.000000
0.164612 0.005005 0.000000
0.194031 0.004303 0.000000
0.222534 0.004303 0.000000
0.250946 0.005005 0.000000
0.278992 0.005707 0.000000
0.307098 0.005707 0.000000
0.332581 0.007141 0.000000
0.355927 0.007843 0.000702
0.376556 0.007874 0.000000
0.393250 0.007874 0.000000
0.411316 0.007874 0.000000
0.428192 0.007141 0.000000
0.447845 0.007141 0.000000
0.465973 0.008545 0.000000
0.485748 0.008575 0.000000
0.507172 0.009277 0.000000
0.525055 0.009277 0.000000
0.545074 0.010010 0.000000
0.561462 0.010712 0.000000
0.579346 0.010010 0.000000
0.594421 0.012146 0.000000
0.611877 0.013580 0.000000
0.626953 0.015717 0.000000
0.643860 0.017151 0.000000
0.657990 0.018555 0.000000
0.672729 0.019989 0.000000
0.001923 0.027924 0.004608
0.018219 0.022644 0.005920
0.036011 0.021271 0.002930
0.072693 0.024567 0.000458
0.096497 0.023743 0.000549
0.121735 0.022430 0.000610
0.148163 0.021973 0.000641
0.178162 0.022308 0.000000
0.208405 0.021484 0.000000
0.237000 0.022675 0.000000
0.264282 0.021912 0.000671
0.291321 0.022522 0.000671
0.318237 0.022491 0.000671
0.344452 0.022430 0.000702
0.365601 0.022400 0.000702
0.387543 0.022400 0.000702
0.408112 0.021667 0.000702
0.426056 0.020935 0.000702
0.444061 0.020203 0.000000
0.460571 0.020203 0.000000
0.480103 0.020203 0.000000
0.500000 0.020874 0.000000
0.519440 0.021576 0.000000
0.539948 0.022278 0.000000
0.557709 0.022278 0.000000
0.577484 0.022980 0.000000
0.593658 0.022980 0.000000
0.611755 0.023682 0.000000
0.626678 0.025116 0.000000
0.643890 0.026520 0.000000
0.657806 0.027252 0.000000
0.671661 0.027954 0.000000
0.685364 0.029358 0.000000
0.004608 0.055908 0.009186
0.027863 0.054047 0.007812
0.040131 0.043762 0.008118
0.060486 0.038666 0.005493
0.104187 0.047455 0.001343
0.132904 0.047089 0.000488
0.160095 0.044403 0.000549
0.190094 0.042969 0.000580
0.222198 0.041382 0.000610
0.252960 0.041962 0.000641
0.279816 0.040833 0.000641
0.305420 0.039795 0.000671
0.329590 0.039520 0.000671
0.354858 0.038605 0.000671
0.378418 0.037720 0.000702
0.399017 0.036896 0.000702
0.419189 0.036774 0.000702
0.440125 0.035950 0.000702
0.456512 0.034485 0.000702
0.476746 0.032288 0.000000
0.494049 0.032928 0.000000
0.514099 0.032867 0.000000
0.531830 0.033508 0.000000
0.552185 0.034180 0.000000
0.572510 0.034149 0.000000
0.590302 0.034088 0.000000
0.609863 0.034790 0.000000
0.625519 0.035461 0.000000
0.642578 0.036865 0.000000
0.656586 0.037537 0.000000
0.671600 0.038940 0.000000
0.684296 0.039642 0.000000
0.695343 0.041046 0.000000
0.009949 0.084229 0.013031
0.031372 0.082062 0.010834
0.055420 0.078918 0.008606
0.066864 0.061981 0.010345
0.091370 0.056854 0.006287
0.129791 0.064545 0.001892
0.170868 0.074310 0.000427
0.201141 0.069977 0.000488
0.233185 0.067963 0.000549
0.264435 0.067139 0.000580
0.292542 0.064514 0.000610
0.318115 0.062561 0.000641
0.343597 0.060242 0.000641
0.366425 0.058533 0.000671
0.389862 0.056885 0.000671
0.412079 0.055878 0.000671
0.431671 0.055542 0.000671
0.451263 0.054047 0.000671
0.471436 0.051971 0.000000
0.489746 0.049835 0.000000
0.509827 0.048340 0.000000
0.527588 0.049469 0.000000
0.546692 0.049347 0.000000
0.566040 0.049866 0.000000
0.585236 0.050415 0.000000
0.605194 0.050323 0.000000
0.621979 0.050873 0.000000
0.639618 0.051453 0.000000
0.654449 0.052643 0.000000
0.669678 0.053833 0.000000
0.683441 0.054413 0.000000
0.695312 0.054962 0.000000
0.708710 0.054932 0.000000
0.014191 0.112213 0.016479
0.035248 0.108307 0.013885
0.059387 0.106018 0.011658
0.083710 0.104248 0.009430
0.097351 0.081512 0.011810
0.127838 0.080139 0.007080
0.163147 0.080933 0.003906
0.207550 0.097717 0.000458
0.243805 0.099823 0.000458
0.276154 0.097473 0.000519
0.305450 0.094238 0.000549
0.332123 0.090729 0.000580
0.356659 0.087799 0.000610
0.380859 0.084686 0.000610
0.404022 0.081207 0.000641
0.423523 0.077759 0.000641
0.445282 0.075653 0.000671
0.466705 0.072693 0.000671
0.486115 0.069672 0.000000
0.507263 0.066589 0.000000
0.524384 0.065094 0.000000
0.543396 0.064728 0.000000
0.560669 0.065521 0.000000
0.580750 0.065247 0.000000
0.601074 0.065552 0.000000
0.617981 0.065887 0.000000
0.636414 0.066254 0.000000
0.651581 0.066650 0.000000
0.667664 0.068115 0.000000
0.682709 0.069031 0.000000
0.695618 0.069427 0.000000
0.710236 0.069855 0.000000
0.721710 0.070282 0.000000
0.018768 0.141174 0.021759
0.040253 0.136108 0.017334
0.062073 0.133392 0.015472
0.088135 0.131042 0.012482
0.114594 0.129669 0.009857
0.131622 0.105255 0.014038
0.166107 0.105011 0.008636
0.207031 0.104919 0.004730
0.247040 0.118286 0.001770
0.281891 0.130951 0.000397
0.313171 0.126617 0.000458
0.342133 0.122253 0.000519
0.369781 0.118835 0.000549
0.393036 0.114105 0.000580
0.416351 0.107574 0.000580
0.438507 0.103119 0.000610
0.458557 0.100098 0.000641
0.480896 0.097198 0.000641
0.502838 0.093994 0.000000
0.521698 0.090790 0.000000
0.541199 0.089661 0.000000
0.558441 0.088654 0.000000
0.578217 0.088135 0.000000
0.596497 0.086365 0.000000
0.615204 0.086395 0.000000
0.633698 0.086487 0.000000
0.649292 0.086609 0.000000
0.664703 0.087219 0.000000
0.681732 0.088257 0.000000
0.695435 0.088898 0.000000
0.711060 0.089539 0.000000
0.723602 0.089386 0.000000
0.737152 0.089661 0.000671
0.024475 0.174103 0.025452
0.044617 0.167725 0.022888
0.065643 0.161987 0.019684
0.091278 0.159027 0.015930
0.119171 0.158051 0.012909
0.146118 0.157501 0.011414
0.167175 0.132416 0.016998
0.207062 0.129486 0.010223
0.248077 0.130005 0.005493
0.286438 0.137085 0.002075
0.317993 0.152740 0.000458
0.348267 0.156921 0.000427
0.378510 0.153046 0.000488
0.405121 0.147034 0.000519
0.430267 0.140167 0.000549
0.451813 0.133850 0.000580
0.474731 0.129852 0.000580
0.497284 0.125458 0.000000
0.517578 0.121704 0.000000
0.538788 0.118927 0.000000
0.556396 0.116608 0.000000
0.575806 0.114685 0.000000
0.593414 0.112885 0.000000
0.612610 0.111145 0.000000
0.631287 0.109833 0.000000
0.647430 0.109283 0.000000
0.663635 0.110168 0.000000
0.681274 0.110779 0.000000
0.696198 0.111115 0.000000
0.712738 0.111786 0.000000
0.725769 0.111847 0.000000
0.740845 0.111237 0.000000
0.753448 0.110657 0.000702
0.029968 0.211945 0.031647
0.049072 0.202179 0.027405
0.069885 0.193329 0.024292
0.093994 0.188293 0.020874
0.121735 0.186218 0.015961
0.149017 0.185242 0.014465
0.179352 0.182892 0.013184
0.206146 0.157928 0.016998
0.246674 0.154572 0.010986
0.288910 0.155487 0.006287
0.330109 0.155151 0.001587
0.359344 0.174652 0.000549
0.385834 0.189087 0.000397
0.413391 0.183014 0.000458
0.440796 0.177032 0.000488
0.466248 0.169250 0.000519
0.490204 0.163788 0.000549
0.511139 0.158203 0.000000
0.533997 0.153564 0.000000
0.554199 0.149750 0.000000
0.574188 0.146271 0.000000
0.591370 0.143188 0.000000
0.610626 0.140686 0.000000
0.629181 0.137512 0.000000
0.646393 0.135773 0.000000
0.662537 0.134369 0.000000
0.681030 0.135620 0.000000
0.696777 0.136658 0.000000
0.713959 0.137482 0.000641
0.728058 0.137299 0.000671
0.743530 0.136322 0.000671
0.756073 0.134247 0.000671
0.770081 0.133026 0.000671
0.036530 0.249054 0.035553
0.055237 0.238068 0.032806
0.075714 0.227905 0.028351
0.097534 0.219208 0.024658
0.123230 0.214508 0.020172
0.150848 0.211639 0.016754
0.181671 0.211731 0.014130
0.212189 0.207184 0.013214
0.242920 0.182556 0.017731
0.286804 0.180237 0.012573
0.330627 0.181213 0.006287
0.368896 0.184174 0.003937
0.398651 0.198608 0.000641
0.423218 0.211243 0.000488
0.449768 0.214569 0.000427
0.477539 0.208527 0.000458
0.501648 0.201752 0.000488
0.526093 0.195099 0.000000
0.548431 0.189453 0.000000
0.570862 0.183838 0.000000
0.591187 0.178833 0.000000
0.608154 0.175262 0.000000
0.628906 0.173492 0.000000
0.645782 0.170227 0.000000
0.662781 0.166199 0.000610
0.680817 0.164642 0.000610
0.698090 0.165436 0.000641
0.714417 0.166168 0.000641
0.729523 0.165649 0.000641
0.745941 0.164520 0.000671
0.759308 0.162109 0.000671
0.774170 0.159210 0.000671
0.785980 0.157776 0.000671
0.046021 0.282562 0.038208
0.063324 0.271423 0.036377
0.082245 0.261017 0.033112
0.104126 0.249725 0.027496
0.126068 0.243896 0.024048
0.153381 0.237427 0.020203
0.182800 0.236115 0.016022
0.214478 0.237061 0.013763
0.245880 0.230682 0.014374
0.282928 0.207550 0.017761
0.327179 0.206116 0.012573
0.368683 0.209015 0.008636
0.406189 0.213013 0.004730
0.439301 0.220154 0.002167
0.463287 0.233368 0.000549
0.484375 0.242706 0.000427
0.511993 0.240448 0.000427
0.537537 0.234985 0.000458
0.563019 0.227570 0.000000
0.586029 0.220642 0.000000
0.606018 0.215576 0.000000
0.626526 0.211365 0.000000
0.645264 0.208588 0.000549
0.664032 0.204895 0.000580
0.680267 0.201508 0.000580
0.698486 0.199585 0.000610
0.713318 0.198181 0.000610
0.729523 0.197968 0.000641
0.746429 0.197205 0.000641
0.761261 0.195618 0.000641
0.777740 0.193726 0.000641
0.790527 0.190765 0.000641
0.802155 0.188202 0.000671
0.055908 0.314301 0.040283
0.073517 0.302948 0.037811
0.091858 0.291382 0.034637
0.110382 0.281250 0.030975
0.131500 0.272156 0.025970
0.156464 0.264923 0.022339
0.184662 0.261932 0.018280
0.215515 0.262238 0.015656
0.248505 0.264435 0.013763
0.282867 0.254120 0.014526
0.321259 0.233521 0.017761
0.365936 0.233856 0.016510
0.403564 0.235229 0.010223
0.443207 0.239990 0.006287
0.483215 0.242310 0.004730
0.501495 0.254486 0.001251
0.521881 0.265747 0.000488
0.545990 0.273132 0.000397
0.573547 0.267670 0.000427
0.597321 0.261597 0.000458
0.621399 0.254608 0.000488
0.641754 0.249634 0.000519
0.662140 0.245178 0.000519
0.679230 0.240875 0.000549
0.697571 0.236816 0.000580
0.712921 0.233856 0.000580
0.728699 0.231445 0.000610
0.744324 0.229492 0.000610
0.760986 0.228577 0.000610
0.778046 0.226868 0.000610
0.792267 0.224976 0.000641
0.806946 0.221893 0.001251
0.819031 0.218170 0.001892
0.066254 0.345947 0.043121
0.082794 0.334045 0.038757
0.100952 0.321228 0.035645
0.119202 0.309052 0.032318
0.139099 0.299774 0.027191
0.161407 0.292023 0.024017
0.188324 0.288574 0.021301
0.218292 0.287842 0.017151
0.250854 0.289642 0.015656
0.283966 0.292267 0.013397
0.318268 0.280884 0.015045
0.357147 0.260010 0.019226
0.399475 0.259003 0.018066
0.438782 0.261536 0.013367
0.482697 0.266724 0.008667
0.519165 0.266937 0.005524
0.541382 0.274872 0.003418
0.560547 0.289673 0.002167
0.581299 0.299683 0.000854
0.605927 0.298981 0.000427
0.629761 0.292999 0.000458
0.653839 0.287903 0.000488
0.673798 0.281433 0.000519
0.693268 0.275970 0.000519
0.709869 0.271545 0.000549
0.726715 0.267273 0.000549
0.741669 0.263824 0.000580
0.757141 0.260895 0.000580
0.775757 0.259094 0.001160
0.791595 0.257324 0.002380
0.807556 0.254761 0.003021
0.820770 0.251099 0.003662
0.832733 0.247192 0.004333
0.080750 0.379425 0.045044
0.096161 0.366211 0.040100
0.112000 0.353027 0.036621
0.128296 0.339508 0.033112
0.146210 0.327606 0.028656
0.169373 0.319916 0.025330
0.194275 0.316376 0.023041
0.221985 0.314941 0.020569
0.253571 0.315643 0.017548
0.285492 0.317749 0.015686
0.317902 0.320618 0.013397
0.351868 0.306519 0.016510
0.392822 0.285309 0.021423
0.433807 0.283875 0.019623
0.475067 0.287811 0.015717
0.519226 0.291840 0.011017
0.552673 0.290863 0.008667
0.580994 0.298126 0.008209
0.599487 0.312164 0.005432
0.614624 0.321075 0.003387
0.636292 0.329559 0.002350
0.660675 0.323975 0.002533
0.684418 0.318939 0.002258
0.703644 0.312866 0.002380
0.722443 0.306976 0.001984
0.738464 0.301910 0.002075
0.753754 0.297028 0.001587
0.772186 0.293396 0.002197
0.788788 0.290405 0.003357
0.806396 0.287811 0.004578
0.820160 0.284576 0.005249
0.833313 0.281525 0.006531
0.848022 0.278229 0.007812
0.095581 0.411774 0.046844
0.111481 0.397949 0.042542
0.126404 0.384674 0.038055
0.140991 0.371277 0.034393
0.157166 0.358521 0.030945
0.176636 0.348969 0.026581
0.200867 0.344055 0.024353
0.227417 0.341766 0.022369
0.257019 0.341949 0.020966
0.288055 0.343048 0.017578
0.320251 0.345367 0.015289
0.350372 0.348450 0.014191
0.386322 0.330353 0.018585
0.426819 0.309967 0.022919
0.468018 0.308014 0.021210
0.508179 0.310852 0.017303
0.551819 0.314850 0.016541
0.585236 0.318390 0.016541
0.615570 0.319794 0.014984
0.629456 0.330872 0.010559
0.648132 0.342651 0.007568
0.669373 0.353424 0.005249
0.691803 0.356354 0.005280
0.714813 0.351257 0.005646
0.733429 0.345947 0.005066
0.752441 0.338196 0.004822
0.769043 0.332458 0.004517
0.785767 0.327454 0.005188
0.803864 0.323181 0.005859
0.818848 0.319397 0.008209
0.832703 0.315460 0.008972
0.847870 0.312408 0.011414
0.860901 0.308258 0.012207
0.109650 0.444489 0.049713
0.125946 0.430756 0.046265
0.140930 0.415955 0.041260
0.155243 0.402618 0.036407
0.169067 0.390106 0.033112
0.186096 0.378815 0.029266
0.207214 0.372437 0.026276
0.231934 0.367004 0.024384
0.260315 0.365845 0.023102
0.290253 0.366180 0.020630
0.321503 0.368958 0.017212
0.351562 0.372559 0.015717
0.383484 0.375336 0.014984
0.419952 0.353271 0.020660
0.460449 0.333527 0.025879
0.499359 0.330078 0.022003
0.541412 0.335602 0.021240
0.582489 0.339783 0.020447
0.616333 0.343079 0.019684
0.644958 0.342407 0.019714
0.663788 0.351166 0.017029
0.682037 0.364899 0.013580
0.701843 0.376709 0.011230
0.722260 0.387390 0.009583
0.745148 0.383545 0.009583
0.764648 0.377563 0.009735
0.782501 0.369202 0.010223
0.800507 0.362701 0.010681
0.816986 0.357635 0.011597
0.832001 0.352814 0.012482
0.847412 0.348785 0.013885
0.861206 0.345306 0.015320
0.875580 0.341370 0.016205
0.122559 0.477600 0.052979
0.139374 0.464569 0.049011
0.154816 0.448730 0.044861
0.169067 0.433655 0.039246
0.181976 0.420258 0.035431
0.195374 0.408325 0.032349
0.214081 0.398865 0.028107
0.235718 0.392456 0.026001
0.261932 0.390228 0.024750
0.291138 0.389984 0.022766
0.321960 0.391602 0.019897
0.352081 0.394440 0.017609
0.383453 0.398804 0.016876
0.416077 0.398529 0.017303
0.452301 0.377014 0.023315
0.491180 0.353455 0.026611
0.530731 0.353973 0.025116
0.571411 0.360138 0.025940
0.612701 0.363678 0.023621
0.646362 0.366028 0.023621
0.674530 0.366669 0.024414
0.695892 0.370972 0.022736
0.713348 0.386597 0.019135
0.732300 0.399933 0.017120
0.752258 0.410675 0.013794
0.775269 0.414581 0.012787
0.794952 0.407806 0.013214
0.812500 0.399414 0.014374
0.830261 0.393341 0.015533
0.845490 0.388062 0.016632
0.860657 0.383759 0.018188
0.877411 0.379883 0.019775
0.891907 0.375885 0.021362
0.133057 0.507874 0.056274
0.150543 0.495209 0.051605
0.166718 0.480682 0.047089
0.181091 0.464752 0.041931
0.193420 0.449829 0.037628
0.205627 0.436737 0.034180
0.220856 0.425507 0.031281
0.240326 0.417938 0.027527
0.264648 0.412628 0.025696
0.292267 0.411957 0.024109
0.322479 0.414459 0.022064
0.351959 0.416962 0.020294
0.383057 0.420471 0.019958
0.414490 0.423309 0.019257
0.447296 0.421967 0.020599
0.483307 0.399261 0.024841
0.521973 0.375885 0.028107
0.560822 0.378479 0.029846
0.602905 0.383820 0.028290
0.641724 0.386444 0.026764
0.674408 0.389343 0.028351
0.701416 0.390717 0.028351
0.724182 0.392365 0.029175
0.742004 0.407776 0.025970
0.760040 0.421539 0.022034
0.781067 0.432312 0.019073
0.802551 0.440948 0.016388
0.823425 0.438263 0.017212
0.841003 0.431122 0.018646
0.857605 0.425659 0.020477
0.875427 0.420990 0.023254
0.891327 0.416321 0.026031
0.907623 0.411865 0.028290
0.140869 0.537384 0.059052
0.158508 0.524506 0.055267
0.174805 0.509796 0.049194
0.190216 0.494385 0.044891
0.203674 0.479340 0.039948
0.216797 0.465027 0.035950
0.230957 0.452850 0.033142
0.248108 0.444550 0.029602
0.269562 0.438263 0.027252
0.295776 0.436646 0.025391
0.324158 0.437531 0.023804
0.353638 0.439117 0.022461
0.383301 0.443024 0.022156
0.413422 0.446259 0.021851
0.444763 0.449524 0.021210
0.478973 0.444092 0.023102
0.514587 0.421844 0.025787
0.552063 0.400299 0.031036
0.591705 0.399292 0.032196
0.632324 0.403687 0.029877
0.666718 0.408447 0.031464
0.697571 0.412231 0.033081
0.725006 0.414917 0.032288
0.749084 0.417419 0.033905
0.769196 0.427277 0.031189
0.787048 0.441315 0.028625
0.807831 0.452789 0.026550
0.828003 0.463043 0.024719
0.851624 0.470154 0.022766
0.869843 0.465363 0.024933
0.887573 0.459595 0.027374
0.906067 0.454193 0.030182
0.922272 0.449371 0.032928
0.149841 0.566467 0.062897
0.167480 0.553406 0.057922
0.183746 0.538605 0.051605
0.199554 0.523956 0.047089
0.214264 0.508484 0.041931
0.227539 0.494171 0.038116
0.241699 0.481445 0.034698
0.258423 0.472656 0.032379
0.277771 0.465607 0.029327
0.300873 0.463348 0.027283
0.327606 0.463196 0.025757
0.356018 0.463837 0.024475
0.385010 0.465698 0.024231
0.414093 0.468018 0.023590
0.443817 0.472382 0.022980
0.476624 0.476562 0.022705
0.510529 0.465820 0.024292
0.544952 0.443634 0.027313
0.580597 0.422577 0.033264
0.621643 0.419373 0.032990
0.658844 0.423309 0.033020
0.691681 0.428436 0.036194
0.722168 0.435150 0.035431
0.749298 0.439270 0.038605
0.773376 0.441315 0.040192
0.792877 0.444824 0.042023
0.811890 0.460144 0.038788
0.831604 0.473572 0.035004
0.852631 0.485657 0.032135
0.876556 0.496674 0.029114
0.900116 0.497620 0.030731
0.918549 0.492889 0.035217
0.937378 0.486786 0.037811
0.155914 0.595215 0.068634
0.176971 0.582550 0.061859
0.193726 0.567749 0.056122
0.209137 0.553040 0.049957
0.223938 0.538361 0.045319
0.236969 0.523926 0.039948
0.251556 0.511322 0.036682
0.267731 0.502808 0.034210
0.287567 0.495148 0.032410
0.309235 0.491699 0.030518
0.332642 0.490173 0.028229
0.359741 0.489594 0.026733
0.387787 0.490784 0.026489
0.416199 0.492157 0.025238
0.444427 0.494202 0.024323
0.475555 0.498322 0.024048
0.506958 0.501556 0.023071
0.540710 0.487549 0.025391
0.570099 0.463501 0.029999
0.607941 0.441711 0.034760
0.647491 0.438995 0.036133
0.683014 0.444092 0.038513
0.715942 0.450256 0.040131
0.746460 0.456421 0.041687
0.772797 0.461700 0.044678
0.794769 0.463165 0.046844
0.814697 0.463745 0.050323
0.834137 0.479034 0.047089
0.853577 0.494904 0.043915
0.878052 0.508240 0.043213
0.902985 0.519684 0.040741
0.931091 0.529419 0.037262
0.949707 0.524933 0.039673
0.162170 0.623474 0.072540
0.183594 0.611298 0.067139
0.202698 0.597565 0.060028
0.218506 0.582611 0.054291
0.233063 0.568207 0.048492
0.247772 0.554474 0.044098
0.262115 0.541412 0.039062
0.277985 0.532104 0.036469
0.296234 0.524078 0.034485
0.316254 0.519562 0.032959
0.339874 0.516235 0.031372
0.364288 0.514435 0.029144
0.391449 0.515289 0.028595
0.418640 0.516541 0.027435
0.446503 0.518219 0.026245
0.476074 0.521210 0.026001
0.505829 0.523010 0.024750
0.536469 0.525085 0.023071
0.566620 0.507904 0.026031
0.597137 0.483551 0.031525
0.633026 0.459564 0.036957
0.670593 0.458282 0.040833
0.707214 0.466003 0.043121
0.740173 0.472717 0.043915
0.769592 0.478516 0.046814
0.791779 0.483185 0.049622
0.815063 0.485321 0.053619
0.835663 0.487732 0.056793
0.854919 0.499023 0.060303
0.878387 0.515747 0.057800
0.903656 0.529938 0.055237
0.928253 0.542023 0.050171
0.954559 0.553101 0.044434
0.169434 0.651764 0.076691
0.190033 0.639862 0.071503
0.210999 0.626556 0.063995
0.228699 0.612244 0.057953
0.243683 0.597748 0.051270
0.258179 0.584473 0.046936
0.271484 0.571625 0.042847
0.286102 0.560272 0.038635
0.303528 0.551208 0.036499
0.323578 0.544495 0.034515
0.345001 0.541199 0.032715
0.370117 0.540009 0.031677
0.394897 0.539825 0.031189
0.421509 0.540009 0.029236
0.448425 0.540710 0.027771
0.477448 0.543945 0.027527
0.505676 0.545898 0.026337
0.535553 0.547333 0.024750
0.564819 0.549377 0.022736
0.593872 0.526611 0.027039
0.625061 0.503723 0.033020
0.657990 0.480316 0.039856
0.693512 0.479340 0.043823
0.729095 0.487823 0.046051
0.760040 0.494720 0.048859
0.787933 0.498718 0.052246
0.814026 0.501984 0.055511
0.837952 0.507843 0.061005
0.859741 0.511688 0.066711
0.877563 0.517761 0.071564
0.901733 0.535675 0.068726
0.924622 0.550690 0.063324
0.951263 0.563904 0.057983
0.182861 0.679718 0.079590
0.199524 0.667938 0.074585
0.217468 0.654999 0.069489
0.235504 0.640686 0.061279
0.251282 0.626221 0.055511
0.266083 0.612457 0.049072
0.280609 0.600433 0.045959
0.294983 0.587952 0.041138
0.310822 0.577728 0.038422
0.328796 0.569519 0.036285
0.349609 0.566010 0.034821
0.374176 0.565002 0.033569
0.399872 0.564514 0.032806
0.424255 0.564331 0.031769
0.450806 0.564789 0.029541
0.478973 0.566803 0.029022
0.507446 0.567627 0.027863
0.535858 0.568268 0.026031
0.564636 0.570160 0.024078
0.592316 0.572845 0.022797
0.622040 0.547333 0.028534
0.651276 0.523865 0.035034
0.682098 0.502045 0.042633
0.716858 0.499481 0.048096
0.750549 0.509857 0.051514
0.782257 0.516541 0.054169
0.810913 0.520203 0.057953
0.837524 0.524414 0.064423
0.861938 0.529510 0.068878
0.880402 0.535980 0.075134
0.899780 0.538971 0.080505
0.920532 0.554596 0.076721
0.946167 0.570862 0.072571
0.199799 0.707489 0.079102
0.212982 0.695862 0.075836
0.226624 0.683105 0.072571
0.242584 0.668488 0.065613
0.258667 0.652557 0.058472
0.273865 0.638153 0.051117
0.288879 0.625916 0.047729
0.303284 0.615692 0.044769
0.317993 0.604279 0.040253
0.335663 0.595337 0.038208
0.355774 0.590179 0.036316
0.378113 0.587921 0.035339
0.403137 0.587158 0.034119
0.427917 0.586853 0.032837
0.453735 0.587616 0.031799
0.481201 0.590027 0.031311
0.509583 0.591309 0.030212
0.537292 0.591644 0.027893
0.564972 0.592651 0.025391
0.592102 0.593719 0.023743
0.621460 0.592896 0.024628
0.650024 0.568939 0.030884
0.676086 0.544373 0.036438
0.705933 0.523224 0.045929
0.738800 0.520966 0.053436
0.771454 0.530762 0.056641
0.805054 0.538055 0.059723
0.834686 0.541718 0.064972
0.860596 0.546997 0.070435
0.881134 0.551422 0.077087
0.901611 0.555756 0.083313
0.920319 0.560638 0.090851
0.940582 0.571228 0.090332
0.216248 0.733093 0.078979
0.227570 0.723114 0.076599
0.238464 0.710419 0.073853
0.249756 0.697021 0.069916
0.264343 0.680145 0.062225
0.279755 0.665161 0.055328
0.294891 0.651764 0.049652
0.310242 0.640411 0.046570
0.325836 0.631409 0.043732
0.342407 0.622040 0.040039
0.361237 0.615234 0.037994
0.383423 0.612335 0.036835
0.406006 0.610565 0.035126
0.431061 0.609833 0.033875
0.455933 0.610596 0.032867
0.483246 0.611664 0.032379
0.511505 0.612915 0.031891
0.540039 0.613770 0.029358
0.566284 0.615082 0.026947
0.592773 0.616241 0.025391
0.621429 0.618774 0.025452
0.649811 0.614319 0.026794
0.673615 0.590393 0.032318
0.699158 0.565674 0.039459
0.725922 0.542450 0.049683
0.756958 0.544128 0.058411
0.790039 0.552704 0.063171
0.826965 0.557587 0.066589
0.854431 0.563782 0.071960
0.879700 0.568298 0.078003
0.901764 0.572632 0.087311
0.922455 0.575958 0.094208
0.939392 0.578491 0.099884
0.230072 0.757782 0.079926
0.241638 0.747925 0.077576
0.250702 0.736938 0.074219
0.260590 0.723969 0.071777
0.272919 0.708893 0.067169
0.287262 0.693329 0.059448
0.301941 0.678894 0.052032
0.317230 0.666534 0.048340
0.332977 0.656372 0.045990
0.350281 0.649353 0.043335
0.368469 0.641479 0.039856
0.388184 0.637146 0.038025
0.409302 0.633606 0.036102
0.433411 0.631073 0.034637
0.458588 0.631958 0.033630
0.485168 0.633606 0.033142
0.513214 0.635223 0.032928
0.541718 0.636780 0.031067
0.568359 0.637726 0.027863
0.594543 0.638306 0.026642
0.621704 0.639587 0.026398
0.648895 0.643250 0.026459
0.674286 0.636200 0.028229
0.698792 0.609985 0.034607
0.723114 0.587250 0.043945
0.746674 0.564331 0.055573
0.778503 0.567352 0.065369
0.814728 0.573242 0.067627
0.846954 0.577362 0.073456
0.874268 0.580902 0.079895
0.899536 0.588043 0.091156
0.922241 0.592468 0.097809
0.940308 0.595062 0.102936
0.241974 0.784180 0.081329
0.254120 0.773285 0.079254
0.263519 0.762268 0.075226
0.273285 0.750031 0.072815
0.282654 0.736938 0.070068
0.294739 0.722687 0.064026
0.309204 0.707367 0.057373
0.324249 0.694275 0.050964
0.340332 0.683441 0.047974
0.356995 0.674469 0.045410
0.374542 0.667664 0.042297
0.393097 0.661133 0.039642
0.414276 0.656372 0.037567
0.436005 0.653717 0.035889
0.461243 0.653473 0.034912
0.486938 0.654175 0.034454
0.514984 0.655884 0.033447
0.543365 0.657806 0.032135
0.570923 0.659363 0.028717
0.595795 0.660858 0.028168
0.622833 0.662476 0.028229
