Kodak Vision3 50D (5203) - Only contrast.cube
# Created by Benjamin (IWLTBAP) : http://luts.iwltbap.com
# Copyright: (C) Copyright 2010-2017 Triune Films and IWLTBAP SAS
# Cannot be resold, shared or otherwise redistributed
TITLE "Film Print Emulation LUTs Pack (Rec.709, sRGB, DCI-P3)"
LUT_3D_SIZE 33
0.000519 0.000519 0.000519
0.010315 0.000519 0.000519
0.024811 0.000488 0.000488
0.049225 0.000366 0.000366
0.077423 0.000244 0.000244
0.107941 0.000092 0.000092
0.140015 0.000000 0.000000
0.170471 0.000000 0.000000
0.203156 0.000000 0.000000
0.235809 0.000000 0.000000
0.268890 0.000000 0.000000
0.301971 0.000000 0.000000
0.337219 0.000000 0.000000
0.373474 0.000000 0.000000
0.404724 0.000000 0.000000
0.435394 0.000000 0.000000
0.467163 0.000000 0.000000
0.500061 0.000000 0.000000
0.536255 0.000000 0.000000
0.572266 0.000000 0.000000
0.607605 0.000000 0.000000
0.643921 0.000000 0.000000
0.683258 0.000000 0.000000
0.721832 0.000000 0.000000
0.759064 0.000000 0.000000
0.798492 0.000000 0.000000
0.838226 0.000000 0.000000
0.877319 0.000000 0.000000
0.910278 0.000000 0.000000
0.933655 0.000000 0.000000
0.956635 0.000000 0.000000
0.978180 0.000000 0.000000
0.991302 0.000000 0.000000
0.000519 0.010315 0.000519
0.010315 0.010315 0.000519
0.024872 0.010284 0.000458
0.049347 0.010193 0.000366
0.077545 0.010071 0.000214
0.108093 0.009949 0.000061
0.140167 0.009796 0.000000
0.170624 0.009644 0.000000
0.203308 0.009521 0.000000
0.235962 0.009369 0.000000
0.269043 0.009216 0.000000
0.302155 0.009064 0.000000
0.337402 0.008881 0.000000
0.373657 0.008728 0.000000
0.404846 0.008575 0.000000
0.435547 0.008453 0.000000
0.467316 0.008301 0.000000
0.500214 0.008179 0.000000
0.536438 0.007996 0.000000
0.572449 0.007812 0.000000
0.607758 0.007660 0.000000
0.644104 0.007507 0.000000
0.683472 0.007294 0.000000
0.722015 0.007111 0.000000
0.759247 0.006958 0.000000
0.798706 0.006744 0.000000
0.838409 0.006561 0.000000
0.877533 0.006378 0.000000
0.910370 0.006226 0.000000
0.933746 0.006165 0.000000
0.956696 0.006073 0.000000
0.978241 0.006012 0.000000
0.991272 0.006012 0.000000
0.000488 0.024811 0.000488
0.010284 0.024872 0.000458
0.024902 0.024902 0.000427
0.049438 0.024872 0.000305
0.077637 0.024841 0.000183
0.108185 0.024750 0.000031
0.140289 0.024689 0.000000
0.170746 0.024597 0.000000
0.203430 0.024536 0.000000
0.236084 0.024445 0.000000
0.269165 0.024353 0.000000
0.302277 0.024261 0.000000
0.337555 0.024170 0.000000
0.373779 0.024078 0.000000
0.404968 0.023987 0.000000
0.435638 0.023926 0.000000
0.467438 0.023865 0.000000
0.500336 0.023773 0.000000
0.536560 0.023682 0.000000
0.572571 0.023560 0.000000
0.607910 0.023468 0.000000
0.644257 0.023376 0.000000
0.683624 0.023254 0.000000
0.722168 0.023132 0.000000
0.759399 0.023010 0.000000
0.798859 0.022888 0.000000
0.838562 0.022766 0.000000
0.877686 0.022644 0.000000
0.910431 0.022583 0.000000
0.933807 0.022583 0.000000
0.956757 0.022552 0.000000
0.978241 0.022583 0.000000
0.991211 0.022644 0.000000
0.000366 0.049225 0.000366
0.010193 0.049347 0.000366
0.024872 0.049438 0.000305
0.049469 0.049469 0.000214
0.077698 0.049469 0.000061
0.108246 0.049438 0.000000
0.140350 0.049408 0.000000
0.170807 0.049408 0.000000
0.203491 0.049377 0.000000
0.236145 0.049316 0.000000
0.269226 0.049286 0.000000
0.302338 0.049255 0.000000
0.337616 0.049194 0.000000
0.373840 0.049133 0.000000
0.404999 0.049133 0.000000
0.435669 0.049103 0.000000
0.467499 0.049072 0.000000
0.500397 0.049042 0.000000
0.536652 0.048981 0.000000
0.572662 0.048920 0.000000
0.607971 0.048859 0.000000
0.644348 0.048798 0.000000
0.683746 0.048737 0.000000
0.722260 0.048645 0.000000
0.759491 0.048584 0.000000
0.798981 0.048523 0.000000
0.838684 0.048431 0.000000
0.877777 0.048340 0.000000
0.910431 0.048309 0.000000
0.933777 0.048340 0.000000
0.956726 0.048370 0.000000
0.978180 0.048431 0.000000
0.991089 0.048523 0.000000
0.000244 0.077423 0.000244
0.010071 0.077545 0.000214
0.024841 0.077637 0.000183
0.049469 0.077698 0.000061
0.077698 0.077698 0.000000
0.108276 0.077698 0.000000
0.140350 0.077698 0.000000
0.170807 0.077698 0.000000
0.203522 0.077667 0.000000
0.236176 0.077637 0.000000
0.269257 0.077637 0.000000
0.302368 0.077606 0.000000
0.337677 0.077576 0.000000
0.373871 0.077545 0.000000
0.404999 0.077515 0.000000
0.435699 0.077515 0.000000
0.467529 0.077515 0.000000
0.500458 0.077484 0.000000
0.536713 0.077454 0.000000
0.572693 0.077423 0.000000
0.608002 0.077393 0.000000
0.644409 0.077332 0.000000
0.683807 0.077271 0.000000
0.722321 0.077209 0.000000
0.759552 0.077179 0.000000
0.799072 0.077118 0.000000
0.838745 0.077057 0.000000
0.877838 0.076996 0.000000
0.910400 0.076965 0.000000
0.933746 0.077026 0.000000
0.956696 0.077057 0.000000
0.978119 0.077118 0.000000
0.990936 0.077240 0.000000
0.000092 0.107941 0.000092
0.009949 0.108093 0.000061
0.024750 0.108185 0.000031
0.049438 0.108246 0.000000
0.077698 0.108276 0.000000
0.108276 0.108276 0.000000
0.140381 0.108276 0.000000
0.170837 0.108276 0.000000
0.203522 0.108276 0.000000
0.236206 0.108246 0.000000
0.269287 0.108246 0.000000
0.302399 0.108246 0.000000
0.337708 0.108215 0.000000
0.373901 0.108185 0.000000
0.404999 0.108185 0.000000
0.435699 0.108185 0.000000
0.467529 0.108185 0.000000
0.500488 0.108185 0.000000
0.536774 0.108154 0.000000
0.572754 0.108124 0.000000
0.608063 0.108093 0.000000
0.644470 0.108063 0.000000
0.683868 0.108002 0.000000
0.722382 0.107971 0.000000
0.759583 0.107941 0.000000
0.799133 0.107880 0.000000
0.838806 0.107819 0.000000
0.877899 0.107788 0.000000
0.910339 0.107788 0.000000
0.933685 0.107819 0.000000
0.956635 0.107910 0.000000
0.978027 0.107971 0.000000
0.990784 0.108093 0.000000
0.000000 0.140015 0.000000
0.009796 0.140167 0.000000
0.024689 0.140289 0.000000
0.049408 0.140350 0.000000
0.077698 0.140350 0.000000
0.108276 0.140381 0.000000
0.140381 0.140381 0.000000
0.170837 0.140381 0.000000
0.203522 0.140381 0.000000
0.236206 0.140350 0.000000
0.269287 0.140350 0.000000
0.302399 0.140350 0.000000
0.337738 0.140320 0.000000
0.373901 0.140289 0.000000
0.404999 0.140289 0.000000
0.435699 0.140289 0.000000
0.467529 0.140289 0.000000
0.500488 0.140289 0.000000
0.536804 0.140259 0.000000
0.572754 0.140198 0.000000
0.608063 0.140198 0.000000
0.644501 0.140137 0.000000
0.683929 0.140106 0.000000
0.722412 0.140045 0.000000
0.759613 0.139984 0.000000
0.799194 0.139954 0.000000
0.838867 0.139893 0.000000
0.877930 0.139832 0.000000
0.910309 0.139801 0.000000
0.933624 0.139862 0.000000
0.956573 0.139923 0.000000
0.977936 0.139984 0.000000
0.990631 0.140106 0.000000
0.000000 0.170471 0.000000
0.009644 0.170624 0.000000
0.024597 0.170746 0.000000
0.049408 0.170807 0.000000
0.077698 0.170807 0.000000
0.108276 0.170837 0.000000
0.140381 0.170837 0.000000
0.170837 0.170837 0.000000
0.203552 0.170837 0.000000
0.236206 0.170837 0.000000
0.269318 0.170837 0.000000
0.302429 0.170837 0.000000
0.337799 0.170807 0.000000
0.373932 0.170776 0.000000
0.404999 0.170776 0.000000
0.435699 0.170807 0.000000
0.467560 0.170807 0.000000
0.500519 0.170807 0.000000
0.536835 0.170776 0.000000
0.572815 0.170746 0.000000
0.608093 0.170746 0.000000
0.644562 0.170715 0.000000
0.683990 0.170654 0.000000
0.722473 0.170624 0.000000
0.759674 0.170593 0.000000
0.799255 0.170532 0.000000
0.838928 0.170502 0.000000
0.877991 0.170441 0.000000
0.910278 0.170471 0.000000
0.933594 0.170532 0.000000
0.956512 0.170593 0.000000
0.977844 0.170654 0.000000
0.990448 0.170807 0.000000
0.000000 0.203156 0.000000
0.009521 0.203308 0.000000
0.024536 0.203430 0.000000
0.049377 0.203491 0.000000
0.077667 0.203522 0.000000
0.108276 0.203522 0.000000
0.140381 0.203522 0.000000
0.170837 0.203552 0.000000
0.203552 0.203552 0.000000
0.236237 0.203552 0.000000
0.269318 0.203552 0.000000
0.302429 0.203552 0.000000
0.337799 0.203552 0.000000
0.373962 0.203522 0.000000
0.404999 0.203522 0.000000
0.435699 0.203552 0.000000
0.467560 0.203552 0.000000
0.500519 0.203552 0.000000
0.536865 0.203522 0.000000
0.572815 0.203522 0.000000
0.608124 0.203491 0.000000
0.644592 0.203461 0.000000
0.684052 0.203430 0.000000
0.722504 0.203369 0.000000
0.759705 0.203369 0.000000
0.799316 0.203308 0.000000
0.838959 0.203247 0.000000
0.878021 0.203217 0.000000
0.910217 0.203217 0.000000
0.933502 0.203278 0.000000
0.956451 0.203369 0.000000
0.977753 0.203430 0.000000
0.990265 0.203583 0.000000
0.000000 0.235809 0.000000
0.009369 0.235962 0.000000
0.024445 0.236084 0.000000
0.049316 0.236145 0.000000
0.077637 0.236176 0.000000
0.108246 0.236206 0.000000
0.140350 0.236206 0.000000
0.170837 0.236206 0.000000
0.203552 0.236237 0.000000
0.236237 0.236237 0.000000
0.269318 0.236237 0.000000
0.302460 0.236237 0.000000
0.337830 0.236206 0.000000
0.373962 0.236176 0.000000
0.404968 0.236206 0.000000
0.435669 0.236206 0.000000
0.467560 0.236237 0.000000
0.500549 0.236237 0.000000
0.536896 0.236206 0.000000
0.572845 0.236176 0.000000
0.608154 0.236176 0.000000
0.644623 0.236145 0.000000
0.684113 0.236115 0.000000
0.722534 0.236053 0.000000
0.759735 0.236023 0.000000
0.799377 0.235992 0.000000
0.839020 0.235931 0.000000
0.878052 0.235901 0.000000
0.910156 0.235901 0.000000
0.933441 0.235992 0.000000
0.956390 0.236053 0.000000
0.977631 0.236145 0.000000
0.990082 0.236267 0.000000
0.000000 0.268890 0.000000
0.009216 0.269043 0.000000
0.024353 0.269165 0.000000
0.049286 0.269226 0.000000
0.077637 0.269257 0.000000
0.108246 0.269287 0.000000
0.140350 0.269287 0.000000
0.170837 0.269318 0.000000
0.203552 0.269318 0.000000
0.236237 0.269318 0.000000
0.269318 0.269318 0.000000
0.302460 0.269318 0.000000
0.337860 0.269287 0.000000
0.373962 0.269287 0.000000
0.404968 0.269287 0.000000
0.435669 0.269318 0.000000
0.467560 0.269318 0.000000
0.500549 0.269318 0.000000
0.536926 0.269287 0.000000
0.572876 0.269287 0.000000
0.608154 0.269257 0.000000
0.644684 0.269257 0.000000
0.684143 0.269196 0.000000
0.722595 0.269165 0.000000
0.759766 0.269135 0.000000
0.799438 0.269104 0.000000
0.839050 0.269043 0.000000
0.878113 0.269012 0.000000
0.910095 0.269012 0.000000
0.933380 0.269073 0.000000
0.956329 0.269165 0.000000
0.977539 0.269226 0.000000
0.989899 0.269379 0.000000
0.000000 0.301971 0.000000
0.009064 0.302155 0.000000
0.024261 0.302277 0.000000
0.049255 0.302338 0.000000
0.077606 0.302368 0.000000
0.108246 0.302399 0.000000
0.140350 0.302399 0.000000
0.170837 0.302429 0.000000
0.203552 0.302429 0.000000
0.236237 0.302460 0.000000
0.269318 0.302460 0.000000
0.302460 0.302460 0.000000
0.337860 0.302460 0.000000
0.373962 0.302429 0.000000
0.404938 0.302460 0.000000
0.435638 0.302490 0.000000
0.467529 0.302490 0.000000
0.500549 0.302521 0.000000
0.536957 0.302490 0.000000
0.572876 0.302490 0.000000
0.608185 0.302490 0.000000
0.644714 0.302460 0.000000
0.684204 0.302429 0.000000
0.722626 0.302399 0.000000
0.759796 0.302368 0.000000
0.799500 0.302338 0.000000
0.839111 0.302307 0.000000
0.878143 0.302277 0.000000
0.910034 0.302307 0.000000
0.933319 0.302368 0.000000
0.956238 0.302460 0.000000
0.977417 0.302551 0.000000
0.989746 0.302704 0.000000
0.000000 0.337219 0.000000
0.008881 0.337402 0.000000
0.024170 0.337555 0.000000
0.049194 0.337616 0.000000
0.077576 0.337677 0.000000
0.108215 0.337708 0.000000
0.140320 0.337738 0.000000
0.170807 0.337799 0.000000
0.203552 0.337799 0.000000
0.236206 0.337830 0.000000
0.269287 0.337860 0.000000
0.302460 0.337860 0.000000
0.337891 0.337891 0.000000
0.373962 0.337860 0.000000
0.404907 0.337921 0.000000
0.435608 0.337952 0.000000
0.467529 0.337982 0.000000
0.500549 0.337982 0.000000
0.536957 0.337982 0.000000
0.572876 0.337982 0.000000
0.608185 0.337982 0.000000
0.644714 0.337982 0.000000
0.684235 0.337952 0.000000
0.722626 0.337952 0.000000
0.759796 0.337921 0.000000
0.799530 0.337921 0.000000
0.839142 0.337891 0.000000
0.878143 0.337860 0.000000
0.909943 0.337891 0.000000
0.933228 0.337982 0.000000
0.956146 0.338074 0.000000
0.977295 0.338165 0.000000
0.989532 0.338348 0.000000
0.000000 0.373474 0.000000
0.008728 0.373657 0.000000
0.024078 0.373779 0.000000
0.049133 0.373840 0.000000
0.077545 0.373871 0.000000
0.108185 0.373901 0.000000
0.140289 0.373901 0.000000
0.170776 0.373932 0.000000
0.203522 0.373962 0.000000
0.236176 0.373962 0.000000
0.269287 0.373962 0.000000
0.302429 0.373962 0.000000
0.337860 0.373962 0.000000
0.373932 0.373932 0.000000
0.404877 0.373962 0.000000
0.435577 0.373962 0.000000
0.467499 0.373962 0.000000
0.500549 0.373962 0.000000
0.536957 0.373962 0.000000
0.572876 0.373932 0.000000
0.608154 0.373901 0.000000
0.644745 0.373901 0.000000
0.684235 0.373840 0.000000
0.722656 0.373810 0.000000
0.759827 0.373779 0.000000
0.799561 0.373718 0.000000
0.839142 0.373657 0.000000
0.878174 0.373627 0.000000
0.909882 0.373627 0.000000
0.933136 0.373688 0.000000
0.956085 0.373749 0.000000
0.977173 0.373810 0.000000
0.989349 0.373962 0.000000
0.000000 0.404724 0.000000
0.008575 0.404846 0.000000
0.023987 0.404968 0.000000
0.049133 0.404999 0.000000
0.077515 0.404999 0.000000
0.108185 0.404999 0.000000
0.140289 0.404999 0.000000
0.170776 0.404999 0.000000
0.203522 0.404999 0.000000
0.236206 0.404968 0.000000
0.269287 0.404968 0.000000
0.302460 0.404938 0.000000
0.337921 0.404907 0.000000
0.373962 0.404877 0.000000
0.404877 0.404877 0.000000
0.435577 0.404877 0.000000
0.467499 0.404846 0.000000
0.500580 0.404846 0.000000
0.537018 0.404816 0.000000
0.572906 0.404785 0.000000
0.608185 0.404755 0.000000
0.644806 0.404694 0.000000
0.684326 0.404633 0.000000
0.722717 0.404602 0.000000
0.759857 0.404541 0.000000
0.799622 0.404480 0.000000
0.839203 0.404419 0.000000
0.878235 0.404358 0.000000
0.909821 0.404358 0.000000
0.933075 0.404419 0.000000
0.956024 0.404480 0.000000
0.977081 0.404541 0.000000
0.989166 0.404663 0.000000
0.000000 0.435394 0.000000
0.008453 0.435547 0.000000
0.023926 0.435638 0.000000
0.049103 0.435669 0.000000
0.077515 0.435699 0.000000
0.108185 0.435699 0.000000
0.140289 0.435699 0.000000
0.170807 0.435699 0.000000
0.203552 0.435699 0.000000
0.236206 0.435669 0.000000
0.269318 0.435669 0.000000
0.302490 0.435638 0.000000
0.337952 0.435608 0.000000
0.373962 0.435577 0.000000
0.404877 0.435577 0.000000
0.435577 0.435577 0.000000
0.467529 0.435577 0.000000
0.500610 0.435547 0.000000
0.537048 0.435516 0.000000
0.572968 0.435486 0.000000
0.608246 0.435455 0.000000
0.644836 0.435425 0.000000
0.684387 0.435364 0.000000
0.722748 0.435303 0.000000
0.759918 0.435272 0.000000
0.799683 0.435211 0.000000
0.839264 0.435150 0.000000
0.878265 0.435089 0.000000
0.909790 0.435089 0.000000
0.933044 0.435150 0.000000
0.955963 0.435211 0.000000
0.976990 0.435272 0.000000
0.989014 0.435394 0.000000
0.000000 0.467163 0.000000
0.008301 0.467316 0.000000
0.023865 0.467438 0.000000
0.049072 0.467499 0.000000
0.077515 0.467529 0.000000
0.108185 0.467529 0.000000
0.140289 0.467529 0.000000
0.170807 0.467560 0.000000
0.203552 0.467560 0.000000
0.236237 0.467560 0.000000
0.269318 0.467560 0.000000
0.302490 0.467529 0.000000
0.337982 0.467529 0.000000
0.373962 0.467499 0.000000
0.404846 0.467499 0.000000
0.435577 0.467529 0.000000
0.467529 0.467529 0.000000
0.500610 0.467529 0.000000
0.537079 0.467499 0.000000
0.572998 0.467468 0.000000
0.608246 0.467468 0.000000
0.644897 0.467438 0.000000
0.684418 0.467377 0.000000
0.722809 0.467346 0.000000
0.759949 0.467316 0.000000
0.799744 0.467255 0.000000
0.839325 0.467224 0.000000
0.878326 0.467163 0.000000
0.909729 0.467194 0.000000
0.932983 0.467255 0.000000
0.955902 0.467316 0.000000
0.976898 0.467407 0.000000
0.988831 0.467529 0.000000
0.000000 0.500061 0.000000
0.008179 0.500214 0.000000
0.023773 0.500336 0.000000
0.049042 0.500397 0.000000
0.077484 0.500458 0.000000
0.108185 0.500488 0.000000
0.140289 0.500488 0.000000
0.170807 0.500519 0.000000
0.203552 0.500519 0.000000
0.236237 0.500549 0.000000
0.269318 0.500549 0.000000
0.302521 0.500549 0.000000
0.337982 0.500549 0.000000
0.373962 0.500549 0.000000
0.404846 0.500580 0.000000
0.435547 0.500610 0.000000
0.467529 0.500610 0.000000
0.500641 0.500641 0.000000
0.537109 0.500610 0.000000
0.572998 0.500610 0.000000
0.608276 0.500610 0.000000
0.644928 0.500610 0.000000
0.684479 0.500580 0.000000
0.722839 0.500549 0.000000
0.759979 0.500519 0.000000
0.799805 0.500488 0.000000
0.839355 0.500458 0.000000
0.878357 0.500458 0.000000
0.909668 0.500458 0.000000
0.932892 0.500549 0.000000
0.955841 0.500641 0.000000
0.976776 0.500732 0.000000
0.988647 0.500916 0.000000
0.000000 0.536255 0.000000
0.007996 0.536438 0.000000
0.023682 0.536560 0.000000
0.048981 0.536652 0.000000
0.077454 0.536713 0.000000
0.108154 0.536774 0.000000
0.140259 0.536804 0.000000
0.170776 0.536835 0.000000
0.203522 0.536865 0.000000
0.236206 0.536896 0.000000
0.269287 0.536926 0.000000
0.302490 0.536957 0.000000
0.337982 0.536957 0.000000
0.373962 0.536957 0.000000
0.404816 0.537018 0.000000
0.435516 0.537048 0.000000
0.467499 0.537079 0.000000
0.500610 0.537109 0.000000
0.537109 0.537109 0.000000
0.572998 0.537109 0.000000
0.608276 0.537140 0.000000
0.644928 0.537140 0.000000
0.684509 0.537109 0.000000
0.722839 0.537109 0.000000
0.759979 0.537079 0.000000
0.799835 0.537079 0.000000
0.839386 0.537048 0.000000
0.878357 0.537018 0.000000
0.909576 0.537079 0.000000
0.932800 0.537170 0.000000
0.955719 0.537262 0.000000
0.976654 0.537354 0.000000
0.988434 0.537537 0.000000
0.000000 0.572266 0.000000
0.007812 0.572449 0.000000
0.023560 0.572571 0.000000
0.048920 0.572662 0.000000
0.077423 0.572693 0.000000
0.108124 0.572754 0.000000
0.140198 0.572754 0.000000
0.170746 0.572815 0.000000
0.203522 0.572815 0.000000
0.236176 0.572845 0.000000
0.269287 0.572876 0.000000
0.302490 0.572876 0.000000
0.337982 0.572876 0.000000
0.373932 0.572876 0.000000
0.404785 0.572906 0.000000
0.435486 0.572968 0.000000
0.467468 0.572998 0.000000
0.500610 0.572998 0.000000
0.537109 0.572998 0.000000
0.572998 0.572998 0.000000
0.608276 0.572998 0.000000
0.644958 0.572998 0.000000
0.684509 0.572968 0.000000
0.722870 0.572968 0.000000
0.760010 0.572937 0.000000
0.799866 0.572906 0.000000
0.839417 0.572876 0.000000
0.878387 0.572876 0.000000
0.909515 0.572906 0.000000
0.932709 0.572998 0.000000
0.955658 0.573090 0.000000
0.976501 0.573181 0.000000
0.988251 0.573334 0.000000
0.000000 0.607605 0.000000
0.007660 0.607758 0.000000
0.023468 0.607910 0.000000
0.048859 0.607971 0.000000
0.077393 0.608002 0.000000
0.108093 0.608063 0.000000
0.140198 0.608063 0.000000
0.170746 0.608093 0.000000
0.203491 0.608124 0.000000
0.236176 0.608154 0.000000
0.269257 0.608154 0.000000
0.302490 0.608185 0.000000
0.337982 0.608185 0.000000
0.373901 0.608154 0.000000
0.404755 0.608185 0.000000
0.435455 0.608246 0.000000
0.467468 0.608246 0.000000
0.500610 0.608276 0.000000
0.537140 0.608276 0.000000
0.572998 0.608276 0.000000
0.608276 0.608276 0.000000
0.644958 0.608246 0.000000
0.684540 0.608215 0.000000
0.722870 0.608215 0.000000
0.760010 0.608185 0.000000
0.799896 0.608154 0.000000
0.839447 0.608154 0.000000
0.878387 0.608124 0.000000
0.909424 0.608154 0.000000
0.932648 0.608246 0.000000
0.955566 0.608307 0.000000
0.976379 0.608429 0.000000
0.988037 0.608582 0.000000
0.000000 0.643921 0.000000
0.007507 0.644104 0.000000
0.023376 0.644257 0.000000
0.048798 0.644348 0.000000
0.077332 0.644409 0.000000
0.108063 0.644470 0.000000
0.140137 0.644501 0.000000
0.170715 0.644562 0.000000
0.203461 0.644592 0.000000
0.236145 0.644623 0.000000
0.269257 0.644684 0.000000
0.302460 0.644714 0.000000
0.337982 0.644714 0.000000
0.373901 0.644745 0.000000
0.404694 0.644806 0.000000
0.435425 0.644836 0.000000
0.467438 0.644897 0.000000
0.500610 0.644928 0.000000
0.537140 0.644928 0.000000
0.572998 0.644958 0.000000
0.608246 0.644958 0.000000
0.644989 0.644989 0.000000
0.684570 0.644989 0.000000
0.722900 0.644989 0.000000
0.760040 0.644989 0.000000
0.799927 0.644989 0.000000
0.839447 0.644958 0.000000
0.878418 0.644958 0.000000
0.909332 0.645020 0.000000
0.932556 0.645111 0.000000
0.955475 0.645233 0.000000
0.976257 0.645355 0.000000
0.987823 0.645538 0.000000
0.000000 0.683258 0.000000
0.007294 0.683472 0.000000
0.023254 0.683624 0.000000
0.048737 0.683746 0.000000
0.077271 0.683807 0.000000
0.108002 0.683868 0.000000
0.140106 0.683929 0.000000
0.170654 0.683990 0.000000
0.203430 0.684052 0.000000
0.236115 0.684113 0.000000
0.269196 0.684143 0.000000
0.302429 0.684204 0.000000
0.337952 0.684235 0.000000
0.373840 0.684235 0.000000
0.404633 0.684326 0.000000
0.435364 0.684387 0.000000
0.467377 0.684418 0.000000
0.500580 0.684479 0.000000
0.537109 0.684509 0.000000
0.572968 0.684509 0.000000
0.608215 0.684540 0.000000
0.644989 0.684570 0.000000
0.684570 0.684570 0.000000
0.722870 0.684570 0.000000
0.760010 0.684601 0.000000
0.799957 0.684601 0.000000
0.839447 0.684601 0.000000
0.878387 0.684601 0.000000
0.909241 0.684662 0.000000
0.932434 0.684784 0.000000
0.955353 0.684875 0.000000
0.976105 0.684998 0.000000
0.987610 0.685211 0.000000
0.000000 0.721832 0.000000
0.007111 0.722015 0.000000
0.023132 0.722168 0.000000
0.048645 0.722260 0.000000
0.077209 0.722321 0.000000
0.107971 0.722382 0.000000
0.140045 0.722412 0.000000
0.170624 0.722473 0.000000
0.203369 0.722504 0.000000
0.236053 0.722534 0.000000
0.269165 0.722595 0.000000
0.302399 0.722626 0.000000
0.337952 0.722626 0.000000
0.373810 0.722656 0.000000
0.404602 0.722717 0.000000
0.435303 0.722748 0.000000
0.467346 0.722809 0.000000
0.500549 0.722839 0.000000
0.537109 0.722839 0.000000
0.572968 0.722870 0.000000
0.608215 0.722870 0.000000
0.644989 0.722900 0.000000
0.684570 0.722870 0.000000
0.722870 0.722870 0.000000
0.760010 0.722870 0.000000
0.799957 0.722870 0.000000
0.839478 0.722870 0.000000
0.878387 0.722839 0.000000
0.909119 0.722900 0.000000
0.932312 0.722992 0.000000
0.955231 0.723114 0.000000
0.975952 0.723236 0.000000
0.987396 0.723419 0.000000
0.000000 0.759064 0.000000
0.006958 0.759247 0.000000
0.023010 0.759399 0.000000
0.048584 0.759491 0.000000
0.077179 0.759552 0.000000
0.107941 0.759583 0.000000
0.139984 0.759613 0.000000
0.170593 0.759674 0.000000
0.203369 0.759705 0.000000
0.236023 0.759735 0.000000
0.269135 0.759766 0.000000
0.302368 0.759796 0.000000
0.337921 0.759796 0.000000
0.373779 0.759827 0.000000
0.404541 0.759857 0.000000
0.435272 0.759918 0.000000
0.467316 0.759949 0.000000
0.500519 0.759979 0.000000
0.537079 0.759979 0.000000
0.572937 0.760010 0.000000
0.608185 0.760010 0.000000
0.644989 0.760040 0.000000
0.684601 0.760010 0.000000
0.722870 0.760010 0.000000
0.760010 0.760010 0.000000
0.799988 0.760010 0.000000
0.839478 0.759979 0.000000
0.878418 0.759979 0.000000
0.909027 0.760040 0.000000
0.932220 0.760132 0.000000
0.955139 0.760254 0.000000
0.975800 0.760376 0.000000
0.987183 0.760559 0.000000
0.000000 0.798492 0.000000
0.006744 0.798706 0.000000
0.022888 0.798859 0.000000
0.048523 0.798981 0.000000
0.077118 0.799072 0.000000
0.107880 0.799133 0.000000
0.139954 0.799194 0.000000
0.170532 0.799255 0.000000
0.203308 0.799316 0.000000
0.235992 0.799377 0.000000
0.269104 0.799438 0.000000
0.302338 0.799500 0.000000
0.337921 0.799530 0.000000
0.373718 0.799561 0.000000
0.404480 0.799622 0.000000
0.435211 0.799683 0.000000
0.467255 0.799744 0.000000
0.500488 0.799805 0.000000
0.537079 0.799835 0.000000
0.572906 0.799866 0.000000
0.608154 0.799896 0.000000
0.644989 0.799927 0.000000
0.684601 0.799957 0.000000
0.722870 0.799957 0.000000
0.760010 0.799988 0.000000
0.799988 0.799988 0.000000
0.839478 0.799988 0.000000
0.878387 0.800018 0.000000
0.908936 0.800079 0.000000
0.932098 0.800201 0.000000
0.955017 0.800323 0.000000
0.975647 0.800446 0.000000
0.986938 0.800659 0.000000
0.000000 0.838226 0.000000
0.006561 0.838409 0.000000
0.022766 0.838562 0.000000
0.048431 0.838684 0.000000
0.077057 0.838745 0.000000
0.107819 0.838806 0.000000
0.139893 0.838867 0.000000
0.170502 0.838928 0.000000
0.203247 0.838959 0.000000
0.235931 0.839020 0.000000
0.269043 0.839050 0.000000
0.302307 0.839111 0.000000
0.337891 0.839142 0.000000
0.373657 0.839142 0.000000
0.404419 0.839203 0.000000
0.435150 0.839264 0.000000
0.467224 0.839325 0.000000
0.500458 0.839355 0.000000
0.537048 0.839386 0.000000
0.572876 0.839417 0.000000
0.608154 0.839447 0.000000
