Kodak Vision 500T (5279) - Only contrast.cube
# Created by Benjamin (IWLTBAP) : http://luts.iwltbap.com
# Copyright: (C) Copyright 2010-2017 Triune Films and IWLTBAP SAS
# Cannot be resold, shared or otherwise redistributed
TITLE "Film Print Emulation LUTs Pack (Rec.709, sRGB, DCI-P3)"
LUT_3D_SIZE 33
0.000702 0.000702 0.000702
0.027405 0.000702 0.000702
0.044617 0.000763 0.000763
0.061615 0.000854 0.000854
0.081085 0.000916 0.000916
0.100403 0.000946 0.000946
0.121918 0.001007 0.001007
0.144775 0.001038 0.001038
0.169037 0.001068 0.001068
0.195068 0.001099 0.001099
0.223297 0.001099 0.001099
0.253418 0.001068 0.001068
0.288605 0.001038 0.001038
0.326477 0.000977 0.000977
0.363342 0.000916 0.000916
0.401123 0.000824 0.000824
0.440460 0.000763 0.000763
0.480103 0.000702 0.000702
0.519043 0.000610 0.000610
0.557281 0.000549 0.000549
0.593353 0.000488 0.000488
0.629150 0.000458 0.000458
0.663971 0.000397 0.000397
0.698090 0.000366 0.000366
0.730713 0.000336 0.000336
0.761078 0.000336 0.000336
0.790344 0.000336 0.000336
0.816345 0.000336 0.000336
0.839386 0.000397 0.000397
0.861053 0.000427 0.000427
0.881226 0.000488 0.000488
0.899872 0.000580 0.000580
0.916260 0.000641 0.000641
0.000702 0.027405 0.000702
0.027344 0.027344 0.000732
0.044556 0.027344 0.000793
0.061554 0.027374 0.000854
0.081024 0.027374 0.000916
0.100342 0.027344 0.000977
0.121887 0.027344 0.001007
0.144745 0.027313 0.001038
0.169006 0.027252 0.001099
0.195068 0.027222 0.001099
0.223297 0.027161 0.001099
0.253448 0.027069 0.001099
0.288696 0.026947 0.001038
0.326569 0.026825 0.000977
0.363403 0.026672 0.000916
0.401215 0.026550 0.000854
0.440552 0.026398 0.000793
0.480194 0.026245 0.000702
0.519135 0.026123 0.000641
0.557343 0.025970 0.000580
0.593414 0.025848 0.000519
0.629211 0.025726 0.000458
0.664032 0.025604 0.000427
0.698151 0.025513 0.000397
0.730743 0.025391 0.000366
0.761139 0.025330 0.000336
0.790375 0.025238 0.000336
0.816345 0.025177 0.000366
0.839355 0.025146 0.000397
0.861023 0.025116 0.000458
0.881195 0.025116 0.000519
0.899841 0.025116 0.000580
0.916199 0.025116 0.000671
0.000763 0.044617 0.000763
0.027344 0.044556 0.000793
0.044556 0.044556 0.000854
0.061554 0.044556 0.000916
0.081055 0.044556 0.000977
0.100372 0.044525 0.001038
0.121918 0.044495 0.001099
0.144806 0.044464 0.001129
0.169067 0.044403 0.001160
0.195129 0.044342 0.001160
0.223389 0.044250 0.001160
0.253540 0.044159 0.001160
0.288818 0.044037 0.001099
0.326721 0.043884 0.001038
0.363556 0.043762 0.000977
0.401367 0.043610 0.000916
0.440704 0.043457 0.000854
0.480347 0.043274 0.000763
0.519287 0.043121 0.000702
0.557495 0.042999 0.000641
0.593536 0.042847 0.000580
0.629333 0.042725 0.000519
0.664154 0.042603 0.000488
0.698273 0.042480 0.000458
0.730835 0.042358 0.000427
0.761200 0.042267 0.000427
0.790436 0.042175 0.000427
0.816406 0.042114 0.000427
0.839386 0.042053 0.000488
0.861053 0.042023 0.000519
0.881226 0.041992 0.000580
0.899841 0.041992 0.000671
0.916168 0.041992 0.000763
0.000854 0.061615 0.000854
0.027374 0.061554 0.000854
0.044556 0.061554 0.000916
0.061584 0.061584 0.001007
0.081055 0.061554 0.001068
0.100403 0.061554 0.001129
0.121948 0.061554 0.001160
0.144836 0.061523 0.001190
0.169128 0.061462 0.001221
0.195221 0.061432 0.001251
0.223480 0.061371 0.001251
0.253662 0.061279 0.001221
0.288971 0.061157 0.001190
0.326843 0.061035 0.001129
0.363678 0.060913 0.001068
0.401520 0.060791 0.001007
0.440857 0.060638 0.000916
0.480499 0.060516 0.000854
0.519440 0.060364 0.000763
0.557617 0.060242 0.000702
0.593689 0.060120 0.000671
0.629456 0.059998 0.000610
0.664246 0.059906 0.000580
0.698395 0.059784 0.000549
0.730927 0.059692 0.000519
0.761292 0.059631 0.000488
0.790527 0.059540 0.000488
0.816437 0.059509 0.000519
0.839417 0.059479 0.000549
0.861084 0.059448 0.000610
0.881226 0.059448 0.000671
0.899841 0.059448 0.000763
0.916168 0.059479 0.000824
0.000916 0.081085 0.000916
0.027374 0.081024 0.000916
0.044556 0.081055 0.000977
0.061554 0.081055 0.001068
0.081055 0.081055 0.001129
0.100403 0.081055 0.001190
0.121979 0.081055 0.001221
0.144867 0.081024 0.001251
0.169159 0.080994 0.001282
0.195282 0.080963 0.001312
0.223541 0.080902 0.001312
0.253754 0.080811 0.001282
0.289093 0.080719 0.001251
0.326996 0.080566 0.001190
0.363800 0.080444 0.001129
0.401672 0.080322 0.001068
0.440979 0.080200 0.001007
0.480652 0.080048 0.000916
0.519562 0.079926 0.000854
0.557739 0.079773 0.000763
0.593781 0.079681 0.000732
0.629578 0.079559 0.000671
0.664368 0.079437 0.000641
0.698486 0.079346 0.000610
0.731018 0.079254 0.000580
0.761383 0.079163 0.000580
0.790588 0.079102 0.000580
0.816467 0.079071 0.000580
0.839447 0.079041 0.000641
0.861084 0.079010 0.000671
0.881226 0.079010 0.000732
0.899811 0.079010 0.000824
0.916138 0.079041 0.000916
0.000946 0.100403 0.000946
0.027344 0.100342 0.000977
0.044525 0.100372 0.001038
0.061554 0.100403 0.001129
0.081055 0.100403 0.001190
0.100403 0.100403 0.001251
0.121979 0.100372 0.001282
0.144897 0.100342 0.001312
0.169220 0.100311 0.001343
0.195312 0.100281 0.001373
0.223602 0.100220 0.001373
0.253845 0.100159 0.001373
0.289215 0.100037 0.001312
0.327118 0.099915 0.001251
0.363922 0.099792 0.001190
0.401794 0.099670 0.001129
0.441132 0.099518 0.001068
0.480774 0.099396 0.000977
0.519714 0.099274 0.000916
0.557861 0.099152 0.000854
0.593903 0.099030 0.000793
0.629700 0.098907 0.000732
0.664459 0.098816 0.000702
0.698578 0.098724 0.000671
0.731079 0.098633 0.000641
0.761444 0.098572 0.000641
0.790649 0.098511 0.000641
0.816498 0.098480 0.000641
0.839478 0.098450 0.000702
0.861115 0.098450 0.000732
0.881226 0.098450 0.000793
0.899811 0.098450 0.000885
0.916107 0.098480 0.000977
0.001007 0.121918 0.001007
0.027344 0.121887 0.001007
0.044495 0.121918 0.001099
0.061554 0.121948 0.001160
0.081055 0.121979 0.001221
0.100372 0.121979 0.001282
0.122009 0.122009 0.001343
0.144897 0.122009 0.001373
0.169220 0.121979 0.001404
0.195374 0.121948 0.001404
0.223663 0.121918 0.001434
0.253906 0.121857 0.001404
0.289307 0.121765 0.001373
0.327209 0.121674 0.001312
0.364044 0.121582 0.001251
0.401917 0.121460 0.001190
0.441254 0.121338 0.001099
0.480896 0.121216 0.001038
0.519836 0.121124 0.000977
0.557983 0.121002 0.000916
0.593994 0.120911 0.000854
0.629791 0.120819 0.000793
0.664551 0.120728 0.000763
0.698669 0.120667 0.000702
0.731140 0.120575 0.000702
0.761505 0.120544 0.000671
0.790680 0.120483 0.000671
0.816498 0.120453 0.000702
0.839478 0.120453 0.000732
0.861084 0.120483 0.000793
0.881195 0.120483 0.000854
0.899780 0.120514 0.000916
0.916046 0.120544 0.001007
0.001038 0.144775 0.001038
0.027313 0.144745 0.001038
0.044464 0.144806 0.001129
0.061523 0.144836 0.001190
0.081024 0.144867 0.001251
0.100342 0.144897 0.001312
0.122009 0.144897 0.001373
0.144928 0.144928 0.001404
0.169250 0.144897 0.001434
0.195404 0.144897 0.001465
0.223694 0.144867 0.001465
0.253998 0.144806 0.001465
0.289398 0.144714 0.001404
0.327332 0.144623 0.001343
0.364136 0.144531 0.001282
0.402008 0.144440 0.001221
0.441376 0.144318 0.001160
0.481018 0.144226 0.001068
0.519928 0.144104 0.001007
0.558075 0.144012 0.000946
0.594086 0.143921 0.000885
0.629883 0.143829 0.000854
0.664612 0.143768 0.000793
0.698730 0.143677 0.000763
0.731201 0.143616 0.000732
0.761536 0.143585 0.000732
0.790710 0.143555 0.000732
0.816528 0.143524 0.000732
0.839478 0.143524 0.000793
0.861084 0.143555 0.000824
0.881165 0.143585 0.000916
0.899750 0.143616 0.000977
0.916016 0.143646 0.001068
0.001068 0.169037 0.001068
0.027252 0.169006 0.001099
0.044403 0.169067 0.001160
0.061462 0.169128 0.001221
0.080994 0.169159 0.001282
0.100311 0.169220 0.001343
0.121979 0.169220 0.001404
0.144897 0.169250 0.001434
0.169250 0.169250 0.001465
0.195404 0.169250 0.001495
0.223724 0.169220 0.001495
0.254028 0.169189 0.001495
0.289490 0.169098 0.001434
0.327423 0.169037 0.001373
0.364227 0.168945 0.001312
0.402130 0.168854 0.001251
0.441467 0.168762 0.001190
0.481140 0.168671 0.001099
0.520020 0.168549 0.001038
0.558167 0.168457 0.000977
0.594177 0.168396 0.000916
0.629944 0.168335 0.000885
0.664673 0.168274 0.000824
0.698792 0.168213 0.000793
0.731232 0.168152 0.000763
0.761566 0.168121 0.000763
0.790741 0.168091 0.000763
0.816498 0.168091 0.000763
0.839447 0.168091 0.000824
0.861053 0.168121 0.000885
0.881134 0.168152 0.000946
0.899689 0.168213 0.001007
0.915924 0.168274 0.001099
0.001099 0.195068 0.001099
0.027222 0.195068 0.001099
0.044342 0.195129 0.001160
0.061432 0.195221 0.001251
0.080963 0.195282 0.001312
0.100281 0.195312 0.001373
0.121948 0.195374 0.001404
0.144897 0.195404 0.001465
0.169250 0.195404 0.001495
0.195404 0.195404 0.001495
0.223755 0.195404 0.001526
0.254089 0.195404 0.001495
0.289581 0.195343 0.001465
0.327484 0.195251 0.001373
0.364288 0.195190 0.001343
0.402222 0.195129 0.001282
0.441559 0.195038 0.001190
0.481232 0.194946 0.001129
0.520111 0.194885 0.001038
0.558228 0.194794 0.000977
0.594238 0.194733 0.000946
0.630005 0.194672 0.000885
0.664734 0.194641 0.000854
0.698853 0.194580 0.000824
0.731262 0.194550 0.000793
0.761597 0.194519 0.000793
0.790741 0.194519 0.000793
0.816498 0.194519 0.000793
0.839417 0.194550 0.000854
0.861023 0.194611 0.000916
0.881104 0.194641 0.000977
0.899628 0.194702 0.001038
0.915863 0.194794 0.001129
0.001099 0.223297 0.001099
0.027161 0.223297 0.001099
0.044250 0.223389 0.001160
0.061371 0.223480 0.001251
0.080902 0.223541 0.001312
0.100220 0.223602 0.001373
0.121918 0.223663 0.001434
0.144867 0.223694 0.001465
0.169220 0.223724 0.001495
0.195404 0.223755 0.001526
0.223755 0.223755 0.001526
0.254120 0.223755 0.001495
0.289642 0.223694 0.001465
0.327545 0.223633 0.001404
0.364349 0.223572 0.001343
0.402283 0.223511 0.001282
0.441650 0.223450 0.001190
0.481293 0.223389 0.001129
0.520172 0.223297 0.001068
0.558289 0.223236 0.001007
0.594299 0.223206 0.000946
0.630066 0.223145 0.000885
0.664764 0.223114 0.000854
0.698883 0.223083 0.000824
0.731293 0.223053 0.000793
0.761627 0.223053 0.000793
0.790741 0.223053 0.000793
0.816467 0.223053 0.000824
0.839386 0.223114 0.000854
0.860962 0.223175 0.000916
0.881012 0.223236 0.000977
0.899567 0.223297 0.001038
0.915771 0.223389 0.001129
0.001068 0.253418 0.001068
0.027069 0.253448 0.001099
0.044159 0.253540 0.001160
0.061279 0.253662 0.001221
0.080811 0.253754 0.001282
0.100159 0.253845 0.001373
0.121857 0.253906 0.001404
0.144806 0.253998 0.001465
0.169189 0.254028 0.001495
0.195404 0.254089 0.001495
0.223755 0.254120 0.001495
0.254150 0.254150 0.001495
0.289703 0.254120 0.001434
0.327606 0.254089 0.001373
0.364410 0.254059 0.001312
0.402344 0.254028 0.001251
0.441711 0.253967 0.001190
0.481354 0.253937 0.001099
0.520233 0.253906 0.001038
0.558350 0.253876 0.000977
0.594330 0.253845 0.000946
0.630096 0.253815 0.000885
0.664795 0.253815 0.000854
0.698914 0.253815 0.000793
0.731293 0.253815 0.000793
0.761597 0.253845 0.000763
0.790741 0.253876 0.000763
0.816406 0.253937 0.000793
0.839325 0.253998 0.000854
0.860901 0.254089 0.000885
0.880951 0.254181 0.000946
0.899445 0.254303 0.001038
0.915649 0.254425 0.001129
0.001038 0.288605 0.001038
0.026947 0.288696 0.001038
0.044037 0.288818 0.001099
0.061157 0.288971 0.001190
0.080719 0.289093 0.001251
0.100037 0.289215 0.001312
0.121765 0.289307 0.001373
0.144714 0.289398 0.001404
0.169098 0.289490 0.001434
0.195343 0.289581 0.001465
0.223694 0.289642 0.001465
0.254120 0.289703 0.001434
0.289703 0.289703 0.001404
0.327637 0.289703 0.001343
0.364410 0.289703 0.001282
0.402374 0.289703 0.001221
0.441742 0.289703 0.001129
0.481384 0.289673 0.001068
0.520264 0.289673 0.001007
0.558350 0.289673 0.000946
0.594330 0.289673 0.000885
0.630096 0.289673 0.000824
0.664795 0.289703 0.000793
0.698914 0.289734 0.000763
0.731262 0.289764 0.000732
0.761566 0.289825 0.000732
0.790680 0.289886 0.000732
0.816315 0.289948 0.000763
0.839233 0.290070 0.000793
0.860779 0.290161 0.000854
0.880829 0.290283 0.000916
0.899323 0.290436 0.000977
0.915527 0.290588 0.001068
0.000977 0.326477 0.000977
0.026825 0.326569 0.000977
0.043884 0.326721 0.001038
0.061035 0.326843 0.001129
0.080566 0.326996 0.001190
0.099915 0.327118 0.001251
0.121674 0.327209 0.001312
0.144623 0.327332 0.001343
0.169037 0.327423 0.001373
0.195251 0.327484 0.001373
0.223633 0.327545 0.001404
0.254089 0.327606 0.001373
0.289703 0.327637 0.001343
0.327606 0.327606 0.001282
0.364410 0.327637 0.001221
0.402374 0.327637 0.001160
0.441742 0.327606 0.001068
0.481415 0.327606 0.001007
0.520264 0.327576 0.000946
0.558350 0.327576 0.000854
0.594299 0.327606 0.000824
0.630096 0.327606 0.000763
0.664764 0.327637 0.000732
0.698883 0.327637 0.000702
0.731201 0.327667 0.000671
0.761505 0.327728 0.000671
0.790588 0.327789 0.000671
0.816223 0.327881 0.000702
0.839111 0.327972 0.000732
0.860657 0.328064 0.000793
0.880707 0.328186 0.000854
0.899200 0.328308 0.000916
0.915344 0.328461 0.001007
0.000916 0.363342 0.000916
0.026672 0.363403 0.000916
0.043762 0.363556 0.000977
0.060913 0.363678 0.001068
0.080444 0.363800 0.001129
0.099792 0.363922 0.001190
0.121582 0.364044 0.001251
0.144531 0.364136 0.001282
0.168945 0.364227 0.001312
0.195190 0.364288 0.001343
0.223572 0.364349 0.001343
0.254059 0.364410 0.001312
0.289703 0.364410 0.001282
0.327637 0.364410 0.001221
0.364410 0.364410 0.001160
0.402374 0.364410 0.001099
0.441772 0.364380 0.001007
0.481415 0.364380 0.000946
0.520264 0.364349 0.000885
0.558350 0.364349 0.000824
0.594299 0.364349 0.000763
0.630066 0.364380 0.000732
0.664734 0.364380 0.000671
0.698853 0.364410 0.000641
0.731171 0.364441 0.000610
0.761444 0.364502 0.000610
0.790527 0.364563 0.000610
0.816132 0.364655 0.000641
0.839020 0.364746 0.000671
0.860565 0.364868 0.000732
0.880585 0.364990 0.000793
0.899048 0.365112 0.000854
0.915222 0.365265 0.000946
0.000824 0.401123 0.000824
0.026550 0.401215 0.000854
0.043610 0.401367 0.000916
0.060791 0.401520 0.001007
0.080322 0.401672 0.001068
0.099670 0.401794 0.001129
0.121460 0.401917 0.001190
0.144440 0.402008 0.001221
0.168854 0.402130 0.001251
0.195129 0.402222 0.001282
0.223511 0.402283 0.001282
0.254028 0.402344 0.001251
0.289703 0.402374 0.001221
0.327637 0.402374 0.001160
0.364410 0.402374 0.001099
0.402405 0.402405 0.001038
0.441772 0.402405 0.000946
0.481445 0.402374 0.000885
0.520264 0.402374 0.000824
0.558319 0.402405 0.000763
0.594299 0.402405 0.000702
0.630066 0.402435 0.000671
0.664703 0.402466 0.000610
0.698822 0.402496 0.000580
0.731110 0.402557 0.000549
0.761414 0.402618 0.000549
0.790466 0.402679 0.000549
0.816040 0.402771 0.000580
0.838898 0.402893 0.000610
0.860443 0.403015 0.000671
0.880432 0.403137 0.000732
0.898926 0.403290 0.000793
0.915039 0.403442 0.000885
0.000763 0.440460 0.000763
0.026398 0.440552 0.000793
0.043457 0.440704 0.000854
0.060638 0.440857 0.000916
0.080200 0.440979 0.001007
0.099518 0.441132 0.001068
0.121338 0.441254 0.001099
0.144318 0.441376 0.001160
0.168762 0.441467 0.001190
0.195038 0.441559 0.001190
0.223450 0.441650 0.001190
0.253967 0.441711 0.001190
0.289703 0.441742 0.001129
0.327606 0.441742 0.001068
0.364380 0.441772 0.001007
0.402405 0.441772 0.000946
0.441772 0.441772 0.000885
0.481445 0.441772 0.000824
0.520264 0.441772 0.000732
0.558319 0.441772 0.000671
0.594269 0.441803 0.000641
0.630035 0.441833 0.000580
0.664673 0.441864 0.000549
0.698792 0.441895 0.000519
0.731049 0.441956 0.000488
0.761322 0.442017 0.000488
0.790375 0.442108 0.000488
0.815918 0.442200 0.000488
0.838776 0.442322 0.000549
0.860321 0.442444 0.000610
0.880310 0.442566 0.000671
0.898773 0.442719 0.000732
0.914886 0.442871 0.000824
0.000702 0.480103 0.000702
0.026245 0.480194 0.000702
0.043274 0.480347 0.000763
0.060516 0.480499 0.000854
0.080048 0.480652 0.000916
0.099396 0.480774 0.000977
0.121216 0.480896 0.001038
0.144226 0.481018 0.001068
0.168671 0.481140 0.001099
0.194946 0.481232 0.001129
0.223389 0.481293 0.001129
0.253937 0.481354 0.001099
0.289673 0.481384 0.001068
0.327606 0.481415 0.001007
0.364380 0.481415 0.000946
0.402374 0.481445 0.000885
0.441772 0.481445 0.000824
0.481445 0.481445 0.000732
0.520264 0.481445 0.000671
0.558289 0.481445 0.000610
0.594238 0.481476 0.000549
0.630005 0.481506 0.000519
0.664642 0.481537 0.000488
0.698761 0.481567 0.000427
0.730988 0.481628 0.000427
0.761261 0.481689 0.000397
0.790314 0.481750 0.000397
0.815826 0.481873 0.000427
0.838654 0.481964 0.000458
0.860168 0.482117 0.000519
0.880157 0.482239 0.000580
0.898590 0.482391 0.000671
0.914703 0.482544 0.000732
0.000610 0.519043 0.000610
0.026123 0.519135 0.000641
0.043121 0.519287 0.000702
0.060364 0.519440 0.000763
0.079926 0.519562 0.000854
0.099274 0.519714 0.000916
0.121124 0.519836 0.000977
0.144104 0.519928 0.001007
0.168549 0.520020 0.001038
0.194885 0.520111 0.001038
0.223297 0.520172 0.001068
0.253906 0.520233 0.001038
0.289673 0.520264 0.001007
0.327576 0.520264 0.000946
0.364349 0.520264 0.000885
0.402374 0.520264 0.000824
0.441772 0.520264 0.000732
0.481445 0.520264 0.000671
0.520264 0.520264 0.000610
0.558289 0.520264 0.000549
0.594208 0.520264 0.000488
0.629974 0.520294 0.000458
0.664612 0.520325 0.000397
0.698730 0.520355 0.000366
0.730927 0.520386 0.000336
0.761200 0.520447 0.000336
0.790222 0.520508 0.000336
0.815704 0.520599 0.000366
0.838562 0.520721 0.000397
0.860046 0.520844 0.000458
0.880035 0.520966 0.000519
0.898468 0.521088 0.000580
0.914551 0.521271 0.000671
0.000549 0.557281 0.000549
0.025970 0.557343 0.000580
0.042999 0.557495 0.000641
0.060242 0.557617 0.000702
0.079773 0.557739 0.000763
0.099152 0.557861 0.000854
0.121002 0.557983 0.000916
0.144012 0.558075 0.000946
0.168457 0.558167 0.000977
0.194794 0.558228 0.000977
0.223236 0.558289 0.001007
0.253876 0.558350 0.000977
0.289673 0.558350 0.000946
0.327576 0.558350 0.000854
0.364349 0.558350 0.000824
0.402405 0.558319 0.000763
0.441772 0.558319 0.000671
0.481445 0.558289 0.000610
0.520264 0.558289 0.000549
0.558289 0.558289 0.000488
0.594208 0.558289 0.000427
0.629974 0.558289 0.000397
0.664581 0.558289 0.000336
0.698700 0.558319 0.000305
0.730896 0.558350 0.000275
0.761139 0.558380 0.000275
0.790161 0.558441 0.000275
0.815613 0.558502 0.000305
0.838440 0.558624 0.000336
0.859924 0.558716 0.000397
0.879883 0.558838 0.000458
0.898315 0.558960 0.000519
0.914398 0.559082 0.000610
0.000488 0.593353 0.000488
0.025848 0.593414 0.000519
0.042847 0.593536 0.000580
0.060120 0.593689 0.000671
0.079681 0.593781 0.000732
0.099030 0.593903 0.000793
0.120911 0.593994 0.000854
0.143921 0.594086 0.000885
0.168396 0.594177 0.000916
0.194733 0.594238 0.000946
0.223206 0.594299 0.000946
0.253845 0.594330 0.000946
0.289673 0.594330 0.000885
0.327606 0.594299 0.000824
0.364349 0.594299 0.000763
0.402405 0.594299 0.000702
0.441803 0.594269 0.000641
0.481476 0.594238 0.000549
0.520264 0.594208 0.000488
0.558289 0.594208 0.000427
0.594208 0.594208 0.000366
0.629974 0.594208 0.000336
0.664581 0.594208 0.000305
0.698669 0.594208 0.000275
0.730865 0.594238 0.000244
0.761108 0.594269 0.000244
0.790100 0.594330 0.000244
0.815521 0.594391 0.000244
0.838348 0.594482 0.000305
0.859833 0.594574 0.000336
0.879791 0.594696 0.000397
0.898193 0.594818 0.000488
0.914246 0.594940 0.000580
0.000458 0.629150 0.000458
0.025726 0.629211 0.000458
0.042725 0.629333 0.000519
0.059998 0.629456 0.000610
0.079559 0.629578 0.000671
0.098907 0.629700 0.000732
0.120819 0.629791 0.000793
0.143829 0.629883 0.000854
0.168335 0.629944 0.000885
0.194672 0.630005 0.000885
0.223145 0.630066 0.000885
0.253815 0.630096 0.000885
0.289673 0.630096 0.000824
0.327606 0.630096 0.000763
0.364380 0.630066 0.000732
0.402435 0.630066 0.000671
0.441833 0.630035 0.000580
0.481506 0.630005 0.000519
0.520294 0.629974 0.000458
0.558289 0.629974 0.000397
0.594208 0.629974 0.000336
0.629974 0.629974 0.000275
0.664551 0.629974 0.000244
0.698669 0.629974 0.000214
0.730835 0.630005 0.000183
0.761078 0.630035 0.000183
0.790039 0.630096 0.000183
0.815430 0.630157 0.000214
0.838257 0.630249 0.000244
0.859741 0.630341 0.000305
0.879669 0.630463 0.000366
0.898071 0.630585 0.000427
0.914124 0.630707 0.000519
0.000397 0.663971 0.000397
0.025604 0.664032 0.000427
0.042603 0.664154 0.000488
0.059906 0.664246 0.000580
0.079437 0.664368 0.000641
0.098816 0.664459 0.000702
0.120728 0.664551 0.000763
0.143768 0.664612 0.000793
0.168274 0.664673 0.000824
0.194641 0.664734 0.000854
0.223114 0.664764 0.000854
0.253815 0.664795 0.000854
0.289703 0.664795 0.000793
0.327637 0.664764 0.000732
0.364380 0.664734 0.000671
0.402466 0.664703 0.000610
0.441864 0.664673 0.000549
0.481537 0.664642 0.000488
0.520325 0.664612 0.000397
0.558289 0.664581 0.000336
0.594208 0.664581 0.000305
0.629974 0.664551 0.000244
0.664551 0.664551 0.000214
0.698669 0.664551 0.000183
0.730804 0.664551 0.000153
0.761017 0.664581 0.000153
0.790009 0.664642 0.000153
0.815369 0.664703 0.000183
0.838165 0.664764 0.000214
0.859619 0.664856 0.000275
0.879547 0.664948 0.000336
0.897949 0.665070 0.000397
0.913971 0.665192 0.000488
0.000366 0.698090 0.000366
0.025513 0.698151 0.000397
0.042480 0.698273 0.000458
0.059784 0.698395 0.000549
0.079346 0.698486 0.000610
0.098724 0.698578 0.000671
0.120667 0.698669 0.000702
0.143677 0.698730 0.000763
0.168213 0.698792 0.000793
0.194580 0.698853 0.000824
0.223083 0.698883 0.000824
0.253815 0.698914 0.000793
0.289734 0.698914 0.000763
0.327637 0.698883 0.000702
0.364410 0.698853 0.000641
0.402496 0.698822 0.000580
0.441895 0.698792 0.000519
0.481567 0.698761 0.000427
0.520355 0.698730 0.000366
0.558319 0.698700 0.000305
0.594208 0.698669 0.000275
0.629974 0.698669 0.000214
0.664551 0.698669 0.000183
0.698669 0.698669 0.000153
0.730774 0.698669 0.000122
0.760986 0.698700 0.000122
0.789948 0.698730 0.000122
0.815277 0.698792 0.000122
0.838074 0.698853 0.000183
0.859528 0.698944 0.000244
0.879456 0.699036 0.000305
0.897827 0.699158 0.000366
0.913849 0.699280 0.000458
0.000336 0.730713 0.000336
0.025391 0.730743 0.000366
0.042358 0.730835 0.000427
0.059692 0.730927 0.000519
0.079254 0.731018 0.000580
0.098633 0.731079 0.000641
0.120575 0.731140 0.000702
0.143616 0.731201 0.000732
0.168152 0.731232 0.000763
0.194550 0.731262 0.000793
0.223053 0.731293 0.000793
0.253815 0.731293 0.000793
0.289764 0.731262 0.000732
0.327667 0.731201 0.000671
0.364441 0.731171 0.000610
0.402557 0.731110 0.000549
0.441956 0.731049 0.000488
0.481628 0.730988 0.000427
0.520386 0.730927 0.000336
0.558350 0.730896 0.000275
0.594238 0.730865 0.000244
0.630005 0.730835 0.000183
0.664551 0.730804 0.000153
0.698669 0.730774 0.000122
0.730774 0.730774 0.000092
0.760986 0.730774 0.000092
0.789917 0.730774 0.000092
0.815216 0.730804 0.000122
0.838013 0.730865 0.000153
0.859467 0.730927 0.000214
0.879364 0.731018 0.000275
0.897736 0.731079 0.000336
0.913727 0.731201 0.000427
0.000336 0.761078 0.000336
0.025330 0.761139 0.000336
0.042267 0.761200 0.000427
0.059631 0.761292 0.000488
0.079163 0.761383 0.000580
0.098572 0.761444 0.000641
0.120544 0.761505 0.000671
0.143585 0.761536 0.000732
0.168121 0.761566 0.000763
0.194519 0.761597 0.000793
0.223053 0.761627 0.000793
0.253845 0.761597 0.000763
0.289825 0.761566 0.000732
0.327728 0.761505 0.000671
0.364502 0.761444 0.000610
0.402618 0.761414 0.000549
0.442017 0.761322 0.000488
0.481689 0.761261 0.000397
0.520447 0.761200 0.000336
0.558380 0.761139 0.000275
0.594269 0.761108 0.000244
0.630035 0.761078 0.000183
0.664581 0.761017 0.000153
0.698700 0.760986 0.000122
0.730774 0.760986 0.000092
0.760986 0.760986 0.000092
0.789917 0.760986 0.000092
0.815186 0.761017 0.000092
0.837952 0.761078 0.000153
0.859406 0.761108 0.000214
0.879303 0.761200 0.000275
0.897644 0.761261 0.000336
0.913635 0.761353 0.000427
0.000336 0.790344 0.000336
0.025238 0.790375 0.000336
0.042175 0.790436 0.000427
0.059540 0.790527 0.000488
0.079102 0.790588 0.000580
0.098511 0.790649 0.000641
0.120483 0.790680 0.000671
0.143555 0.790710 0.000732
0.168091 0.790741 0.000763
0.194519 0.790741 0.000793
0.223053 0.790741 0.000793
0.253876 0.790741 0.000763
0.289886 0.790680 0.000732
0.327789 0.790588 0.000671
0.364563 0.790527 0.000610
0.402679 0.790466 0.000549
0.442108 0.790375 0.000488
0.481750 0.790314 0.000397
0.520508 0.790222 0.000336
0.558441 0.790161 0.000275
0.594330 0.790100 0.000244
