Kodak Vision2 200T (5217) - Only contrast.cube
# Created by Benjamin (IWLTBAP) : http://luts.iwltbap.com
# Copyright: (C) Copyright 2010-2017 Triune Films and IWLTBAP SAS
# Cannot be resold, shared or otherwise redistributed
TITLE "Film Print Emulation LUTs Pack (Rec.709, sRGB, DCI-P3)"
LUT_3D_SIZE 5
0.000366 0.000366 0.000366
0.228485 0.000153 0.000153
0.482025 0.000000 0.000000
0.710724 0.000000 0.000000
0.937439 0.000000 0.000000
0.000153 0.228485 0.000153
0.228638 0.228638 0.000000
0.482208 0.228607 0.000000
0.710693 0.228729 0.000000
0.936584 0.228851 0.000000
0.000000 0.482025 0.000000
0.228607 0.482208 0.000000
0.482208 0.482208 0.000000
0.710510 0.482391 0.000000
0.935577 0.482605 0.000000
0.000000 0.710724 0.000000
0.228729 0.710693 0.000000
0.482391 0.710510 0.000000
0.710510 0.710510 0.000000
0.934692 0.710541 0.000000
0.000000 0.937439 0.000000
0.228851 0.936584 0.000000
0.482605 0.935577 0.000000
0.710541 0.934692 0.000000
0.933807 0.933746 0.016876
0.000153 0.000153 0.228485
0.228638 0.000000 0.228638
0.482208 0.000000 0.228607
0.710693 0.000000 0.228729
0.936584 0.000000 0.228851
0.000000 0.228638 0.228638
0.228790 0.228790 0.228790
0.482361 0.228729 0.228729
0.710693 0.228821 0.228821
0.935730 0.228882 0.228882
0.000000 0.482208 0.228607
0.228729 0.482361 0.228729
0.482361 0.482361 0.228638
0.710510 0.482574 0.228668
0.934692 0.482819 0.228729
0.000000 0.710693 0.228729
0.228821 0.710693 0.228821
0.482574 0.710510 0.228668
0.710510 0.710510 0.228699
0.933807 0.710541 0.228729
0.000000 0.936584 0.228851
0.228882 0.935730 0.228882
0.482819 0.934692 0.228729
0.710541 0.933807 0.228729
0.932983 0.932983 0.228760
0.000000 0.000000 0.482025
0.228607 0.000000 0.482208
0.482208 0.000000 0.482208
0.710510 0.000000 0.482391
0.935577 0.000000 0.482605
0.000000 0.228607 0.482208
0.228729 0.228729 0.482361
0.482361 0.228638 0.482361
0.710510 0.228668 0.482574
0.934692 0.228729 0.482819
0.000000 0.482208 0.482208
0.228638 0.482361 0.482361
0.482391 0.482391 0.482391
0.710327 0.482605 0.482605
0.933624 0.482880 0.482880
0.000000 0.710510 0.482391
0.228668 0.710510 0.482574
0.482605 0.710327 0.482605
0.710327 0.710327 0.482849
0.932770 0.710358 0.483185
0.000000 0.935577 0.482605
0.228729 0.934692 0.482819
0.482880 0.933624 0.482880
0.710358 0.932770 0.483185
0.931946 0.931946 0.483521
0.000000 0.000000 0.710724
0.228729 0.000000 0.710693
0.482391 0.000000 0.710510
0.710510 0.000000 0.710510
0.934692 0.000000 0.710541
0.000000 0.228729 0.710693
0.228821 0.228821 0.710693
0.482574 0.228668 0.710510
0.710510 0.228699 0.710510
0.933807 0.228729 0.710541
0.000000 0.482391 0.710510
0.228668 0.482574 0.710510
0.482605 0.482605 0.710327
0.710327 0.482849 0.710327
0.932770 0.483185 0.710358
0.000000 0.710510 0.710510
0.228699 0.710510 0.710510
0.482849 0.710327 0.710327
0.710327 0.710327 0.710327
0.931885 0.710358 0.710358
0.000000 0.934692 0.710541
0.228729 0.933807 0.710541
0.483185 0.932770 0.710358
0.710358 0.931885 0.710358
0.931061 0.931061 0.710449
0.000000 0.000000 0.937408
0.228851 0.000000 0.936584
0.482605 0.000000 0.935577
0.710541 0.000000 0.934692
0.933868 0.000000 0.933868
0.000000 0.228851 0.936584
0.228882 0.228882 0.935730
0.482819 0.228729 0.934692
0.710541 0.228729 0.933807
0.932983 0.228760 0.932983
0.000000 0.482605 0.935577
0.228729 0.482819 0.934692
0.482880 0.482880 0.933624
0.710358 0.483185 0.932770
0.931946 0.483521 0.931946
0.000000 0.710541 0.934692
0.228729 0.710541 0.933807
0.483185 0.710358 0.932770
0.710358 0.710358 0.931885
0.931061 0.710449 0.931061
0.000000 0.933868 0.933868
0.228760 0.932983 0.932983
0.483521 0.931946 0.931946
0.710449 0.931061 0.931061
0.930267 0.930267 0.930267
