Kodak Vision3 50D (5203) - Look.cube
# Created by Benjamin (IWLTBAP) : http://luts.iwltbap.com
# Copyright: (C) Copyright 2010-2017 Triune Films and IWLTBAP SAS
# Cannot be resold, shared or otherwise redistributed
TITLE "Film Print Emulation LUTs Pack (Rec.709, sRGB, DCI-P3)"
LUT_3D_SIZE 9
0.001587 0.000000 0.000000
0.124969 0.000000 0.000000
0.249298 0.000000 0.000000
0.375488 0.000793 0.000793
0.500153 0.000000 0.000000
0.624054 0.000000 0.000000
0.750549 0.000793 0.000000
0.875336 0.001587 0.000000
0.999359 0.000793 0.000000
0.008667 0.057434 0.018127
0.095490 0.085602 0.011047
0.250061 0.115356 0.000793
0.375092 0.115356 0.000000
0.499817 0.114655 0.000000
0.624542 0.114319 0.000000
0.750793 0.115692 0.000000
0.875244 0.115356 0.000000
0.999298 0.114990 0.000000
0.023651 0.157196 0.057434
0.087372 0.171936 0.059265
0.220154 0.207977 0.030731
0.374359 0.243073 0.000000
0.499298 0.242920 0.000000
0.625336 0.243713 0.000000
0.750549 0.243561 0.000000
0.874969 0.243256 0.000000
0.999054 0.242767 0.000000
0.029968 0.260620 0.091309
0.131470 0.271393 0.102234
0.229095 0.289032 0.106781
0.338348 0.326782 0.051666
0.495819 0.365417 0.007874
0.625183 0.368713 0.000000
0.749969 0.368347 0.000000
0.874512 0.367767 0.000000
0.999603 0.368134 0.000000
0.037842 0.365326 0.132111
0.180237 0.379486 0.149933
0.273895 0.401825 0.153595
0.350891 0.412872 0.160461
0.458405 0.446442 0.080536
0.612823 0.482483 0.022858
0.749237 0.492676 0.000000
0.875061 0.493225 0.000000
1.000000 0.494019 0.000000
0.100677 0.475586 0.197754
0.210022 0.485718 0.197571
0.300598 0.506805 0.201111
0.394897 0.525757 0.204376
0.467346 0.530487 0.193939
0.579071 0.563995 0.103424
0.733032 0.603333 0.043243
0.875641 0.622009 0.002350
1.000000 0.621674 0.000000
0.099518 0.582306 0.247772
0.229431 0.587311 0.242798
0.330536 0.604248 0.243103
0.434784 0.625305 0.242950
0.515594 0.639038 0.249298
0.589996 0.640869 0.202057
0.706177 0.679962 0.119415
0.855774 0.720062 0.058655
0.993256 0.740997 0.014984
0.134521 0.688599 0.291748
0.265076 0.692108 0.287231
0.365051 0.704742 0.283173
0.467621 0.726288 0.283447
0.562134 0.741028 0.285156
0.641205 0.750061 0.289185
0.716888 0.759338 0.209290
0.833435 0.797455 0.131195
0.972534 0.841034 0.080536
0.174683 0.797729 0.335358
0.302094 0.798126 0.329254
0.401917 0.806335 0.322662
0.506805 0.827087 0.320618
0.609680 0.842865 0.318329
0.688232 0.853638 0.324341
0.760376 0.861969 0.301483
0.847778 0.881714 0.216614
0.955231 0.918640 0.153351
0.000000 0.004730 0.055573
0.084717 0.007874 0.072083
0.249603 0.000000 0.101471
0.375488 0.000793 0.102234
0.500122 0.000000 0.101471
0.624390 0.000000 0.101074
0.750702 0.000000 0.101868
0.875458 0.000793 0.101868
0.999481 0.000000 0.101471
0.005524 0.066193 0.068390
0.082397 0.078613 0.073120
0.250366 0.115356 0.101868
0.375000 0.115356 0.101868
0.499817 0.114655 0.101471
0.624603 0.114319 0.101074
0.750946 0.115356 0.101868
0.875336 0.114990 0.101868
0.999390 0.114655 0.101471
0.006317 0.165588 0.106049
0.113953 0.183075 0.109344
0.231781 0.216583 0.099518
0.374359 0.243073 0.101471
0.499329 0.242920 0.101074
0.625336 0.243713 0.101868
0.750549 0.243561 0.101868
0.875061 0.243073 0.101074
0.999146 0.242615 0.101074
0.000000 0.264801 0.140594
0.143402 0.286957 0.151764
0.249146 0.305725 0.151520
0.350067 0.337372 0.122711
0.497375 0.366882 0.104919
0.625153 0.368713 0.101471
0.749847 0.368347 0.101074
0.874512 0.367767 0.100311
0.999664 0.368134 0.100677
0.000000 0.366882 0.189850
0.169128 0.395782 0.199921
0.281189 0.412964 0.197144
0.369293 0.429779 0.200317
0.471893 0.460663 0.151001
0.616638 0.486847 0.115692
0.749207 0.492676 0.100677
0.875031 0.493286 0.100677
1.000000 0.494019 0.101471
0.000000 0.472565 0.240234
0.174225 0.502777 0.247925
0.296265 0.516541 0.244171
0.409607 0.543793 0.244171
0.488892 0.556396 0.234589
0.594513 0.582672 0.175110
0.739227 0.611908 0.133606
0.875549 0.622009 0.102631
1.000000 0.621704 0.101471
0.000000 0.575562 0.289429
0.187744 0.607513 0.292480
0.316711 0.619507 0.287750
0.434631 0.643890 0.285919
0.536072 0.667297 0.288391
0.616882 0.677185 0.249756
0.722839 0.703888 0.193939
0.861786 0.732239 0.148590
0.994537 0.743958 0.113251
0.000000 0.683716 0.325226
0.212219 0.715973 0.336853
0.345825 0.724976 0.332184
0.461761 0.743378 0.327576
0.576569 0.767365 0.323425
0.662628 0.782166 0.327118
0.741272 0.796356 0.264954
0.848206 0.823059 0.209839
0.979187 0.854553 0.168671
0.000000 0.789612 0.369202
0.246063 0.826324 0.380981
0.384460 0.833527 0.376068
0.501190 0.845306 0.369019
0.615387 0.867737 0.361328
0.700897 0.882843 0.361237
0.786530 0.898834 0.349457
0.871857 0.918365 0.277832
0.968140 0.943665 0.232605
0.000000 0.014191 0.128113
0.018127 0.021271 0.184998
0.182861 0.040222 0.173981
0.343536 0.014191 0.201874
0.499878 0.000000 0.229919
0.624298 0.000000 0.229584
0.750732 0.000000 0.230438
0.875702 0.000000 0.230255
0.999725 0.000000 0.229767
0.000000 0.080048 0.154907
0.022064 0.089600 0.207031
0.207581 0.087830 0.163147
0.349335 0.109344 0.202637
0.499695 0.114655 0.229919
0.624603 0.114319 0.229767
0.750885 0.115692 0.230591
0.875549 0.114319 0.230103
0.999664 0.113617 0.229767
0.000000 0.160217 0.165100
0.063354 0.177826 0.170074
0.231445 0.202454 0.177826
0.372437 0.229767 0.211487
0.499329 0.243073 0.229767
0.625336 0.243713 0.230255
0.750519 0.243561 0.230255
0.875183 0.242920 0.229767
0.999420 0.242310 0.229431
0.000000 0.270020 0.208160
0.081451 0.286438 0.209259
0.239441 0.315186 0.228760
0.356354 0.345825 0.222595
0.498352 0.368042 0.229767
0.625183 0.368713 0.230255
0.749908 0.368225 0.229767
0.874512 0.367767 0.229431
0.999939 0.367950 0.229584
0.000000 0.372162 0.255035
0.082855 0.393585 0.253235
0.251892 0.424744 0.275116
0.376038 0.443787 0.268768
0.476196 0.471130 0.246521
0.618713 0.490784 0.234253
0.749023 0.492737 0.229095
0.875000 0.493347 0.229584
1.000000 0.493958 0.230103
0.000000 0.468658 0.303070
0.071045 0.499023 0.299377
0.256805 0.530548 0.317169
0.392670 0.550079 0.313080
0.494232 0.567383 0.302948
0.600555 0.596252 0.267487
0.742767 0.618591 0.246063
0.875488 0.622070 0.230591
1.000000 0.621765 0.229767
0.000000 0.570129 0.348938
0.037048 0.603760 0.338654
0.271973 0.637726 0.359924
0.410370 0.656067 0.357361
0.541290 0.683899 0.355835
0.625580 0.698547 0.328552
0.728668 0.720520 0.284210
0.866364 0.740723 0.255615
0.995697 0.746368 0.236359
0.000000 0.675659 0.387848
0.000000 0.713135 0.380341
0.291595 0.746857 0.402954
0.433136 0.759888 0.400269
0.568237 0.782715 0.395966
0.670990 0.800964 0.394196
0.753662 0.817841 0.341003
0.858337 0.842224 0.294250
0.984131 0.863708 0.271271
0.000000 0.783539 0.424835
0.115662 0.820404 0.424103
0.331329 0.856903 0.444550
0.472565 0.866760 0.442322
0.598572 0.882324 0.437134
0.708374 0.904205 0.433289
0.799591 0.923737 0.429230
0.887939 0.946075 0.358551
0.977173 0.961243 0.314606
0.000000 0.023651 0.211304
0.000000 0.032318 0.246063
0.146149 0.046875 0.246216
0.252930 0.062805 0.249298
0.401581 0.045441 0.287109
0.574860 0.018921 0.327362
0.750549 0.002350 0.358856
0.875458 0.000000 0.358551
0.999939 0.000000 0.358032
0.000000 0.100311 0.224670
0.000000 0.104156 0.299255
0.160950 0.107880 0.268890
0.277832 0.104919 0.263214
0.419708 0.113953 0.281982
0.581482 0.119415 0.330780
0.750580 0.116028 0.358856
0.875336 0.114655 0.358429
0.999908 0.112213 0.358032
0.000000 0.176910 0.254272
0.000000 0.191681 0.290833
0.171936 0.209076 0.318207
0.315430 0.214600 0.277435
0.442017 0.236847 0.308472
0.598480 0.247437 0.345093
0.750336 0.243408 0.358734
0.875061 0.242920 0.358337
0.999573 0.241974 0.357758
0.000000 0.265228 0.268768
0.000000 0.277832 0.281311
0.191284 0.307404 0.297028
0.343323 0.345306 0.326782
0.483154 0.367859 0.352722
0.623993 0.373413 0.360321
0.749878 0.368225 0.358337
0.874420 0.367645 0.357849
1.000000 0.367950 0.358154
0.000000 0.371033 0.313690
0.000000 0.386108 0.322632
0.182220 0.424561 0.343536
0.352112 0.454193 0.368439
0.472351 0.478851 0.359528
0.615875 0.494812 0.361115
0.749054 0.492798 0.357758
0.875031 0.493408 0.358337
1.000000 0.493958 0.358734
0.000000 0.471649 0.366486
0.000000 0.490662 0.374817
0.148590 0.530609 0.381439
0.352600 0.562714 0.404999
0.489655 0.583496 0.405701
0.601715 0.608337 0.382996
0.743744 0.625336 0.373505
0.875336 0.622101 0.358551
0.999969 0.621765 0.358032
0.000000 0.572632 0.412140
0.000000 0.596527 0.419189
0.142273 0.637573 0.419189
0.373016 0.673157 0.446899
0.512665 0.692108 0.446960
0.627075 0.713043 0.433990
0.731628 0.732605 0.400269
0.869446 0.748535 0.381256
0.995911 0.748077 0.364075
0.000000 0.675995 0.452789
0.000000 0.703857 0.458649
0.120392 0.742279 0.453674
0.391357 0.777008 0.482697
0.533356 0.791565 0.482330
0.670532 0.817108 0.481293
0.759064 0.837952 0.451721
0.863586 0.854828 0.411530
0.988831 0.872742 0.394470
0.000000 0.778503 0.490540
0.000000 0.810455 0.494965
0.237976 0.850159 0.496307
0.426025 0.888824 0.517365
0.570801 0.900787 0.518127
0.699615 0.919861 0.517365
0.808197 0.943695 0.516846
0.896698 0.963959 0.463593
0.983643 0.974792 0.425476
0.000000 0.046875 0.274170
0.000000 0.048981 0.309082
0.058655 0.059845 0.339844
0.237335 0.071045 0.323792
0.322662 0.083801 0.322540
0.439148 0.079559 0.356354
0.625153 0.050354 0.411377
0.810120 0.027588 0.454651
0.999390 0.000000 0.486115
0.000000 0.118744 0.293488
0.000000 0.120087 0.361206
0.012604 0.112213 0.398621
0.251129 0.121399 0.344360
0.346436 0.118073 0.339081
0.461273 0.113251 0.370819
0.641968 0.114319 0.419128
0.819580 0.126862 0.460022
0.999420 0.113953 0.486115
0.000000 0.192719 0.337799
0.000000 0.207214 0.370819
0.060455 0.219421 0.451263
0.269745 0.224823 0.387573
0.381897 0.229095 0.376038
0.507202 0.239594 0.399994
0.667572 0.257538 0.438385
0.836456 0.251740 0.470276
0.999298 0.242310 0.485962
0.000000 0.280518 0.365723
0.000000 0.297760 0.397369
0.103394 0.321747 0.448334
0.286438 0.342163 0.456940
0.432556 0.358643 0.424500
0.550201 0.383087 0.442780
0.701447 0.387665 0.471832
0.853149 0.377716 0.481415
1.000000 0.368042 0.486786
0.000000 0.377441 0.381897
0.000000 0.393219 0.397369
0.126221 0.416473 0.418213
0.264801 0.438751 0.437134
0.444031 0.490936 0.468689
0.609528 0.514374 0.497223
0.750519 0.517670 0.500397
0.879303 0.507751 0.493622
1.000000 0.493866 0.487335
0.000000 0.490479 0.424927
0.000000 0.506744 0.437195
0.000000 0.527954 0.449097
0.266205 0.565125 0.478302
0.459869 0.601349 0.499725
0.603271 0.625336 0.499725
0.744751 0.637634 0.502502
0.878296 0.633301 0.492676
0.999969 0.621704 0.486725
0.000000 0.597260 0.481232
0.000000 0.613708 0.490326
0.000000 0.637360 0.497284
0.270721 0.674469 0.514191
0.479340 0.710602 0.538544
0.627777 0.732361 0.538300
0.739441 0.746460 0.513824
0.874634 0.754791 0.502625
0.995422 0.749634 0.490601
0.000000 0.693970 0.520813
0.000000 0.711823 0.527710
0.000000 0.737244 0.534454
0.296143 0.774200 0.543152
0.498352 0.811310 0.569672
0.649994 0.830841 0.571014
0.767487 0.856079 0.552582
0.873199 0.869965 0.523834
0.991425 0.880890 0.513733
0.000000 0.789398 0.551941
0.000000 0.808441 0.559296
0.000000 0.839142 0.563599
0.350067 0.880920 0.576996
0.523438 0.924133 0.600525
0.676025 0.936462 0.601257
0.814606 0.956970 0.599945
0.903595 0.973877 0.556366
0.988708 0.981812 0.528137
0.000000 0.075165 0.342285
0.000000 0.071564 0.370178
0.000000 0.077148 0.424896
0.207397 0.081940 0.398163
0.315216 0.092590 0.397919
0.390106 0.103790 0.392242
0.472351 0.109711 0.411560
0.655731 0.091309 0.490326
0.854675 0.060455 0.542725
0.000000 0.140015 0.369965
0.000000 0.140015 0.431305
0.000000 0.118408 0.474884
0.213501 0.137146 0.424408
0.323547 0.133911 0.415161
0.406036 0.128113 0.409973
0.492218 0.136841 0.431091
0.678253 0.140289 0.503937
0.876831 0.131195 0.549927
0.000000 0.215881 0.413147
0.000000 0.228760 0.451202
0.000000 0.232941 0.549377
0.186707 0.238464 0.499207
0.348816 0.239746 0.461975
0.443848 0.240723 0.451050
0.537292 0.259460 0.470154
0.727509 0.262512 0.530487
0.906006 0.257263 0.561890
0.000000 0.303772 0.457825
0.000000 0.321503 0.495361
0.000000 0.337494 0.555176
0.195953 0.350677 0.582733
0.378937 0.362091 0.515717
0.504333 0.369965 0.504272
0.617584 0.386658 0.523315
0.774384 0.393829 0.557495
0.936188 0.380707 0.584198
0.000000 0.385468 0.471924
0.000000 0.401215 0.493561
0.022858 0.423035 0.534790
0.230438 0.441864 0.557617
0.404419 0.475098 0.588348
0.556976 0.509064 0.547394
0.676208 0.535583 0.578918
0.824738 0.536163 0.603027
0.962830 0.514679 0.605133
0.000000 0.508942 0.509003
0.000000 0.527466 0.526215
0.049652 0.548553 0.542542
0.252930 0.566376 0.558533
0.397461 0.598206 0.563782
0.577942 0.644226 0.604675
0.761108 0.667297 0.639038
0.896362 0.661713 0.637939
0.974304 0.648773 0.633545
0.000000 0.619110 0.541534
0.000000 0.636475 0.554108
0.000000 0.656708 0.566498
0.156677 0.678314 0.580627
0.407562 0.710876 0.611145
0.603760 0.747437 0.634644
0.747253 0.768585 0.625244
0.886993 0.775116 0.629974
0.982971 0.769043 0.629059
0.000000 0.721130 0.591553
0.000000 0.733215 0.596008
0.000000 0.752411 0.602539
0.123322 0.775116 0.609558
0.432007 0.812561 0.638519
0.620056 0.851593 0.664154
0.779358 0.876617 0.653442
0.884430 0.884369 0.634033
0.991455 0.888763 0.633362
0.000000 0.805298 0.615326
0.000000 0.823853 0.621063
0.000000 0.847107 0.628601
0.153564 0.875458 0.636322
0.476196 0.914520 0.666534
0.636719 0.947632 0.682709
0.805664 0.964722 0.684387
0.906372 0.981171 0.652405
0.986328 0.984955 0.633026
0.000000 0.099121 0.412567
0.000000 0.094269 0.442841
0.000000 0.095490 0.481567
0.165344 0.093842 0.470917
0.283569 0.101868 0.466492
0.374939 0.110077 0.462646
0.440399 0.119080 0.457153
0.507965 0.135101 0.471710
0.682098 0.128113 0.553986
0.000000 0.161438 0.446075
0.000000 0.160950 0.500580
0.000000 0.135956 0.527649
0.155670 0.152557 0.506744
0.288391 0.149384 0.493683
0.385223 0.141998 0.481506
0.459076 0.143127 0.474335
0.529816 0.158203 0.488983
0.714844 0.163635 0.570587
0.000000 0.237518 0.485992
0.000000 0.251434 0.531860
0.000000 0.252472 0.628754
0.000000 0.241669 0.633789
0.302826 0.254730 0.546570
0.415710 0.254578 0.532135
0.501190 0.249908 0.519257
0.587311 0.270996 0.536499
0.775909 0.262512 0.604675
0.000000 0.324554 0.546448
0.000000 0.344147 0.582458
0.000000 0.363098 0.636108
0.101837 0.367065 0.694611
0.270721 0.360809 0.659454
0.451416 0.376617 0.585327
0.559906 0.376495 0.572418
0.655487 0.396393 0.588348
0.839600 0.385101 0.639648
0.000000 0.423218 0.577484
0.000000 0.437439 0.598694
0.000000 0.457825 0.644989
0.208344 0.479980 0.681244
0.322540 0.492004 0.736969
0.465118 0.495941 0.686279
0.629791 0.512970 0.628906
0.745911 0.536224 0.648926
0.891327 0.526398 0.679749
0.000000 0.514648 0.596893
0.000000 0.534729 0.616425
0.005524 0.553986 0.639893
0.244171 0.568329 0.655304
0.373962 0.583771 0.676666
0.554779 0.614624 0.708832
0.704132 0.656189 0.700745
0.820770 0.683014 0.719360
0.936157 0.671448 0.731598
0.000000 0.638123 0.634674
0.000000 0.655273 0.649048
0.123993 0.671478 0.660797
0.244507 0.689392 0.672302
0.400085 0.709137 0.691406
0.554321 0.741028 0.704651
0.747253 0.784912 0.751068
0.907043 0.806549 0.785522
0.964355 0.802612 0.790344
0.000000 0.737274 0.648407
0.000000 0.750000 0.657623
0.000000 0.767365 0.668365
0.088257 0.791870 0.683655
0.345520 0.813568 0.707458
0.569061 0.848053 0.745422
0.759552 0.892120 0.781311
0.904602 0.913025 0.776581
0.984680 0.909851 0.785980
0.000000 0.827454 0.684845
0.000000 0.842804 0.692108
0.000000 0.864990 0.700653
0.068909 0.888947 0.712036
0.356842 0.912292 0.733856
0.590332 0.937439 0.760742
0.753967 0.966309 0.785828
0.908752 0.987946 0.770050
0.984619 0.990967 0.746277
0.000000 0.121094 0.482544
0.000000 0.118774 0.498108
0.000000 0.117065 0.524689
0.000000 0.110077 0.569733
0.239746 0.113617 0.542358
0.344055 0.121094 0.539307
0.429657 0.128113 0.533295
0.489532 0.134521 0.523315
0.553925 0.149933 0.537292
0.000000 0.184784 0.529266
0.000000 0.183929 0.579132
0.000000 0.154388 0.587646
0.000000 0.153076 0.612915
0.239594 0.168915 0.575134
0.346771 0.164368 0.560486
0.430450 0.156952 0.546448
0.502625 0.156189 0.536743
0.576935 0.173309 0.555420
0.000000 0.262939 0.573120
0.000000 0.278107 0.632996
0.000000 0.274445 0.726288
0.000000 0.246979 0.742615
0.189209 0.269592 0.656982
0.367065 0.269867 0.620026
0.465424 0.264954 0.599426
0.545746 0.252625 0.580566
0.635803 0.263519 0.601501
0.000000 0.350586 0.632050
0.000000 0.368347 0.669189
0.000000 0.383270 0.726074
0.000000 0.384918 0.817505
0.144775 0.365326 0.803772
0.341217 0.380707 0.708038
0.510284 0.383270 0.662079
0.615112 0.376892 0.643494
0.710541 0.389923 0.661011
0.000000 0.444397 0.676300
0.000000 0.467834 0.709229
0.000000 0.489166 0.760254
0.160187 0.504456 0.798004
0.280243 0.514069 0.859741
0.376984 0.495422 0.846924
0.541290 0.515137 0.739014
0.688385 0.511505 0.709351
0.784210 0.529968 0.724792
0.000000 0.545746 0.704529
0.000000 0.562195 0.723907
0.025238 0.583832 0.754913
0.216034 0.604248 0.784637
0.360321 0.623169 0.816254
0.493408 0.643463 0.881561
0.618347 0.646179 0.843292
0.770172 0.662415 0.776123
0.871765 0.676697 0.798309
0.000000 0.646942 0.726410
0.000000 0.667572 0.746307
0.117737 0.683472 0.764709
0.271667 0.700348 0.785156
0.398682 0.712677 0.805054
0.529877 0.726807 0.826538
0.731598 0.770660 0.857208
0.842529 0.794922 0.840057
0.942810 0.815430 0.855591
0.000000 0.748108 0.743500
0.066193 0.760437 0.754517
0.176910 0.776093 0.768860
0.271820 0.799500 0.786713
0.429230 0.821899 0.811340
0.563782 0.845245 0.833710
0.726807 0.887756 0.852386
0.915009 0.924469 0.881195
0.980377 0.925446 0.914978
0.000000 0.840149 0.740753
0.000000 0.858368 0.756104
0.029968 0.879578 0.773804
0.188385 0.901062 0.794556
0.368622 0.919342 0.816406
0.530609 0.932770 0.840485
0.722015 0.956268 0.868591
0.887421 0.984528 0.891632
0.977692 0.984100 0.882477
0.000000 0.152588 0.603760
0.000000 0.146179 0.588989
0.000000 0.142029 0.603485
0.000000 0.135101 0.656616
0.176697 0.134216 0.641113
0.304993 0.137726 0.634277
0.396515 0.142853 0.628510
0.469208 0.146729 0.613342
0.533295 0.149414 0.590210
0.000000 0.209656 0.625092
0.000000 0.204926 0.680023
0.000000 0.175110 0.679108
0.000000 0.167969 0.690704
0.148315 0.176910 0.677948
0.297791 0.171692 0.660919
0.392334 0.169128 0.644348
0.478607 0.172394 0.630463
0.551666 0.174438 0.609253
0.000000 0.290588 0.682983
0.000000 0.302338 0.723846
0.000000 0.302704 0.793671
0.000000 0.270721 0.807037
0.000000 0.271393 0.814606
0.284119 0.282104 0.726898
0.412384 0.275269 0.700043
0.508698 0.268341 0.678436
0.586884 0.246521 0.650513
0.000000 0.373596 0.717834
0.000000 0.389465 0.755188
0.000000 0.404327 0.803864
0.000000 0.413055 0.861298
0.139709 0.388916 0.859924
0.191284 0.384460 0.861206
0.401672 0.395447 0.774017
0.558716 0.390533 0.742554
0.653381 0.370728 0.713928
0.000000 0.465424 0.769836
0.000000 0.484589 0.800964
0.000000 0.506989 0.850220
0.098694 0.530457 0.882568
0.340485 0.543976 0.893799
0.389099 0.520508 0.893005
0.450226 0.521698 0.891327
0.631653 0.531189 0.802185
0.734161 0.511444 0.780365
0.000000 0.570129 0.803162
0.000000 0.592682 0.833649
0.052979 0.612122 0.861359
0.210754 0.636139 0.891357
0.378662 0.657349 0.912537
0.526001 0.666840 0.926361
0.609619 0.661652 0.921814
0.708282 0.672607 0.875305
0.822906 0.665924 0.839783
0.000000 0.665985 0.823395
0.000000 0.683411 0.843140
0.132385 0.703033 0.862091
0.264069 0.724030 0.885132
0.408752 0.738068 0.901733
0.543976 0.753876 0.928314
0.731201 0.790192 0.950531
0.826080 0.803802 0.920593
0.907166 0.808716 0.901520
0.000000 0.757019 0.836761
0.076630 0.773254 0.851715
0.182861 0.789825 0.867889
0.312164 0.814514 0.887146
0.446899 0.833771 0.903503
0.579254 0.851593 0.922150
0.713348 0.883911 0.958466
0.902863 0.917694 0.977936
0.981262 0.927948 0.974792
0.114319 0.847107 0.842743
0.146423 0.863373 0.855560
0.232941 0.885742 0.875061
0.304504 0.905182 0.890961
0.467560 0.919952 0.906006
0.599823 0.932251 0.921478
0.726685 0.948303 0.944092
0.892090 0.974701 0.960876
0.978241 0.993073 0.969849
