Kodak Vision2 500T (5260) - Only contrast.cube
# Created by Benjamin (IWLTBAP) : http://luts.iwltbap.com
# Copyright: (C) Copyright 2010-2017 Triune Films and IWLTBAP SAS
# Cannot be resold, shared or otherwise redistributed
TITLE "Film Print Emulation LUTs Pack (Rec.709, sRGB, DCI-P3)"
LUT_3D_SIZE 5
0.000000 0.000000 0.000000
0.203400 0.000000 0.000000
0.464752 0.000000 0.000000
0.764313 0.000000 0.000000
0.955627 0.000000 0.000000
0.000000 0.203400 0.000000
0.203613 0.203613 0.000000
0.465118 0.203430 0.000000
0.764771 0.202972 0.000000
0.955170 0.203278 0.000000
0.000000 0.464752 0.000000
0.203430 0.465118 0.000000
0.465088 0.465088 0.000000
0.764771 0.464813 0.000000
0.954346 0.465302 0.000000
0.000000 0.764313 0.000000
0.202972 0.764771 0.000000
0.464813 0.764771 0.000000
0.764526 0.764526 0.000000
0.953247 0.764984 0.000000
0.000000 0.955627 0.000000
0.203278 0.955170 0.000000
0.465302 0.954346 0.000000
0.764984 0.953247 0.000000
0.952911 0.952850 0.007751
0.000000 0.000000 0.203400
0.203613 0.000000 0.203613
0.465118 0.000000 0.203430
0.764771 0.000000 0.202972
0.955170 0.000000 0.203278
0.000000 0.203613 0.203613
0.203827 0.203827 0.203827
0.465485 0.203613 0.203613
0.765167 0.203156 0.203156
0.954712 0.203430 0.203430
0.000000 0.465118 0.203430
0.203613 0.465485 0.203613
0.465454 0.465454 0.203400
0.765137 0.465149 0.202942
0.953888 0.465668 0.203217
0.000000 0.764771 0.202972
0.203156 0.765167 0.203156
0.465149 0.765137 0.202942
0.764862 0.764862 0.202454
0.952789 0.765289 0.202728
0.000000 0.955170 0.203278
0.203430 0.954712 0.203430
0.465668 0.953888 0.203217
0.765289 0.952789 0.202728
0.952454 0.952454 0.203003
0.000000 0.000000 0.464752
0.203430 0.000000 0.465118
0.465088 0.000000 0.465088
0.764771 0.000000 0.464813
0.954346 0.000000 0.465302
0.000000 0.203430 0.465118
0.203613 0.203613 0.465485
0.465454 0.203400 0.465454
0.765137 0.202942 0.465149
0.953888 0.203217 0.465668
0.000000 0.465088 0.465088
0.203400 0.465454 0.465454
0.465424 0.465424 0.465424
0.765106 0.465149 0.465149
0.953033 0.465668 0.465668
0.000000 0.764771 0.464813
0.202942 0.765137 0.465149
0.465149 0.765106 0.465149
0.764801 0.764801 0.464905
0.951935 0.765198 0.465454
0.000000 0.954346 0.465302
0.203217 0.953888 0.465668
0.465668 0.953033 0.465668
0.765198 0.951935 0.465454
0.951630 0.951630 0.466064
0.000000 0.000000 0.764313
0.202972 0.000000 0.764771
0.464813 0.000000 0.764771
0.764526 0.000000 0.764526
0.953247 0.000000 0.764984
0.000000 0.202972 0.764771
0.203156 0.203156 0.765167
0.465149 0.202942 0.765137
0.764862 0.202454 0.764862
0.952789 0.202728 0.765289
0.000000 0.464813 0.764771
0.202942 0.465149 0.765137
0.465149 0.465149 0.765106
0.764801 0.464905 0.764801
0.951935 0.465454 0.765198
0.000000 0.764526 0.764526
0.202454 0.764862 0.764862
0.464905 0.764801 0.764801
0.764435 0.764435 0.764435
0.950867 0.764832 0.764832
0.000000 0.953247 0.764984
0.202728 0.952789 0.765289
0.465454 0.951935 0.765198
0.764832 0.950867 0.764832
0.950531 0.950531 0.765228
0.000000 0.000000 0.955566
0.203278 0.000000 0.955170
0.465302 0.000000 0.954346
0.764984 0.000000 0.953247
0.952942 0.000000 0.952942
0.000000 0.203278 0.955170
0.203430 0.203430 0.954712
0.465668 0.203217 0.953888
0.765289 0.202728 0.952789
0.952454 0.203003 0.952454
0.000000 0.465302 0.954346
0.203217 0.465668 0.953888
0.465668 0.465668 0.953033
0.765198 0.465454 0.951935
0.951630 0.466064 0.951630
0.000000 0.764984 0.953247
0.202728 0.765289 0.952789
0.465454 0.765198 0.951935
0.764832 0.764832 0.950867
0.950531 0.765228 0.950531
0.000000 0.952942 0.952942
0.203003 0.952454 0.952454
0.466064 0.951630 0.951630
0.765228 0.950531 0.950531
0.950256 0.950256 0.950256
