Kodak Vision2 500T (5260) - Look.cube
# Created by Benjamin (IWLTBAP) : http://luts.iwltbap.com
# Copyright: (C) Copyright 2010-2017 Triune Films and IWLTBAP SAS
# Cannot be resold, shared or otherwise redistributed
TITLE "Film Print Emulation LUTs Pack (Rec.709, sRGB, DCI-P3)"
LUT_3D_SIZE 33
0.000000 0.000000 0.000000
0.027893 0.000763 0.000946
0.077667 0.005341 0.002533
0.116364 0.023254 0.005524
0.151001 0.038055 0.011658
0.190063 0.045288 0.014923
0.229889 0.048309 0.022369
0.270569 0.050964 0.029510
0.308960 0.054749 0.030975
0.347778 0.061127 0.025818
0.383545 0.064667 0.033142
0.418701 0.065643 0.044861
0.455017 0.061157 0.058655
0.488007 0.061371 0.065796
0.519165 0.063965 0.068665
0.548065 0.069489 0.072540
0.577698 0.074310 0.075592
0.607697 0.077545 0.078857
0.635651 0.079437 0.081421
0.664001 0.080750 0.084656
0.690613 0.082123 0.087494
0.717621 0.083801 0.091187
0.745270 0.085541 0.095001
0.771881 0.088348 0.098541
0.797302 0.092529 0.101105
0.821564 0.096130 0.103973
0.845612 0.100037 0.106537
0.869110 0.104218 0.109467
0.893036 0.108154 0.112457
0.916504 0.110840 0.114807
0.939240 0.114288 0.116486
0.962250 0.118683 0.118805
0.974548 0.124237 0.122253
0.000397 0.001068 0.000031
0.018097 0.015930 0.001312
0.061279 0.022308 0.002777
0.099701 0.030396 0.004211
0.135803 0.044250 0.009247
0.173187 0.053009 0.013397
0.214325 0.057526 0.018341
0.254486 0.061249 0.028351
0.294525 0.064819 0.032623
0.333862 0.071716 0.029541
0.373810 0.076080 0.032104
0.410431 0.078522 0.044708
0.447449 0.076080 0.056671
0.483856 0.075806 0.065674
0.516418 0.079407 0.068176
0.546539 0.084717 0.071686
0.577087 0.090210 0.074951
0.608246 0.093262 0.078156
0.638214 0.095428 0.081360
0.666565 0.097260 0.084686
0.694641 0.098846 0.088135
0.721985 0.100647 0.091522
0.749573 0.103577 0.095032
0.776093 0.106445 0.098480
0.801239 0.110565 0.101440
0.825317 0.114014 0.103882
0.848877 0.118256 0.105896
0.873260 0.121826 0.108337
0.896667 0.125732 0.110291
0.919281 0.128784 0.112030
0.941864 0.130890 0.113556
0.963623 0.135040 0.115173
0.974640 0.141083 0.118317
0.001740 0.015717 0.001404
0.005554 0.023254 0.001923
0.044739 0.039642 0.003052
0.082886 0.046387 0.004578
0.120026 0.054901 0.008972
0.156281 0.063965 0.013794
0.198425 0.068390 0.018219
0.241058 0.072479 0.027771
0.281494 0.077026 0.031311
0.322571 0.082733 0.031586
0.362915 0.089081 0.030273
0.402344 0.090454 0.043671
0.441101 0.089752 0.056396
0.478607 0.090454 0.064972
0.512085 0.095184 0.067566
0.543854 0.099945 0.070953
0.575745 0.105621 0.074463
0.608063 0.109344 0.078003
0.639252 0.112152 0.080811
0.668549 0.114471 0.084351
0.696777 0.116760 0.087524
0.725098 0.119202 0.091522
0.753510 0.122620 0.094971
0.779236 0.125854 0.098145
0.804321 0.129730 0.100830
0.827972 0.133606 0.102417
0.851654 0.137421 0.104980
0.875732 0.141022 0.107330
0.899017 0.145355 0.109192
0.921631 0.149078 0.110535
0.943298 0.151825 0.111328
0.964172 0.155212 0.113159
0.975647 0.159180 0.115967
0.002655 0.026733 0.004639
0.001770 0.029633 0.004272
0.024445 0.051636 0.003113
0.068756 0.064270 0.003967
0.105896 0.070892 0.006348
0.142212 0.077271 0.019592
0.186676 0.081177 0.025330
0.231262 0.085297 0.031036
0.273346 0.090424 0.033844
0.314087 0.096771 0.033936
0.355865 0.104370 0.030487
0.397217 0.105103 0.044586
0.436157 0.106598 0.055084
0.474854 0.107513 0.065308
0.508514 0.112671 0.068329
0.541748 0.117126 0.071045
0.575195 0.122620 0.074890
0.608246 0.126465 0.077911
0.640045 0.129700 0.081573
0.670135 0.132446 0.084900
0.699127 0.134796 0.088074
0.727783 0.137665 0.091736
0.755890 0.141968 0.095001
0.781738 0.144958 0.097992
0.806732 0.148621 0.100586
0.830597 0.152588 0.102661
0.854309 0.156403 0.104675
0.877594 0.160828 0.106049
0.901001 0.165039 0.108368
0.923828 0.169159 0.109955
0.945557 0.172577 0.111572
0.965057 0.175079 0.112885
0.976715 0.178833 0.115234
0.002258 0.040314 0.008667
0.002563 0.041229 0.007538
0.005157 0.058258 0.004120
0.048798 0.077301 0.005341
0.091339 0.087708 0.009491
0.131042 0.093933 0.017792
0.174774 0.098907 0.029724
0.221344 0.102478 0.034515
0.264771 0.107208 0.036621
0.306885 0.113312 0.034821
0.349365 0.120514 0.033722
0.393005 0.121216 0.047058
0.434082 0.122437 0.058960
0.472260 0.125427 0.065643
0.506348 0.131470 0.069031
0.540283 0.136383 0.071838
0.574921 0.141327 0.075134
0.608887 0.145874 0.078613
0.640869 0.149780 0.081940
0.671906 0.152924 0.085571
0.701263 0.155853 0.089111
0.730194 0.159149 0.092163
0.758453 0.163513 0.095673
0.784119 0.166992 0.098145
0.809082 0.170929 0.099884
0.833038 0.174622 0.102417
0.856903 0.178497 0.104095
0.880524 0.182190 0.106354
0.902954 0.186829 0.108154
0.925720 0.190735 0.110046
0.947571 0.194275 0.111755
0.966156 0.196411 0.113556
0.977844 0.199554 0.115723
0.002625 0.053345 0.011078
0.002838 0.053162 0.009827
0.003021 0.063293 0.007751
0.021027 0.085144 0.005341
0.074249 0.102570 0.012024
0.116486 0.111877 0.021545
0.162231 0.118744 0.031128
0.210541 0.122894 0.037231
0.256073 0.127045 0.040375
0.299377 0.133270 0.037415
0.344116 0.139893 0.036926
0.388550 0.142303 0.047363
0.430481 0.143677 0.059418
0.469604 0.146973 0.065796
0.504669 0.152557 0.069092
0.539185 0.157532 0.072144
0.574463 0.162476 0.075378
0.609314 0.167145 0.079468
0.641998 0.171234 0.082947
0.673462 0.174927 0.085907
0.703522 0.178253 0.089935
0.733063 0.182007 0.093292
0.761078 0.186554 0.095856
0.786682 0.190247 0.098114
0.811951 0.193970 0.100708
0.836060 0.197601 0.102875
0.859619 0.201263 0.104706
0.882782 0.205627 0.106018
0.905182 0.209961 0.108063
0.928009 0.214050 0.111053
0.950134 0.217590 0.113068
0.967102 0.220215 0.115112
0.979065 0.223877 0.116791
0.003082 0.068512 0.014374
0.003235 0.066406 0.011017
0.003510 0.070312 0.011353
0.005371 0.091187 0.006561
0.045990 0.113129 0.011841
0.097473 0.129761 0.022339
0.146820 0.140076 0.034241
0.199707 0.146973 0.040924
0.245483 0.151215 0.042236
0.291687 0.156158 0.040070
0.339325 0.161499 0.040405
0.384613 0.164459 0.049072
0.426941 0.167053 0.059235
0.466644 0.171234 0.065918
0.502838 0.176270 0.069916
0.538147 0.181274 0.072327
0.574310 0.186096 0.075745
0.609619 0.191132 0.079559
0.642487 0.195770 0.083282
0.674500 0.199738 0.086670
0.705261 0.203308 0.090454
0.735382 0.207184 0.093567
0.763611 0.211609 0.096344
0.789581 0.215302 0.098602
0.814636 0.219208 0.100708
0.839050 0.222473 0.102631
0.862213 0.226166 0.104218
0.885498 0.229858 0.106689
0.908173 0.234009 0.109131
0.930817 0.238159 0.111816
0.952637 0.241913 0.114502
0.968292 0.245605 0.117035
0.980133 0.249146 0.118713
0.002747 0.082489 0.021210
0.002594 0.080475 0.015106
0.002625 0.082489 0.015778
0.002625 0.098511 0.009918
0.013397 0.121124 0.009003
0.068573 0.143402 0.020538
0.126221 0.161102 0.033417
0.183563 0.171448 0.044952
0.235199 0.178375 0.045166
0.284088 0.182495 0.042572
0.335693 0.185211 0.046326
0.381500 0.189423 0.051239
0.424072 0.192535 0.059845
0.463593 0.197571 0.065491
0.500519 0.202393 0.070190
0.537201 0.207001 0.073334
0.573853 0.212097 0.076050
0.610168 0.217010 0.080017
0.644043 0.221924 0.084137
0.675781 0.226746 0.087677
0.706726 0.230652 0.091125
0.737366 0.234497 0.094666
0.765900 0.238831 0.097321
0.792236 0.242828 0.099274
0.817505 0.246460 0.101379
0.842010 0.249695 0.103607
0.865265 0.252747 0.105225
0.888245 0.256317 0.107422
0.910950 0.259613 0.110413
0.933105 0.263763 0.113037
0.955078 0.267700 0.115692
0.969757 0.271179 0.118317
0.981903 0.274933 0.120636
0.003021 0.098083 0.025635
0.003235 0.093872 0.019196
0.003021 0.095520 0.017273
0.003418 0.104218 0.015900
0.004059 0.127625 0.010376
0.029785 0.153412 0.016541
0.092346 0.178772 0.034180
0.162994 0.193512 0.044922
0.220978 0.203308 0.047180
0.276886 0.209869 0.045898
0.329498 0.213074 0.048462
0.377289 0.216034 0.053772
0.419647 0.220367 0.059357
0.459625 0.225494 0.064453
0.497864 0.229980 0.069061
0.535004 0.234467 0.072540
0.573212 0.239258 0.075775
0.610413 0.244354 0.079956
0.644745 0.249420 0.083862
0.677216 0.254333 0.087891
0.707947 0.259094 0.091766
0.738983 0.262939 0.095093
0.768219 0.266815 0.098572
0.794678 0.270874 0.100952
0.819977 0.274658 0.102600
0.844421 0.277405 0.104004
0.867523 0.279999 0.106079
0.890472 0.283112 0.108307
0.913147 0.286774 0.110565
0.935181 0.290619 0.113495
0.957275 0.294495 0.116364
0.970917 0.297394 0.119141
0.983154 0.301514 0.121704
0.002808 0.112915 0.032562
0.003204 0.108765 0.025452
0.002808 0.109680 0.023041
0.002502 0.112823 0.022583
0.002350 0.134338 0.013123
0.008759 0.161133 0.016296
0.044617 0.192017 0.031067
0.132324 0.215485 0.039703
0.200531 0.228119 0.044891
0.263062 0.235870 0.045776
0.322449 0.241760 0.049866
0.371674 0.245514 0.055328
0.414703 0.249634 0.060455
0.455383 0.254608 0.063660
0.494202 0.258911 0.067841
0.532593 0.263214 0.072479
0.572144 0.267517 0.076447
0.610046 0.272797 0.080261
0.644867 0.278107 0.084778
0.677734 0.283081 0.089294
0.708893 0.288147 0.092987
0.740021 0.292847 0.097290
0.769775 0.296448 0.100189
0.796570 0.300415 0.101990
0.822266 0.303528 0.103607
0.846558 0.306183 0.105072
0.869720 0.308655 0.106750
0.892700 0.311798 0.108612
0.915009 0.314850 0.111145
0.936981 0.318420 0.113678
0.959259 0.321899 0.116241
0.971832 0.325745 0.119385
0.983704 0.330048 0.121857
0.002563 0.127899 0.042694
0.002594 0.123596 0.034515
0.002380 0.123535 0.027710
0.002563 0.126556 0.026611
0.002655 0.140411 0.023468
0.003845 0.169983 0.019165
0.016663 0.202301 0.032104
0.081879 0.233368 0.036896
0.173798 0.253265 0.041351
0.243591 0.263855 0.046234
0.307617 0.271393 0.050995
0.364136 0.277039 0.058075
0.409332 0.281311 0.062195
0.451965 0.285522 0.063629
0.491394 0.289642 0.067505
0.529999 0.293640 0.072327
0.570282 0.297577 0.077271
0.610077 0.302094 0.082886
0.645660 0.307495 0.087524
0.678375 0.313690 0.090332
0.709961 0.319305 0.093323
0.741211 0.324188 0.096466
0.770355 0.328400 0.099792
0.797852 0.331757 0.101593
0.823853 0.334595 0.103851
0.848206 0.337250 0.105408
0.871643 0.339905 0.107056
0.894379 0.342957 0.108704
0.916229 0.346100 0.110413
0.938171 0.349335 0.112762
0.959900 0.353058 0.115753
0.972809 0.357635 0.116974
0.984161 0.362305 0.119324
0.003082 0.143127 0.050842
0.003021 0.138123 0.042053
0.002747 0.135986 0.034393
0.002930 0.138641 0.033112
0.002777 0.148071 0.031891
0.002899 0.177673 0.024109
0.010315 0.210968 0.032990
0.032227 0.246826 0.038971
0.135956 0.274567 0.038483
0.220062 0.291168 0.043671
0.287811 0.301056 0.053558
0.349884 0.308563 0.058533
0.402832 0.314056 0.063904
0.448059 0.318390 0.066895
0.489075 0.321777 0.070435
0.528015 0.325867 0.075317
0.568817 0.329803 0.081116
0.609192 0.334229 0.086517
0.645538 0.339478 0.089569
0.678925 0.345734 0.091553
0.710876 0.351654 0.092804
0.742065 0.356903 0.093658
0.771210 0.360962 0.096558
0.798584 0.364380 0.099945
0.824860 0.366882 0.102844
0.849579 0.369141 0.105225
0.872711 0.371826 0.106689
0.895447 0.373993 0.108734
0.917175 0.376617 0.109924
0.937866 0.380157 0.111389
0.958923 0.383881 0.113678
0.973297 0.388184 0.114410
0.984558 0.393463 0.115021
0.003052 0.161163 0.059875
0.002838 0.154816 0.051117
0.002930 0.151093 0.041382
0.002716 0.153809 0.038574
0.002838 0.159760 0.038849
0.003265 0.184570 0.034363
0.004364 0.218903 0.033051
0.020905 0.257843 0.042694
0.083221 0.291656 0.037964
0.184937 0.317078 0.040649
0.262573 0.330994 0.051392
0.328064 0.339813 0.060211
0.387695 0.346405 0.064331
0.442078 0.351013 0.070190
0.485321 0.354645 0.074432
0.525787 0.357788 0.078613
0.566864 0.361908 0.083984
0.607269 0.366547 0.089142
0.643616 0.372009 0.090698
0.678131 0.377533 0.091400
0.710632 0.382965 0.091583
0.742676 0.387726 0.091156
0.771484 0.391663 0.094238
0.798950 0.395233 0.097229
0.825256 0.397858 0.101562
0.849640 0.400024 0.103638
0.872955 0.402252 0.106018
0.895782 0.404266 0.108063
0.917664 0.406433 0.110229
0.937073 0.410339 0.110596
0.956451 0.414642 0.111237
0.972626 0.418671 0.111328
0.984894 0.423737 0.111725
0.003510 0.179382 0.070343
0.003265 0.172333 0.060150
0.003113 0.169098 0.050232
0.003113 0.170227 0.045410
0.003265 0.175446 0.047180
0.003326 0.194214 0.045288
0.003784 0.228363 0.039459
0.014191 0.266357 0.043793
0.036774 0.306396 0.043488
0.142181 0.337646 0.037354
0.232056 0.357605 0.048615
0.305176 0.368469 0.058319
0.366669 0.376038 0.064575
0.425323 0.382629 0.069214
0.479797 0.386078 0.078064
0.521881 0.389984 0.083466
0.564697 0.393402 0.087891
0.605652 0.398193 0.091858
0.642120 0.403625 0.092896
0.676819 0.409058 0.092957
0.709900 0.414062 0.092651
0.742737 0.418457 0.092377
0.772308 0.422089 0.094147
0.799683 0.425354 0.097412
0.825989 0.427948 0.100677
0.850189 0.430481 0.103058
0.873535 0.432465 0.105499
0.895050 0.434967 0.106934
0.916901 0.436981 0.109375
0.936188 0.440613 0.109528
0.955414 0.444641 0.109985
0.973663 0.447784 0.108887
0.985291 0.452209 0.109192
0.003815 0.198517 0.080139
0.003693 0.191010 0.069153
0.003326 0.187744 0.059448
0.003265 0.188416 0.054199
0.003601 0.193024 0.052765
0.003571 0.205200 0.053436
0.004059 0.236633 0.051239
0.005859 0.274719 0.044922
0.024780 0.319153 0.049896
0.084503 0.354553 0.040955
0.201447 0.380249 0.046326
0.275970 0.396301 0.056946
0.344940 0.405212 0.064240
0.404846 0.412109 0.067963
0.462311 0.417694 0.076080
0.517639 0.420502 0.086426
0.559814 0.425598 0.091827
0.602997 0.429443 0.092590
0.640717 0.434357 0.093933
0.675781 0.439453 0.095306
0.709717 0.444305 0.096069
0.743347 0.448334 0.097809
0.773376 0.451660 0.098175
0.801147 0.454620 0.099091
0.827576 0.457306 0.101196
0.851440 0.460083 0.102570
0.874390 0.462189 0.104736
0.895630 0.464905 0.106567
0.915863 0.467468 0.107697
0.935059 0.470581 0.108002
0.954346 0.473969 0.108734
0.973175 0.476715 0.107727
0.985687 0.479645 0.107483
0.004395 0.217072 0.089111
0.004089 0.210419 0.080261
0.003906 0.206482 0.069794
0.003693 0.207062 0.063965
0.003876 0.211670 0.060120
0.003967 0.219635 0.062592
0.004456 0.246216 0.058533
0.005035 0.285828 0.050049
0.018433 0.330475 0.051422
0.043671 0.369446 0.049164
0.158447 0.399963 0.046661
0.247559 0.421051 0.049500
0.320160 0.433929 0.056732
0.384216 0.441284 0.066467
0.443024 0.447327 0.070129
0.498230 0.452332 0.081848
0.556396 0.455475 0.094391
0.597626 0.461212 0.094177
0.637939 0.465027 0.094788
0.674866 0.469208 0.099457
0.709656 0.473419 0.101868
0.744049 0.477234 0.103729
0.773956 0.480560 0.105011
0.802094 0.483459 0.104645
0.828461 0.486328 0.104065
0.851532 0.489288 0.102997
0.873779 0.491760 0.103668
0.894714 0.494751 0.104309
0.914673 0.497192 0.105438
0.933868 0.499786 0.105927
0.952942 0.502655 0.106293
0.972900 0.504578 0.107880
0.984528 0.506622 0.108673
0.004974 0.237946 0.100769
0.004578 0.233276 0.091888
0.004242 0.229126 0.080841
0.004303 0.228455 0.073730
0.004242 0.232574 0.068848
0.004364 0.239929 0.071106
0.004791 0.258423 0.069519
0.005402 0.297852 0.065002
0.009064 0.340271 0.054657
0.031006 0.384979 0.054779
0.097595 0.419373 0.054230
0.215210 0.444031 0.048279
0.295837 0.460693 0.050964
0.360199 0.471619 0.054443
0.421753 0.477661 0.064636
0.477417 0.483154 0.072723
0.534302 0.488556 0.086853
0.593658 0.491333 0.097137
0.632507 0.497314 0.095947
0.672760 0.500336 0.100647
0.709167 0.503693 0.107208
0.743927 0.507446 0.110901
0.774628 0.510773 0.112549
0.802734 0.513916 0.112244
0.829193 0.516663 0.109955
0.851868 0.519623 0.108185
0.873566 0.522461 0.105591
0.894592 0.525269 0.104767
0.914856 0.527161 0.105957
0.934204 0.529358 0.106415
0.954071 0.531097 0.108124
0.974091 0.532776 0.110657
0.984619 0.533691 0.114014
0.005493 0.263092 0.114014
0.005249 0.258148 0.105499
0.004974 0.253326 0.094025
0.004761 0.253021 0.083649
0.004791 0.255371 0.079803
0.004883 0.263977 0.079437
0.005096 0.276367 0.080414
0.005859 0.313263 0.075562
0.006439 0.355103 0.061493
0.024323 0.400787 0.060089
0.043213 0.438477 0.066772
0.169464 0.465912 0.057434
0.269745 0.486267 0.048950
0.339539 0.500610 0.051514
0.396393 0.510620 0.056396
0.452332 0.516449 0.068848
0.510468 0.521606 0.080505
0.571381 0.526367 0.093567
0.632294 0.527222 0.104523
0.668243 0.533203 0.105042
0.708405 0.535950 0.111938
0.743835 0.539246 0.118073
0.774658 0.542816 0.120605
0.802979 0.545807 0.121307
0.828491 0.549011 0.120239
0.851562 0.551727 0.118195
0.873749 0.554352 0.115601
0.895477 0.556488 0.112396
0.916595 0.557648 0.111145
0.936676 0.558746 0.112518
0.956543 0.559814 0.114380
0.976898 0.560730 0.118439
0.985260 0.560883 0.120544
0.006226 0.289490 0.128571
0.006012 0.282806 0.117950
0.005646 0.278290 0.104889
0.005371 0.277466 0.096771
0.005280 0.280975 0.090668
0.005432 0.290314 0.089172
0.005798 0.301178 0.092621
0.006439 0.330383 0.090729
0.007050 0.368164 0.078339
0.015228 0.412689 0.067841
0.038086 0.456177 0.074738
0.098755 0.486145 0.069000
0.245209 0.509369 0.055298
0.321228 0.527069 0.054169
0.379364 0.540405 0.063477
0.431702 0.549042 0.070221
0.487335 0.554749 0.084351
0.549347 0.559814 0.094727
0.608704 0.563660 0.104736
0.669678 0.563477 0.113953
0.703796 0.569183 0.115326
0.742432 0.571808 0.122314
0.774841 0.574585 0.127350
0.803009 0.577698 0.129486
0.828979 0.580505 0.129791
0.852325 0.582886 0.128967
0.875275 0.584930 0.128448
0.897858 0.586945 0.128204
0.919403 0.587280 0.126984
0.940033 0.587494 0.126221
0.960144 0.587921 0.126801
0.980377 0.588440 0.128571
0.986267 0.587738 0.129639
0.007111 0.316284 0.143066
0.006744 0.309418 0.131836
0.006317 0.306152 0.117065
0.006195 0.305969 0.108124
0.006104 0.308899 0.100250
0.006226 0.316864 0.098846
0.006287 0.328339 0.102325
0.006897 0.348541 0.102386
0.007477 0.384705 0.091766
0.008484 0.425903 0.073242
0.033813 0.473480 0.077087
0.055511 0.506622 0.078186
0.216980 0.532013 0.069244
0.304718 0.552460 0.070129
0.363525 0.568146 0.080780
0.417847 0.579559 0.088348
0.469391 0.586975 0.090851
0.525085 0.592682 0.100800
0.586304 0.597290 0.104187
0.643066 0.600372 0.112793
0.705505 0.599487 0.122345
0.738220 0.604370 0.123657
0.771851 0.606781 0.129059
0.802917 0.608459 0.135406
0.829498 0.610901 0.138245
0.853394 0.612854 0.138794
0.877197 0.614380 0.140839
0.900024 0.615875 0.141602
0.921051 0.616180 0.142273
0.942200 0.616302 0.141205
0.963348 0.617004 0.138733
0.981171 0.617340 0.138397
0.987183 0.615784 0.134888
0.007751 0.340302 0.155884
0.007477 0.335449 0.148071
0.007111 0.332916 0.134186
0.006927 0.334229 0.120605
0.006775 0.336182 0.110107
0.006775 0.342407 0.107513
0.006927 0.351837 0.109985
0.007446 0.366852 0.109436
0.008270 0.401367 0.100891
0.009125 0.444305 0.080963
0.030121 0.492523 0.083771
0.048218 0.527863 0.087036
0.166046 0.555389 0.086060
0.283997 0.577637 0.088104
0.349518 0.594269 0.093994
0.405731 0.607269 0.100708
0.459412 0.616913 0.103241
0.510437 0.623535 0.103180
0.563202 0.628967 0.111115
0.623352 0.632690 0.115448
0.679901 0.634674 0.123444
0.735291 0.634766 0.133636
0.768799 0.637848 0.132629
0.798920 0.640106 0.137360
0.829620 0.640533 0.145355
0.854340 0.642151 0.148529
0.878143 0.643555 0.150208
0.900818 0.644562 0.151917
0.921814 0.645233 0.152191
0.941711 0.645538 0.151703
0.962799 0.646179 0.148895
0.981537 0.646912 0.145874
0.987885 0.644592 0.140778
0.008606 0.361115 0.167786
0.008240 0.360138 0.160522
0.007996 0.357727 0.149628
0.007660 0.358429 0.134857
0.007599 0.359619 0.124298
0.007477 0.366608 0.115387
0.007782 0.375488 0.117920
0.008087 0.389069 0.122070
0.008759 0.419922 0.112915
0.009888 0.463318 0.095856
0.026367 0.513336 0.098358
0.046112 0.550415 0.097961
0.104797 0.578522 0.102539
0.258789 0.601227 0.105713
0.337067 0.618744 0.107361
0.396912 0.632629 0.109650
0.455078 0.644257 0.111328
0.513092 0.651794 0.113098
0.562866 0.657043 0.116974
0.611664 0.662231 0.129333
0.665833 0.665344 0.133820
0.717987 0.667358 0.139862
0.763702 0.667786 0.146912
0.798767 0.669037 0.146912
0.825989 0.670898 0.149384
0.853210 0.671600 0.155731
0.877716 0.672302 0.157806
0.899994 0.673492 0.158447
0.920288 0.674561 0.157654
0.939392 0.675415 0.156342
0.958191 0.676727 0.154022
0.974274 0.677338 0.150818
0.987885 0.674469 0.144653
0.009216 0.383453 0.180664
0.008972 0.382202 0.173309
0.008850 0.382416 0.161285
0.008667 0.382385 0.149597
0.008209 0.384460 0.133759
0.008148 0.390167 0.123962
0.008484 0.398621 0.125397
0.008942 0.413239 0.129608
0.009644 0.439270 0.120575
0.010529 0.482788 0.112823
0.022095 0.532043 0.115021
0.044373 0.571472 0.110931
0.075165 0.600372 0.119293
0.232422 0.623077 0.119171
0.325287 0.641693 0.118561
0.396942 0.655914 0.120697
0.462891 0.668152 0.123169
0.521698 0.678619 0.127960
0.570129 0.684570 0.133362
0.612030 0.689026 0.142548
0.657257 0.693817 0.155273
0.709869 0.696320 0.156158
0.753662 0.697845 0.158844
0.792847 0.698578 0.158508
0.825989 0.699249 0.155090
0.849518 0.701782 0.154785
0.874023 0.702454 0.156555
0.897980 0.702637 0.159637
0.918793 0.703339 0.158661
0.937744 0.704712 0.157715
0.956116 0.706604 0.155609
0.973236 0.707794 0.152740
0.987640 0.704803 0.146301
0.010101 0.403961 0.191101
0.009827 0.403809 0.186157
0.009766 0.404694 0.174377
0.009460 0.406250 0.161041
0.009125 0.407196 0.142853
0.009216 0.411041 0.136383
0.009186 0.421143 0.132324
0.009644 0.436707 0.135620
0.010284 0.457581 0.133514
0.011322 0.500000 0.129669
0.019623 0.548248 0.127625
0.043060 0.589966 0.124878
0.058075 0.619415 0.132690
0.191589 0.642944 0.132629
0.320923 0.662079 0.132751
0.404083 0.677338 0.128357
0.468323 0.690887 0.129486
0.527039 0.703003 0.136841
0.576050 0.710114 0.151001
0.617584 0.713715 0.160461
0.656769 0.718048 0.171661
0.701385 0.722351 0.174652
0.744659 0.724762 0.169678
0.783783 0.726044 0.166992
0.819183 0.726624 0.164734
0.851746 0.726715 0.159088
0.871979 0.729736 0.155518
0.894897 0.730408 0.155762
0.916992 0.730835 0.157257
0.937164 0.731506 0.157471
0.955292 0.733276 0.156158
0.972626 0.734772 0.153809
0.988617 0.733521 0.148071
0.010590 0.422516 0.200958
0.010620 0.423828 0.196716
0.010254 0.426147 0.186554
0.010101 0.426971 0.170197
0.009796 0.427673 0.156158
0.009857 0.433136 0.143402
0.010193 0.443176 0.137909
0.010345 0.458344 0.142578
0.010986 0.479126 0.143127
0.011871 0.516266 0.144440
0.015625 0.560516 0.135162
0.041718 0.607086 0.139130
0.057404 0.636993 0.143280
0.165863 0.661133 0.146667
0.325684 0.680817 0.143219
0.409454 0.697479 0.135437
0.473633 0.711395 0.139282
0.531342 0.723633 0.156616
0.582520 0.732880 0.174133
0.624084 0.737335 0.182617
0.661285 0.740082 0.187012
0.701874 0.744720 0.190338
0.739716 0.748383 0.187012
0.777649 0.750580 0.179626
0.811676 0.752228 0.173645
0.842041 0.753082 0.168335
0.875183 0.752289 0.163422
0.894440 0.754974 0.157196
0.915741 0.756104 0.155060
0.935608 0.756989 0.154877
0.955383 0.758026 0.155426
0.973328 0.759216 0.153564
0.990662 0.758453 0.149597
0.011292 0.438782 0.210419
0.011261 0.440887 0.205231
0.011047 0.443359 0.194366
0.010773 0.444855 0.182495
0.010529 0.446899 0.163361
0.010406 0.452087 0.148956
0.010712 0.461243 0.143524
0.011139 0.476044 0.147980
0.011536 0.496948 0.152588
0.012360 0.529114 0.150635
0.013336 0.570618 0.140167
0.040314 0.619629 0.149902
0.056732 0.650970 0.153381
0.169891 0.675873 0.157867
0.325989 0.696411 0.153015
0.411530 0.713287 0.150269
0.477173 0.727722 0.154083
0.533722 0.740204 0.173187
0.585754 0.750397 0.190796
0.629669 0.756378 0.198883
0.666840 0.759583 0.199524
0.704498 0.763794 0.198608
0.737885 0.768341 0.201324
0.772858 0.771729 0.192322
0.806854 0.773682 0.184937
0.836945 0.775055 0.178436
0.865723 0.775848 0.172974
0.894501 0.776306 0.166138
0.916504 0.778320 0.157013
0.936188 0.779846 0.152130
0.955841 0.781097 0.148987
0.975159 0.781830 0.147644
0.991913 0.781494 0.145477
0.011963 0.453552 0.218201
0.011810 0.457214 0.214233
0.011658 0.459900 0.202576
0.011475 0.460480 0.189301
0.011169 0.463379 0.170380
0.010895 0.468689 0.154602
0.011230 0.477417 0.149414
0.011597 0.491211 0.156586
0.012115 0.511047 0.160431
0.012848 0.537384 0.162903
0.013672 0.579468 0.146484
0.037994 0.628571 0.159363
0.055359 0.660797 0.161865
0.149567 0.686279 0.169006
0.312714 0.707245 0.164948
0.406464 0.725159 0.163605
0.475281 0.740601 0.166168
0.532440 0.753357 0.185181
0.584503 0.764404 0.201782
0.631470 0.773224 0.210449
0.670441 0.778473 0.210449
