Kodak Vision3 500T (5230) - Only contrast.cube
# Created by Benjamin (IWLTBAP) : http://luts.iwltbap.com
# Copyright: (C) Copyright 2010-2017 Triune Films and IWLTBAP SAS
# Cannot be resold, shared or otherwise redistributed
TITLE "Film Print Emulation LUTs Pack (Rec.709, sRGB, DCI-P3)"
LUT_3D_SIZE 33
0.000519 0.000519 0.000519
0.029968 0.000519 0.000519
0.054169 0.000549 0.000549
0.076294 0.000610 0.000610
0.099701 0.000641 0.000641
0.126312 0.000671 0.000671
0.153717 0.000702 0.000702
0.184998 0.000671 0.000671
0.218384 0.000641 0.000641
0.249634 0.000641 0.000641
0.284882 0.000610 0.000610
0.323944 0.000549 0.000549
0.361176 0.000488 0.000488
0.396912 0.000458 0.000458
0.433807 0.000397 0.000397
0.471069 0.000336 0.000336
0.505432 0.000305 0.000305
0.536316 0.000305 0.000305
0.569458 0.000275 0.000275
0.599731 0.000275 0.000275
0.624207 0.000305 0.000305
0.648712 0.000336 0.000336
0.674438 0.000366 0.000366
0.699005 0.000427 0.000427
0.721039 0.000458 0.000458
0.744324 0.000519 0.000519
0.767975 0.000549 0.000549
0.788544 0.000610 0.000610
0.806366 0.000702 0.000702
0.825562 0.000763 0.000763
0.844910 0.000854 0.000854
0.860840 0.000946 0.000946
0.876434 0.001038 0.001038
0.000519 0.029968 0.000519
0.029968 0.029968 0.000519
0.054138 0.029968 0.000549
0.076263 0.029999 0.000610
0.099670 0.030029 0.000641
0.126282 0.030029 0.000671
0.153717 0.030029 0.000702
0.185028 0.029999 0.000671
0.218414 0.029938 0.000671
0.249664 0.029907 0.000641
0.284943 0.029846 0.000610
0.324005 0.029785 0.000549
0.361237 0.029694 0.000488
0.396973 0.029633 0.000458
0.433868 0.029572 0.000397
0.471130 0.029480 0.000336
0.505463 0.029449 0.000305
0.536346 0.029419 0.000305
0.569489 0.029358 0.000275
0.599731 0.029327 0.000275
0.624176 0.029358 0.000305
0.648682 0.029358 0.000336
0.674438 0.029358 0.000366
0.698944 0.029358 0.000427
0.720978 0.029388 0.000458
0.744293 0.029419 0.000519
0.767944 0.029419 0.000549
0.788483 0.029480 0.000610
0.806274 0.029541 0.000702
0.825500 0.029572 0.000793
0.844818 0.029633 0.000854
0.860718 0.029694 0.000946
0.876343 0.029755 0.001068
0.000549 0.054169 0.000549
0.029968 0.054138 0.000549
0.054108 0.054108 0.000580
0.076263 0.054108 0.000641
0.099701 0.054108 0.000671
0.126312 0.054077 0.000702
0.153748 0.054047 0.000702
0.185059 0.053986 0.000702
0.218475 0.053925 0.000702
0.249725 0.053864 0.000671
0.285034 0.053772 0.000641
0.324097 0.053650 0.000580
0.361328 0.053558 0.000519
0.397064 0.053467 0.000488
0.433960 0.053345 0.000427
0.471222 0.053253 0.000397
0.505493 0.053162 0.000336
0.536377 0.053101 0.000336
0.569550 0.053040 0.000305
0.599731 0.052979 0.000305
0.624146 0.052948 0.000336
0.648682 0.052948 0.000397
0.674438 0.052917 0.000397
0.698944 0.052917 0.000458
0.720947 0.052917 0.000488
0.744293 0.052887 0.000549
0.767944 0.052887 0.000580
0.788422 0.052887 0.000641
0.806244 0.052917 0.000732
0.825470 0.052948 0.000824
0.844788 0.052948 0.000885
0.860657 0.053009 0.000977
0.876282 0.053040 0.001099
0.000610 0.076294 0.000610
0.029999 0.076263 0.000610
0.054108 0.076263 0.000641
0.076263 0.076263 0.000702
0.099701 0.076233 0.000732
0.126343 0.076233 0.000763
0.153778 0.076172 0.000763
0.185150 0.076141 0.000763
0.218567 0.076050 0.000732
0.249786 0.075989 0.000732
0.285156 0.075897 0.000702
0.324219 0.075806 0.000641
0.361420 0.075684 0.000580
0.397156 0.075592 0.000519
0.434082 0.075500 0.000488
0.471313 0.075409 0.000427
0.505585 0.075317 0.000397
0.536438 0.075256 0.000397
0.569641 0.075195 0.000366
0.599762 0.075134 0.000366
0.624176 0.075134 0.000397
0.648712 0.075104 0.000427
0.674469 0.075104 0.000458
0.698944 0.075073 0.000488
0.720947 0.075073 0.000549
0.744324 0.075073 0.000610
0.767944 0.075073 0.000641
0.788391 0.075073 0.000702
0.806213 0.075134 0.000793
0.825470 0.075134 0.000854
0.844757 0.075165 0.000946
0.860626 0.075226 0.001038
0.876251 0.075256 0.001129
0.000641 0.099701 0.000641
0.030029 0.099670 0.000641
0.054108 0.099701 0.000671
0.076233 0.099701 0.000732
0.099731 0.099731 0.000763
0.126373 0.099731 0.000793
0.153809 0.099701 0.000824
0.185211 0.099670 0.000793
0.218628 0.099609 0.000793
0.249847 0.099579 0.000763
0.285248 0.099518 0.000732
0.324310 0.099426 0.000671
0.361511 0.099335 0.000610
0.397247 0.099274 0.000580
0.434174 0.099213 0.000519
0.471405 0.099121 0.000488
0.505615 0.099060 0.000427
0.536499 0.099030 0.000427
0.569702 0.098969 0.000397
0.599792 0.098938 0.000397
0.624176 0.098969 0.000427
0.648712 0.098969 0.000488
0.674500 0.098969 0.000519
0.698944 0.098999 0.000549
0.720947 0.098999 0.000610
0.744324 0.099030 0.000641
0.767944 0.099060 0.000671
0.788361 0.099091 0.000763
0.806152 0.099152 0.000824
0.825439 0.099182 0.000916
0.844727 0.099243 0.000977
0.860535 0.099304 0.001099
0.876190 0.099396 0.001190
0.000671 0.126312 0.000671
0.030029 0.126282 0.000671
0.054077 0.126312 0.000702
0.076233 0.126343 0.000763
0.099731 0.126373 0.000793
0.126373 0.126373 0.000824
0.153839 0.126373 0.000854
0.185242 0.126343 0.000824
0.218658 0.126282 0.000824
0.249878 0.126251 0.000793
0.285309 0.126190 0.000763
0.324402 0.126129 0.000702
0.361572 0.126038 0.000641
0.397308 0.125977 0.000610
0.434235 0.125916 0.000549
0.471497 0.125854 0.000488
0.505676 0.125793 0.000458
0.536499 0.125763 0.000458
0.569733 0.125732 0.000427
0.599792 0.125702 0.000427
0.624146 0.125732 0.000458
0.648712 0.125732 0.000488
0.674469 0.125763 0.000519
0.698914 0.125763 0.000580
0.720917 0.125793 0.000610
0.744293 0.125824 0.000671
0.767914 0.125854 0.000702
0.788300 0.125885 0.000763
0.806091 0.125946 0.000854
0.825409 0.126007 0.000946
0.844666 0.126068 0.001007
0.860443 0.126129 0.001129
0.876129 0.126221 0.001221
0.000702 0.153717 0.000702
0.030029 0.153717 0.000702
0.054047 0.153748 0.000702
0.076172 0.153778 0.000763
0.099701 0.153809 0.000824
0.126373 0.153839 0.000854
0.153839 0.153839 0.000854
0.185303 0.153809 0.000854
0.218719 0.153778 0.000824
0.249908 0.153778 0.000824
0.285400 0.153717 0.000763
0.324463 0.153656 0.000702
0.361633 0.153595 0.000671
0.397369 0.153534 0.000610
0.434296 0.153473 0.000580
0.471558 0.153442 0.000519
0.505707 0.153381 0.000488
0.536530 0.153381 0.000488
0.569794 0.153351 0.000458
0.599792 0.153351 0.000458
0.624146 0.153381 0.000488
0.648682 0.153412 0.000519
0.674469 0.153442 0.000549
0.698883 0.153473 0.000580
0.720856 0.153534 0.000641
0.744263 0.153564 0.000671
0.767883 0.153595 0.000732
0.788239 0.153687 0.000793
0.806030 0.153748 0.000885
0.825348 0.153839 0.000946
0.844604 0.153900 0.001038
0.860352 0.153992 0.001129
0.876038 0.154083 0.001221
0.000671 0.184998 0.000671
0.029999 0.185028 0.000671
0.053986 0.185059 0.000702
0.076141 0.185150 0.000763
0.099670 0.185211 0.000793
0.126343 0.185242 0.000824
0.153809 0.185303 0.000854
0.185303 0.185303 0.000824
0.218719 0.185303 0.000824
0.249908 0.185303 0.000793
0.285431 0.185303 0.000763
0.324524 0.185242 0.000702
0.361664 0.185211 0.000641
0.397400 0.185211 0.000610
0.434326 0.185181 0.000549
0.471588 0.185150 0.000488
0.505707 0.185120 0.000488
0.536530 0.185150 0.000458
0.569794 0.185150 0.000458
0.599731 0.185150 0.000427
0.624084 0.185211 0.000488
0.648651 0.185272 0.000519
0.674438 0.185333 0.000549
0.698822 0.185394 0.000580
0.720795 0.185455 0.000641
0.744232 0.185547 0.000671
0.767822 0.185608 0.000732
0.788147 0.185699 0.000793
0.805939 0.185791 0.000885
0.825256 0.185883 0.000946
0.844513 0.185974 0.001007
0.860229 0.186096 0.001129
0.875916 0.186218 0.001221
0.000641 0.218384 0.000641
0.029938 0.218414 0.000671
0.053925 0.218475 0.000702
0.076050 0.218567 0.000732
0.099609 0.218628 0.000793
0.126282 0.218658 0.000824
0.153778 0.218719 0.000824
0.185303 0.218719 0.000824
0.218719 0.218719 0.000793
0.249908 0.218719 0.000763
0.285461 0.218719 0.000732
0.324554 0.218658 0.000671
0.361694 0.218628 0.000610
0.397400 0.218628 0.000580
0.434357 0.218597 0.000519
0.471619 0.218567 0.000488
0.505676 0.218536 0.000458
0.536499 0.218567 0.000458
0.569794 0.218567 0.000427
0.599701 0.218567 0.000427
0.624023 0.218628 0.000458
0.648590 0.218689 0.000488
0.674377 0.218750 0.000519
0.698761 0.218781 0.000549
0.720703 0.218872 0.000610
0.744171 0.218933 0.000671
0.767731 0.218994 0.000702
0.788025 0.219055 0.000763
0.805817 0.219177 0.000854
0.825165 0.219238 0.000916
0.844391 0.219330 0.001007
0.860107 0.219452 0.001099
0.875824 0.219574 0.001190
0.000641 0.249634 0.000641
0.029907 0.249664 0.000641
0.053864 0.249725 0.000671
0.075989 0.249786 0.000732
0.099579 0.249847 0.000763
0.126251 0.249878 0.000793
0.153778 0.249908 0.000824
0.185303 0.249908 0.000793
0.218719 0.249908 0.000763
0.249908 0.249908 0.000763
0.285492 0.249908 0.000732
0.324615 0.249847 0.000671
0.361725 0.249817 0.000610
0.397430 0.249817 0.000580
0.434387 0.249786 0.000519
0.471649 0.249756 0.000458
0.505676 0.249725 0.000427
0.536499 0.249756 0.000427
0.569824 0.249756 0.000397
0.599670 0.249786 0.000397
0.623962 0.249847 0.000458
0.648529 0.249878 0.000488
0.674347 0.249939 0.000519
0.698700 0.250000 0.000549
0.720642 0.250092 0.000610
0.744110 0.250153 0.000641
0.767670 0.250214 0.000702
0.787933 0.250305 0.000763
0.805725 0.250427 0.000854
0.825104 0.250519 0.000916
0.844299 0.250610 0.000977
0.859985 0.250732 0.001099
0.875702 0.250854 0.001190
0.000610 0.284882 0.000610
0.029846 0.284943 0.000610
0.053772 0.285034 0.000641
0.075897 0.285156 0.000702
0.099518 0.285248 0.000732
0.126190 0.285309 0.000763
0.153717 0.285400 0.000763
0.185303 0.285431 0.000763
0.218719 0.285461 0.000732
0.249908 0.285492 0.000732
0.285522 0.285522 0.000671
0.324615 0.285522 0.000610
0.361725 0.285522 0.000580
0.397461 0.285522 0.000519
0.434418 0.285553 0.000488
0.471680 0.285553 0.000427
0.505646 0.285583 0.000397
0.536469 0.285614 0.000397
0.569794 0.285645 0.000366
0.599609 0.285706 0.000366
0.623871 0.285797 0.000397
0.648468 0.285889 0.000427
0.674286 0.285980 0.000458
0.698608 0.286072 0.000519
0.720551 0.286194 0.000549
0.744019 0.286285 0.000610
0.767578 0.286407 0.000641
0.787811 0.286530 0.000702
0.805603 0.286682 0.000793
0.824982 0.286804 0.000885
0.844177 0.286926 0.000946
0.859833 0.287109 0.001038
0.875549 0.287262 0.001129
0.000549 0.323944 0.000549
0.029785 0.324005 0.000549
0.053650 0.324097 0.000580
0.075806 0.324219 0.000641
0.099426 0.324310 0.000671
0.126129 0.324402 0.000702
0.153656 0.324463 0.000702
0.185242 0.324524 0.000702
0.218658 0.324554 0.000671
0.249847 0.324615 0.000671
0.285522 0.324615 0.000610
0.324615 0.324615 0.000549
0.361725 0.324615 0.000519
0.397430 0.324646 0.000458
0.434387 0.324646 0.000427
0.471649 0.324646 0.000366
0.505615 0.324677 0.000336
0.536407 0.324738 0.000336
0.569763 0.324768 0.000305
0.599518 0.324829 0.000305
0.623779 0.324921 0.000336
0.648346 0.325012 0.000366
0.674194 0.325073 0.000397
0.698517 0.325165 0.000458
0.720428 0.325287 0.000488
0.743927 0.325378 0.000549
0.767487 0.325470 0.000580
0.787689 0.325592 0.000641
0.805450 0.325745 0.000732
0.824860 0.325867 0.000793
0.844025 0.325989 0.000885
0.859680 0.326141 0.000977
0.875397 0.326294 0.001068
0.000488 0.361176 0.000488
0.029694 0.361237 0.000488
0.053558 0.361328 0.000519
0.075684 0.361420 0.000580
0.099335 0.361511 0.000610
0.126038 0.361572 0.000641
0.153595 0.361633 0.000671
0.185211 0.361664 0.000641
0.218628 0.361694 0.000610
0.249817 0.361725 0.000610
0.285522 0.361725 0.000580
0.324615 0.361725 0.000519
0.361725 0.361725 0.000458
0.397430 0.361725 0.000427
0.434387 0.361725 0.000366
0.471649 0.361694 0.000305
0.505554 0.361725 0.000275
0.536377 0.361755 0.000275
0.569733 0.361786 0.000244
0.599426 0.361816 0.000244
0.623688 0.361908 0.000305
0.648285 0.362000 0.000336
0.674103 0.362061 0.000366
0.698425 0.362152 0.000397
0.720306 0.362244 0.000458
0.743835 0.362335 0.000488
0.767365 0.362427 0.000549
0.787537 0.362518 0.000610
0.805328 0.362671 0.000702
0.824738 0.362762 0.000763
0.843903 0.362885 0.000824
0.859497 0.363037 0.000946
0.875275 0.363159 0.001038
0.000458 0.396912 0.000458
0.029633 0.396973 0.000458
0.053467 0.397064 0.000488
0.075592 0.397156 0.000519
0.099274 0.397247 0.000580
0.125977 0.397308 0.000610
0.153534 0.397369 0.000610
0.185211 0.397400 0.000610
0.218628 0.397400 0.000580
0.249817 0.397430 0.000580
0.285522 0.397461 0.000519
0.324646 0.397430 0.000458
0.361725 0.397430 0.000427
0.397430 0.397430 0.000366
0.434418 0.397430 0.000336
0.471680 0.397430 0.000275
0.505524 0.397430 0.000244
0.536346 0.397491 0.000244
0.569702 0.397491 0.000214
0.599365 0.397552 0.000214
0.623596 0.397644 0.000244
0.648193 0.397705 0.000275
0.674042 0.397797 0.000305
0.698334 0.397858 0.000366
0.720215 0.397980 0.000397
0.743744 0.398071 0.000458
0.767273 0.398163 0.000488
0.787415 0.398285 0.000549
0.805176 0.398407 0.000641
0.824646 0.398529 0.000732
0.843781 0.398651 0.000793
0.859375 0.398804 0.000885
0.875122 0.398926 0.000977
0.000397 0.433807 0.000397
0.029572 0.433868 0.000397
0.053345 0.433960 0.000427
0.075500 0.434082 0.000488
0.099213 0.434174 0.000519
0.125916 0.434235 0.000549
0.153473 0.434296 0.000580
0.185181 0.434326 0.000549
0.218597 0.434357 0.000519
0.249786 0.434387 0.000519
0.285553 0.434418 0.000488
0.324646 0.434387 0.000427
0.361725 0.434387 0.000366
0.397430 0.434418 0.000336
0.434418 0.434418 0.000275
0.471680 0.434418 0.000214
0.505493 0.434418 0.000183
0.536316 0.434479 0.000183
0.569672 0.434509 0.000153
0.599304 0.434540 0.000153
0.623505 0.434631 0.000214
0.648102 0.434723 0.000244
0.673950 0.434814 0.000275
0.698212 0.434906 0.000305
0.720123 0.434998 0.000366
0.743652 0.435089 0.000397
0.767181 0.435181 0.000458
0.787292 0.435303 0.000519
0.805054 0.435425 0.000610
0.824524 0.435547 0.000671
0.843628 0.435669 0.000732
0.859192 0.435822 0.000854
0.874969 0.435974 0.000946
0.000336 0.471069 0.000336
0.029480 0.471130 0.000336
0.053253 0.471222 0.000397
0.075409 0.471313 0.000427
0.099121 0.471405 0.000488
0.125854 0.471497 0.000488
0.153442 0.471558 0.000519
0.185150 0.471588 0.000488
0.218567 0.471619 0.000488
0.249756 0.471649 0.000458
0.285553 0.471680 0.000427
0.324646 0.471649 0.000366
0.361694 0.471649 0.000305
0.397430 0.471680 0.000275
0.434418 0.471680 0.000214
0.471680 0.471680 0.000183
0.505463 0.471680 0.000153
0.536255 0.471741 0.000122
0.569641 0.471771 0.000122
0.599213 0.471802 0.000122
0.623413 0.471893 0.000153
0.648041 0.471985 0.000183
0.673889 0.472076 0.000214
0.698120 0.472137 0.000244
0.720001 0.472260 0.000305
0.743561 0.472351 0.000366
0.767090 0.472443 0.000397
0.787170 0.472565 0.000458
0.804932 0.472687 0.000549
0.824402 0.472809 0.000610
0.843506 0.472931 0.000702
0.859039 0.473083 0.000793
0.874847 0.473236 0.000885
0.000305 0.505432 0.000305
0.029449 0.505463 0.000305
0.053162 0.505493 0.000336
0.075317 0.505585 0.000397
0.099060 0.505615 0.000427
0.125793 0.505676 0.000458
0.153381 0.505707 0.000488
0.185120 0.505707 0.000488
0.218536 0.505676 0.000458
0.249725 0.505676 0.000427
0.285583 0.505646 0.000397
0.324677 0.505615 0.000336
0.361725 0.505554 0.000275
0.397430 0.505524 0.000244
0.434418 0.505493 0.000183
0.471680 0.505463 0.000153
0.505463 0.505463 0.000122
0.536224 0.505463 0.000122
0.569641 0.505432 0.000092
0.599152 0.505463 0.000092
0.623352 0.505493 0.000122
0.647980 0.505554 0.000153
0.673828 0.505585 0.000183
0.698059 0.505646 0.000244
0.719940 0.505707 0.000275
0.743500 0.505768 0.000336
0.766998 0.505829 0.000366
0.787048 0.505920 0.000427
0.804810 0.506012 0.000519
0.824310 0.506104 0.000610
0.843384 0.506165 0.000671
0.858917 0.506287 0.000763
0.874725 0.506409 0.000854
0.000305 0.536316 0.000305
0.029419 0.536346 0.000305
0.053101 0.536377 0.000336
0.075256 0.536438 0.000397
0.099030 0.536499 0.000427
0.125763 0.536499 0.000458
0.153381 0.536530 0.000488
0.185150 0.536530 0.000458
0.218567 0.536499 0.000458
0.249756 0.536499 0.000427
0.285614 0.536469 0.000397
0.324738 0.536407 0.000336
0.361755 0.536377 0.000275
0.397491 0.536346 0.000244
0.434479 0.536316 0.000183
0.471741 0.536255 0.000122
0.505463 0.536224 0.000122
0.536255 0.536255 0.000092
0.569672 0.536224 0.000092
0.599121 0.536224 0.000092
0.623322 0.536285 0.000092
0.647919 0.536316 0.000153
0.673798 0.536377 0.000183
0.697998 0.536407 0.000214
0.719879 0.536469 0.000275
0.743439 0.536530 0.000336
0.766937 0.536591 0.000366
0.786957 0.536682 0.000427
0.804718 0.536774 0.000519
0.824249 0.536835 0.000580
0.843323 0.536926 0.000671
0.858795 0.537048 0.000763
0.874634 0.537140 0.000854
0.000275 0.569458 0.000275
0.029358 0.569489 0.000275
0.053040 0.569550 0.000305
0.075195 0.569641 0.000366
0.098969 0.569702 0.000397
0.125732 0.569733 0.000427
0.153351 0.569794 0.000458
0.185150 0.569794 0.000458
0.218567 0.569794 0.000427
0.249756 0.569824 0.000397
0.285645 0.569794 0.000366
0.324768 0.569763 0.000305
0.361786 0.569733 0.000244
0.397491 0.569702 0.000214
0.434509 0.569672 0.000153
0.471771 0.569641 0.000122
0.505432 0.569641 0.000092
0.536224 0.569672 0.000092
0.569672 0.569672 0.000061
0.599060 0.569672 0.000061
0.623260 0.569733 0.000092
0.647858 0.569794 0.000122
0.673737 0.569855 0.000153
0.697937 0.569916 0.000214
0.719788 0.569977 0.000244
0.743378 0.570038 0.000305
0.766876 0.570099 0.000336
0.786865 0.570190 0.000397
0.804626 0.570282 0.000488
0.824158 0.570374 0.000580
0.843201 0.570465 0.000641
0.858673 0.570587 0.000732
0.874512 0.570679 0.000824
0.000275 0.599731 0.000275
0.029327 0.599731 0.000275
0.052979 0.599731 0.000305
0.075134 0.599762 0.000366
0.098938 0.599792 0.000397
0.125702 0.599792 0.000427
0.153351 0.599792 0.000458
0.185150 0.599731 0.000427
0.218567 0.599701 0.000427
0.249786 0.599670 0.000397
0.285706 0.599609 0.000366
0.324829 0.599518 0.000305
0.361816 0.599426 0.000244
0.397552 0.599365 0.000214
0.434540 0.599304 0.000153
0.471802 0.599213 0.000122
0.505463 0.599152 0.000092
0.536224 0.599121 0.000092
0.569672 0.599060 0.000061
0.599060 0.599060 0.000061
0.623199 0.599060 0.000092
0.647827 0.599060 0.000122
0.673706 0.599060 0.000153
0.697876 0.599060 0.000183
0.719727 0.599091 0.000244
0.743347 0.599121 0.000275
0.766846 0.599121 0.000336
0.786774 0.599152 0.000397
0.804535 0.599213 0.000488
0.824097 0.599243 0.000580
0.843109 0.599304 0.000641
0.858582 0.599365 0.000763
0.874420 0.599426 0.000854
0.000305 0.624207 0.000305
0.029358 0.624176 0.000305
0.052948 0.624146 0.000336
0.075134 0.624176 0.000397
0.098969 0.624176 0.000427
0.125732 0.624146 0.000458
0.153381 0.624146 0.000488
0.185211 0.624084 0.000488
0.218628 0.624023 0.000458
0.249847 0.623962 0.000458
0.285797 0.623871 0.000397
0.324921 0.623779 0.000336
0.361908 0.623688 0.000305
0.397644 0.623596 0.000244
0.434631 0.623505 0.000214
0.471893 0.623413 0.000153
0.505493 0.623352 0.000122
0.536285 0.623322 0.000092
0.569733 0.623260 0.000092
0.599060 0.623199 0.000092
0.623199 0.623199 0.000122
0.647858 0.623199 0.000153
0.673737 0.623199 0.000183
0.697876 0.623199 0.000244
0.719727 0.623199 0.000275
0.743347 0.623230 0.000336
0.766815 0.623230 0.000366
0.786743 0.623260 0.000458
0.804504 0.623291 0.000519
0.824066 0.623322 0.000610
0.843079 0.623383 0.000671
0.858490 0.623444 0.000793
0.874359 0.623474 0.000885
0.000336 0.648712 0.000336
0.029358 0.648682 0.000336
0.052948 0.648682 0.000397
0.075104 0.648712 0.000427
0.098969 0.648712 0.000488
0.125732 0.648712 0.000488
0.153412 0.648682 0.000519
0.185272 0.648651 0.000519
0.218689 0.648590 0.000488
0.249878 0.648529 0.000488
0.285889 0.648468 0.000427
0.325012 0.648346 0.000366
0.362000 0.648285 0.000336
0.397705 0.648193 0.000275
0.434723 0.648102 0.000244
0.471985 0.648041 0.000183
0.505554 0.647980 0.000153
0.536316 0.647919 0.000153
0.569794 0.647858 0.000122
0.599060 0.647827 0.000122
0.623199 0.647858 0.000153
0.647858 0.647858 0.000214
0.673737 0.647827 0.000214
0.697876 0.647858 0.000275
0.719696 0.647858 0.000336
0.743347 0.647858 0.000366
0.766815 0.647888 0.000397
0.786682 0.647919 0.000488
0.804443 0.647980 0.000549
0.824036 0.648010 0.000641
0.843018 0.648041 0.000732
0.858429 0.648102 0.000824
0.874298 0.648163 0.000916
0.000366 0.674438 0.000366
0.029358 0.674438 0.000366
0.052917 0.674438 0.000397
0.075104 0.674469 0.000458
0.098969 0.674500 0.000519
0.125763 0.674469 0.000519
0.153442 0.674469 0.000549
0.185333 0.674438 0.000549
0.218750 0.674377 0.000519
0.249939 0.674347 0.000519
0.285980 0.674286 0.000458
0.325073 0.674194 0.000397
0.362061 0.674103 0.000366
0.397797 0.674042 0.000305
0.434814 0.673950 0.000275
0.472076 0.673889 0.000214
0.505585 0.673828 0.000183
0.536377 0.673798 0.000183
0.569855 0.673737 0.000153
0.599060 0.673706 0.000153
0.623199 0.673737 0.000183
0.647827 0.673737 0.000214
0.673737 0.673737 0.000244
0.697845 0.673737 0.000305
0.719666 0.673767 0.000366
0.743317 0.673798 0.000397
0.766785 0.673798 0.000427
0.786652 0.673859 0.000519
0.804382 0.673889 0.000580
0.824005 0.673950 0.000671
0.842957 0.673981 0.000763
0.858337 0.674042 0.000854
0.874237 0.674133 0.000946
0.000427 0.699005 0.000427
0.029358 0.698944 0.000427
0.052917 0.698944 0.000458
0.075073 0.698944 0.000488
0.098999 0.698944 0.000549
0.125763 0.698914 0.000580
0.153473 0.698883 0.000580
0.185394 0.698822 0.000580
0.218781 0.698761 0.000549
0.250000 0.698700 0.000549
0.286072 0.698608 0.000519
0.325165 0.698517 0.000458
0.362152 0.698425 0.000397
0.397858 0.698334 0.000366
0.434906 0.698212 0.000305
0.472137 0.698120 0.000244
0.505646 0.698059 0.000244
0.536407 0.697998 0.000214
0.569916 0.697937 0.000214
0.599060 0.697876 0.000183
0.623199 0.697876 0.000244
0.647858 0.697876 0.000275
0.673737 0.697845 0.000305
0.697845 0.697845 0.000336
0.719666 0.697845 0.000397
0.743317 0.697845 0.000427
0.766754 0.697845 0.000488
0.786591 0.697845 0.000549
0.804352 0.697876 0.000641
0.823975 0.697906 0.000732
0.842926 0.697937 0.000793
0.858276 0.697998 0.000885
0.874176 0.698029 0.001007
0.000458 0.721039 0.000458
0.029388 0.720978 0.000458
0.052917 0.720947 0.000488
0.075073 0.720947 0.000549
0.098999 0.720947 0.000610
0.125793 0.720917 0.000610
0.153534 0.720856 0.000641
0.185455 0.720795 0.000641
0.218872 0.720703 0.000610
0.250092 0.720642 0.000610
0.286194 0.720551 0.000549
0.325287 0.720428 0.000488
0.362244 0.720306 0.000458
0.397980 0.720215 0.000397
0.434998 0.720123 0.000366
0.472260 0.720001 0.000305
0.505707 0.719940 0.000275
0.536469 0.719879 0.000275
0.569977 0.719788 0.000244
0.599091 0.719727 0.000244
0.623199 0.719727 0.000275
0.647858 0.719696 0.000336
0.673767 0.719666 0.000366
0.697845 0.719666 0.000397
0.719666 0.719666 0.000458
0.743347 0.719666 0.000488
0.766785 0.719635 0.000549
0.786560 0.719666 0.000610
0.804321 0.719696 0.000702
0.823944 0.719727 0.000763
0.842896 0.719727 0.000854
0.858246 0.719788 0.000946
0.874146 0.719849 0.001038
0.000519 0.744324 0.000519
0.029419 0.744293 0.000519
0.052887 0.744293 0.000549
0.075073 0.744324 0.000610
0.099030 0.744324 0.000641
0.125824 0.744293 0.000671
0.153564 0.744263 0.000671
0.185547 0.744232 0.000671
0.218933 0.744171 0.000671
0.250153 0.744110 0.000641
0.286285 0.744019 0.000610
0.325378 0.743927 0.000549
0.362335 0.743835 0.000488
0.398071 0.743744 0.000458
0.435089 0.743652 0.000397
0.472351 0.743561 0.000366
0.505768 0.743500 0.000336
0.536530 0.743439 0.000336
0.570038 0.743378 0.000305
0.599121 0.743347 0.000275
0.623230 0.743347 0.000336
0.647858 0.743347 0.000366
0.673798 0.743317 0.000397
0.697845 0.743317 0.000427
0.719666 0.743347 0.000488
0.743347 0.743347 0.000549
0.766754 0.743347 0.000580
0.786530 0.743378 0.000671
0.804291 0.743408 0.000763
0.823944 0.743439 0.000824
0.842865 0.743469 0.000885
0.858185 0.743530 0.001007
0.874084 0.743591 0.001099
0.000549 0.767975 0.000549
0.029419 0.767944 0.000549
0.052887 0.767944 0.000580
0.075073 0.767944 0.000641
0.099060 0.767944 0.000671
0.125854 0.767914 0.000702
0.153595 0.767883 0.000732
0.185608 0.767822 0.000732
0.218994 0.767731 0.000702
0.250214 0.767670 0.000702
0.286407 0.767578 0.000641
0.325470 0.767487 0.000580
0.362427 0.767365 0.000549
0.398163 0.767273 0.000488
0.435181 0.767181 0.000458
0.472443 0.767090 0.000397
0.505829 0.766998 0.000366
0.536591 0.766937 0.000366
0.570099 0.766876 0.000336
0.599121 0.766846 0.000336
0.623230 0.766815 0.000366
