Kodak Vision 500T (5263) - Only color.cube
# Created by Benjamin (IWLTBAP) : http://luts.iwltbap.com
# Copyright: (C) Copyright 2010-2017 Triune Films and IWLTBAP SAS
# Cannot be resold, shared or otherwise redistributed
TITLE "Film Print Emulation LUTs Pack (Rec.709, sRGB, DCI-P3)"
LUT_3D_SIZE 33
0.000000 0.000000 0.000000
0.016937 0.000000 0.000580
0.050079 0.000000 0.000916
0.087860 0.000000 0.001343
0.123840 0.000000 0.001740
0.155457 0.000000 0.002075
0.183258 0.000153 0.002594
0.208282 0.012177 0.003143
0.234467 0.025787 0.003540
0.262238 0.033295 0.003906
0.289764 0.041565 0.004303
0.316742 0.050507 0.004669
0.344116 0.058716 0.005066
0.370575 0.067230 0.005463
0.396271 0.074585 0.005829
0.421661 0.082428 0.006195
0.446991 0.090179 0.006622
0.473389 0.097900 0.007019
0.500549 0.106018 0.007446
0.527924 0.114532 0.007904
0.555450 0.123688 0.008331
0.583069 0.133331 0.010925
0.611389 0.143341 0.015686
0.640167 0.153351 0.020447
0.669464 0.163361 0.027344
0.700195 0.173798 0.036102
0.732117 0.186554 0.048065
0.767059 0.199738 0.060974
0.806915 0.212708 0.069122
0.852905 0.226135 0.075439
0.905212 0.239410 0.085083
0.963043 0.252502 0.094910
0.998352 0.267792 0.105865
0.000000 0.020233 0.000549
0.000000 0.025146 0.000580
0.058533 0.018555 0.001526
0.090118 0.025513 0.001953
0.124786 0.025574 0.002319
0.156219 0.026611 0.002655
0.184235 0.034912 0.003052
0.209534 0.044464 0.003387
0.236786 0.050385 0.003754
0.264801 0.056641 0.004120
0.291351 0.063019 0.004486
0.318085 0.068848 0.004852
0.344666 0.075073 0.005219
0.371002 0.081543 0.005615
0.396667 0.087830 0.005981
0.422180 0.095062 0.006378
0.447418 0.101379 0.006744
0.473785 0.108917 0.007172
0.501038 0.116943 0.007599
0.528320 0.124817 0.008026
0.555908 0.133331 0.010590
0.583740 0.142090 0.013184
0.612061 0.151489 0.017944
0.640717 0.160950 0.024841
0.670044 0.170532 0.031616
0.700897 0.180969 0.040161
0.732910 0.193237 0.051605
0.767731 0.205994 0.063507
0.807831 0.218750 0.071045
0.853973 0.231934 0.077606
0.906219 0.244568 0.088043
0.965118 0.257141 0.096802
0.998352 0.271362 0.106903
0.000000 0.054047 0.000793
0.013702 0.055603 0.001343
0.039642 0.057617 0.001617
0.078369 0.059631 0.002075
0.121155 0.059052 0.002533
0.155518 0.061005 0.002930
0.183411 0.065277 0.003265
0.211792 0.068756 0.003632
0.239655 0.071991 0.003967
0.266846 0.075989 0.004333
0.293182 0.079742 0.004669
0.319672 0.084991 0.005035
0.346008 0.090576 0.005402
0.371704 0.096161 0.005798
0.397156 0.101410 0.006165
0.422546 0.108002 0.006531
0.447968 0.113922 0.006927
0.474457 0.120789 0.007324
0.501526 0.127930 0.007721
0.528870 0.135986 0.010284
0.556396 0.143341 0.012848
0.584381 0.151520 0.015442
0.612701 0.160309 0.022369
0.641510 0.169312 0.027069
0.670746 0.178436 0.033783
0.701569 0.188812 0.044098
0.733734 0.200806 0.054962
0.768707 0.212891 0.065735
0.808838 0.225525 0.073212
0.855103 0.238007 0.080383
0.907440 0.250641 0.090851
0.966034 0.262604 0.098724
0.998352 0.275726 0.108429
0.000000 0.083130 0.001038
0.000000 0.087341 0.001068
0.023895 0.087891 0.001740
0.066437 0.088684 0.002197
0.104095 0.090637 0.002655
0.149567 0.090240 0.003143
0.183228 0.090637 0.003540
0.212769 0.092163 0.003876
0.241638 0.094757 0.004242
0.268982 0.097626 0.004608
0.295593 0.101105 0.004944
0.321838 0.105103 0.005310
0.347900 0.109924 0.005676
0.372925 0.114563 0.006042
0.397888 0.119629 0.006378
0.423309 0.124847 0.006744
0.448761 0.130402 0.007141
0.475098 0.136780 0.007538
0.502258 0.143127 0.010071
0.529510 0.149658 0.012604
0.557190 0.156799 0.015198
0.585266 0.164246 0.019928
0.613678 0.172211 0.026764
0.642426 0.180817 0.033478
0.671692 0.189789 0.039948
0.702667 0.199585 0.049683
0.734894 0.211060 0.062195
0.769897 0.222717 0.069824
0.810455 0.234772 0.075531
0.856812 0.246887 0.085175
0.909149 0.258667 0.094543
0.967255 0.270386 0.101715
0.998352 0.281464 0.110901
0.000000 0.109955 0.001343
0.000000 0.113678 0.001404
0.019684 0.113800 0.001984
0.057526 0.113770 0.002411
0.099121 0.113159 0.002869
0.130829 0.117065 0.005341
0.177795 0.117065 0.003784
0.212280 0.117950 0.004211
0.241516 0.119995 0.004578
0.270264 0.122894 0.004944
0.297852 0.125732 0.005280
0.324310 0.128784 0.005646
0.350067 0.132324 0.005981
0.374908 0.136292 0.006317
0.399445 0.140411 0.006653
0.424133 0.144653 0.007019
0.449493 0.149689 0.009491
0.476013 0.155243 0.012024
0.503143 0.161041 0.014587
0.530457 0.167053 0.017151
0.558197 0.173279 0.021851
0.586090 0.180084 0.026550
0.614777 0.187378 0.033264
0.643646 0.195312 0.039734
0.673248 0.203796 0.047699
0.704163 0.213593 0.057922
0.736359 0.223999 0.067596
0.771729 0.235229 0.073303
0.812408 0.246490 0.080475
0.859009 0.258057 0.090973
0.911469 0.269287 0.098297
0.968689 0.280151 0.106903
0.998383 0.291077 0.115204
0.000000 0.133911 0.001648
0.006561 0.134857 0.002106
0.037842 0.134827 0.002441
0.067657 0.134827 0.002777
0.095734 0.136139 0.003113
0.126343 0.136902 0.005524
0.159485 0.140961 0.008057
0.202850 0.145447 0.004425
0.240082 0.146637 0.004883
0.269867 0.149292 0.005249
0.298645 0.151642 0.005615
0.326691 0.154633 0.005981
0.352325 0.156891 0.006317
0.377167 0.160004 0.006653
0.401672 0.163055 0.006989
0.425995 0.166687 0.009430
0.450317 0.170441 0.016205
0.476959 0.175537 0.018738
0.504150 0.180511 0.021301
0.531433 0.186279 0.025970
0.559174 0.192444 0.030579
0.587311 0.198761 0.037140
0.615936 0.205383 0.043427
0.645111 0.212463 0.051056
0.675049 0.220551 0.059235
0.705872 0.229675 0.066650
0.738342 0.239624 0.072845
0.774017 0.250000 0.078705
0.814880 0.260742 0.089172
0.861694 0.271484 0.096497
0.914459 0.282166 0.104370
0.970642 0.292267 0.112366
0.998383 0.302734 0.120270
0.005402 0.155212 0.002319
0.030182 0.155182 0.002594
0.051117 0.155396 0.002838
0.073334 0.156097 0.003082
0.100159 0.158569 0.003418
0.125519 0.160736 0.005829
0.154816 0.162018 0.012512
0.187744 0.164642 0.008698
0.229034 0.172577 0.011414
0.267365 0.174622 0.005524
0.297424 0.177246 0.005920
0.326263 0.179626 0.006287
0.354187 0.182739 0.006653
0.379578 0.185638 0.006989
0.404053 0.187897 0.007324
0.428284 0.190887 0.011902
0.452606 0.193970 0.018677
0.478149 0.197754 0.027588
0.505127 0.202515 0.032166
0.532471 0.207825 0.038666
0.560181 0.213013 0.042938
0.588318 0.218994 0.048859
0.617096 0.225281 0.055908
0.646637 0.232117 0.063171
0.677094 0.239319 0.068420
0.708069 0.248169 0.073425
0.740692 0.257538 0.079224
0.776581 0.267059 0.088287
0.817902 0.277130 0.096100
0.864929 0.286987 0.103363
0.916840 0.296936 0.111450
0.972900 0.306335 0.118927
0.998413 0.316071 0.125519
0.023163 0.177338 0.002777
0.040833 0.176727 0.002960
0.058441 0.176514 0.003174
0.078705 0.177124 0.003418
0.102478 0.177887 0.007874
0.127380 0.180847 0.010315
0.154144 0.185089 0.012787
0.183380 0.187714 0.019623
0.215607 0.190704 0.017914
0.255585 0.198212 0.012054
0.293182 0.202454 0.008301
0.324432 0.205414 0.006592
0.353058 0.207977 0.006958
0.380157 0.210693 0.007324
0.406189 0.213501 0.009796
0.430908 0.216583 0.014404
0.455261 0.219452 0.023315
0.480774 0.222748 0.032135
0.506653 0.226105 0.044434
0.533417 0.230499 0.053680
0.561279 0.235565 0.058655
0.589539 0.240814 0.064178
0.618439 0.246643 0.068390
0.648315 0.253021 0.071869
0.678986 0.259796 0.075409
0.711792 0.267700 0.080200
0.744934 0.276428 0.088348
0.780548 0.285767 0.096619
0.821381 0.295319 0.104950
0.868561 0.304565 0.112457
0.919373 0.313385 0.119415
0.975647 0.322296 0.125549
0.998444 0.331390 0.131744
0.036652 0.203766 0.003235
0.053650 0.203217 0.005493
0.068481 0.202362 0.005676
0.086823 0.201294 0.007965
0.107300 0.199860 0.010315
0.128174 0.200012 0.014832
0.152985 0.203156 0.019440
0.179871 0.207764 0.024109
0.210236 0.213104 0.028809
0.242432 0.216553 0.029236
0.279236 0.223633 0.016937
0.319000 0.228882 0.015350
0.350800 0.233124 0.015778
0.378662 0.235779 0.018311
0.405670 0.238525 0.020813
0.432037 0.241547 0.023315
0.457214 0.244812 0.032104
0.483398 0.247986 0.042511
0.509552 0.251282 0.053650
0.535583 0.254669 0.065216
0.562439 0.258728 0.071350
0.590790 0.263519 0.073669
0.620331 0.269226 0.076904
0.650238 0.275055 0.081268
0.681305 0.281799 0.086945
0.714355 0.289307 0.092560
0.749603 0.297180 0.096649
0.787567 0.305420 0.102905
0.828705 0.314209 0.111511
0.874023 0.322723 0.119446
0.923523 0.331055 0.126434
0.978790 0.339630 0.132568
0.998474 0.348267 0.138458
0.051605 0.231232 0.012146
0.065521 0.230011 0.012299
0.078644 0.229248 0.014587
0.096039 0.228180 0.016937
0.115112 0.227081 0.019287
0.134155 0.225525 0.021667
0.154327 0.223785 0.026154
0.177673 0.225128 0.032806
0.204559 0.230621 0.039337
0.234985 0.236694 0.045624
0.266785 0.240631 0.047882
0.296478 0.246918 0.036499
0.343414 0.254700 0.032990
0.375763 0.259674 0.035492
0.403931 0.263367 0.037872
0.430969 0.266357 0.042175
0.458099 0.269440 0.046295
0.484772 0.272827 0.055298
0.511475 0.276276 0.064026
0.538269 0.279938 0.071350
0.565430 0.283722 0.077484
0.592682 0.287659 0.087097
0.622314 0.292816 0.091339
0.652344 0.298462 0.094940
0.683838 0.305084 0.098572
0.717072 0.312103 0.102905
0.752502 0.319366 0.108063
0.792633 0.326843 0.112976
0.836670 0.334259 0.118591
0.881226 0.341766 0.125183
0.931427 0.349487 0.131439
0.987579 0.357300 0.138092
0.998474 0.365417 0.144440
0.066315 0.258972 0.023407
0.078247 0.257904 0.023560
0.090393 0.256653 0.025818
0.106293 0.255157 0.028107
0.123260 0.253784 0.032532
0.141357 0.252258 0.034790
0.160889 0.250549 0.041107
0.180756 0.248444 0.045197
0.202667 0.248291 0.051025
0.230042 0.254181 0.058075
0.260132 0.260895 0.065430
0.292023 0.265900 0.069855
0.320496 0.269897 0.063141
0.366577 0.280365 0.057648
0.400177 0.286224 0.059448
0.428833 0.290344 0.062439
0.456604 0.294159 0.066223
0.485229 0.297363 0.068298
0.512970 0.300873 0.072601
0.540131 0.304504 0.078369
0.567810 0.308624 0.087585
0.595795 0.312988 0.094971
0.624664 0.317596 0.102448
0.654816 0.323029 0.107513
0.686584 0.329193 0.111511
0.719971 0.335907 0.116272
0.755676 0.342468 0.120422
0.795868 0.349152 0.123932
0.839935 0.355408 0.127350
0.889526 0.361816 0.131042
0.940430 0.368774 0.137360
0.996460 0.375946 0.143707
0.998505 0.383301 0.149780
0.078552 0.286041 0.038605
0.089966 0.284821 0.040741
0.101379 0.283508 0.042816
0.115021 0.281799 0.044891
0.130676 0.279480 0.048828
0.149170 0.278839 0.052612
0.168274 0.277344 0.056183
0.187561 0.275330 0.062469
0.207458 0.273315 0.066498
0.228363 0.272186 0.070709
0.255768 0.278015 0.073608
0.285156 0.285400 0.078766
0.318115 0.292236 0.083893
0.344574 0.293610 0.080261
0.388611 0.305603 0.075073
0.424469 0.312500 0.075958
0.453949 0.317322 0.077698
0.483490 0.321564 0.080231
0.513367 0.325928 0.084534
0.542114 0.329712 0.089996
0.570251 0.333527 0.096802
0.598389 0.337494 0.104431
0.627655 0.342377 0.112457
0.658508 0.348694 0.120392
0.690063 0.354431 0.125214
0.723114 0.359985 0.128204
0.758667 0.365906 0.131104
0.797607 0.371216 0.133911
0.841858 0.376984 0.137421
0.892090 0.382843 0.140808
0.948975 0.388824 0.143738
0.998505 0.395447 0.149780
0.998535 0.402344 0.155609
0.092407 0.312988 0.057526
0.102325 0.312012 0.059204
0.112305 0.310791 0.062256
0.124512 0.309143 0.063721
0.139282 0.307068 0.066376
0.155731 0.304291 0.069733
0.174591 0.303040 0.071533
0.195190 0.302612 0.074310
0.214813 0.300903 0.077026
0.234650 0.298676 0.080170
0.254608 0.296509 0.084015
0.281982 0.302979 0.088531
0.310608 0.310394 0.093628
0.344421 0.318665 0.099792
0.369690 0.319397 0.097534
0.409332 0.329498 0.091614
0.448395 0.338867 0.093811
0.480713 0.344788 0.096008
0.511536 0.349365 0.098694
0.542023 0.354065 0.101959
0.572388 0.358521 0.106476
0.600983 0.362457 0.114838
0.631592 0.367950 0.121704
0.662537 0.373901 0.128174
0.694519 0.379791 0.134674
0.727325 0.385071 0.140106
0.761017 0.389252 0.142365
0.799408 0.393677 0.144928
0.843994 0.398956 0.148132
0.894470 0.404419 0.150909
0.951569 0.410126 0.154266
0.998535 0.415985 0.157257
0.998566 0.422150 0.161804
0.107727 0.340515 0.073730
0.115509 0.339539 0.074371
0.124237 0.338470 0.074982
0.135529 0.336975 0.076111
0.149841 0.335022 0.078094
0.165344 0.332520 0.079865
0.182678 0.329620 0.082764
0.201111 0.327576 0.085510
0.221680 0.327087 0.089081
0.242645 0.326569 0.092804
0.262695 0.324707 0.095886
0.282013 0.322449 0.099426
0.308563 0.328003 0.103058
0.337250 0.335632 0.107422
0.369446 0.344025 0.113831
0.395905 0.346344 0.113831
0.428741 0.352783 0.106964
0.473267 0.364563 0.110474
0.508698 0.371979 0.113892
0.540192 0.376862 0.117157
0.571655 0.381683 0.120819
0.604614 0.388428 0.125214
0.635742 0.393738 0.130249
0.666748 0.399017 0.136261
0.697784 0.403748 0.142334
0.730133 0.408875 0.148132
0.765015 0.414032 0.154388
0.803894 0.418243 0.157043
0.847931 0.422455 0.159332
0.897400 0.426849 0.161865
0.954224 0.431671 0.164703
0.998566 0.437073 0.167786
0.998596 0.442719 0.170837
0.122345 0.369293 0.084625
0.129883 0.368225 0.086090
0.137573 0.366882 0.087128
0.148254 0.365173 0.089142
0.161530 0.363007 0.091522
0.176270 0.360565 0.093323
0.192566 0.357971 0.095520
0.209656 0.354919 0.097687
0.228149 0.352325 0.100800
0.248810 0.351837 0.103058
0.269989 0.351471 0.106415
0.290955 0.351196 0.110413
0.310089 0.348907 0.114746
0.335876 0.353607 0.118927
0.363861 0.361115 0.123383
0.394684 0.369324 0.127655
0.422791 0.373657 0.129333
0.444122 0.376007 0.125580
0.498383 0.389282 0.126862
0.537689 0.399506 0.130219
0.571655 0.406219 0.133850
0.605377 0.412964 0.137787
0.638336 0.418976 0.141205
0.669434 0.423584 0.144897
0.700287 0.427704 0.149902
0.732941 0.432495 0.155731
0.768127 0.437347 0.161926
0.808319 0.442352 0.168213
0.853241 0.446686 0.171814
0.903259 0.450775 0.173889
0.959595 0.455139 0.176483
0.998596 0.459686 0.179016
0.998596 0.464417 0.181854
0.137604 0.398163 0.097748
0.144470 0.397278 0.098175
0.152222 0.396057 0.099060
0.162201 0.394501 0.100372
0.174469 0.392365 0.101715
0.188751 0.389893 0.104034
0.203857 0.386719 0.106415
0.220276 0.383240 0.109924
0.237793 0.380096 0.112854
0.256134 0.376892 0.116150
0.276550 0.376617 0.119354
0.297485 0.376373 0.122498
0.318481 0.376099 0.125946
0.339020 0.375488 0.129303
0.362946 0.379028 0.133392
0.390808 0.387024 0.137695
0.421234 0.395691 0.142609
0.450531 0.401367 0.144836
0.474640 0.405426 0.142639
0.527496 0.417969 0.143402
0.570251 0.429932 0.147034
0.603546 0.435638 0.150208
0.637054 0.441406 0.153320
0.670410 0.447266 0.156708
0.703674 0.452606 0.160309
0.736023 0.456696 0.164795
0.771362 0.461060 0.169769
0.811951 0.466217 0.175720
0.857910 0.471405 0.181946
0.909180 0.476349 0.186554
0.965698 0.480499 0.188660
0.998627 0.484802 0.191010
0.998657 0.489288 0.193359
0.154266 0.427887 0.110413
0.160919 0.426941 0.111389
0.167725 0.426025 0.112366
0.177094 0.424530 0.113800
0.188568 0.422577 0.115204
0.201996 0.420166 0.117096
0.216980 0.417328 0.119812
0.233093 0.413849 0.122040
0.249908 0.410034 0.125092
0.266937 0.405853 0.127655
0.284637 0.402283 0.130554
0.305054 0.401886 0.133789
0.326141 0.401855 0.136932
0.347198 0.401855 0.140350
0.367767 0.402008 0.144440
0.390991 0.405426 0.148743
0.419312 0.414276 0.153229
0.449554 0.423523 0.157928
0.483948 0.432861 0.162476
0.510345 0.436066 0.160889
0.555511 0.445587 0.159607
0.600281 0.457855 0.162842
0.635468 0.464996 0.166016
0.668976 0.470673 0.169098
0.703796 0.477112 0.172455
0.739777 0.483246 0.175995
0.775360 0.487366 0.180023
0.815918 0.491577 0.184479
0.861877 0.496246 0.189545
0.914001 0.501343 0.195465
0.972076 0.506683 0.201416
0.998657 0.510681 0.203583
0.998688 0.514648 0.205750
0.172485 0.457214 0.124237
0.178253 0.456665 0.124664
0.184814 0.456055 0.125519
0.193481 0.455170 0.126373
0.204193 0.453369 0.127655
0.216980 0.451019 0.129303
0.231323 0.448364 0.131348
0.247009 0.445343 0.133759
0.263489 0.441803 0.136139
0.280457 0.437866 0.139221
0.297485 0.433655 0.142212
0.314667 0.428986 0.145874
0.334778 0.428253 0.149078
0.355408 0.428558 0.152191
0.376312 0.429291 0.155914
0.397186 0.430084 0.159546
0.419922 0.433105 0.163727
0.447906 0.441498 0.167786
0.478851 0.450623 0.172638
0.513611 0.460327 0.177338
0.544098 0.466858 0.178223
0.583160 0.473633 0.175629
0.630646 0.487457 0.178558
0.668427 0.496643 0.181946
0.701965 0.501190 0.185272
0.738556 0.507538 0.188507
0.778503 0.513824 0.191925
0.820404 0.518311 0.195801
0.866669 0.522369 0.200043
0.918518 0.526703 0.204376
0.976471 0.531219 0.209320
0.998718 0.536346 0.215271
0.998718 0.540436 0.218628
0.193848 0.491547 0.137299
0.198730 0.490479 0.138062
0.204193 0.489471 0.138458
0.211487 0.488007 0.138824
0.221069 0.485779 0.139984
0.233246 0.484131 0.141479
0.246857 0.481293 0.143341
0.261780 0.477936 0.145508
0.277405 0.474182 0.147675
0.293945 0.470276 0.150818
0.311249 0.466339 0.153564
0.328461 0.462036 0.156921
0.345673 0.457336 0.160828
0.365173 0.456238 0.164032
0.385742 0.456970 0.167450
0.406342 0.457794 0.171112
0.427094 0.458832 0.175262
0.449219 0.461212 0.179596
0.477753 0.469330 0.182983
0.508484 0.478882 0.187073
0.543152 0.489105 0.191864
0.578003 0.499359 0.195984
0.612396 0.504669 0.191895
0.660889 0.517303 0.195007
0.702515 0.528290 0.197784
0.737732 0.532959 0.201294
0.776398 0.538116 0.204468
0.821869 0.544281 0.207794
0.871002 0.549225 0.211487
0.922882 0.553101 0.215576
0.981018 0.557129 0.219757
0.998749 0.561188 0.223877
0.998749 0.566071 0.229370
0.215210 0.525970 0.150818
0.219818 0.525116 0.151184
0.224945 0.524078 0.151855
0.231781 0.522675 0.152191
0.240814 0.520874 0.153229
0.251801 0.518524 0.154236
0.263855 0.515808 0.155579
0.277405 0.512329 0.156921
0.292938 0.508972 0.159546
0.309204 0.505554 0.162109
0.326141 0.501648 0.165283
0.343170 0.497528 0.168671
0.360046 0.493073 0.172302
0.376495 0.488281 0.176422
0.395386 0.486572 0.179871
0.415955 0.487213 0.182953
0.436371 0.487976 0.186798
0.457336 0.489044 0.191040
0.479675 0.490540 0.195190
0.508484 0.498566 0.198456
0.538879 0.508026 0.202209
0.573395 0.518005 0.206787
0.609070 0.528687 0.211243
0.638153 0.536041 0.209381
0.691742 0.547058 0.211060
0.737946 0.559692 0.213837
0.776733 0.564484 0.216980
0.820007 0.568939 0.220520
0.870453 0.574402 0.223755
0.926910 0.579895 0.227325
0.985596 0.583710 0.231262
0.998779 0.587738 0.235535
0.998810 0.591736 0.239929
0.237640 0.561707 0.163727
0.241791 0.560791 0.164337
0.246307 0.559937 0.164642
0.253021 0.558655 0.165283
0.261139 0.556854 0.166229
0.271362 0.554688 0.167145
0.282837 0.552063 0.168365
0.295654 0.549011 0.169617
0.309753 0.545380 0.171722
0.325012 0.540894 0.173798
0.341156 0.536774 0.176453
0.357513 0.532745 0.179871
0.373993 0.528534 0.183228
0.390564 0.523987 0.187317
0.406982 0.519135 0.191284
0.425171 0.516846 0.195160
0.445862 0.517487 0.198456
0.467102 0.518555 0.202423
0.489197 0.519592 0.206512
0.511353 0.520813 0.211212
0.539703 0.528381 0.214447
0.569916 0.537170 0.217590
0.604004 0.547119 0.222229
0.639893 0.557648 0.226532
0.673065 0.568634 0.228241
0.724121 0.577728 0.227631
0.774200 0.589355 0.230347
0.820648 0.595612 0.233215
0.869812 0.600037 0.236450
0.924805 0.604706 0.239990
0.989838 0.610779 0.243286
0.998810 0.614532 0.247498
0.998840 0.618347 0.251648
0.259979 0.597961 0.177032
0.263855 0.597137 0.177307
0.268219 0.596313 0.177887
0.274231 0.594971 0.178192
0.281891 0.593384 0.179321
0.291321 0.591339 0.180176
0.302094 0.588776 0.181580
0.314453 0.585876 0.182983
0.327850 0.582520 0.184631
0.342010 0.578796 0.186554
0.357056 0.574097 0.188934
0.372314 0.568939 0.191315
0.388092 0.564178 0.194672
0.404541 0.559937 0.198700
0.420898 0.555298 0.202667
0.437317 0.550415 0.207001
0.455414 0.547577 0.210968
0.477203 0.548462 0.214661
0.499329 0.549225 0.218475
0.521393 0.550354 0.222839
0.543640 0.551544 0.227325
0.571533 0.558258 0.230896
0.601471 0.566742 0.233795
0.634949 0.576385 0.237640
0.670776 0.586853 0.242004
0.708771 0.599396 0.246094
0.758972 0.609039 0.244385
0.814606 0.619141 0.247070
0.870209 0.627411 0.249878
0.925842 0.631805 0.253021
0.987518 0.636078 0.256470
0.998840 0.640686 0.259705
0.998871 0.644897 0.263275
0.281647 0.635101 0.190002
0.285339 0.634369 0.190277
0.289337 0.633606 0.190796
0.294983 0.632355 0.191315
0.302094 0.630676 0.192108
0.311157 0.628693 0.193390
0.321594 0.626373 0.194427
0.333191 0.623474 0.195953
0.345947 0.620117 0.197479
0.359436 0.616577 0.199707
0.373199 0.612518 0.201447
0.388092 0.607574 0.204132
0.403259 0.602264 0.207001
0.418549 0.596466 0.210052
0.434570 0.591522 0.214203
0.451233 0.586853 0.218445
0.468292 0.582001 0.223267
0.486938 0.578552 0.227539
0.509064 0.579376 0.231293
0.531403 0.580292 0.234985
0.553711 0.581238 0.239197
0.576172 0.582428 0.244110
0.603333 0.588257 0.247589
0.633453 0.596588 0.250610
0.665955 0.605774 0.253784
0.702515 0.616119 0.257660
0.741486 0.627777 0.261444
0.797302 0.640350 0.261444
0.860077 0.649506 0.263885
0.924713 0.658356 0.266296
0.986725 0.662415 0.269348
0.998901 0.666565 0.272400
0.998901 0.670502 0.275421
0.303192 0.670258 0.204376
0.306732 0.669830 0.204376
0.310303 0.669403 0.204620
0.315643 0.668671 0.204834
0.322418 0.667725 0.205078
0.330688 0.665833 0.206299
0.340485 0.663544 0.207245
0.351410 0.660858 0.208893
0.363220 0.657776 0.210510
0.375977 0.654327 0.212372
0.389557 0.650513 0.214417
0.403656 0.646271 0.216919
0.418549 0.641388 0.219574
0.433716 0.635864 0.222839
0.449127 0.629913 0.226074
0.465179 0.623718 0.229645
0.482605 0.618744 0.234375
0.500244 0.613770 0.239410
0.518768 0.609833 0.244293
0.540802 0.610535 0.247955
0.563232 0.611420 0.251892
0.585907 0.612305 0.255981
0.608582 0.613373 0.260864
0.635162 0.618500 0.264740
0.665253 0.626740 0.267365
0.697540 0.635284 0.270111
0.735260 0.645142 0.273682
0.777313 0.656128 0.277527
0.838470 0.670807 0.278503
0.910400 0.680481 0.280396
0.983246 0.689056 0.282288
0.998932 0.693024 0.285004
0.998932 0.696777 0.287689
0.324615 0.704895 0.219788
0.327789 0.704407 0.220001
0.331207 0.704041 0.220215
0.336090 0.703278 0.220459
0.342316 0.702484 0.220673
0.350006 0.701324 0.220886
0.358887 0.699921 0.221313
0.369080 0.698303 0.221985
0.380249 0.695801 0.223297
0.392456 0.692383 0.225006
0.405396 0.688507 0.227356
0.419159 0.684387 0.229431
0.433350 0.679749 0.232147
0.448364 0.674652 0.235199
0.464172 0.668793 0.238617
0.480743 0.662842 0.242157
0.497253 0.656586 0.246216
0.514130 0.650452 0.250580
0.531860 0.645447 0.255768
0.550079 0.641083 0.261200
0.572418 0.641724 0.264923
0.594879 0.642487 0.268738
0.617859 0.643250 0.272980
0.640869 0.644165 0.277466
0.666595 0.648193 0.281403
0.697388 0.656128 0.284149
0.730560 0.664764 0.286865
0.769989 0.674194 0.289703
0.816833 0.684692 0.293091
0.875732 0.700623 0.295685
0.963867 0.711121 0.296082
0.998962 0.719147 0.297699
0.998993 0.722656 0.299652
0.345398 0.740417 0.235199
0.348328 0.740051 0.235382
0.351410 0.739502 0.235596
0.355774 0.738922 0.235809
0.361420 0.738007 0.235992
0.368469 0.736877 0.236420
0.376831 0.735474 0.236816
0.386353 0.733917 0.237427
0.397034 0.732056 0.238007
0.408722 0.729980 0.238800
0.421265 0.727539 0.239807
0.434418 0.723297 0.242371
0.448303 0.718781 0.244690
0.463104 0.713867 0.247589
0.478943 0.708374 0.250793
0.495392 0.702209 0.254517
0.512054 0.695892 0.258331
0.528839 0.689301 0.262451
0.545502 0.682404 0.266998
0.562958 0.676575 0.272308
0.581146 0.671753 0.277954
0.603516 0.672302 0.281555
0.626495 0.672882 0.285553
0.649658 0.673645 0.289673
0.672974 0.674591 0.294312
0.698883 0.678009 0.298401
0.730560 0.685913 0.300964
0.765533 0.694366 0.303192
0.808716 0.703125 0.305389
0.859863 0.713196 0.308289
0.919037 0.727478 0.310822
0.998993 0.740509 0.310760
0.999023 0.747467 0.311340
0.365906 0.779114 0.251160
0.368469 0.778656 0.251343
0.371368 0.778107 0.251343
0.375366 0.777496 0.251709
0.380585 0.776489 0.251892
0.387085 0.775146 0.252258
0.394897 0.773682 0.252655
0.403992 0.771912 0.253204
0.413971 0.769867 0.253937
0.425018 0.767639 0.254700
0.437012 0.765228 0.255432
0.450043 0.762604 0.256348
0.463959 0.759460 0.257629
0.478943 0.754425 0.260498
0.494293 0.749023 0.263702
0.510315 0.743286 0.266998
0.526886 0.736694 0.270966
0.543579 0.729828 0.275146
0.560425 0.722900 0.279449
0.577271 0.715637 0.283966
0.594299 0.708527 0.288879
