Kodak Vision3 500T (5219) - Only color 2.cube
# Created by Benjamin (IWLTBAP) : http://luts.iwltbap.com
# Copyright: (C) Copyright 2010-2017 Triune Films and IWLTBAP SAS
# Cannot be resold, shared or otherwise redistributed
TITLE "Film Print Emulation LUTs Pack (Rec.709, sRGB, DCI-P3)"
LUT_3D_SIZE 33
0.000000 0.000793 0.000000
0.022858 0.000580 0.000000
0.047180 0.002655 0.000000
0.074707 0.013672 0.000000
0.102631 0.023010 0.000000
0.128662 0.034454 0.000000
0.159515 0.048126 0.000000
0.193909 0.062012 0.000000
0.222168 0.076477 0.000000
0.249786 0.083862 0.000000
0.277374 0.088379 0.000000
0.303864 0.093231 0.000000
0.327301 0.100098 0.000000
0.350220 0.107727 0.000000
0.374268 0.115723 0.000000
0.398834 0.124634 0.000000
0.423431 0.134918 0.000000
0.447937 0.146851 0.000000
0.474701 0.156738 0.000000
0.497681 0.169739 0.000000
0.522461 0.180573 0.000000
0.544983 0.193237 0.000000
0.567139 0.206177 0.000000
0.587860 0.220795 0.000000
0.607635 0.236816 0.000000
0.628174 0.251343 0.000000
0.649353 0.264648 0.000000
0.669250 0.279724 0.000000
0.690674 0.292877 0.000000
0.709442 0.309204 0.000000
0.730743 0.323395 0.000000
0.751068 0.338928 0.000000
0.776794 0.349304 0.000000
0.008179 0.033417 0.000000
0.045319 0.035278 0.000000
0.076263 0.043579 0.000000
0.102966 0.046295 0.000000
0.130585 0.049866 0.000000
0.161072 0.058197 0.000000
0.187378 0.068268 0.000000
0.210205 0.079590 0.000000
0.235107 0.087067 0.000000
0.260254 0.091919 0.000000
0.287750 0.095856 0.000000
0.311920 0.100922 0.000000
0.337341 0.105774 0.000000
0.359192 0.114227 0.000000
0.381256 0.123596 0.000000
0.406342 0.131348 0.000000
0.430450 0.142670 0.000000
0.454590 0.154266 0.000000
0.480652 0.163116 0.000000
0.502808 0.176758 0.000000
0.527222 0.186768 0.000000
0.549927 0.198364 0.000000
0.570892 0.212067 0.000000
0.590637 0.227509 0.000000
0.612549 0.240204 0.000000
0.631805 0.255432 0.000000
0.653595 0.267914 0.000000
0.672546 0.283508 0.000000
0.691956 0.298920 0.000000
0.712372 0.313019 0.000000
0.731750 0.328979 0.000000
0.754089 0.342133 0.000000
0.777649 0.354706 0.000000
0.029541 0.066895 0.000000
0.054657 0.067535 0.000000
0.081421 0.068878 0.000000
0.105560 0.075989 0.000000
0.150818 0.082977 0.000000
0.182434 0.084839 0.000000
0.207031 0.089325 0.000000
0.228119 0.095001 0.000000
0.247894 0.099701 0.000000
0.271240 0.104584 0.000000
0.294952 0.108887 0.000000
0.319000 0.113464 0.000000
0.345642 0.116821 0.000000
0.368591 0.123596 0.000000
0.390045 0.132324 0.000000
0.414459 0.140839 0.000000
0.439240 0.150024 0.000000
0.462616 0.161530 0.000000
0.486786 0.171448 0.000000
0.510132 0.182404 0.000000
0.532257 0.194305 0.000000
0.554443 0.205780 0.000000
0.575836 0.218170 0.000000
0.596039 0.232117 0.000000
0.615234 0.247284 0.000000
0.635834 0.260681 0.000000
0.655640 0.274750 0.000000
0.676239 0.288147 0.000000
0.695404 0.303284 0.000000
0.715820 0.317352 0.000000
0.734863 0.333191 0.000000
0.757172 0.346283 0.000000
0.780640 0.358673 0.000000
0.045380 0.095490 0.000000
0.068207 0.096771 0.000000
0.087189 0.097198 0.000000
0.105927 0.099304 0.000000
0.139923 0.102600 0.000000
0.194122 0.115723 0.000000
0.224182 0.117920 0.000000
0.244629 0.119354 0.000000
0.264771 0.121857 0.000000
0.283386 0.126007 0.000000
0.305237 0.129700 0.000000
0.329132 0.132965 0.000000
0.353790 0.136505 0.000000
0.378540 0.139923 0.000000
0.402527 0.146240 0.000000
0.424896 0.155365 0.000000
0.448883 0.163635 0.000000
0.472748 0.172668 0.000000
0.495911 0.181946 0.000000
0.518646 0.192352 0.000000
0.540710 0.203125 0.000000
0.560822 0.215332 0.000000
0.582336 0.226593 0.000000
0.601318 0.241180 0.000000
0.621765 0.253693 0.000000
0.640381 0.268341 0.000000
0.659546 0.282654 0.000000
0.679840 0.295502 0.000000
0.698883 0.310303 0.000000
0.718933 0.324463 0.000000
0.738068 0.339813 0.000000
0.759705 0.353455 0.000000
0.784637 0.363922 0.000000
0.068237 0.128693 0.000000
0.084351 0.129364 0.000000
0.098724 0.129364 0.000000
0.122223 0.128357 0.000000
0.148315 0.128693 0.000000
0.174500 0.130035 0.000000
0.225281 0.149445 0.000000
0.262665 0.156708 0.000000
0.282135 0.155914 0.000000
0.301971 0.156189 0.000000
0.320679 0.158081 0.000000
0.340332 0.160736 0.000000
0.363373 0.163116 0.000000
0.388824 0.165436 0.000000
0.413177 0.169220 0.000000
0.436646 0.175568 0.000000
0.459991 0.182648 0.000000
0.484100 0.189026 0.000000
0.506470 0.197510 0.000000
0.528351 0.206573 0.000000
0.549561 0.216278 0.000000
0.570435 0.226440 0.000000
0.590485 0.237823 0.000000
0.609070 0.251465 0.000000
0.628967 0.263428 0.000000
0.647186 0.277466 0.000000
0.666840 0.290161 0.000000
0.685486 0.304413 0.000000
0.705231 0.317841 0.000000
0.723419 0.333191 0.000000
0.743988 0.346832 0.000000
0.766418 0.359192 0.000000
0.789001 0.371582 0.000000
0.090790 0.159393 0.000000
0.101776 0.159424 0.000000
0.116577 0.158875 0.000000
0.135345 0.158875 0.000000
0.157379 0.159424 0.000000
0.180634 0.160492 0.000000
0.206085 0.161530 0.000000
0.251404 0.180298 0.000000
0.297058 0.195129 0.000000
0.318787 0.194061 0.000000
0.337250 0.192535 0.000000
0.357117 0.192749 0.000000
0.376709 0.194489 0.000000
0.400116 0.196228 0.000000
0.423828 0.199188 0.000000
0.447296 0.203552 0.000000
0.471130 0.207764 0.000000
0.494110 0.213226 0.000000
0.516510 0.219482 0.000000
0.537109 0.227692 0.000000
0.559143 0.234039 0.000000
0.581360 0.240845 0.000000
0.599579 0.252594 0.000000
0.618256 0.264313 0.000000
0.636078 0.277313 0.000000
0.655304 0.289215 0.000000
0.674469 0.301483 0.000000
0.692444 0.315430 0.000000
0.711914 0.328369 0.000000
0.729767 0.343353 0.000000
0.750153 0.356598 0.000000
0.771912 0.369171 0.000000
0.794281 0.381165 0.000000
0.109589 0.188080 0.000000
0.119781 0.188538 0.000000
0.131897 0.188538 0.000000
0.149475 0.188538 0.000000
0.168854 0.189667 0.000000
0.186981 0.191437 0.000000
0.214508 0.190979 0.000000
0.235779 0.192749 0.000000
0.275421 0.208344 0.000000
0.321960 0.226410 0.000000
0.355591 0.232086 0.000000
0.373779 0.229462 0.000000
0.394012 0.228760 0.000000
0.414642 0.229797 0.000000
0.435852 0.232452 0.000000
0.459076 0.234528 0.000000
0.481781 0.237793 0.000000
0.504883 0.240509 0.000000
0.526581 0.245148 0.000000
0.547974 0.250031 0.000000
0.568726 0.256042 0.000000
0.589264 0.262817 0.000000
0.609528 0.270386 0.000000
0.628387 0.280426 0.000000
0.647186 0.291260 0.000000
0.665344 0.302887 0.000000
0.682404 0.316010 0.000000
0.700958 0.328369 0.000000
0.718231 0.342560 0.000000
0.737885 0.355011 0.000000
0.757629 0.368469 0.000000
0.779877 0.379791 0.000000
0.800964 0.392120 0.000000
0.125671 0.218353 0.000000
0.135345 0.218353 0.000000
0.146362 0.218719 0.000000
0.162170 0.219086 0.000000
0.180176 0.219482 0.000000
0.198120 0.220581 0.000000
0.216583 0.222778 0.000000
0.242004 0.222778 0.000000
0.264343 0.224426 0.000000
0.300171 0.236267 0.000000
0.347473 0.255737 0.000000
0.391174 0.268188 0.000000
0.412415 0.266113 0.000000
0.432343 0.264923 0.000000
0.452911 0.265076 0.000000
0.473816 0.266266 0.000000
0.494751 0.268188 0.000000
0.515930 0.270386 0.000000
0.537872 0.272583 0.000000
0.558716 0.276031 0.000000
0.578613 0.281128 0.000000
0.598328 0.287201 0.000000
0.618500 0.293640 0.000000
0.639313 0.299805 0.000000
0.657196 0.309937 0.000000
0.675293 0.320312 0.000000
0.693298 0.331360 0.000000
0.710266 0.344086 0.000000
0.728790 0.356171 0.000000
0.747437 0.368774 0.000000
0.767181 0.381622 0.000000
0.788727 0.392670 0.000000
0.809448 0.404572 0.000000
0.138428 0.247772 0.000000
0.148895 0.247925 0.000000
0.161133 0.247925 0.000000
0.175262 0.248413 0.000000
0.190918 0.249207 0.000000
0.209839 0.249847 0.000000
0.228333 0.251770 0.000000
0.245483 0.254150 0.000000
0.269196 0.255402 0.000000
0.295258 0.256042 0.000000
0.325348 0.264160 0.000000
0.373962 0.283600 0.000000
0.418854 0.298096 0.000000
0.451599 0.302612 0.000000
0.470825 0.300446 0.000000
0.490051 0.299652 0.000000
0.509338 0.300171 0.000000
0.529419 0.301086 0.000000
0.549225 0.303009 0.000000
0.569519 0.305420 0.000000
0.589203 0.309052 0.000000
0.608337 0.313965 0.000000
0.627625 0.319611 0.000000
0.648682 0.324554 0.000000
0.667297 0.332031 0.000000
0.686279 0.340118 0.000000
0.704071 0.350342 0.000000
0.721863 0.361237 0.000000
0.738312 0.374115 0.000000
0.756805 0.386108 0.000000
0.777130 0.397522 0.000000
0.798645 0.407410 0.000000
0.819641 0.418640 0.000000
0.153900 0.277740 0.000000
0.163757 0.278015 0.000000
0.175018 0.278015 0.000000
0.189392 0.278290 0.000000
0.204285 0.278992 0.000000
0.222382 0.279846 0.000000
0.239685 0.281097 0.000000
0.257507 0.282898 0.000000
0.275269 0.285522 0.000000
0.299530 0.286774 0.000000
0.326263 0.287323 0.000000
0.353485 0.291626 0.000000
0.401184 0.311279 0.000000
0.446136 0.327209 0.000000
0.488373 0.338684 0.000000
0.507141 0.336090 0.000000
0.525116 0.334747 0.000000
0.543457 0.334747 0.000000
0.562683 0.334991 0.000000
0.581848 0.336334 0.000000
0.600891 0.338898 0.000000
0.620483 0.341888 0.000000
0.638519 0.347107 0.000000
0.657684 0.352142 0.000000
0.676880 0.358032 0.000000
0.696594 0.364197 0.000000
0.716309 0.371338 0.000000
0.733307 0.381805 0.000000
0.750031 0.393585 0.000000
0.768311 0.404999 0.000000
0.789154 0.414337 0.000000
0.808868 0.425232 0.000000
0.830841 0.434692 0.000000
0.168121 0.308563 0.000000
0.178802 0.308411 0.000000
0.187439 0.308807 0.000000
0.202057 0.308807 0.000000
0.218109 0.309296 0.000000
0.235107 0.309906 0.000000
0.252045 0.311035 0.000000
0.269226 0.312622 0.000000
0.287781 0.314575 0.000000
0.305237 0.317352 0.000000
0.326843 0.319122 0.000000
0.357635 0.318542 0.000000
0.382599 0.320312 0.000000
0.428650 0.339020 0.000000
0.472748 0.355713 0.000000
0.513275 0.368347 0.000000
0.541504 0.371918 0.000000
0.559052 0.369843 0.000000
0.576935 0.369141 0.000000
0.594421 0.369934 0.000000
0.613068 0.371155 0.000000
0.632599 0.372833 0.000000
0.651733 0.375397 0.000000
0.669922 0.379761 0.000000
0.687958 0.385437 0.000000
0.706451 0.391541 0.000000
0.725586 0.397980 0.000000
0.745361 0.404999 0.000000
0.762878 0.415161 0.000000
0.782135 0.424438 0.000000
0.801300 0.434143 0.000000
0.821899 0.443207 0.000000
0.841583 0.453644 0.000000
0.183624 0.339447 0.000000
0.194580 0.339233 0.000000
0.202667 0.339661 0.000000
0.215668 0.339661 0.000000
0.230438 0.339996 0.000000
0.247101 0.340454 0.000000
0.264191 0.341431 0.000000
0.281616 0.342651 0.000000
0.299286 0.344177 0.000000
0.317230 0.346344 0.000000
0.336029 0.348724 0.000000
0.354553 0.351807 0.000000
0.387909 0.350433 0.000000
0.414062 0.351501 0.000000
0.455841 0.367035 0.000000
0.498444 0.383881 0.000000
0.537476 0.397400 0.000000
0.574738 0.407898 0.000000
0.592255 0.405518 0.000000
0.609772 0.404266 0.000000
0.627563 0.404266 0.000000
0.645020 0.405609 0.000000
0.663391 0.407562 0.000000
0.682648 0.409851 0.000000
0.701813 0.413422 0.000000
0.719696 0.418671 0.000000
0.738098 0.424866 0.000000
0.757080 0.431671 0.000000
0.776764 0.438934 0.000000
0.796143 0.446594 0.000000
0.814972 0.455383 0.000000
0.834930 0.463745 0.000000
0.855164 0.472137 0.000000
0.201660 0.369843 0.000000
0.209473 0.370026 0.000000
0.218506 0.370239 0.000000
0.229736 0.370422 0.000000
0.243011 0.370728 0.000000
0.258270 0.371124 0.000000
0.277405 0.371338 0.000000
0.294464 0.372314 0.000000
0.311798 0.373688 0.000000
0.329254 0.375580 0.000000
0.347351 0.377808 0.000000
0.366425 0.380157 0.000000
0.384888 0.383301 0.000000
0.416809 0.382629 0.000000
0.445679 0.382660 0.000000
0.479736 0.396301 0.000000
0.523407 0.412109 0.000000
0.561401 0.426453 0.000000
0.598694 0.438171 0.000000
0.624908 0.441162 0.000000
0.642487 0.439484 0.000000
0.660553 0.438995 0.000000
0.678070 0.440033 0.000000
0.696106 0.442047 0.000000
0.714661 0.444672 0.000000
0.734375 0.447662 0.000000
0.752563 0.452881 0.000000
0.771118 0.458862 0.000000
0.789886 0.465118 0.000000
0.810394 0.470490 0.000000
0.830200 0.477295 0.000000
0.848358 0.485596 0.000000
0.867371 0.493286 0.000000
0.229431 0.398987 0.006836
0.234283 0.399139 0.000000
0.239685 0.399658 0.000000
0.247101 0.400299 0.000000
0.257965 0.400940 0.000000
0.272552 0.401215 0.000000
0.288452 0.401825 0.000000
0.307129 0.402283 0.000000
0.325012 0.403351 0.000000
0.342743 0.404785 0.000000
0.360321 0.406738 0.000000
0.378571 0.409027 0.000000
0.397583 0.411591 0.000000
0.416626 0.414703 0.000000
0.446136 0.414703 0.000000
0.475861 0.414276 0.000000
0.506439 0.424103 0.000000
0.548340 0.440277 0.000000
0.585419 0.455109 0.000000
0.622528 0.467133 0.000000
0.657776 0.476074 0.000000
0.675690 0.474243 0.000000
0.693878 0.473541 0.000000
0.711914 0.474182 0.000000
0.729828 0.476074 0.000000
0.748138 0.478882 0.000000
0.767426 0.482056 0.000000
0.785583 0.486786 0.000000
0.804718 0.491272 0.000000
0.824127 0.496399 0.000000
0.843445 0.502014 0.000000
0.863434 0.507477 0.000000
0.880737 0.514893 0.000000
0.257294 0.427856 0.025177
0.263092 0.427856 0.029846
0.269318 0.427856 0.036377
0.276672 0.428345 0.032776
0.284851 0.429077 0.022156
0.294769 0.430023 0.008209
0.306244 0.431244 0.000000
0.320679 0.432220 0.000000
0.338013 0.433228 0.000000
0.356506 0.434357 0.000000
0.374268 0.435822 0.000000
0.392090 0.437866 0.000000
0.410400 0.440277 0.000000
0.430634 0.442444 0.000000
0.449677 0.445282 0.000000
0.475708 0.446381 0.000000
0.504883 0.445831 0.000000
0.533020 0.451874 0.000000
0.573517 0.468384 0.000000
0.610718 0.483032 0.000000
0.647217 0.495483 0.000000
0.684357 0.505585 0.000000
0.709412 0.508148 0.000000
0.727753 0.507355 0.000000
0.746429 0.507538 0.000000
0.764648 0.509277 0.000000
0.783081 0.511658 0.000000
0.801086 0.514893 0.000000
0.819885 0.518463 0.000000
0.838226 0.522919 0.000000
0.857483 0.527344 0.000000
0.875916 0.532227 0.000000
0.894867 0.537109 0.000000
0.283356 0.456726 0.048920
0.288544 0.456726 0.053223
0.294037 0.456726 0.057892
0.301941 0.456787 0.063385
0.311890 0.456940 0.069336
0.321686 0.457550 0.065918
0.332062 0.458649 0.048981
0.342590 0.460297 0.022003
0.354553 0.462036 0.000000
0.370117 0.463470 0.000000
0.387726 0.464722 0.000000
0.405579 0.466522 0.000000
0.422913 0.468811 0.000000
0.440430 0.471313 0.000000
0.464508 0.472565 0.000000
0.482758 0.475616 0.000000
0.504883 0.477661 0.000000
0.533875 0.477295 0.000000
0.559418 0.479889 0.000000
0.599396 0.496307 0.000000
0.637299 0.510620 0.000000
0.673462 0.523346 0.000000
0.710083 0.533722 0.000000
0.743256 0.541290 0.000000
0.761993 0.540436 0.000000
0.781036 0.540375 0.000000
0.798523 0.541809 0.000000
0.816406 0.543854 0.000000
0.834839 0.546478 0.000000
0.853485 0.549500 0.000000
0.870972 0.553467 0.000000
0.889191 0.557465 0.000000
0.906494 0.562073 0.000000
0.305084 0.485046 0.060730
0.309448 0.485168 0.063385
0.314301 0.485260 0.065948
0.321228 0.485443 0.068390
0.330017 0.485596 0.073151
0.340729 0.485931 0.077271
0.352417 0.486450 0.079468
0.361023 0.488281 0.052124
0.372284 0.489868 0.018433
0.384705 0.491821 0.000000
0.401398 0.493347 0.000000
0.418945 0.494873 0.000000
0.436829 0.496796 0.000000
0.454376 0.499176 0.000000
0.471649 0.501984 0.000000
0.494537 0.503448 0.000000
0.515228 0.505737 0.000000
0.534424 0.508820 0.000000
0.563263 0.508667 0.000000
0.588440 0.509949 0.000000
0.626221 0.524933 0.000000
0.664917 0.538452 0.000000
0.701080 0.550964 0.000000
0.736603 0.561768 0.000000
0.772186 0.570862 0.000000
0.795471 0.572815 0.000000
0.813812 0.572601 0.000000
0.831909 0.573486 0.000000
0.849701 0.575317 0.000000
0.867340 0.577545 0.000000
0.885101 0.580231 0.000000
0.901855 0.583893 0.000000
0.918549 0.587494 0.000000
0.324280 0.513519 0.056274
0.328430 0.513733 0.057983
0.332977 0.513855 0.060791
0.339325 0.514038 0.064484
0.347443 0.514160 0.068420
0.357727 0.514496 0.074127
0.369507 0.514893 0.080322
0.383270 0.515350 0.085632
0.393738 0.517059 0.066986
0.403778 0.519318 0.021820
0.416046 0.521454 0.000000
0.433594 0.523010 0.000000
0.451385 0.524872 0.000000
0.468872 0.526978 0.000000
0.485931 0.529572 0.000000
0.502747 0.532532 0.000000
0.523865 0.534668 0.000000
0.546539 0.536469 0.000000
0.565002 0.539886 0.000000
0.593719 0.540070 0.000000
0.619934 0.541290 0.000000
0.651733 0.554382 0.000000
0.693573 0.566406 0.000000
0.729370 0.578674 0.000000
0.764313 0.589600 0.000000
0.798035 0.598938 0.000000
0.828033 0.605133 0.000000
0.846649 0.604584 0.000000
0.864349 0.605133 0.000000
0.880981 0.606750 0.000000
0.898010 0.608704 0.000000
0.914124 0.611328 0.000000
0.929016 0.614471 0.000000
0.352325 0.540619 0.092407
0.354614 0.540985 0.087952
0.357300 0.541412 0.084076
0.361023 0.542023 0.076416
0.366211 0.542786 0.066010
0.375946 0.543152 0.070862
0.387329 0.543549 0.077301
0.400391 0.544037 0.084076
0.414734 0.544708 0.090179
0.427826 0.546051 0.083252
0.438141 0.548584 0.039551
0.449280 0.551300 0.000000
0.465912 0.553162 0.000000
0.483765 0.555145 0.000000
0.500458 0.557495 0.000000
0.516937 0.560394 0.000000
0.533569 0.563507 0.000000
0.553375 0.566071 0.000000
0.576263 0.567932 0.000000
0.598114 0.570282 0.000000
0.624939 0.571381 0.000000
0.651978 0.572357 0.000000
0.681854 0.582520 0.000000
0.722534 0.594574 0.000000
0.757935 0.606689 0.000000
0.791656 0.617493 0.000000
0.824310 0.626923 0.000000
0.856598 0.635010 0.000000
0.877411 0.636505 0.000000
0.894775 0.636597 0.000000
0.910828 0.637848 0.000000
0.925629 0.639801 0.000000
0.938690 0.642212 0.000000
0.387146 0.566956 0.144958
0.389313 0.567291 0.141022
0.391632 0.567719 0.137238
0.395111 0.568237 0.131775
0.399567 0.569031 0.123932
0.405304 0.570007 0.114197
0.412048 0.571136 0.102386
0.419952 0.572632 0.088715
0.432678 0.573547 0.089447
0.447723 0.574402 0.095581
0.462616 0.575592 0.097656
0.473175 0.578339 0.060913
0.484192 0.581238 0.000000
0.498627 0.583740 0.000000
0.514984 0.586029 0.000000
0.531769 0.588531 0.000000
0.548248 0.591400 0.000000
0.564301 0.594727 0.000000
0.583069 0.597565 0.000000
0.606110 0.599487 0.000000
0.629059 0.601715 0.000000
0.655853 0.602722 0.000000
0.683685 0.603577 0.000000
0.712402 0.610748 0.000000
0.751312 0.622986 0.000000
0.786377 0.634674 0.000000
0.818604 0.645508 0.000000
0.850464 0.654968 0.000000
0.880890 0.663269 0.000000
0.906586 0.668396 0.000000
0.922729 0.668030 0.000000
0.935883 0.669189 0.000000
0.947449 0.670929 0.000000
0.419556 0.594360 0.187195
0.422333 0.594543 0.188324
0.425262 0.594818 0.188690
0.429260 0.595123 0.188324
0.433350 0.595856 0.182220
0.438690 0.596771 0.174316
0.444977 0.597900 0.164337
0.452301 0.599304 0.151825
0.460541 0.600983 0.135956
0.469666 0.602783 0.117676
0.480713 0.604645 0.103027
0.496460 0.605682 0.112091
0.506958 0.608429 0.082458
0.517822 0.611633 0.015076
0.530701 0.614502 0.000000
0.546356 0.616943 0.000000
0.562500 0.619629 0.000000
0.578674 0.622620 0.000000
0.594940 0.625885 0.000000
0.613342 0.628967 0.000000
0.637634 0.630585 0.000000
0.661041 0.632690 0.000000
0.686615 0.634186 0.000000
0.715118 0.634857 0.000000
0.742432 0.639221 0.000000
0.780182 0.651520 0.000000
0.813934 0.662842 0.000000
0.845612 0.673706 0.000000
0.875854 0.683197 0.000000
0.904663 0.691559 0.000000
0.930237 0.698914 0.000000
0.944733 0.699829 0.000000
0.955444 0.700623 0.000000
0.450714 0.622070 0.221069
0.453094 0.622223 0.221069
0.455780 0.622437 0.221375
0.459595 0.622803 0.222473
0.464722 0.623169 0.223572
0.470917 0.623657 0.224976
0.476807 0.624695 0.218842
0.483276 0.625916 0.209839
0.490692 0.627472 0.198669
0.498901 0.629242 0.184723
0.507874 0.631226 0.167725
0.517517 0.633575 0.146118
0.528076 0.636017 0.122498
0.539673 0.638550 0.097656
0.550293 0.641876 0.041626
0.561646 0.645264 0.000000
0.576996 0.647858 0.000000
0.592896 0.650635 0.000000
0.609344 0.653656 0.000000
0.625854 0.656982 0.000000
0.643066 0.660492 0.000000
0.669312 0.661591 0.000000
0.693085 0.663635 0.000000
0.717896 0.665314 0.000000
0.746033 0.666046 0.000000
0.772339 0.667969 0.000000
0.807465 0.680328 0.000000
0.841309 0.691254 0.000000
0.871643 0.701843 0.000000
0.900482 0.711334 0.000000
0.926453 0.719727 0.000000
0.947418 0.726959 0.000000
0.962585 0.731262 0.000000
0.481659 0.649506 0.257477
0.483643 0.649689 0.257477
0.486053 0.649933 0.257477
0.489258 0.650238 0.257477
0.493591 0.650665 0.257477
0.498932 0.651154 0.257233
0.505432 0.651825 0.257233
0.512726 0.652679 0.256958
0.519409 0.654144 0.248749
0.526886 0.655823 0.238342
0.534760 0.657806 0.224945
0.543365 0.660065 0.208649
0.552490 0.662567 0.187714
0.562347 0.665344 0.160828
0.572205 0.668518 0.128540
0.583130 0.671814 0.090149
0.594635 0.675385 0.014771
0.608154 0.678680 0.000000
0.624023 0.681580 0.000000
0.640228 0.684753 0.000000
0.656921 0.688110 0.000000
0.673645 0.691803 0.000000
0.700043 0.692841 0.000000
0.724792 0.694489 0.000000
0.748718 0.696442 0.000000
0.776978 0.697144 0.000000
0.802368 0.698364 0.000000
0.831757 0.710571 0.000000
0.867981 0.719757 0.000000
0.897156 0.730042 0.000000
0.923401 0.739380 0.000000
0.944794 0.747742 0.000000
0.962280 0.755188 0.000000
0.509552 0.677155 0.289398
0.511353 0.677307 0.289154
0.513367 0.677551 0.288910
0.516235 0.677856 0.288696
0.519989 0.678375 0.288208
0.524719 0.678925 0.287628
0.530396 0.679596 0.286896
0.537018 0.680420 0.286194
0.544586 0.681427 0.285095
0.551788 0.682892 0.277161
0.559113 0.684845 0.264496
0.567139 0.687012 0.251251
0.575897 0.689423 0.235413
0.585327 0.692047 0.216583
0.595245 0.694855 0.192535
0.605438 0.698059 0.162140
0.615723 0.701660 0.124420
0.627411 0.705322 0.077423
0.639557 0.709198 0.000000
0.654907 0.712372 0.000000
0.671265 0.715454 0.000000
0.687866 0.718842 0.000000
0.704681 0.722534 0.000000
0.729828 0.723907 0.000000
0.756470 0.725067 0.000000
0.779663 0.727386 0.000000
0.806854 0.727936 0.000000
0.832550 0.729126 0.000000
0.859161 0.739319 0.000000
0.894257 0.748016 0.000000
0.921082 0.758270 0.000000
0.942719 0.767609 0.000000
0.960144 0.775818 0.000000
0.534729 0.705048 0.315186
0.536377 0.705231 0.314972
0.538239 0.705475 0.314972
0.540802 0.705780 0.314545
0.544220 0.706177 0.313995
0.548676 0.706696 0.313690
0.553925 0.707397 0.313232
0.560028 0.708130 0.312500
0.567108 0.709045 0.311615
0.574982 0.710052 0.310638
0.583405 0.711487 0.307037
0.591034 0.713623 0.292450
0.599274 0.715912 0.276154
0.608276 0.718353 0.260803
0.617889 0.721008 0.242676
0.628143 0.723969 0.221039
0.638580 0.727264 0.194000
0.648987 0.730835 0.159058
0.660126 0.734741 0.114105
0.672516 0.738678 0.044434
0.686279 0.742462 0.000000
0.702454 0.745819 0.000000
0.718750 0.749359 0.000000
0.735626 0.753174 0.000000
0.759827 0.755035 0.000000
0.786407 0.756073 0.000000
0.810089 0.757965 0.000000
0.836823 0.758667 0.000000
0.862061 0.759888 0.000000
0.886719 0.767670 0.000000
0.918915 0.776306 0.000000
0.941162 0.785797 0.000000
0.958588 0.794434 0.000000
0.560577 0.731934 0.345093
0.561676 0.732300 0.343811
0.563019 0.732635 0.342560
0.564850 0.733032 0.340332
0.567963 0.733398 0.339539
0.572052 0.733948 0.339142
0.576965 0.734558 0.338745
0.582825 0.735291 0.337952
0.589447 0.736176 0.337372
0.597076 0.737152 0.336456
0.605560 0.738312 0.335571
0.614716 0.739624 0.334473
0.622803 0.741821 0.321289
0.631378 0.744324 0.304718
0.640594 0.747009 0.285339
0.650513 0.749908 0.267700
0.660980 0.753021 0.246765
0.671844 0.756348 0.222443
0.682404 0.760132 0.191986
0.693451 0.764160 0.151337
0.705414 0.768341 0.097595
0.718231 0.772552 0.000000
0.733917 0.776062 0.000000
0.750122 0.779633 0.000000
0.766693 0.783386 0.000000
0.789215 0.785431 0.000000
0.815186 0.786407 0.000000
0.840271 0.787598 0.000000
0.865936 0.788422 0.000000
0.890350 0.789337 0.000000
0.912964 0.794617 0.000000
0.939545 0.802734 0.000000
0.957581 0.811676 0.000000
0.589783 0.757935 0.385315
0.590881 0.758270 0.384216
0.592010 0.758575 0.383026
0.593781 0.758942 0.381134
0.596161 0.759521 0.378784
0.599060 0.760284 0.375763
0.602600 0.761169 0.371887
0.606812 0.762238 0.367065
0.612091 0.763458 0.362976
0.619354 0.764404 0.362244
0.627380 0.765503 0.361420
0.636292 0.766785 0.360504
0.645966 0.768158 0.359589
0.654938 0.770233 0.349487
0.663849 0.772797 0.333069
0.673340 0.775604 0.313995
0.683319 0.778595 0.292206
0.693970 0.781616 0.272034
0.705017 0.784882 0.248718
0.715698 0.788483 0.221832
0.726746 0.792297 0.186768
