Kodak Vision3 500T (5230) - Look.cube
# Created by Benjamin (IWLTBAP) : http://luts.iwltbap.com
# Copyright: (C) Copyright 2010-2017 Triune Films and IWLTBAP SAS
# Cannot be resold, shared or otherwise redistributed
TITLE "Film Print Emulation LUTs Pack (Rec.709, sRGB, DCI-P3)"
LUT_3D_SIZE 33
0.001587 0.000000 0.000000
0.030609 0.000793 0.000000
0.057404 0.003143 0.000000
0.082916 0.005524 0.000000
0.109833 0.007477 0.000000
0.138489 0.009857 0.000000
0.165314 0.013000 0.000000
0.193115 0.016144 0.000000
0.220734 0.018127 0.000000
0.249084 0.020477 0.000000
0.276825 0.023071 0.000000
0.304901 0.024841 0.000000
0.332001 0.027466 0.000000
0.360992 0.029633 0.000000
0.386749 0.034729 0.000000
0.412384 0.037079 0.000000
0.437927 0.038818 0.000000
0.463135 0.041443 0.000000
0.488342 0.043488 0.000000
0.513397 0.045441 0.000000
0.538055 0.047546 0.000000
0.561859 0.049377 0.000000
0.584808 0.050751 0.000000
0.608917 0.052094 0.000000
0.632660 0.053406 0.000000
0.655487 0.054871 0.000000
0.677399 0.055756 0.000000
0.698334 0.056458 0.000000
0.718292 0.057678 0.000000
0.738220 0.058533 0.000000
0.758240 0.059723 0.000000
0.778381 0.061035 0.000000
0.798370 0.062317 0.000000
0.000000 0.030731 0.000000
0.026550 0.030792 0.000000
0.061462 0.031403 0.000000
0.086884 0.034149 0.000000
0.115875 0.035339 0.000000
0.142639 0.037994 0.000000
0.170685 0.040100 0.000000
0.199493 0.042450 0.000000
0.228119 0.044037 0.000000
0.255676 0.045837 0.000000
0.282928 0.049255 0.000000
0.310577 0.051941 0.000000
0.339508 0.054443 0.000000
0.366394 0.055634 0.000000
0.391907 0.058197 0.000000
0.417084 0.059967 0.000000
0.442078 0.061707 0.000000
0.467438 0.063782 0.000000
0.492584 0.065979 0.000000
0.517487 0.068085 0.000000
0.541901 0.069550 0.000000
0.565430 0.071014 0.000000
0.588470 0.072418 0.000000
0.613617 0.073975 0.000000
0.636414 0.075165 0.000000
0.659027 0.076477 0.000000
0.680664 0.077148 0.000000
0.701355 0.077454 0.000000
0.721344 0.078583 0.000000
0.741394 0.079987 0.000000
0.761536 0.081055 0.000000
0.781738 0.082428 0.000000
0.801788 0.083740 0.000000
0.000000 0.046173 0.000000
0.019714 0.048279 0.000000
0.045929 0.050385 0.000000
0.084442 0.057739 0.000000
0.115875 0.060577 0.000000
0.143860 0.064880 0.000000
0.171967 0.067047 0.000000
0.201324 0.069336 0.000000
0.230835 0.071045 0.000000
0.259033 0.072693 0.000000
0.287292 0.074280 0.000000
0.314240 0.076050 0.000000
0.343323 0.078369 0.000000
0.369537 0.080200 0.000000
0.396454 0.081604 0.000000
0.422150 0.083313 0.000000
0.446869 0.084991 0.000000
0.471680 0.087006 0.000000
0.496307 0.088745 0.000000
0.521057 0.090607 0.000000
0.545685 0.092102 0.000000
0.569305 0.093414 0.000000
0.593323 0.094818 0.000000
0.617279 0.096222 0.000000
0.640137 0.097443 0.000000
0.662598 0.098053 0.000000
0.684540 0.099243 0.000000
0.705170 0.099518 0.000000
0.724854 0.100403 0.000000
0.744965 0.101837 0.000000
0.765106 0.103088 0.000000
0.785034 0.104187 0.000000
0.804993 0.105408 0.000000
0.000000 0.061646 0.000000
0.014191 0.064514 0.000000
0.038635 0.067841 0.000000
0.064453 0.071991 0.000000
0.108612 0.083160 0.000000
0.141693 0.087372 0.000000
0.171051 0.090576 0.000000
0.201447 0.093170 0.000000
0.232025 0.095428 0.000000
0.261047 0.097412 0.000000
0.290192 0.099152 0.000000
0.318481 0.100983 0.000000
0.347290 0.102966 0.000000
0.374084 0.104706 0.000000
0.401062 0.106415 0.000000
0.426819 0.108063 0.000000
0.451843 0.109680 0.000000
0.476562 0.111084 0.000000
0.500977 0.112610 0.000000
0.525482 0.114105 0.000000
0.549957 0.115570 0.000000
0.573578 0.117035 0.000000
0.598480 0.118286 0.000000
0.621429 0.119263 0.000000
0.644409 0.120361 0.000000
0.666534 0.121033 0.000000
0.688324 0.121704 0.000000
0.709167 0.122223 0.000000
0.728851 0.122894 0.000000
0.748993 0.124176 0.000000
0.769012 0.125336 0.000000
0.789124 0.126465 0.000000
0.808868 0.127350 0.000000
0.000000 0.080048 0.000000
0.018127 0.081482 0.000000
0.040985 0.083344 0.000000
0.062805 0.085175 0.000000
0.086426 0.090515 0.000000
0.128662 0.103882 0.000000
0.168182 0.112457 0.000000
0.199158 0.116425 0.000000
0.231110 0.119812 0.000000
0.263031 0.122528 0.000000
0.292145 0.124664 0.000000
0.322662 0.126404 0.000000
0.351105 0.128387 0.000000
0.378510 0.129883 0.000000
0.405304 0.131653 0.000000
0.431274 0.133362 0.000000
0.456940 0.135010 0.000000
0.482178 0.136536 0.000000
0.506897 0.138000 0.000000
0.531342 0.139435 0.000000
0.555206 0.140717 0.000000
0.580475 0.141846 0.000000
0.603699 0.142731 0.000000
0.626770 0.143707 0.000000
0.649414 0.144440 0.000000
0.671417 0.145294 0.000000
0.693237 0.145996 0.000000
0.714050 0.146240 0.000000
0.733948 0.146820 0.000000
0.754059 0.148010 0.000000
0.774017 0.149048 0.000000
0.793823 0.149933 0.000000
0.813690 0.150848 0.000000
0.006287 0.095093 0.000000
0.024445 0.095886 0.000000
0.043243 0.097534 0.000000
0.062805 0.100311 0.000000
0.080994 0.102234 0.000000
0.108917 0.109253 0.000000
0.150818 0.124390 0.000000
0.194275 0.137146 0.000000
0.226807 0.141693 0.000000
0.260651 0.145966 0.000000
0.292969 0.149414 0.000000
0.325043 0.151886 0.000000
0.354248 0.154022 0.000000
0.381927 0.155823 0.000000
0.409180 0.157227 0.000000
0.435669 0.158966 0.000000
0.461670 0.160431 0.000000
0.487427 0.162323 0.000000
0.512238 0.163849 0.000000
0.536560 0.165100 0.000000
0.561676 0.166473 0.000000
0.585938 0.167358 0.000000
0.609314 0.168457 0.000000
0.632355 0.169556 0.000000
0.654541 0.169983 0.000000
0.676666 0.170288 0.000000
0.698608 0.171478 0.000000
0.719757 0.172302 0.000000
0.740356 0.173981 0.000000
0.759613 0.174377 0.000000
0.779388 0.175293 0.000000
0.799225 0.176208 0.000000
0.819336 0.177582 0.000000
0.014984 0.108612 0.000000
0.029175 0.110413 0.000000
0.044739 0.112915 0.000000
0.061646 0.116028 0.000000
0.080536 0.118744 0.000000
0.104523 0.121399 0.000000
0.130920 0.130341 0.000000
0.173828 0.146149 0.000000
0.220032 0.161072 0.000000
0.256500 0.168030 0.000000
0.290192 0.172607 0.000000
0.325867 0.176758 0.000000
0.356384 0.179596 0.000000
0.385193 0.181976 0.000000
0.412476 0.183197 0.000000
0.439423 0.184753 0.000000
0.466431 0.186981 0.000000
0.492371 0.190002 0.000000
0.517578 0.191528 0.000000
0.541962 0.192902 0.000000
0.568024 0.194397 0.000000
0.591797 0.195648 0.000000
0.615265 0.196777 0.000000
0.638306 0.197815 0.000000
0.660522 0.198181 0.000000
0.682892 0.198395 0.000000
0.705170 0.198944 0.000000
0.726227 0.199127 0.000000
0.746552 0.199493 0.000000
0.766144 0.200134 0.000000
0.785706 0.200684 0.000000
0.805359 0.201324 0.000000
0.824982 0.202209 0.000000
0.021271 0.123688 0.000000
0.033905 0.126556 0.000000
0.045441 0.129028 0.000000
0.059875 0.132111 0.000000
0.079102 0.134796 0.000000
0.106049 0.138000 0.000000
0.125916 0.140594 0.000000
0.156158 0.151764 0.000000
0.200714 0.168579 0.000000
0.246124 0.183807 0.000000
0.285828 0.194397 0.000000
0.320923 0.199158 0.000000
0.355865 0.205841 0.000000
0.387817 0.209534 0.000000
0.415710 0.211365 0.000000
0.442902 0.212891 0.000000
0.470123 0.214752 0.000000
0.496796 0.216583 0.000000
0.522675 0.218109 0.000000
0.549652 0.219604 0.000000
0.574005 0.221100 0.000000
0.598145 0.222717 0.000000
0.621857 0.224182 0.000000
0.644989 0.225159 0.000000
0.667450 0.225739 0.000000
0.689636 0.225922 0.000000
0.711517 0.225922 0.000000
0.733093 0.226013 0.000000
0.753571 0.225739 0.000000
0.773132 0.226166 0.000000
0.792847 0.226898 0.000000
0.812469 0.227631 0.000000
0.831573 0.227783 0.000000
0.027588 0.140015 0.000000
0.039429 0.143402 0.000000
0.050354 0.145599 0.000000
0.061035 0.148071 0.000000
0.078613 0.151245 0.000000
0.105652 0.155426 0.000000
0.129028 0.158722 0.000000
0.151794 0.162170 0.000000
0.186340 0.175232 0.000000
0.227875 0.191223 0.000000
0.272644 0.206696 0.000000
0.314850 0.222443 0.000000
0.351990 0.228210 0.000000
0.385773 0.232849 0.000000
0.417328 0.236633 0.000000
0.446533 0.239288 0.000000
0.473999 0.241211 0.000000
0.500885 0.243103 0.000000
0.526978 0.244781 0.000000
0.554321 0.246460 0.000000
0.579498 0.248413 0.000000
0.604340 0.250397 0.000000
0.628601 0.251923 0.000000
0.652039 0.252960 0.000000
0.674591 0.253387 0.000000
0.696747 0.253632 0.000000
0.718353 0.253387 0.000000
0.739868 0.253326 0.000000
0.761230 0.253632 0.000000
0.780884 0.253693 0.000000
0.800415 0.254425 0.000000
0.819977 0.255157 0.000000
0.838959 0.255219 0.000000
0.033905 0.157959 0.000000
0.044006 0.160461 0.000000
0.054291 0.161926 0.000000
0.065063 0.164612 0.000000
0.081940 0.168427 0.000000
0.105286 0.171692 0.000000
0.130280 0.176697 0.000000
0.156433 0.181335 0.000000
0.183075 0.186066 0.000000
0.217285 0.201965 0.000000
0.259125 0.217896 0.000000
0.302612 0.233948 0.000000
0.346649 0.247864 0.000000
0.381897 0.255249 0.000000
0.415131 0.259857 0.000000
0.446442 0.263794 0.000000
0.476715 0.267548 0.000000
0.504761 0.269989 0.000000
0.533447 0.271942 0.000000
0.559082 0.273743 0.000000
0.584167 0.275635 0.000000
0.609558 0.277710 0.000000
0.634613 0.279602 0.000000
0.658722 0.280945 0.000000
0.681213 0.281342 0.000000
0.703522 0.281616 0.000000
0.724945 0.281281 0.000000
0.746399 0.281219 0.000000
0.768372 0.281860 0.000000
0.788361 0.282013 0.000000
0.808136 0.282806 0.000000
0.827789 0.283569 0.000000
0.846771 0.283569 0.000000
0.039429 0.175568 0.000000
0.049652 0.178040 0.000000
0.059845 0.179810 0.000000
0.072601 0.182861 0.000000
0.088715 0.188812 0.000000
0.111145 0.194336 0.000000
0.134186 0.198944 0.000000
0.161926 0.204376 0.000000
0.190033 0.208893 0.000000
0.216217 0.212433 0.000000
0.249634 0.226105 0.000000
0.288940 0.241852 0.000000
0.332916 0.257446 0.000000
0.372894 0.271393 0.000000
0.410248 0.281433 0.000000
0.444489 0.287048 0.000000
0.476440 0.291748 0.000000
0.506470 0.295685 0.000000
0.536987 0.299072 0.000000
0.563538 0.301025 0.000000
0.588989 0.302612 0.000000
0.614471 0.304565 0.000000
0.639435 0.306488 0.000000
0.663879 0.308258 0.000000
0.687500 0.309540 0.000000
0.710297 0.310303 0.000000
0.732422 0.310425 0.000000
0.754120 0.310486 0.000000
0.775879 0.310974 0.000000
0.796448 0.311188 0.000793
0.816284 0.312073 0.001556
0.837891 0.313446 0.001953
0.857025 0.313599 0.001953
0.044739 0.196350 0.000000
0.055573 0.198151 0.000000
0.066742 0.201874 0.000000
0.080536 0.204956 0.000000
0.097931 0.208710 0.000000
0.120728 0.214050 0.000000
0.144226 0.218903 0.000000
0.170319 0.223816 0.000000
0.198334 0.228912 0.000000
0.224854 0.233093 0.000000
0.249756 0.236847 0.000000
0.283020 0.251740 0.000000
0.323303 0.267456 0.000000
0.360870 0.281342 0.000000
0.402283 0.296906 0.000000
0.440704 0.308594 0.000000
0.474945 0.315277 0.000000
0.506195 0.320129 0.000000
0.537445 0.323639 0.000000
0.565887 0.326630 0.000000
0.593445 0.331818 0.000000
0.619446 0.334076 0.000000
0.644501 0.335999 0.000000
0.669067 0.337646 0.000000
0.693298 0.339325 0.000000
0.717163 0.341309 0.000000
0.739990 0.341888 0.000000
0.762054 0.342102 0.000397
0.783813 0.342224 0.001190
0.806763 0.342377 0.002350
0.826538 0.342621 0.003143
0.845978 0.343048 0.003937
0.865356 0.343323 0.004333
0.053650 0.214783 0.000793
0.063385 0.216400 0.000000
0.075165 0.221191 0.000000
0.088287 0.224670 0.000000
0.107880 0.228241 0.000000
0.130890 0.234100 0.000000
0.156952 0.239929 0.000000
0.181763 0.243866 0.000000
0.207977 0.248993 0.000000
0.234253 0.253845 0.000000
0.260193 0.258148 0.000000
0.285400 0.262512 0.000000
0.320587 0.278076 0.000000
0.355347 0.293335 0.000000
0.390472 0.306305 0.000000
0.431335 0.322144 0.000000
0.468445 0.333801 0.000000
0.502716 0.342224 0.000000
0.535645 0.348969 0.000000
0.565918 0.352997 0.000000
0.595001 0.356567 0.000000
0.622406 0.360107 0.000000
0.649017 0.363342 0.000000
0.674652 0.366058 0.000000
0.699341 0.367950 0.000000
0.723511 0.370117 0.000000
0.746857 0.371338 0.000793
0.769196 0.371552 0.001556
0.793091 0.371613 0.003540
0.814148 0.371521 0.005127
0.833954 0.371521 0.006287
0.853302 0.372009 0.007080
0.872803 0.372681 0.008270
0.063934 0.234741 0.001556
0.073120 0.236847 0.000000
0.083801 0.240387 0.000000
0.097931 0.244202 0.000000
0.117401 0.247925 0.000000
0.141724 0.253845 0.000000
0.169830 0.260468 0.000000
0.195160 0.265503 0.000000
0.218903 0.269867 0.000000
0.244019 0.274841 0.000000
0.270721 0.279572 0.000000
0.298767 0.284485 0.000000
0.323547 0.288269 0.000000
0.354462 0.304474 0.000000
0.387878 0.320190 0.000000
0.419159 0.330780 0.000000
0.458923 0.347809 0.000000
0.495483 0.361298 0.000000
0.534119 0.371918 0.000000
0.565887 0.376862 0.000000
0.595734 0.381042 0.000000
0.624207 0.384918 0.000000
0.651123 0.388428 0.000000
0.677551 0.391937 0.000000
0.704163 0.395844 0.000000
0.729736 0.399414 0.003540
0.753113 0.400879 0.005524
0.777588 0.401489 0.006287
0.800201 0.402191 0.007477
0.821442 0.402069 0.009064
0.841370 0.401642 0.010254
0.860626 0.401703 0.011414
0.880310 0.402710 0.013000
0.074158 0.253387 0.000000
0.083344 0.257111 0.000000
0.092987 0.260345 0.000000
0.111145 0.264526 0.000000
0.130890 0.269196 0.000000
0.155670 0.275269 0.000000
0.182434 0.281586 0.000000
0.207977 0.286835 0.000000
0.230774 0.291077 0.000000
0.255188 0.296021 0.000000
0.282257 0.301971 0.000000
0.312256 0.307037 0.000000
0.336304 0.313202 0.000000
0.359039 0.319122 0.000000
0.389679 0.336243 0.000000
0.421112 0.351318 0.000000
0.449768 0.360016 0.000000
0.487579 0.374390 0.000000
0.525391 0.386810 0.000000
0.562561 0.397400 0.000000
0.594910 0.403717 0.000000
0.623932 0.407928 0.000000
0.651886 0.411896 0.000000
0.678711 0.416199 0.000000
0.705292 0.420563 0.001190
0.731262 0.424469 0.005524
0.756989 0.427521 0.008667
0.782532 0.429901 0.010651
0.806488 0.432312 0.012604
0.828339 0.432129 0.013794
0.848389 0.431427 0.014587
0.867554 0.431030 0.015778
0.886963 0.431824 0.016937
0.085144 0.273468 0.000793
0.094666 0.277039 0.000000
0.108978 0.280640 0.000000
0.125580 0.285797 0.000000
0.145325 0.291229 0.000000
0.170776 0.297516 0.000000
0.196136 0.302704 0.000000
0.220306 0.307770 0.000000
0.244019 0.315308 0.000000
0.268341 0.321838 0.000000
0.295654 0.328339 0.000000
0.325012 0.334381 0.000000
0.350067 0.339508 0.000000
0.373413 0.343964 0.000000
0.395294 0.347198 0.000000
0.424072 0.363831 0.000000
0.453827 0.378784 0.000000
0.482025 0.387024 0.000000
0.516113 0.398895 0.000000
0.553833 0.410950 0.000000
0.589233 0.422058 0.000000
0.622253 0.430969 0.000000
0.651947 0.436127 0.000000
0.679535 0.440765 0.000000
0.706207 0.445038 0.001190
0.732666 0.449371 0.006683
0.759644 0.453156 0.009857
0.784149 0.457092 0.012207
0.808197 0.459656 0.014587
0.831848 0.461365 0.016144
0.854401 0.462677 0.018524
0.874451 0.462677 0.019714
0.893433 0.462860 0.020874
0.101074 0.295258 0.001556
0.110413 0.297516 0.000000
0.123657 0.301971 0.000000
0.140289 0.306824 0.000000
0.159210 0.316132 0.000000
0.184570 0.323334 0.000000
0.210022 0.328461 0.000000
0.235077 0.333282 0.000000
0.259003 0.338898 0.000000
0.283295 0.344788 0.000000
0.312622 0.351685 0.000000
0.338776 0.358063 0.000000
0.363983 0.363281 0.000000
0.388184 0.368256 0.000000
0.410034 0.371490 0.000000
0.431183 0.375549 0.000000
0.459106 0.392487 0.000000
0.488312 0.407532 0.000000
0.516785 0.414642 0.000000
0.546021 0.422913 0.000000
0.581696 0.436523 0.000000
0.615936 0.448364 0.000000
0.649445 0.458252 0.000000
0.678223 0.463318 0.000000
0.705566 0.468292 0.000000
0.732483 0.474487 0.005920
0.759399 0.477783 0.009460
0.783722 0.480316 0.011841
0.807861 0.482849 0.014191
0.831757 0.484985 0.016174
0.855591 0.487518 0.019318
0.877899 0.489319 0.021637
0.898071 0.490417 0.023071
0.113251 0.321075 0.000793
0.122040 0.323334 0.000000
0.136261 0.328339 0.000000
0.152557 0.333954 0.000000
0.172607 0.339844 0.000000
0.199127 0.345612 0.000000
0.224487 0.351074 0.000000
0.249146 0.356262 0.000000
0.274170 0.362000 0.000000
0.302094 0.368256 0.000000
0.326904 0.374451 0.000000
0.351898 0.380432 0.000000
0.377441 0.385742 0.000000
0.402679 0.391357 0.000000
0.425476 0.395538 0.000000
0.446533 0.398773 0.000000
0.468414 0.404999 0.000000
0.494720 0.421539 0.000000
0.523315 0.434875 0.000000
0.546783 0.441071 0.000000
0.573517 0.447968 0.000000
0.606506 0.460266 0.000000
0.639740 0.471954 0.000000
0.672638 0.482605 0.000000
0.702637 0.490631 0.000000
0.730133 0.495605 0.003174
0.756989 0.499695 0.008301
0.783020 0.503021 0.011444
0.807770 0.506042 0.013794
0.832123 0.508514 0.016571
0.856445 0.511719 0.019714
0.879852 0.514343 0.022736
0.900635 0.515747 0.024139
0.122375 0.343353 0.000000
0.130890 0.345215 0.000000
0.144775 0.350067 0.000000
0.161926 0.356964 0.000000
0.187134 0.362396 0.000000
0.214417 0.367950 0.000000
0.240540 0.373688 0.000000
0.264496 0.379028 0.000000
0.288269 0.384491 0.000000
0.317261 0.390900 0.000000
0.341644 0.396423 0.000000
0.366394 0.402252 0.000000
0.391602 0.408325 0.000000
0.416626 0.414154 0.000000
0.440552 0.419037 0.000000
0.461639 0.423126 0.000000
0.483002 0.427887 0.000000
0.508118 0.434967 0.000000
0.530670 0.449799 0.000000
0.553314 0.463470 0.000000
0.576294 0.467865 0.000000
0.602081 0.474701 0.000000
0.629883 0.484375 0.000000
0.662292 0.496613 0.000000
0.695496 0.507416 0.000000
0.727844 0.516968 0.000000
0.754608 0.521576 0.007080
0.781982 0.525391 0.011414
0.807190 0.529053 0.014984
0.831879 0.531647 0.017731
0.856445 0.535034 0.021240
0.880310 0.538269 0.024475
0.902313 0.540314 0.026825
0.132111 0.364777 0.000000
0.140289 0.367493 0.000000
0.153595 0.372375 0.000000
0.176025 0.378754 0.000000
0.203033 0.385376 0.000000
0.229431 0.390442 0.000000
0.256073 0.395355 0.000000
0.280243 0.400970 0.000000
0.308014 0.406708 0.000000
0.333160 0.413818 0.000000
0.358826 0.419373 0.000000
0.382812 0.424835 0.000000
0.407227 0.430939 0.000000
0.429626 0.437073 0.000000
0.452606 0.445099 0.000000
0.475586 0.450531 0.000000
0.500793 0.455688 0.000000
0.522247 0.459900 0.000000
0.541260 0.465912 0.000000
0.561554 0.478546 0.000000
0.583649 0.490479 0.000000
0.605194 0.497223 0.000000
0.629211 0.503082 0.000000
0.654388 0.509277 0.000000
0.684814 0.519348 0.000000
0.717590 0.530426 0.000000
0.749634 0.540344 0.003235
0.779175 0.545990 0.010651
0.804688 0.550140 0.015381
0.829620 0.553253 0.018921
0.854492 0.556549 0.022736
0.878448 0.559814 0.025513
0.901276 0.562103 0.029022
0.141998 0.386322 0.000000
0.152313 0.390717 0.000000
0.168884 0.395538 0.000000
0.192108 0.401123 0.000000
0.220306 0.406891 0.000000
0.245575 0.411560 0.000000
0.271545 0.416504 0.000000
0.299255 0.422882 0.000000
0.324768 0.429413 0.000000
0.349854 0.437042 0.000000
0.375580 0.446289 0.000000
0.398499 0.451813 0.000000
0.420410 0.457397 0.000000
0.441864 0.462524 0.000000
0.465240 0.467926 0.000000
0.489227 0.473755 0.000000
0.515778 0.479492 0.000000
0.536682 0.483734 0.000000
0.554840 0.486328 0.000000
0.572662 0.492981 0.000000
0.592651 0.506134 0.000000
0.612701 0.516846 0.000000
0.632080 0.523499 0.000000
0.655609 0.528107 0.000000
0.680328 0.534637 0.000000
0.706512 0.541077 0.000000
0.738373 0.552307 0.000000
0.771759 0.562469 0.007477
0.801208 0.569946 0.014191
0.826630 0.573761 0.018921
0.851868 0.577423 0.023102
0.876526 0.580963 0.026825
0.900116 0.583740 0.030823
0.152832 0.408020 0.000000
0.166046 0.412323 0.000000
0.187744 0.416809 0.000000
0.212219 0.421997 0.000000
0.239441 0.427429 0.000000
0.263214 0.432831 0.000000
0.288269 0.441925 0.000000
0.317261 0.448883 0.000000
0.342377 0.455536 0.000000
0.366211 0.462372 0.000000
0.388824 0.468872 0.000000
0.410950 0.474457 0.000000
0.433502 0.480133 0.000000
0.455902 0.486206 0.000000
0.479767 0.492432 0.000000
0.506409 0.497559 0.000000
0.528076 0.502502 0.000000
0.549164 0.507202 0.000000
0.568054 0.510101 0.000000
0.585388 0.512360 0.000000
0.602600 0.519714 0.000000
0.620728 0.531586 0.000000
0.639893 0.541504 0.000000
0.657867 0.549530 0.000000
0.681091 0.553528 0.000000
0.705719 0.560181 0.000000
0.731293 0.566589 0.000000
0.757874 0.573792 0.003204
0.791321 0.584259 0.011932
0.823212 0.593506 0.017883
0.849396 0.598083 0.022369
0.874481 0.601837 0.026520
0.898651 0.604950 0.031403
0.167023 0.429657 0.000000
0.186279 0.432922 0.000000
0.209076 0.439880 0.000000
0.234253 0.447449 0.000000
0.258881 0.453552 0.000000
0.282898 0.459167 0.000000
0.310974 0.465912 0.000000
0.334351 0.472351 0.000000
0.355835 0.478668 0.000000
0.378571 0.485168 0.000000
0.401642 0.492157 0.000000
0.424500 0.498047 0.000000
0.446350 0.503296 0.000000
0.469116 0.509277 0.000000
0.492950 0.516296 0.000000
0.519562 0.521393 0.000000
0.540161 0.525116 0.000000
0.560364 0.528778 0.000000
0.579620 0.532135 0.000000
0.597626 0.534821 0.000000
0.613312 0.536438 0.000000
0.628845 0.543427 0.000763
0.646545 0.554932 0.003510
0.665314 0.565033 0.006561
0.683075 0.573547 0.007355
0.705566 0.578583 0.007416
0.729706 0.584717 0.006927
0.756836 0.590973 0.010956
0.782135 0.597473 0.014435
0.810455 0.604706 0.017853
0.842346 0.614441 0.021973
0.870514 0.620758 0.025177
0.895203 0.626221 0.029938
0.186920 0.454956 0.000000
0.206268 0.457336 0.000000
0.226715 0.462677 0.000000
0.254883 0.469147 0.000000
0.279053 0.476166 0.000000
0.302673 0.482269 0.000000
0.324219 0.488708 0.000000
0.346771 0.495575 0.000000
0.367462 0.501465 0.000000
0.389374 0.507324 0.000000
0.412811 0.514587 0.000000
0.436646 0.520844 0.000000
0.459869 0.526367 0.000000
0.482269 0.531342 0.000000
0.509125 0.537109 0.000000
0.531219 0.542297 0.000000
0.552582 0.546692 0.000000
0.572693 0.550446 0.000000
0.591980 0.553925 0.003937
0.610016 0.556763 0.011017
0.624908 0.558929 0.016541
0.638519 0.560608 0.018921
0.654083 0.569824 0.021210
0.671448 0.581665 0.022583
0.688232 0.590454 0.021759
0.707031 0.599396 0.022186
0.728180 0.602966 0.020172
0.754303 0.607544 0.021057
0.778564 0.614349 0.023254
0.803619 0.620026 0.024658
0.829803 0.625519 0.024384
0.860077 0.635498 0.026276
0.890961 0.644745 0.029022
0.207794 0.475250 0.000000
0.224487 0.479706 0.000000
0.246979 0.484619 0.000000
0.268738 0.491486 0.000000
0.289795 0.497650 0.000000
0.313904 0.505524 0.000000
0.335754 0.511658 0.000000
0.358643 0.517548 0.000000
0.379486 0.523132 0.000000
0.401367 0.528839 0.000000
0.424255 0.534393 0.000000
0.448486 0.540405 0.000000
0.473389 0.546936 0.000000
0.500854 0.553589 0.000000
0.522980 0.560089 0.000000
0.542908 0.566315 0.000000
0.563141 0.570587 0.003937
0.583862 0.575073 0.011810
0.603333 0.578857 0.021271
0.620758 0.581390 0.028381
0.635559 0.582306 0.031525
0.649536 0.583160 0.033112
0.663696 0.584747 0.036255
0.678955 0.593567 0.037750
0.694183 0.603729 0.036011
0.711243 0.612915 0.035004
0.733398 0.621368 0.033417
0.752319 0.626892 0.032440
0.775421 0.632629 0.032959
0.799530 0.639038 0.033173
0.824738 0.644897 0.032776
0.851257 0.650970 0.031921
0.878052 0.656647 0.030701
0.221558 0.494446 0.000000
0.240540 0.500275 0.000000
0.259583 0.506226 0.000000
0.281311 0.513245 0.000000
0.304016 0.519318 0.000000
0.326904 0.526733 0.000000
0.351074 0.533966 0.000000
0.373871 0.539856 0.000000
0.394379 0.545044 0.000000
0.415649 0.549927 0.000000
0.437592 0.554108 0.000000
0.461395 0.563660 0.000000
0.486572 0.571411 0.000000
0.514496 0.578003 0.000793
0.536011 0.582947 0.006287
0.555298 0.586731 0.012604
0.574402 0.590546 0.018921
0.594086 0.594543 0.026001
0.613434 0.598175 0.033905
0.630676 0.600525 0.039429
0.645355 0.601868 0.043243
0.659271 0.602722 0.044739
0.673279 0.604065 0.047577
0.686279 0.605499 0.050323
0.699585 0.613831 0.048706
0.718994 0.624115 0.046295
0.736023 0.633118 0.044556
0.754700 0.641937 0.043915
0.772827 0.650635 0.043610
0.796173 0.655212 0.042694
0.820068 0.661224 0.042480
0.845398 0.667297 0.041412
0.871948 0.674011 0.040283
0.237671 0.514893 0.000000
0.254425 0.520447 0.000000
0.273621 0.526550 0.000000
0.293365 0.532990 0.000000
0.317505 0.539276 0.000000
0.340790 0.546936 0.000000
0.364075 0.553467 0.000000
0.386749 0.562195 0.000000
0.408508 0.569366 0.000000
0.430756 0.574921 0.000000
0.452332 0.579102 0.000000
0.474854 0.584473 0.002350
0.503021 0.591278 0.008667
0.526459 0.597473 0.014984
0.547516 0.602051 0.020508
0.566864 0.605652 0.026001
0.585114 0.608765 0.030731
0.602966 0.611786 0.036255
0.620758 0.614471 0.042511
0.638306 0.617004 0.048981
0.653809 0.618866 0.052338
