Kodachrome 25 (K-14) - Only color.cube
# Copyright: (C) Copyright 2017 by IWLTBAP
# Cannot be resold, shared or otherwise redistributed
# Website: https://luts.iwltbap.com
TITLE "Kodak Kodachrome 25 (K-14) - Color neutral (Rec.709 sRGB)"
LUT_3D_SIZE 9
0.000000 0.000000 0.000000
0.088231 0.000073 0.000252
0.159857 0.000123 0.000445
0.239694 0.000210 0.000700
0.570943 0.000000 0.009585
0.915238 0.000000 0.001548
0.984686 0.000000 0.008163
0.984562 0.089150 0.006409
0.984052 0.209096 0.119499
0.060352 0.138458 0.089631
0.128386 0.133250 0.055525
0.223034 0.136308 0.039918
0.366475 0.144275 0.032360
0.737586 0.142978 0.004373
0.883947 0.172293 0.038097
0.962144 0.220062 0.087877
0.983899 0.268316 0.143925
0.983758 0.310770 0.175502
0.035769 0.289142 0.196271
0.141524 0.283796 0.182887
0.263084 0.279449 0.150167
0.432834 0.281978 0.138781
0.662554 0.285297 0.137797
0.800550 0.301212 0.141164
0.878235 0.318644 0.152148
0.950050 0.348629 0.168823
0.983551 0.387053 0.208768
0.222046 0.458274 0.222988
0.265184 0.439221 0.216802
0.354560 0.433149 0.209139
0.464720 0.422523 0.195518
0.632774 0.416582 0.183773
0.761977 0.412864 0.181020
0.853684 0.423114 0.178602
0.920802 0.444619 0.187279
0.983379 0.475773 0.215325
0.376630 0.615150 0.247047
0.407222 0.607930 0.244481
0.453054 0.589428 0.239192
0.542188 0.584911 0.235416
0.645428 0.559454 0.227459
0.740625 0.545994 0.224723
0.825992 0.548713 0.219888
0.903701 0.549631 0.212370
0.983201 0.566850 0.215473
0.494295 0.737516 0.271348
0.516455 0.727187 0.267340
0.558389 0.715050 0.265233
0.613889 0.704214 0.260306
0.694138 0.697957 0.255545
0.764885 0.689772 0.250026
0.833352 0.688369 0.244094
0.908283 0.683742 0.239547
0.982912 0.687375 0.234798
0.587229 0.833205 0.296458
0.612940 0.822638 0.293562
0.648427 0.818906 0.291400
0.681688 0.807275 0.288695
0.736289 0.805447 0.283958
0.793548 0.801939 0.281941
0.846578 0.799430 0.276485
0.914257 0.795353 0.269253
0.982624 0.795096 0.260031
0.729335 0.926186 0.333904
0.733740 0.921332 0.330936
0.753468 0.917404 0.328616
0.780092 0.914054 0.323392
0.803563 0.911261 0.323383
0.840056 0.907410 0.320944
0.876217 0.902358 0.315119
0.947486 0.905289 0.312057
0.982292 0.905279 0.304545
0.821799 0.991692 0.357471
0.836117 0.991644 0.354584
0.843154 0.991605 0.357453
0.862979 0.991528 0.357650
0.878995 0.991482 0.353010
0.901835 0.991388 0.351518
0.938869 0.991215 0.350066
0.982112 0.991055 0.345038
0.982112 0.991055 0.345038
0.000000 0.006644 0.102660
0.027731 0.000000 0.134935
0.120169 0.000000 0.146796
0.207120 0.000036 0.142507
0.487703 0.000000 0.097212
0.879889 0.000000 0.070717
0.984493 0.000000 0.077220
0.984250 0.082736 0.148672
0.983798 0.211175 0.236105
0.019707 0.130148 0.140792
0.106255 0.124001 0.144451
0.210944 0.124553 0.134649
0.337457 0.130207 0.133938
0.683107 0.123307 0.122750
0.873882 0.153237 0.124520
0.939085 0.201714 0.168179
0.983766 0.253587 0.220740
0.983547 0.307541 0.266321
0.028371 0.273524 0.214429
0.130034 0.271238 0.213231
0.251599 0.269229 0.181041
0.420417 0.271723 0.179218
0.640818 0.273368 0.175539
0.790906 0.292150 0.184464
0.869376 0.310414 0.208655
0.935952 0.338695 0.233512
0.983399 0.379417 0.269485
0.212479 0.452200 0.233103
0.260083 0.434580 0.228842
0.337335 0.422649 0.218846
0.448792 0.409668 0.212457
0.609277 0.400876 0.211874
0.745070 0.403900 0.210640
0.834155 0.409792 0.216872
0.912057 0.434279 0.228201
0.983292 0.467033 0.251555
0.367666 0.607989 0.256468
0.391483 0.596669 0.251061
0.447139 0.584957 0.245985
0.531314 0.566832 0.240370
0.642062 0.548496 0.233652
0.741845 0.535370 0.228861
0.829157 0.534624 0.227793
0.900552 0.539851 0.229117
0.983153 0.559159 0.237112
0.494284 0.732300 0.281578
0.508397 0.717665 0.275995
0.557611 0.714999 0.274016
0.607150 0.702795 0.266816
0.684165 0.692555 0.262412
0.761551 0.684415 0.258530
0.829662 0.676946 0.251574
0.898861 0.677062 0.246112
0.982923 0.676847 0.238865
0.580874 0.826960 0.306469
0.606196 0.819300 0.301580
0.636960 0.811672 0.299577
0.680551 0.804852 0.294366
0.726156 0.801510 0.290510
0.787065 0.800008 0.287807
0.849452 0.794351 0.279175
0.910879 0.791304 0.274869
0.982610 0.795090 0.264991
0.720110 0.921097 0.341465
0.724778 0.919238 0.336159
0.743763 0.914132 0.333907
0.776344 0.914703 0.333541
0.800556 0.909732 0.329632
0.836367 0.905250 0.325864
0.877997 0.904828 0.320446
0.943555 0.902415 0.317115
0.982280 0.905191 0.311530
0.814687 0.991684 0.367320
0.828711 0.991627 0.367408
0.846504 0.991555 0.367197
0.861877 0.991511 0.363411
0.876808 0.991447 0.365203
0.898692 0.991369 0.360660
0.942633 0.991159 0.360251
0.982093 0.991013 0.356660
0.982103 0.991034 0.350864
0.000000 0.043256 0.186183
0.019749 0.035953 0.187120
0.064710 0.002095 0.231378
0.184044 0.000000 0.224318
0.434066 0.000000 0.182748
0.874308 0.000000 0.143546
0.984349 0.000000 0.140648
0.984240 0.047895 0.184877
0.983700 0.210362 0.274189
0.000000 0.117263 0.224408
0.046069 0.117707 0.233907
0.172284 0.097401 0.260982
0.305048 0.116211 0.231981
0.640197 0.110445 0.216840
0.860975 0.135258 0.217524
0.924691 0.196277 0.247571
0.983597 0.250258 0.287448
0.983433 0.302842 0.326568
0.038175 0.258667 0.289171
0.100836 0.261408 0.285529
0.208221 0.256619 0.284599
0.371824 0.256125 0.271971
0.599716 0.264104 0.269716
0.757902 0.284152 0.287961
0.849148 0.302585 0.294116
0.914129 0.327062 0.319670
0.983281 0.368716 0.343798
0.194834 0.447727 0.325583
0.215561 0.419188 0.312590
0.301578 0.407826 0.294075
0.409489 0.394069 0.283821
0.575817 0.391841 0.284102
0.716117 0.393501 0.287308
0.816891 0.400819 0.298096
0.891983 0.420234 0.315158
0.983129 0.453242 0.341911
0.353535 0.603115 0.277410
0.381421 0.584962 0.272391
0.432997 0.570593 0.270144
0.506968 0.552757 0.266321
0.617378 0.537708 0.265064
0.723825 0.527217 0.263669
0.815323 0.523563 0.269624
0.885973 0.526662 0.280915
0.982998 0.546595 0.310875
0.481216 0.727095 0.286871
0.499822 0.708355 0.283987
0.542690 0.705699 0.281946
0.606274 0.693135 0.272530
0.676166 0.681893 0.267103
0.751974 0.670250 0.264507
0.828288 0.670280 0.261019
0.898348 0.663671 0.257857
0.982869 0.671744 0.262477
0.578216 0.825461 0.314590
0.605275 0.816452 0.311882
0.636959 0.814039 0.306873
0.680629 0.810187 0.304413
0.723288 0.800470 0.297269
0.786959 0.798387 0.294733
0.842797 0.788169 0.288150
0.909900 0.791302 0.279553
0.982584 0.795081 0.274666
0.714123 0.921676 0.348553
0.728819 0.917378 0.344072
0.747174 0.914077 0.341684
0.770873 0.909715 0.341011
0.801363 0.908938 0.337351
0.834920 0.905609 0.333053
0.877910 0.903433 0.329823
0.947570 0.902407 0.324874
0.982270 0.902963 0.319555
0.821923 0.991609 0.379765
0.835193 0.991567 0.376389
0.846984 0.991539 0.371132
0.861907 0.991486 0.370051
0.877160 0.991427 0.370046
0.898751 0.991333 0.370115
0.942139 0.991137 0.366658
0.982084 0.990993 0.362238
0.982096 0.991018 0.355223
0.000000 0.063463 0.225294
0.025625 0.051202 0.219049
0.054712 0.044671 0.235448
0.151008 0.000000 0.280432
0.382830 0.000000 0.225634
0.832880 0.000000 0.181210
0.984325 0.000352 0.172443
0.984176 0.044508 0.219451
0.983649 0.201182 0.306001
0.000000 0.114727 0.269559
0.018854 0.114401 0.267486
0.113383 0.066760 0.347054
0.275255 0.086361 0.276984
0.576216 0.094997 0.263906
0.854667 0.112746 0.253588
0.928570 0.169555 0.277859
0.983548 0.238862 0.326597
0.983395 0.298095 0.360733
0.003170 0.248010 0.372118
0.073502 0.236709 0.360500
0.169065 0.246608 0.357488
0.326991 0.238522 0.342654
0.561213 0.251454 0.338600
0.738885 0.265462 0.340854
0.840083 0.292319 0.348541
0.903798 0.318783 0.367641
0.983208 0.367830 0.393963
0.129416 0.417212 0.447697
0.169088 0.399825 0.431281
0.230607 0.393724 0.419662
0.338306 0.382709 0.404009
0.504802 0.374826 0.390316
0.674979 0.376276 0.383221
0.795939 0.385729 0.389671
0.877543 0.407772 0.390940
0.983033 0.444126 0.412928
0.270382 0.576616 0.439009
0.296963 0.561305 0.425726
0.344412 0.540530 0.406693
0.434466 0.530209 0.385277
0.541281 0.515456 0.378197
0.680848 0.511745 0.376118
0.781197 0.509427 0.386270
0.871574 0.512528 0.392131
0.982874 0.530227 0.409723
0.453393 0.718942 0.335506
0.471702 0.702849 0.325878
0.501912 0.693137 0.327285
0.566397 0.688057 0.323560
0.645150 0.676042 0.316148
0.725247 0.665832 0.318530
0.803559 0.661948 0.321940
0.882500 0.655974 0.337347
0.982707 0.655076 0.367030
0.568903 0.822692 0.321561
0.600846 0.815431 0.317591
0.628195 0.808313 0.314196
0.674256 0.804885 0.310326
0.720830 0.799499 0.306213
0.784255 0.791356 0.303183
0.840403 0.785575 0.298024
0.908372 0.782708 0.293050
0.982554 0.788373 0.292208
0.715344 0.922868 0.358096
0.728853 0.917090 0.354924
0.743768 0.915134 0.350032
0.767843 0.911279 0.346094
0.798721 0.908528 0.343278
0.833057 0.904128 0.338329
0.878263 0.903018 0.335407
0.943602 0.899759 0.329804
0.982257 0.902697 0.327332
0.821859 0.991587 0.385576
0.836178 0.991539 0.382812
0.849743 0.991473 0.386033
0.862983 0.991442 0.380799
0.878992 0.991385 0.379357
0.899724 0.991283 0.382581
0.940167 0.991104 0.378467
0.982063 0.990948 0.374572
0.982070 0.990963 0.370475
0.000000 0.074345 0.252899
0.019608 0.071367 0.250236
0.052125 0.066751 0.249719
0.118684 0.005792 0.314687
0.342198 0.000000 0.260514
0.804024 0.000000 0.221451
0.984251 0.000000 0.197439
0.984197 0.004062 0.233255
0.983630 0.190776 0.331759
0.000000 0.112903 0.293479
0.025385 0.109634 0.290733
0.071082 0.087916 0.335757
0.237769 0.050043 0.324734
0.502810 0.069439 0.294804
0.841354 0.082300 0.279227
0.933993 0.145608 0.302725
0.983543 0.223755 0.350703
0.983351 0.292608 0.396678
0.000000 0.225086 0.405177
0.025679 0.224049 0.400958
0.143519 0.224182 0.395668
0.281845 0.217537 0.400275
0.545589 0.217833 0.365124
0.744951 0.241976 0.371907
0.839710 0.271361 0.387741
0.913294 0.307537 0.408895
0.983156 0.354932 0.440838
0.073713 0.396171 0.540720
0.120057 0.379429 0.527823
0.199862 0.373358 0.511984
0.284127 0.372444 0.497980
0.463661 0.357236 0.470895
0.651180 0.357392 0.455517
0.777803 0.367187 0.454203
0.870684 0.392928 0.461456
0.982942 0.432563 0.475721
0.227045 0.567204 0.590913
0.239625 0.539002 0.569228
0.281031 0.526645 0.564932
0.339427 0.521537 0.552340
0.470530 0.505014 0.524606
0.624660 0.491622 0.506209
0.746674 0.497226 0.503276
0.855063 0.502524 0.503102
0.974167 0.525044 0.507501
0.338219 0.709271 0.584911
0.347637 0.686818 0.565389
0.386676 0.678714 0.555786
0.451899 0.659729 0.538814
0.546220 0.654252 0.514415
0.660065 0.642340 0.504311
0.765113 0.642526 0.507874
0.857110 0.642603 0.508376
0.976611 0.642416 0.510481
0.522499 0.820912 0.402177
0.542063 0.809372 0.398589
0.576681 0.805446 0.389934
0.617529 0.795955 0.386070
0.685281 0.793407 0.385684
0.748648 0.787727 0.375586
0.811066 0.780562 0.387367
0.882864 0.774178 0.393622
0.982324 0.776701 0.436852
0.708652 0.920752 0.367320
0.722427 0.915804 0.361442
0.733083 0.912351 0.361142
0.767852 0.908572 0.356038
0.794459 0.906046 0.351465
0.833136 0.903090 0.348813
0.877043 0.902991 0.342583
0.947661 0.899782 0.338491
0.982240 0.902671 0.337584
0.825751 0.991531 0.396094
0.836152 0.991498 0.393660
0.850727 0.991443 0.392906
0.863011 0.991388 0.395058
0.879068 0.991342 0.390652
0.898352 0.991274 0.386573
0.943524 0.991067 0.383623
0.982045 0.990908 0.385220
0.982057 0.990933 0.378533
0.000000 0.084238 0.285338
0.021512 0.081055 0.283806
0.049031 0.079247 0.271598
0.081224 0.033609 0.327026
0.277529 0.000000 0.302240
0.740167 0.000000 0.246933
0.984249 0.000000 0.216350
0.984174 0.001792 0.243238
0.983658 0.168507 0.350124
0.000000 0.112539 0.311200
0.024066 0.109629 0.306626
0.050985 0.096817 0.325560
0.196352 0.024694 0.381872
0.437514 0.032875 0.321658
0.818707 0.042477 0.303371
0.957559 0.095412 0.314307
0.983571 0.198322 0.365292
0.983295 0.281362 0.442145
0.000000 0.206672 0.424202
0.017892 0.203681 0.424476
0.105252 0.199680 0.418897
0.223141 0.183521 0.513373
0.515970 0.186685 0.384712
0.751908 0.210325 0.390334
0.843095 0.246326 0.413475
0.914225 0.290633 0.453464
0.983093 0.338124 0.496179
0.014206 0.363881 0.618054
0.071310 0.356415 0.590369
0.168410 0.341588 0.561154
0.249248 0.343403 0.549499
0.416102 0.338123 0.542693
0.635647 0.329957 0.506842
0.777835 0.347454 0.510966
0.873356 0.372826 0.520845
0.982753 0.417443 0.542556
0.199917 0.541567 0.692041
0.213229 0.515795 0.673006
0.244070 0.508004 0.661227
0.304891 0.501245 0.641110
0.398876 0.496770 0.624515
0.581098 0.481234 0.598301
0.724060 0.479541 0.575407
0.842523 0.485893 0.569578
0.958284 0.510027 0.580577
0.297416 0.693478 0.725149
0.308616 0.677038 0.712909
0.337164 0.665297 0.707323
0.379645 0.653653 0.692759
0.463212 0.646149 0.673869
0.599230 0.627562 0.648467
0.726683 0.622478 0.634189
0.835115 0.625525 0.622637
0.958606 0.633596 0.622376
0.400089 0.809882 0.727095
0.412498 0.798533 0.722809
0.437986 0.788403 0.711392
0.490343 0.787242 0.695121
0.553554 0.776189 0.674052
0.670013 0.767348 0.660266
0.760146 0.765397 0.632412
0.857388 0.758388 0.643729
0.981625 0.772145 0.641719
0.678805 0.919530 0.450023
0.692578 0.912281 0.427784
0.709274 0.911611 0.421852
0.734219 0.906460 0.428475
0.770299 0.904581 0.420739
0.814604 0.904212 0.419004
0.862289 0.897108 0.412613
0.922024 0.896198 0.434437
0.981982 0.901613 0.479462
0.829362 0.991461 0.410655
0.838180 0.991426 0.410384
0.853418 0.991364 0.410736
0.864085 0.991340 0.406714
0.878754 0.991298 0.402543
0.901257 0.991205 0.401144
0.943585 0.991013 0.397915
0.982018 0.990854 0.399474
0.982033 0.990884 0.391735
0.000000 0.087800 0.313503
0.020802 0.085161 0.312589
0.048975 0.084320 0.301410
0.069759 0.069846 0.318529
0.208252 0.000000 0.359158
0.640827 0.000000 0.281014
0.976291 0.000000 0.232510
0.984140 0.000267 0.257583
0.983721 0.136775 0.358232
0.000000 0.109603 0.331313
0.018772 0.108510 0.329331
0.048926 0.106692 0.330902
0.123401 0.051218 0.396606
0.357723 0.026879 0.351063
0.788974 0.025225 0.317300
0.976187 0.046441 0.321927
0.983642 0.160666 0.376938
0.983281 0.256165 0.477866
0.000000 0.184874 0.427513
0.019908 0.180805 0.426273
0.058167 0.172215 0.428690
0.176704 0.127656 0.589635
0.452747 0.150209 0.421870
0.761909 0.166736 0.399503
0.864002 0.213216 0.431104
0.924749 0.261781 0.483118
0.983024 0.326145 0.548034
0.000000 0.345585 0.670697
0.025164 0.322622 0.646279
0.096739 0.311982 0.615584
0.217869 0.311200 0.598672
0.363270 0.305037 0.628755
0.618896 0.306333 0.558234
0.776820 0.318504 0.557072
0.871898 0.343926 0.567473
0.982782 0.397657 0.596415
0.151331 0.511803 0.764979
0.168606 0.494014 0.749849
0.212119 0.484990 0.732000
0.269912 0.473885 0.714452
0.348565 0.473220 0.693590
0.516620 0.460818 0.703359
0.715032 0.455525 0.653053
0.835935 0.463801 0.656387
0.947270 0.490104 0.664930
0.258723 0.668612 0.803664
0.276118 0.652834 0.792898
0.302424 0.645384 0.783682
0.343622 0.643167 0.776515
0.403684 0.631276 0.766063
0.522583 0.621710 0.751321
0.691444 0.605483 0.737244
0.821939 0.609386 0.724848
0.945819 0.620013 0.717936
0.355403 0.798574 0.829137
0.363352 0.786177 0.822369
0.390967 0.781694 0.818359
0.424229 0.776777 0.808120
0.484199 0.765800 0.804180
0.588027 0.759631 0.791746
0.716773 0.754803 0.778201
0.835670 0.749309 0.772347
0.971704 0.760451 0.763575
0.508333 0.908020 0.814631
0.536966 0.905860 0.800743
0.563001 0.902908 0.801887
0.595692 0.896474 0.798994
0.648400 0.895372 0.787819
0.714764 0.890436 0.791482
0.799170 0.888140 0.783167
0.871903 0.884961 0.778486
0.981350 0.890039 0.779494
0.824795 0.991282 0.462190
0.829317 0.991317 0.448199
0.848886 0.991216 0.453981
0.863673 0.991207 0.441818
0.879142 0.991148 0.441252
0.898755 0.991052 0.444038
0.943836 0.990857 0.438216
0.981940 0.990700 0.440071
0.981942 0.990704 0.438937
0.000000 0.094660 0.337857
0.024703 0.094285 0.341992
0.048941 0.091378 0.336102
0.065598 0.083878 0.323987
0.156358 0.007333 0.382571
0.487680 0.000000 0.320004
0.962753 0.000000 0.254875
0.984149 0.000000 0.254496
0.983858 0.071980 0.352212
0.000000 0.112931 0.345778
0.023366 0.116213 0.347617
0.048912 0.113761 0.344743
0.074041 0.094797 0.367912
0.256589 0.026962 0.398876
0.683420 0.020706 0.335002
0.971250 0.022019 0.323270
0.983824 0.084536 0.360914
0.983307 0.226825 0.494410
0.000000 0.158447 0.412815
0.023266 0.153186 0.406335
0.048845 0.149257 0.408715
0.126289 0.083607 0.545167
0.336489 0.092550 0.467305
0.728575 0.094710 0.402207
0.885997 0.152510 0.427468
0.953845 0.224166 0.493726
0.983034 0.297136 0.573517
0.000000 0.297181 0.688805
0.018902 0.277653 0.648396
0.053948 0.271141 0.632917
0.174164 0.262448 0.621663
0.334366 0.244947 0.675945
0.628742 0.257937 0.571730
0.787645 0.277415 0.578418
0.876437 0.314834 0.609782
0.982708 0.369520 0.661333
0.067677 0.481077 0.816435
0.091524 0.461921 0.807556
0.152492 0.446325 0.785779
0.224330 0.439628 0.773710
0.308581 0.425036 0.752020
0.445739 0.415254 0.786042
0.693526 0.409715 0.721096
0.829435 0.430949 0.727841
0.949879 0.466835 0.742922
0.215569 0.641014 0.859713
0.226214 0.623287 0.849890
0.257188 0.618086 0.849379
0.299429 0.601018 0.838045
0.363218 0.599579 0.829351
0.450088 0.594177 0.817861
0.617254 0.582326 0.824251
0.806734 0.568951 0.796189
0.943211 0.590924 0.795460
0.310016 0.782300 0.894109
0.322682 0.771409 0.887208
0.341721 0.765993 0.887196
0.373744 0.753363 0.880916
0.430996 0.748543 0.878559
0.507622 0.739919 0.868833
0.645017 0.739233 0.861419
0.801393 0.729578 0.849526
0.945225 0.738413 0.841641
0.444048 0.899640 0.936341
0.463985 0.896957 0.923685
0.488999 0.893898 0.921074
0.512724 0.890491 0.919046
0.563158 0.884497 0.908716
0.645767 0.883707 0.914748
0.729871 0.881124 0.905877
0.841455 0.881128 0.902672
0.963561 0.874271 0.896594
0.702030 0.989968 0.917627
0.720281 0.989958 0.904325
0.739454 0.989903 0.900545
0.775787 0.989821 0.882904
0.796498 0.989710 0.892193
0.823359 0.989598 0.894374
0.863801 0.989458 0.890466
0.906534 0.989286 0.888498
0.980955 0.988938 0.898314
0.000000 0.097956 0.345142
0.024694 0.097997 0.347419
0.054594 0.097653 0.345623
0.065603 0.088793 0.337571
0.143282 0.011086 0.391768
0.438831 0.000000 0.332863
0.922200 0.000000 0.265411
0.984136 0.000000 0.259613
0.983899 0.045792 0.355129
0.000000 0.115824 0.355276
0.018747 0.116210 0.352688
0.042882 0.116627 0.352092
0.069767 0.095625 0.366928
0.235066 0.033777 0.420417
0.648819 0.027498 0.342918
0.954825 0.020538 0.321226
0.983880 0.054761 0.359011
0.983324 0.213311 0.499830
0.000000 0.155671 0.414050
0.019982 0.148891 0.410184
0.048854 0.146038 0.400247
0.105871 0.086738 0.531027
0.313404 0.080460 0.499053
0.714006 0.086441 0.409606
0.896578 0.113930 0.406326
0.981704 0.207310 0.500576
0.983004 0.287013 0.598158
0.000000 0.283608 0.686233
0.022161 0.265057 0.654218
0.045945 0.254502 0.629683
0.152877 0.244071 0.627991
0.322941 0.220520 0.686021
0.621296 0.235855 0.570189
0.791688 0.257675 0.581556
0.883729 0.298646 0.634317
0.982691 0.352002 0.688926
0.035291 0.472974 0.832058
0.073770 0.452105 0.816316
0.113025 0.428839 0.803654
0.210731 0.415447 0.790227
0.296004 0.401426 0.768703
0.434687 0.392449 0.809129
0.685265 0.386098 0.751692
0.829487 0.409703 0.747529
0.947627 0.456194 0.766950
0.200061 0.629855 0.872296
0.212640 0.615320 0.872166
0.231621 0.599780 0.868383
0.279610 0.588074 0.857735
0.334448 0.575505 0.849682
0.429420 0.575299 0.834052
0.585114 0.563205 0.853675
0.796677 0.548967 0.826201
0.936015 0.572224 0.828383
0.297028 0.778113 0.909420
0.305232 0.756866 0.908228
0.320018 0.750674 0.904222
0.355805 0.745351 0.901738
0.406180 0.736189 0.897780
0.490960 0.729598 0.896623
0.601605 0.720498 0.891849
0.782023 0.715314 0.885370
0.941623 0.718834 0.875510
0.423081 0.899985 0.956861
0.423764 0.891290 0.955145
0.452974 0.890838 0.953530
0.478507 0.882792 0.951701
0.532612 0.881403 0.951895
0.605510 0.870962 0.947944
0.715139 0.874345 0.949978
0.821243 0.874450 0.948398
0.957501 0.871157 0.940791
0.671024 0.989904 0.966160
0.689041 0.989831 0.969705
0.706798 0.989769 0.969594
0.726244 0.989698 0.972329
0.759006 0.989574 0.974057
0.797608 0.989427 0.973701
0.832807 0.989296 0.978961
0.881971 0.989164 0.985460
0.980970 0.988752 0.984846
