Kodak Vision2 500T Expression (5229) - Only contrast.cube
# Created by Benjamin (IWLTBAP) : http://luts.iwltbap.com
# Copyright: (C) Copyright 2010-2017 Triune Films and IWLTBAP SAS
# Cannot be resold, shared or otherwise redistributed
TITLE "Film Print Emulation LUTs Pack (Rec.709, sRGB, DCI-P3)"
LUT_3D_SIZE 33
0.002106 0.002106 0.002106
0.015869 0.002106 0.002106
0.032928 0.002075 0.002075
0.056793 0.002014 0.002014
0.080322 0.001923 0.001923
0.106445 0.001831 0.001831
0.134003 0.001740 0.001740
0.163574 0.001648 0.001648
0.194824 0.001495 0.001495
0.227753 0.001373 0.001373
0.262115 0.001221 0.001221
0.297607 0.001068 0.001068
0.333862 0.000916 0.000916
0.371185 0.000732 0.000732
0.406128 0.000580 0.000580
0.438934 0.000458 0.000458
0.472046 0.000305 0.000305
0.502899 0.000183 0.000183
0.532593 0.000092 0.000092
0.561798 0.000000 0.000000
0.588715 0.000000 0.000000
0.612122 0.000000 0.000000
0.636322 0.000000 0.000000
0.662109 0.000000 0.000000
0.687927 0.000000 0.000000
0.712921 0.000000 0.000000
0.740631 0.000000 0.000000
0.770081 0.000000 0.000000
0.798157 0.000000 0.000000
0.826233 0.000000 0.000000
0.857208 0.000000 0.000000
0.891479 0.000000 0.000000
0.941315 0.000000 0.000000
0.002106 0.015869 0.002106
0.015869 0.015869 0.002106
0.032990 0.015839 0.002075
0.056854 0.015778 0.002014
0.080383 0.015717 0.001923
0.106537 0.015656 0.001831
0.134094 0.015564 0.001740
0.163696 0.015442 0.001617
0.194946 0.015350 0.001495
0.227905 0.015228 0.001373
0.262268 0.015076 0.001221
0.297760 0.014923 0.001068
0.334015 0.014771 0.000916
0.371338 0.014618 0.000732
0.406250 0.014496 0.000580
0.439056 0.014374 0.000458
0.472168 0.014252 0.000305
0.503021 0.014130 0.000183
0.532715 0.014038 0.000092
0.561920 0.013916 0.000000
0.588806 0.013855 0.000000
0.612183 0.013794 0.000000
0.636383 0.013702 0.000000
0.662201 0.013641 0.000000
0.688019 0.013550 0.000000
0.712982 0.013489 0.000000
0.740753 0.013397 0.000000
0.770203 0.013306 0.000000
0.798248 0.013214 0.000000
0.826355 0.013123 0.000000
0.857330 0.013000 0.000000
0.891663 0.012878 0.000000
0.941681 0.012634 0.000000
0.002075 0.032928 0.002075
0.015839 0.032990 0.002075
0.033051 0.033051 0.002045
0.056915 0.033020 0.001984
0.080414 0.033020 0.001892
0.106598 0.033020 0.001801
0.134186 0.032990 0.001709
0.163757 0.032959 0.001587
0.195038 0.032898 0.001465
0.227997 0.032837 0.001343
0.262390 0.032745 0.001190
0.297882 0.032684 0.001038
0.334137 0.032593 0.000885
0.371490 0.032501 0.000702
0.406372 0.032410 0.000549
0.439178 0.032349 0.000427
0.472260 0.032288 0.000275
0.503113 0.032227 0.000153
0.532806 0.032196 0.000031
0.561981 0.032166 0.000000
0.588837 0.032135 0.000000
0.612213 0.032135 0.000000
0.636444 0.032135 0.000000
0.662262 0.032104 0.000000
0.688049 0.032104 0.000000
0.713043 0.032104 0.000000
0.740814 0.032074 0.000000
0.770264 0.032013 0.000000
0.798309 0.031982 0.000000
0.826416 0.031952 0.000000
0.857422 0.031921 0.000000
0.891785 0.031830 0.000000
0.941986 0.031647 0.000000
0.002014 0.056793 0.002014
0.015778 0.056854 0.002014
0.033020 0.056915 0.001984
0.056915 0.056915 0.001892
0.080414 0.056915 0.001831
0.106628 0.056885 0.001740
0.134216 0.056854 0.001648
0.163818 0.056824 0.001526
0.195099 0.056763 0.001404
0.228088 0.056702 0.001251
0.262451 0.056641 0.001099
0.297974 0.056549 0.000946
0.334229 0.056458 0.000793
0.371582 0.056366 0.000641
0.406433 0.056274 0.000488
0.439240 0.056213 0.000336
0.472321 0.056152 0.000214
0.503143 0.056122 0.000092
0.532837 0.056061 0.000000
0.562012 0.056030 0.000000
0.588867 0.056000 0.000000
0.612213 0.056000 0.000000
0.636444 0.056000 0.000000
0.662262 0.056000 0.000000
0.688080 0.055969 0.000000
0.713043 0.055969 0.000000
0.740875 0.055939 0.000000
0.770325 0.055908 0.000000
0.798340 0.055878 0.000000
0.826447 0.055847 0.000000
0.857483 0.055786 0.000000
0.891876 0.055725 0.000000
0.942291 0.055542 0.000000
0.001923 0.080322 0.001923
0.015717 0.080383 0.001923
0.033020 0.080414 0.001892
0.056915 0.080414 0.001831
0.080414 0.080414 0.001740
0.106659 0.080414 0.001678
0.134247 0.080383 0.001556
0.163879 0.080322 0.001434
0.195160 0.080292 0.001312
0.228149 0.080231 0.001190
0.262543 0.080139 0.001038
0.298065 0.080078 0.000885
0.334320 0.079987 0.000732
0.371674 0.079895 0.000549
0.406494 0.079803 0.000397
0.439301 0.079773 0.000275
0.472412 0.079712 0.000122
0.503174 0.079651 0.000000
0.532867 0.079620 0.000000
0.562042 0.079590 0.000000
0.588867 0.079559 0.000000
0.612213 0.079559 0.000000
0.636444 0.079590 0.000000
0.662292 0.079559 0.000000
0.688080 0.079559 0.000000
0.713043 0.079559 0.000000
0.740906 0.079529 0.000000
0.770355 0.079498 0.000000
0.798340 0.079498 0.000000
0.826508 0.079468 0.000000
0.857574 0.079407 0.000000
0.891998 0.079346 0.000000
0.942566 0.079193 0.000000
0.001831 0.106445 0.001831
0.015656 0.106537 0.001831
0.033020 0.106598 0.001801
0.056885 0.106628 0.001740
0.080414 0.106659 0.001678
0.106659 0.106659 0.001587
0.134247 0.106659 0.001465
0.163910 0.106659 0.001343
0.195190 0.106628 0.001221
0.228210 0.106567 0.001099
0.262604 0.106537 0.000946
0.298126 0.106476 0.000793
0.334412 0.106415 0.000641
0.371735 0.106323 0.000458
0.406555 0.106293 0.000305
0.439331 0.106232 0.000183
0.472443 0.106201 0.000031
0.503204 0.106171 0.000000
0.532898 0.106171 0.000000
0.562073 0.106140 0.000000
0.588867 0.106140 0.000000
0.612183 0.106171 0.000000
0.636444 0.106201 0.000000
0.662292 0.106201 0.000000
0.688080 0.106201 0.000000
0.713043 0.106232 0.000000
0.740936 0.106232 0.000000
0.770386 0.106201 0.000000
0.798340 0.106201 0.000000
0.826508 0.106201 0.000000
0.857605 0.106171 0.000000
0.892059 0.106110 0.000000
0.942841 0.105957 0.000000
0.001740 0.134003 0.001740
0.015564 0.134094 0.001740
0.032990 0.134186 0.001709
0.056854 0.134216 0.001648
0.080383 0.134247 0.001556
0.106659 0.134247 0.001465
0.134277 0.134277 0.001373
0.163910 0.134247 0.001251
0.195251 0.134247 0.001129
0.228241 0.134216 0.001007
0.262665 0.134155 0.000854
0.298187 0.134125 0.000702
0.334473 0.134064 0.000519
0.371796 0.134003 0.000366
0.406586 0.133972 0.000214
0.439362 0.133942 0.000061
0.472473 0.133911 0.000000
0.503204 0.133911 0.000000
0.532928 0.133881 0.000000
0.562073 0.133881 0.000000
0.588837 0.133911 0.000000
0.612152 0.133942 0.000000
0.636444 0.133972 0.000000
0.662292 0.134003 0.000000
0.688080 0.134003 0.000000
0.713013 0.134033 0.000000
0.740936 0.134064 0.000000
0.770386 0.134033 0.000000
0.798340 0.134064 0.000000
0.826538 0.134064 0.000000
0.857635 0.134033 0.000000
0.892151 0.134003 0.000000
0.943085 0.133850 0.000000
0.001648 0.163574 0.001648
0.015442 0.163696 0.001617
0.032959 0.163757 0.001587
0.056824 0.163818 0.001526
0.080322 0.163879 0.001434
0.106659 0.163910 0.001343
0.134247 0.163910 0.001251
0.163940 0.163940 0.001129
0.195251 0.163940 0.001007
0.228271 0.163910 0.000885
0.262695 0.163879 0.000732
0.298248 0.163849 0.000580
0.334503 0.163818 0.000427
0.371857 0.163757 0.000244
0.406616 0.163727 0.000092
0.439392 0.163727 0.000000
0.472504 0.163696 0.000000
0.503204 0.163696 0.000000
0.532928 0.163727 0.000000
0.562073 0.163727 0.000000
0.588806 0.163757 0.000000
0.612122 0.163818 0.000000
0.636383 0.163849 0.000000
0.662262 0.163879 0.000000
0.688049 0.163910 0.000000
0.712982 0.163971 0.000000
0.740936 0.163971 0.000000
0.770386 0.164001 0.000000
0.798309 0.164001 0.000000
0.826508 0.164032 0.000000
0.857666 0.164032 0.000000
0.892212 0.164001 0.000000
0.943359 0.163849 0.000000
0.001495 0.194824 0.001495
0.015350 0.194946 0.001495
0.032898 0.195038 0.001465
0.056763 0.195099 0.001404
0.080292 0.195160 0.001312
0.106628 0.195190 0.001221
0.134247 0.195251 0.001129
0.163940 0.195251 0.001007
0.195251 0.195251 0.000885
0.228302 0.195251 0.000763
0.262726 0.195251 0.000610
0.298279 0.195221 0.000458
0.334534 0.195190 0.000275
0.371887 0.195160 0.000122
0.406616 0.195160 0.000000
0.439423 0.195160 0.000000
0.472504 0.195160 0.000000
0.503204 0.195160 0.000000
0.532898 0.195190 0.000000
0.562042 0.195190 0.000000
0.588745 0.195251 0.000000
0.612061 0.195312 0.000000
0.636353 0.195374 0.000000
0.662201 0.195404 0.000000
0.688019 0.195465 0.000000
0.712952 0.195526 0.000000
0.740936 0.195557 0.000000
0.770386 0.195557 0.000000
0.798279 0.195587 0.000000
0.826508 0.195618 0.000000
0.857697 0.195648 0.000000
0.892242 0.195618 0.000000
0.943573 0.195496 0.000000
0.001373 0.227753 0.001373
0.015228 0.227905 0.001373
0.032837 0.227997 0.001343
0.056702 0.228088 0.001251
0.080231 0.228149 0.001190
0.106567 0.228210 0.001099
0.134216 0.228241 0.001007
0.163910 0.228271 0.000885
0.195251 0.228302 0.000763
0.228302 0.228302 0.000610
0.262726 0.228302 0.000458
0.298279 0.228302 0.000305
0.334564 0.228271 0.000153
0.371918 0.228271 0.000000
0.406616 0.228241 0.000000
0.439392 0.228271 0.000000
0.472504 0.228271 0.000000
0.503174 0.228302 0.000000
0.532898 0.228333 0.000000
0.562012 0.228363 0.000000
0.588684 0.228394 0.000000
0.612000 0.228485 0.000000
0.636292 0.228546 0.000000
0.662170 0.228607 0.000000
0.687958 0.228668 0.000000
0.712891 0.228729 0.000000
0.740906 0.228760 0.000000
0.770355 0.228790 0.000000
0.798248 0.228851 0.000000
0.826477 0.228882 0.000000
0.857697 0.228912 0.000000
0.892273 0.228912 0.000000
0.943817 0.228790 0.000000
0.001221 0.262115 0.001221
0.015076 0.262268 0.001221
0.032745 0.262390 0.001190
0.056641 0.262451 0.001099
0.080139 0.262543 0.001038
0.106537 0.262604 0.000946
0.134155 0.262665 0.000854
0.163879 0.262695 0.000732
0.195251 0.262726 0.000610
0.228302 0.262726 0.000458
0.262726 0.262726 0.000305
0.298309 0.262726 0.000153
0.334595 0.262726 0.000000
0.371948 0.262695 0.000000
0.406616 0.262726 0.000000
0.439392 0.262726 0.000000
0.472504 0.262756 0.000000
0.503143 0.262787 0.000000
0.532837 0.262817 0.000000
0.561981 0.262848 0.000000
0.588623 0.262909 0.000000
0.611908 0.263000 0.000000
0.636230 0.263092 0.000000
0.662109 0.263153 0.000000
0.687897 0.263214 0.000000
0.712830 0.263275 0.000000
0.740875 0.263336 0.000000
0.770325 0.263367 0.000000
0.798187 0.263428 0.000000
0.826447 0.263489 0.000000
0.857666 0.263519 0.000000
0.892303 0.263519 0.000000
0.944031 0.263397 0.000000
0.001068 0.297607 0.001068
0.014923 0.297760 0.001068
0.032684 0.297882 0.001038
0.056549 0.297974 0.000946
0.080078 0.298065 0.000885
0.106476 0.298126 0.000793
0.134125 0.298187 0.000702
0.163849 0.298248 0.000580
0.195221 0.298279 0.000458
0.228302 0.298279 0.000305
0.262726 0.298309 0.000153
0.298309 0.298309 0.000000
0.334595 0.298309 0.000000
0.371948 0.298279 0.000000
0.406586 0.298309 0.000000
0.439392 0.298340 0.000000
0.472473 0.298340 0.000000
0.503113 0.298401 0.000000
0.532806 0.298431 0.000000
0.561920 0.298492 0.000000
0.588562 0.298553 0.000000
0.611816 0.298645 0.000000
0.636169 0.298706 0.000000
0.662048 0.298798 0.000000
0.687836 0.298859 0.000000
0.712769 0.298950 0.000000
0.740814 0.298981 0.000000
0.770264 0.299042 0.000000
0.798126 0.299103 0.000000
0.826416 0.299164 0.000000
0.857666 0.299194 0.000000
0.892334 0.299194 0.000000
0.944244 0.299072 0.000000
0.000916 0.333862 0.000916
0.014771 0.334015 0.000916
0.032593 0.334137 0.000885
0.056458 0.334229 0.000793
0.079987 0.334320 0.000732
0.106415 0.334412 0.000641
0.134064 0.334473 0.000519
0.163818 0.334503 0.000427
0.195190 0.334534 0.000275
0.228271 0.334564 0.000153
0.262726 0.334595 0.000000
0.298309 0.334595 0.000000
0.334595 0.334595 0.000000
0.371948 0.334595 0.000000
0.406586 0.334595 0.000000
0.439362 0.334625 0.000000
0.472443 0.334656 0.000000
0.503052 0.334686 0.000000
0.532776 0.334747 0.000000
0.561859 0.334808 0.000000
0.588470 0.334869 0.000000
0.611725 0.334961 0.000000
0.636078 0.335052 0.000000
0.661957 0.335114 0.000000
0.687744 0.335205 0.000000
0.712677 0.335266 0.000000
0.740784 0.335327 0.000000
0.770233 0.335388 0.000000
0.798065 0.335449 0.000000
0.826355 0.335510 0.000000
0.857635 0.335541 0.000000
0.892334 0.335571 0.000000
0.944427 0.335449 0.000000
0.000732 0.371185 0.000732
0.014618 0.371338 0.000732
0.032501 0.371490 0.000702
0.056366 0.371582 0.000641
0.079895 0.371674 0.000549
0.106323 0.371735 0.000458
0.134003 0.371796 0.000366
0.163757 0.371857 0.000244
0.195160 0.371887 0.000122
0.228271 0.371918 0.000000
0.262695 0.371948 0.000000
0.298279 0.371948 0.000000
0.334595 0.371948 0.000000
0.371948 0.371948 0.000000
0.406555 0.371979 0.000000
0.439331 0.371979 0.000000
0.472412 0.372009 0.000000
0.502991 0.372070 0.000000
0.532715 0.372101 0.000000
0.561798 0.372162 0.000000
0.588379 0.372223 0.000000
0.611633 0.372314 0.000000
0.635986 0.372406 0.000000
0.661896 0.372467 0.000000
0.687683 0.372528 0.000000
0.712585 0.372620 0.000000
0.740723 0.372681 0.000000
0.770172 0.372711 0.000000
0.798004 0.372772 0.000000
0.826294 0.372833 0.000000
0.857605 0.372864 0.000000
0.892365 0.372864 0.000000
0.944641 0.372772 0.000000
0.000580 0.406128 0.000580
0.014496 0.406250 0.000580
0.032410 0.406372 0.000549
0.056274 0.406433 0.000488
0.079803 0.406494 0.000397
0.106293 0.406555 0.000305
0.133972 0.406586 0.000214
0.163727 0.406616 0.000092
0.195160 0.406616 0.000000
0.228241 0.406616 0.000000
0.262726 0.406616 0.000000
0.298309 0.406586 0.000000
0.334595 0.406586 0.000000
0.371979 0.406555 0.000000
0.406525 0.406525 0.000000
0.439301 0.406525 0.000000
0.472412 0.406525 0.000000
0.502960 0.406555 0.000000
0.532684 0.406586 0.000000
0.561768 0.406616 0.000000
0.588318 0.406647 0.000000
0.611572 0.406708 0.000000
0.635925 0.406769 0.000000
0.661835 0.406830 0.000000
0.687622 0.406891 0.000000
0.712524 0.406952 0.000000
0.740692 0.406982 0.000000
0.770142 0.407013 0.000000
0.797943 0.407043 0.000000
0.826263 0.407074 0.000000
0.857605 0.407074 0.000000
0.892395 0.407074 0.000000
0.944855 0.406921 0.000000
0.000458 0.438934 0.000458
0.014374 0.439056 0.000458
0.032349 0.439178 0.000427
0.056213 0.439240 0.000336
0.079773 0.439301 0.000275
0.106232 0.439331 0.000183
0.133942 0.439362 0.000061
0.163727 0.439392 0.000000
0.195160 0.439423 0.000000
0.228271 0.439392 0.000000
0.262726 0.439392 0.000000
0.298340 0.439392 0.000000
0.334625 0.439362 0.000000
0.371979 0.439331 0.000000
0.406525 0.439301 0.000000
0.439331 0.439331 0.000000
0.472412 0.439331 0.000000
0.502960 0.439331 0.000000
0.532654 0.439362 0.000000
0.561737 0.439392 0.000000
0.588257 0.439423 0.000000
0.611481 0.439484 0.000000
0.635895 0.439545 0.000000
0.661804 0.439606 0.000000
0.687561 0.439667 0.000000
0.712494 0.439697 0.000000
0.740662 0.439758 0.000000
0.770111 0.439758 0.000000
0.797913 0.439789 0.000000
0.826233 0.439850 0.000000
0.857605 0.439850 0.000000
0.892426 0.439850 0.000000
0.945099 0.439697 0.000000
0.000305 0.472046 0.000305
0.014252 0.472168 0.000305
0.032288 0.472260 0.000275
0.056152 0.472321 0.000214
0.079712 0.472412 0.000122
0.106201 0.472443 0.000031
0.133911 0.472473 0.000000
0.163696 0.472504 0.000000
0.195160 0.472504 0.000000
0.228271 0.472504 0.000000
0.262756 0.472504 0.000000
0.298340 0.472473 0.000000
0.334656 0.472443 0.000000
0.372009 0.472412 0.000000
0.406525 0.472412 0.000000
0.439331 0.472412 0.000000
0.472412 0.472412 0.000000
0.502930 0.472412 0.000000
0.532623 0.472443 0.000000
0.561707 0.472473 0.000000
0.588196 0.472504 0.000000
0.611420 0.472565 0.000000
0.635834 0.472626 0.000000
0.661743 0.472687 0.000000
0.687500 0.472717 0.000000
0.712433 0.472778 0.000000
0.740631 0.472809 0.000000
0.770081 0.472839 0.000000
0.797852 0.472870 0.000000
0.826233 0.472900 0.000000
0.857605 0.472900 0.000000
0.892487 0.472870 0.000000
0.945312 0.472748 0.000000
0.000183 0.502899 0.000183
0.014130 0.503021 0.000183
0.032227 0.503113 0.000153
0.056122 0.503143 0.000092
0.079651 0.503174 0.000000
0.106171 0.503204 0.000000
0.133911 0.503204 0.000000
0.163696 0.503204 0.000000
0.195160 0.503204 0.000000
0.228302 0.503174 0.000000
0.262787 0.503143 0.000000
0.298401 0.503113 0.000000
0.334686 0.503052 0.000000
0.372070 0.502991 0.000000
0.406555 0.502960 0.000000
0.439331 0.502960 0.000000
0.472412 0.502930 0.000000
0.502930 0.502930 0.000000
0.532623 0.502930 0.000000
0.561676 0.502930 0.000000
0.588165 0.502960 0.000000
0.611389 0.502991 0.000000
0.635803 0.503021 0.000000
0.661713 0.503052 0.000000
0.687469 0.503082 0.000000
0.712402 0.503113 0.000000
0.740631 0.503143 0.000000
0.770081 0.503143 0.000000
0.797821 0.503143 0.000000
0.826202 0.503143 0.000000
0.857635 0.503143 0.000000
0.892548 0.503113 0.000000
0.945557 0.502960 0.000000
0.000092 0.532593 0.000092
0.014038 0.532715 0.000092
0.032196 0.532806 0.000031
0.056061 0.532837 0.000000
0.079620 0.532867 0.000000
0.106171 0.532898 0.000000
0.133881 0.532928 0.000000
0.163727 0.532928 0.000000
0.195190 0.532898 0.000000
0.228333 0.532898 0.000000
0.262817 0.532837 0.000000
0.298431 0.532806 0.000000
0.334747 0.532776 0.000000
0.372101 0.532715 0.000000
0.406586 0.532684 0.000000
0.439362 0.532654 0.000000
0.472443 0.532623 0.000000
0.502930 0.532623 0.000000
0.532623 0.532623 0.000000
0.561676 0.532654 0.000000
0.588135 0.532654 0.000000
0.611328 0.532715 0.000000
0.635773 0.532745 0.000000
0.661682 0.532776 0.000000
0.687469 0.532806 0.000000
0.712372 0.532837 0.000000
0.740631 0.532837 0.000000
0.770081 0.532837 0.000000
0.797821 0.532867 0.000000
0.826202 0.532867 0.000000
0.857666 0.532867 0.000000
0.892609 0.532806 0.000000
0.945801 0.532654 0.000000
0.000000 0.561798 0.000000
0.013916 0.561920 0.000000
0.032166 0.561981 0.000000
0.056030 0.562012 0.000000
0.079590 0.562042 0.000000
0.106140 0.562073 0.000000
0.133881 0.562073 0.000000
0.163727 0.562073 0.000000
0.195190 0.562042 0.000000
0.228363 0.562012 0.000000
0.262848 0.561981 0.000000
0.298492 0.561920 0.000000
0.334808 0.561859 0.000000
0.372162 0.561798 0.000000
0.406616 0.561768 0.000000
0.439392 0.561737 0.000000
0.472473 0.561707 0.000000
0.502930 0.561676 0.000000
0.532654 0.561676 0.000000
0.561676 0.561676 0.000000
0.588104 0.561676 0.000000
0.611298 0.561707 0.000000
0.635742 0.561737 0.000000
0.661652 0.561768 0.000000
0.687439 0.561768 0.000000
0.712341 0.561798 0.000000
0.740631 0.561798 0.000000
0.770081 0.561798 0.000000
0.797791 0.561798 0.000000
0.826233 0.561798 0.000000
0.857697 0.561768 0.000000
0.892670 0.561737 0.000000
0.946075 0.561554 0.000000
0.000000 0.588715 0.000000
0.013855 0.588806 0.000000
0.032135 0.588837 0.000000
0.056000 0.588867 0.000000
0.079559 0.588867 0.000000
0.106140 0.588867 0.000000
0.133911 0.588837 0.000000
0.163757 0.588806 0.000000
0.195251 0.588745 0.000000
0.228394 0.588684 0.000000
0.262909 0.588623 0.000000
0.298553 0.588562 0.000000
0.334869 0.588470 0.000000
0.372223 0.588379 0.000000
0.406647 0.588318 0.000000
0.439423 0.588257 0.000000
0.472504 0.588196 0.000000
0.502960 0.588165 0.000000
0.532654 0.588135 0.000000
0.561676 0.588104 0.000000
0.588104 0.588104 0.000000
0.611267 0.588104 0.000000
0.635742 0.588104 0.000000
0.661652 0.588104 0.000000
0.687439 0.588074 0.000000
0.712341 0.588074 0.000000
0.740662 0.588043 0.000000
0.770111 0.588013 0.000000
0.797821 0.587982 0.000000
0.826233 0.587952 0.000000
0.857758 0.587921 0.000000
0.892792 0.587830 0.000000
0.946350 0.587646 0.000000
0.000000 0.612122 0.000000
0.013794 0.612183 0.000000
0.032135 0.612213 0.000000
0.056000 0.612213 0.000000
0.079559 0.612213 0.000000
0.106171 0.612183 0.000000
0.133942 0.612152 0.000000
0.163818 0.612122 0.000000
0.195312 0.612061 0.000000
0.228485 0.612000 0.000000
0.263000 0.611908 0.000000
0.298645 0.611816 0.000000
0.334961 0.611725 0.000000
0.372314 0.611633 0.000000
0.406708 0.611572 0.000000
0.439484 0.611481 0.000000
0.472565 0.611420 0.000000
0.502991 0.611389 0.000000
0.532715 0.611328 0.000000
0.561707 0.611298 0.000000
0.588104 0.611267 0.000000
0.611267 0.611267 0.000000
0.635742 0.611267 0.000000
0.661682 0.611267 0.000000
0.687439 0.611237 0.000000
0.712372 0.611237 0.000000
0.740723 0.611206 0.000000
0.770142 0.611145 0.000000
0.797821 0.611145 0.000000
0.826294 0.611115 0.000000
0.857819 0.611053 0.000000
0.892883 0.610962 0.000000
0.946655 0.610748 0.000000
0.000000 0.636322 0.000000
0.013702 0.636383 0.000000
0.032135 0.636444 0.000000
0.056000 0.636444 0.000000
0.079590 0.636444 0.000000
0.106201 0.636444 0.000000
0.133972 0.636444 0.000000
0.163849 0.636383 0.000000
0.195374 0.636353 0.000000
0.228546 0.636292 0.000000
0.263092 0.636230 0.000000
0.298706 0.636169 0.000000
0.335052 0.636078 0.000000
0.372406 0.635986 0.000000
0.406769 0.635925 0.000000
0.439545 0.635895 0.000000
0.472626 0.635834 0.000000
0.503021 0.635803 0.000000
0.532745 0.635773 0.000000
0.561737 0.635742 0.000000
0.588104 0.635742 0.000000
0.611267 0.635742 0.000000
0.635742 0.635742 0.000000
0.661682 0.635742 0.000000
0.687469 0.635742 0.000000
0.712372 0.635742 0.000000
0.740753 0.635742 0.000000
0.770172 0.635712 0.000000
0.797852 0.635681 0.000000
0.826324 0.635681 0.000000
0.857880 0.635620 0.000000
0.893005 0.635559 0.000000
0.946930 0.635376 0.000000
0.000000 0.662109 0.000000
0.013641 0.662201 0.000000
0.032104 0.662262 0.000000
0.056000 0.662262 0.000000
0.079559 0.662292 0.000000
0.106201 0.662292 0.000000
0.134003 0.662292 0.000000
0.163879 0.662262 0.000000
0.195404 0.662201 0.000000
0.228607 0.662170 0.000000
0.263153 0.662109 0.000000
0.298798 0.662048 0.000000
0.335114 0.661957 0.000000
0.372467 0.661896 0.000000
0.406830 0.661835 0.000000
0.439606 0.661804 0.000000
0.472687 0.661743 0.000000
0.503052 0.661713 0.000000
0.532776 0.661682 0.000000
0.561768 0.661652 0.000000
0.588104 0.661652 0.000000
0.611267 0.661682 0.000000
0.635742 0.661682 0.000000
0.661682 0.661682 0.000000
0.687469 0.661713 0.000000
0.712372 0.661713 0.000000
0.740784 0.661682 0.000000
0.770203 0.661652 0.000000
0.797852 0.661652 0.000000
0.826355 0.661652 0.000000
0.857941 0.661591 0.000000
0.893097 0.661530 0.000000
0.947205 0.661346 0.000000
0.000000 0.687927 0.000000
0.013550 0.688019 0.000000
0.032104 0.688049 0.000000
0.055969 0.688080 0.000000
0.079559 0.688080 0.000000
0.106201 0.688080 0.000000
0.134003 0.688080 0.000000
0.163910 0.688049 0.000000
0.195465 0.688019 0.000000
0.228668 0.687958 0.000000
0.263214 0.687897 0.000000
0.298859 0.687836 0.000000
0.335205 0.687744 0.000000
0.372528 0.687683 0.000000
0.406891 0.687622 0.000000
0.439667 0.687561 0.000000
0.472717 0.687500 0.000000
0.503082 0.687469 0.000000
0.532806 0.687469 0.000000
0.561768 0.687439 0.000000
0.588074 0.687439 0.000000
0.611237 0.687439 0.000000
0.635742 0.687469 0.000000
0.661713 0.687469 0.000000
0.687469 0.687469 0.000000
0.712372 0.687469 0.000000
0.740784 0.687439 0.000000
0.770233 0.687408 0.000000
0.797882 0.687408 0.000000
0.826385 0.687378 0.000000
0.858002 0.687347 0.000000
0.893188 0.687286 0.000000
0.947510 0.687073 0.000000
0.000000 0.712921 0.000000
0.013489 0.712982 0.000000
0.032104 0.713043 0.000000
0.055969 0.713043 0.000000
0.079559 0.713043 0.000000
0.106232 0.713043 0.000000
0.134033 0.713013 0.000000
0.163971 0.712982 0.000000
0.195526 0.712952 0.000000
0.228729 0.712891 0.000000
0.263275 0.712830 0.000000
0.298950 0.712769 0.000000
0.335266 0.712677 0.000000
0.372620 0.712585 0.000000
0.406952 0.712524 0.000000
0.439697 0.712494 0.000000
0.472778 0.712433 0.000000
0.503113 0.712402 0.000000
0.532837 0.712372 0.000000
0.561798 0.712341 0.000000
0.588074 0.712341 0.000000
0.611237 0.712372 0.000000
0.635742 0.712372 0.000000
0.661713 0.712372 0.000000
0.687469 0.712372 0.000000
0.712372 0.712372 0.000000
0.740845 0.712372 0.000000
0.770264 0.712341 0.000000
0.797882 0.712341 0.000000
0.826416 0.712311 0.000000
0.858063 0.712280 0.000000
0.893311 0.712219 0.000000
0.947784 0.712006 0.000000
0.000000 0.740631 0.000000
0.013397 0.740753 0.000000
0.032074 0.740814 0.000000
0.055939 0.740875 0.000000
0.079529 0.740906 0.000000
0.106232 0.740936 0.000000
0.134064 0.740936 0.000000
0.163971 0.740936 0.000000
0.195557 0.740936 0.000000
0.228760 0.740906 0.000000
0.263336 0.740875 0.000000
0.298981 0.740814 0.000000
0.335327 0.740784 0.000000
0.372681 0.740723 0.000000
0.406982 0.740692 0.000000
0.439758 0.740662 0.000000
0.472809 0.740631 0.000000
0.503143 0.740631 0.000000
0.532837 0.740631 0.000000
0.561798 0.740631 0.000000
0.588043 0.740662 0.000000
