Kodak Eastman EXR 100T (5248) - Only color.cube
# Created by Benjamin (IWLTBAP) : http://luts.iwltbap.com
# Copyright: (C) Copyright 2010-2017 Triune Films and IWLTBAP SAS
# Cannot be resold, shared or otherwise redistributed
TITLE "Film Print Emulation LUTs Pack (Rec.709, sRGB, DCI-P3)"
LUT_3D_SIZE 5
0.004517 0.002777 0.021332
0.221771 0.000977 0.019012
0.479645 0.000000 0.016632
0.734802 0.000000 0.014557
0.999023 0.000000 0.012909
0.002502 0.229828 0.018951
0.222046 0.230042 0.016815
0.479858 0.229950 0.014709
0.734894 0.229919 0.013123
0.999420 0.229797 0.012085
0.000427 0.473053 0.016663
0.222229 0.473236 0.014832
0.479980 0.473175 0.013214
0.734894 0.473114 0.012238
0.999786 0.472992 0.011932
0.000000 0.717773 0.014679
0.222382 0.717896 0.013306
0.480103 0.717804 0.012299
0.734863 0.717712 0.012054
1.000000 0.717560 0.012177
0.000000 0.987427 0.013000
0.222351 0.988953 0.012207
0.479980 0.990417 0.011932
0.734650 0.992065 0.012115
0.999969 0.993469 0.049866
0.002167 0.000580 0.298340
0.221710 0.000000 0.298462
0.479523 0.000000 0.298340
0.734528 0.000000 0.298248
0.999084 0.000000 0.298065
0.000153 0.229614 0.298401
0.221954 0.229797 0.298523
0.479706 0.229706 0.298370
0.734589 0.229645 0.298279
0.999451 0.229492 0.298096
0.000000 0.472839 0.298370
0.222107 0.472992 0.298462
0.479797 0.472900 0.298340
0.734589 0.472839 0.298248
0.999786 0.472717 0.298065
0.000000 0.717499 0.298340
0.222260 0.717590 0.298431
0.479889 0.717499 0.298309
0.734589 0.717407 0.298218
1.000000 0.717255 0.298065
0.000000 0.988556 0.298126
0.222198 0.990204 0.298218
0.479797 0.991852 0.298065
0.734344 0.993591 0.297974
0.999908 0.995178 0.297821
0.000031 0.000000 0.547180
0.221832 0.000000 0.547333
0.479584 0.000000 0.547272
0.734497 0.000000 0.547211
0.999390 0.000000 0.547089
0.000000 0.229614 0.547272
0.222076 0.229767 0.547424
0.479767 0.229675 0.547333
0.734558 0.229614 0.547272
0.999725 0.229462 0.547119
0.000000 0.472809 0.547302
0.222229 0.472961 0.547424
0.479858 0.472870 0.547363
0.734558 0.472809 0.547272
0.999969 0.472687 0.547150
0.000000 0.717438 0.547302
0.222382 0.717560 0.547424
0.479980 0.717438 0.547363
0.734528 0.717346 0.547272
1.000000 0.717194 0.547150
0.000000 0.990051 0.547119
0.222290 0.991913 0.547241
0.479858 0.993622 0.547150
0.734283 0.995300 0.547058
0.999847 0.996704 0.546906
0.000000 0.000000 0.797363
0.221954 0.000000 0.797668
0.479645 0.000000 0.797729
0.734467 0.000000 0.797821
0.999664 0.000000 0.797852
0.000000 0.229584 0.797607
0.222168 0.229736 0.797882
0.479828 0.229645 0.797943
0.734497 0.229584 0.798035
0.999908 0.229431 0.798035
0.000000 0.472809 0.797760
0.222321 0.472931 0.798035
0.479919 0.472839 0.798096
0.734497 0.472778 0.798187
1.000000 0.472656 0.798187
0.000000 0.717407 0.797943
0.222473 0.717499 0.798187
0.480011 0.717377 0.798248
0.734467 0.717285 0.798340
1.000000 0.717133 0.798340
0.000000 0.991760 0.797882
0.222382 0.993652 0.798126
0.479889 0.995331 0.798187
0.734222 0.996826 0.798248
0.999542 0.997742 0.798248
0.000000 0.000000 1.000000
0.222321 0.000000 1.000000
0.479980 0.000000 1.000000
0.734680 0.000000 1.000000
1.000000 0.000000 1.000000
0.000000 0.229797 1.000000
0.222534 0.229950 1.000000
0.480164 0.229858 1.000000
0.734741 0.229828 1.000000
1.000000 0.229675 1.000000
0.000000 0.473022 1.000000
0.222687 0.473175 1.000000
0.480255 0.473114 1.000000
0.734741 0.473053 1.000000
1.000000 0.472931 1.000000
0.000000 0.717621 1.000000
0.222839 0.717712 1.000000
0.480377 0.717621 1.000000
0.734741 0.717529 1.000000
1.000000 0.717377 1.000000
0.000000 0.993805 1.000000
0.222748 0.995667 1.000000
0.480255 0.997162 1.000000
0.734497 0.998169 1.000000
0.997925 0.995880 1.000000
