Kodak Vision2 100T (5212) - Look.cube
# Created by Benjamin (IWLTBAP) : http://luts.iwltbap.com
# Copyright: (C) Copyright 2010-2017 Triune Films and IWLTBAP SAS
# Cannot be resold, shared or otherwise redistributed
TITLE "Film Print Emulation LUTs Pack (Rec.709, sRGB, DCI-P3)"
LUT_3D_SIZE 9
0.000000 0.000000 0.000000
0.081299 0.000000 0.003723
0.164368 0.000000 0.007629
0.247681 0.000000 0.011566
0.331726 0.000000 0.015503
0.417969 0.000000 0.019623
0.506378 0.000000 0.023926
0.601440 0.000000 0.028473
0.702362 0.000000 0.033447
0.004150 0.103333 0.000000
0.119843 0.076416 0.000000
0.215363 0.061462 0.000000
0.329529 0.032104 0.007660
0.351532 0.032104 0.017456
0.419830 0.032104 0.019775
0.507965 0.032104 0.024017
0.602905 0.032104 0.028595
0.703674 0.032104 0.033569
0.045166 0.202118 0.037872
0.104095 0.196533 0.010590
0.234070 0.174408 0.000000
0.324432 0.155884 0.000000
0.391998 0.161255 0.000000
0.543091 0.120392 0.000000
0.704529 0.064240 0.006226
0.699738 0.064240 0.038757
0.707062 0.064240 0.033813
0.107269 0.324280 0.097443
0.148376 0.316284 0.093506
0.226746 0.313263 0.070526
0.362640 0.295258 0.014313
0.458099 0.268860 0.000000
0.531250 0.274445 0.000000
0.608246 0.277893 0.000000
0.750397 0.244354 0.000000
0.876282 0.213043 0.000000
0.182068 0.460175 0.169525
0.213501 0.452637 0.175903
0.272888 0.451935 0.130005
0.361145 0.437988 0.143341
0.488373 0.424072 0.072113
0.590576 0.413483 0.000000
0.674591 0.395020 0.000000
0.752838 0.400177 0.000000
0.831390 0.402679 0.000000
0.259003 0.598541 0.243530
0.283203 0.592651 0.248352
0.332336 0.586975 0.225372
0.403778 0.584076 0.168640
0.495819 0.560333 0.212341
0.620392 0.551056 0.107697
0.731628 0.540070 0.000000
0.815826 0.513092 0.000000
0.892456 0.517609 0.000000
0.326935 0.728607 0.308655
0.346619 0.723755 0.312378
0.391113 0.715302 0.308289
0.449554 0.713837 0.244690
0.530518 0.700104 0.232086
0.631439 0.678619 0.239136
0.754791 0.672333 0.107819
0.877075 0.633026 0.000000
0.953491 0.626160 0.000000
0.385895 0.851929 0.364960
0.402649 0.847870 0.367889
0.442841 0.837982 0.374207
0.495605 0.836334 0.320679
0.568054 0.835114 0.243652
0.656616 0.809875 0.282928
0.767914 0.794678 0.226501
0.894257 0.791107 0.023346
0.992340 0.747009 0.000000
0.437866 0.978210 0.413361
0.452545 0.974823 0.415588
0.488373 0.966492 0.420624
0.540283 0.962494 0.386230
0.605194 0.962769 0.305511
0.688873 0.949890 0.279327
0.787415 0.922699 0.304504
0.914246 0.918030 0.081573
0.981476 0.893005 0.000000
0.000000 0.037323 0.096069
0.060638 0.021606 0.048248
0.171570 0.000000 0.036621
0.246857 0.000000 0.043640
0.331146 0.000000 0.047607
0.417511 0.000000 0.051697
0.505981 0.000000 0.056000
0.601074 0.000000 0.060577
0.702026 0.000000 0.065552
0.000000 0.115601 0.058167
0.094116 0.093964 0.079590
0.227173 0.065674 0.032104
0.339569 0.032928 0.032135
0.367523 0.032104 0.051239
0.419373 0.032104 0.051849
0.507568 0.032104 0.056122
0.602539 0.032104 0.060669
0.703369 0.032104 0.065643
0.028320 0.218811 0.070862
0.101013 0.199982 0.086365
0.223907 0.188019 0.062103
0.328705 0.168091 0.032104
0.392883 0.162994 0.032104
0.538483 0.125580 0.032104
0.714111 0.064331 0.032135
0.712799 0.064240 0.072693
0.706726 0.064240 0.065887
0.101898 0.334595 0.120819
0.145599 0.323334 0.129639
0.227112 0.321198 0.106812
0.362976 0.300110 0.077423
0.447784 0.294220 0.039703
0.531738 0.275604 0.032104
0.608887 0.279236 0.032104
0.748169 0.247375 0.032104
0.874908 0.216003 0.032104
0.178650 0.468201 0.186707
0.210449 0.460602 0.193451
0.272858 0.455200 0.171082
0.361969 0.443756 0.180054
0.493347 0.426544 0.122467
0.587036 0.421722 0.056610
0.675903 0.396118 0.032104
0.753204 0.401062 0.032104
0.831818 0.403625 0.032104
0.256287 0.604614 0.256622
0.280640 0.598694 0.261627
0.331940 0.589569 0.253815
0.403992 0.588165 0.197113
0.496338 0.564484 0.248871
0.621124 0.553131 0.160797
0.728516 0.547089 0.050842
0.818817 0.514648 0.032104
0.892670 0.518250 0.032104
0.324615 0.733337 0.319275
0.344391 0.728455 0.323120
0.390564 0.717255 0.329407
0.449310 0.715576 0.274017
0.530701 0.703705 0.259369
0.631012 0.680969 0.282776
0.755310 0.673889 0.159912
0.877045 0.653778 0.032104
0.956329 0.627686 0.032104
0.383881 0.855804 0.374115
0.400665 0.851746 0.377136
0.441010 0.841797 0.383881
0.495209 0.837738 0.343506
0.567810 0.836365 0.274658
0.656677 0.812805 0.312653
0.767670 0.796356 0.271820
0.894440 0.792267 0.087860
0.995239 0.749176 0.032104
0.436005 0.981415 0.421631
0.450714 0.978058 0.423950
0.486572 0.969696 0.429138
0.539734 0.963531 0.404633
0.604736 0.963684 0.331482
0.688721 0.952545 0.303253
0.787262 0.925354 0.337555
0.913605 0.919342 0.148956
0.983734 0.895752 0.032104
0.000000 0.070526 0.217590
0.002869 0.084015 0.169586
0.125916 0.047211 0.101624
0.198456 0.035278 0.101776
0.345306 0.000000 0.076172
0.416351 0.000000 0.083740
0.505005 0.000000 0.088043
0.600159 0.000000 0.092621
0.701202 0.000000 0.097626
0.000000 0.134766 0.157043
0.000000 0.147247 0.183716
0.153534 0.113983 0.138885
0.262207 0.095062 0.097412
0.354858 0.032104 0.071411
0.418213 0.032104 0.083893
0.506592 0.032104 0.088165
0.601624 0.032104 0.092743
0.702545 0.032104 0.097717
0.000000 0.250000 0.133392
0.062195 0.234955 0.145355
0.201569 0.201324 0.177399
0.332031 0.186310 0.125519
0.455170 0.161499 0.064240
0.531219 0.135162 0.064240
0.700806 0.080139 0.064270
0.744995 0.064240 0.098724
0.705902 0.064240 0.097961
0.056519 0.375885 0.163727
0.124969 0.352081 0.178192
0.226837 0.332001 0.200256
0.353577 0.315002 0.179474
0.457764 0.300903 0.148315
0.518494 0.300690 0.129852
0.610443 0.282501 0.064240
0.742401 0.255066 0.064240
0.871399 0.223450 0.064240
0.166626 0.489105 0.224823
0.202820 0.479553 0.232910
0.271759 0.464508 0.247742
0.363647 0.457489 0.230957
0.503479 0.433075 0.193634
0.583038 0.429321 0.171753
0.664764 0.425568 0.105957
0.754333 0.403320 0.064240
0.832886 0.406067 0.064240
0.249359 0.619293 0.287445
0.274170 0.613281 0.292816
0.328644 0.599640 0.302856
0.403748 0.593597 0.267731
0.497528 0.574585 0.297729
0.625519 0.558075 0.233826
0.724121 0.552277 0.160248
0.814301 0.540863 0.064240
0.894470 0.519989 0.064240
0.318848 0.744965 0.344879
0.338837 0.740051 0.348938
0.385773 0.728241 0.357941
0.448517 0.720001 0.331543
0.531128 0.712585 0.297424
0.629730 0.686981 0.346771
0.756561 0.677856 0.236267
0.868103 0.671753 0.103485
0.964050 0.631592 0.064240
0.378906 0.865387 0.396454
0.395813 0.861298 0.399628
0.436401 0.851318 0.406830
0.494202 0.841248 0.392090
0.567169 0.839447 0.330841
0.656830 0.820038 0.352661
0.766907 0.800659 0.338348
0.894928 0.795349 0.179840
1.000000 0.754669 0.064240
0.431488 0.989380 0.442017
0.446228 0.986023 0.444489
0.482147 0.977692 0.450073
0.538391 0.966156 0.447327
0.603577 0.966003 0.381561
0.688324 0.959106 0.337128
0.786896 0.931854 0.382233
0.912262 0.922607 0.245026
0.989502 0.902771 0.064240
0.000000 0.098480 0.355713
0.000000 0.099670 0.343048
0.145233 0.093262 0.143524
0.194092 0.076965 0.158600
0.264648 0.053802 0.159515
0.335602 0.056763 0.150238
0.528107 0.000000 0.115143
0.598511 0.000000 0.124634
0.699707 0.000000 0.129639
0.000000 0.157593 0.284332
0.000000 0.163544 0.302521
0.129211 0.151306 0.219391
0.221100 0.142578 0.195496
0.296021 0.129456 0.195374
0.337402 0.090546 0.152954
0.541901 0.032104 0.099518
0.599976 0.032104 0.124756
0.701050 0.032104 0.129730
0.000000 0.265991 0.230103
0.011078 0.282562 0.247131
0.130310 0.253082 0.284882
0.271301 0.230133 0.253052
0.403992 0.212646 0.199615
0.558716 0.176208 0.096375
0.743286 0.089844 0.096375
0.796051 0.064240 0.109283
0.739502 0.064240 0.133484
0.042633 0.405151 0.237518
0.090546 0.395050 0.247833
0.184479 0.374023 0.271332
0.334290 0.333954 0.300873
0.460846 0.320679 0.259369
0.586517 0.302185 0.184723
0.706696 0.281830 0.097443
0.751587 0.253418 0.096375
0.865051 0.236359 0.096375
0.094177 0.550262 0.272064
0.145233 0.533325 0.283447
0.254944 0.495544 0.310669
0.364502 0.472687 0.324951
0.493286 0.451752 0.306122
0.595825 0.439087 0.278534
0.659607 0.438080 0.269043
0.765350 0.423401 0.171417
0.836639 0.408936 0.096375
0.208954 0.658630 0.330658
0.247040 0.645660 0.338745
0.318939 0.622620 0.354675
0.402832 0.602936 0.369476
0.499054 0.591431 0.356934
0.637543 0.566162 0.314331
0.719879 0.561646 0.287201
0.800995 0.556915 0.233521
0.907684 0.523376 0.096375
0.305634 0.766205 0.385803
0.329193 0.759491 0.390808
0.376953 0.747559 0.400635
0.445770 0.729675 0.411713
0.531067 0.723724 0.366852
0.629242 0.699463 0.414825
0.758362 0.684784 0.333893
0.861481 0.678711 0.245087
0.958191 0.670441 0.096375
0.370514 0.881531 0.433441
0.387573 0.877411 0.436890
0.428558 0.867401 0.444763
0.489960 0.851685 0.453125
0.565948 0.844910 0.414154
0.656952 0.832336 0.402863
0.765106 0.808289 0.425049
0.895966 0.800690 0.289246
1.000000 0.790771 0.096375
0.424072 1.000000 0.476227
0.438843 0.999451 0.478943
0.474854 0.991180 0.485077
0.532440 0.977448 0.492432
0.601624 0.970093 0.458466
0.687286 0.969360 0.386200
0.786163 0.942657 0.437653
0.910095 0.928345 0.356506
1.000000 0.924530 0.147705
0.000000 0.133148 0.480774
0.000000 0.129608 0.481567
0.000000 0.180756 0.398773
0.219116 0.133972 0.210541
0.270081 0.115784 0.224335
0.326233 0.076385 0.213898
0.405975 0.080200 0.214935
0.500000 0.078705 0.185211
0.712219 0.018372 0.128510
0.000000 0.188019 0.419250
0.000000 0.185059 0.418793
0.000000 0.232788 0.418457
0.244781 0.182190 0.242737
0.298370 0.179962 0.260986
0.367554 0.161224 0.259735
0.407501 0.113708 0.217224
0.488861 0.116241 0.200287
0.696503 0.062134 0.128510
0.000000 0.288391 0.338928
0.000000 0.309204 0.355103
0.005005 0.341278 0.416473
0.270233 0.267212 0.325806
0.345642 0.268127 0.319427
0.422455 0.262115 0.321625
0.545410 0.232574 0.248566
0.676483 0.179871 0.131622
0.685486 0.107025 0.128510
0.015198 0.439484 0.337982
0.065826 0.431610 0.351471
0.158936 0.414307 0.373474
0.282501 0.384979 0.410339
0.408508 0.366119 0.387482
0.553070 0.344849 0.317963
0.706238 0.314819 0.223022
0.872345 0.266266 0.128510
0.999969 0.187317 0.128510
0.103912 0.569275 0.356659
0.139679 0.562225 0.364716
0.214233 0.546387 0.380219
0.330200 0.514648 0.409760
0.474670 0.474274 0.433624
0.596008 0.458984 0.395203
0.721588 0.442078 0.324249
0.847900 0.420349 0.235504
0.969238 0.392303 0.128510
0.127563 0.725281 0.382019
0.167145 0.712036 0.390778
0.256897 0.681213 0.409973
0.389496 0.632538 0.442383
0.499512 0.608826 0.448273
0.630676 0.583618 0.427643
0.729614 0.572784 0.403809
0.794403 0.570740 0.395050
0.911591 0.551605 0.289825
0.236511 0.822968 0.432068
0.267639 0.812408 0.438690
0.340668 0.787201 0.453827
0.435303 0.754456 0.475586
0.529724 0.733612 0.484863
0.630249 0.718567 0.480896
0.770020 0.693939 0.428253
0.855713 0.689301 0.390900
0.942017 0.682526 0.322510
0.327057 0.921478 0.478973
0.352936 0.912689 0.484222
0.415222 0.891327 0.496582
0.479950 0.873474 0.509491
0.563782 0.853241 0.521912
0.656677 0.848999 0.465698
0.760895 0.820343 0.527313
0.897064 0.808502 0.411835
1.000000 0.802368 0.291046
0.404816 1.000000 0.522705
0.427216 1.000000 0.527008
0.465271 1.000000 0.534119
0.522827 0.996246 0.543671
0.597595 0.978546 0.551483
0.684692 0.974579 0.496613
0.784729 0.957825 0.501465
0.906464 0.936768 0.479309
1.000000 0.931427 0.328705
0.000000 0.184814 0.608734
0.000000 0.181549 0.609161
0.000000 0.205780 0.602417
0.136292 0.227844 0.402618
0.306641 0.188232 0.291473
0.358551 0.168060 0.303894
0.392914 0.104401 0.275208
0.480682 0.108551 0.285156
0.554932 0.116241 0.279999
0.000000 0.234131 0.562103
0.000000 0.231262 0.561798
0.000000 0.255585 0.613953
0.129303 0.273743 0.463257
0.329926 0.234100 0.320129
0.383881 0.226624 0.336090
0.445892 0.202972 0.333282
0.482178 0.141876 0.286896
0.555939 0.149567 0.282013
0.000000 0.333496 0.476746
0.000000 0.331329 0.475647
0.000000 0.373657 0.551819
0.123627 0.365387 0.534332
0.374908 0.308838 0.374451
0.428741 0.311462 0.391724
0.500610 0.301086 0.393799
0.565857 0.281403 0.377441
0.587189 0.215881 0.310242
0.000000 0.465424 0.446533
0.000000 0.488953 0.464569
0.029633 0.512238 0.493439
0.167450 0.474457 0.552856
0.415375 0.405640 0.463226
0.485077 0.407959 0.458344
0.559418 0.403442 0.459381
0.697144 0.373779 0.382477
0.842865 0.327911 0.266724
0.099518 0.595886 0.463257
0.135620 0.590424 0.472931
0.210266 0.577515 0.491486
0.312347 0.554810 0.516815
0.430939 0.524628 0.545929
0.547852 0.505371 0.526031
0.695984 0.480957 0.447296
0.848450 0.451782 0.356873
1.000000 0.409912 0.235657
0.169739 0.727142 0.479828
0.196838 0.721558 0.485779
0.257202 0.708588 0.498383
0.345612 0.686249 0.518768
0.468140 0.650116 0.545441
0.609619 0.609253 0.565521
0.729248 0.592316 0.526550
0.856140 0.575226 0.455109
0.990570 0.550079 0.357513
0.185425 0.874695 0.498871
0.205750 0.870422 0.503021
0.255920 0.858643 0.513031
0.371674 0.815918 0.540009
0.517487 0.763062 0.571838
0.630493 0.738586 0.573151
0.766693 0.710876 0.546448
0.859955 0.702148 0.528900
0.933411 0.697205 0.506012
0.252167 0.983826 0.533844
0.277954 0.975189 0.539337
0.339966 0.954193 0.552246
0.437927 0.918091 0.574127
0.553009 0.879517 0.597931
0.654816 0.858673 0.602905
0.759857 0.841309 0.605408
0.904022 0.818359 0.535553
0.995789 0.813812 0.475555
0.338623 1.000000 0.575653
0.360443 1.000000 0.580139
0.413818 1.000000 0.590668
0.501099 1.000000 0.607544
0.586609 1.000000 0.622986
0.681427 0.981598 0.631012
0.782379 0.977478 0.572601
0.899200 0.948883 0.613953
1.000000 0.940613 0.486755
0.000000 0.266479 0.747406
0.000000 0.263428 0.747955
0.000000 0.255585 0.749512
0.000031 0.340729 0.689270
0.293640 0.280945 0.437134
0.407104 0.255737 0.386810
0.459167 0.234619 0.398590
0.501068 0.187622 0.384613
0.557587 0.141815 0.360840
0.000000 0.307861 0.717438
0.000000 0.305145 0.717590
0.000000 0.300354 0.727753
0.000031 0.380768 0.704010
0.287476 0.322510 0.488098
0.426697 0.297394 0.410706
0.480194 0.286102 0.424713
0.533875 0.258667 0.421295
0.559509 0.174896 0.362183
0.000000 0.396667 0.653900
0.000000 0.394440 0.653320
0.000000 0.409454 0.684387
0.000031 0.467224 0.734985
0.280396 0.400238 0.589478
0.466522 0.366425 0.458710
0.520111 0.363861 0.474060
0.583679 0.349518 0.475830
0.646149 0.316254 0.455231
0.000000 0.518494 0.587982
0.000000 0.519867 0.589020
0.000000 0.560822 0.636230
0.028931 0.584656 0.705963
0.277069 0.506409 0.679443
0.518524 0.450867 0.520721
0.569733 0.454102 0.534851
0.638519 0.446014 0.536316
0.709534 0.429230 0.524963
0.000000 0.675751 0.585846
0.000000 0.690063 0.596771
0.076080 0.679291 0.617950
0.181274 0.659302 0.642883
0.315582 0.616455 0.698700
0.547516 0.549347 0.617615
0.623016 0.548279 0.599396
0.694366 0.543610 0.598419
0.824615 0.515869 0.531799
0.177551 0.752472 0.597168
0.202881 0.748322 0.603760
0.259918 0.738190 0.617859
0.343506 0.721619 0.636841
0.446777 0.694824 0.662170
0.562378 0.664154 0.688477
0.682434 0.642059 0.663696
0.819153 0.619904 0.592773
0.974640 0.588715 0.500122
0.248413 0.870483 0.610626
0.268890 0.866241 0.615112
0.316742 0.856079 0.625244
0.390503 0.839661 0.639984
0.483734 0.814056 0.662018
0.593811 0.785187 0.682892
0.740814 0.740601 0.702881
0.865173 0.721802 0.654724
0.999969 0.701508 0.575134
0.263336 1.000000 0.627075
0.279236 1.000000 0.630341
0.317322 0.995178 0.638031
0.378387 0.982269 0.649597
0.483582 0.946747 0.674103
0.636047 0.892822 0.704651
0.759003 0.863800 0.707947
0.903687 0.834869 0.666412
0.989502 0.828613 0.656952
0.274384 1.000000 0.646301
0.293457 1.000000 0.650330
0.343231 1.000000 0.660736
0.426300 1.000000 0.677551
0.538452 1.000000 0.702301
0.671173 1.000000 0.726288
0.778809 0.986908 0.730255
0.891022 0.969727 0.727203
1.000000 0.951782 0.651764
0.000000 0.400146 0.858673
0.000000 0.397522 0.858276
0.000000 0.390808 0.857330
0.000031 0.412811 0.908112
0.086823 0.448822 0.806305
0.434448 0.360626 0.524170
0.522766 0.340942 0.500397
0.574432 0.319946 0.512146
0.620392 0.279083 0.503632
0.000000 0.432770 0.846802
0.000000 0.430298 0.846313
0.000000 0.423981 0.845032
0.000031 0.444519 0.934235
0.087555 0.482300 0.818939
0.429871 0.396088 0.562988
0.537201 0.376526 0.517944
0.589355 0.362701 0.530670
0.639282 0.332977 0.527313
0.000000 0.506317 0.818909
0.000000 0.504211 0.818207
0.000000 0.498810 0.816437
0.000031 0.528107 0.921112
0.092560 0.550873 0.845947
0.421936 0.461792 0.645355
0.568176 0.435089 0.555573
0.620270 0.428314 0.568970
0.674133 0.410614 0.570953
0.000000 0.613647 0.773865
0.000000 0.611908 0.772919
0.000000 0.616058 0.786011
0.000031 0.654236 0.864624
0.106171 0.643494 0.882141
0.415100 0.548645 0.756134
0.611420 0.509949 0.607605
0.662109 0.508942 0.620789
0.721436 0.498077 0.623474
0.000000 0.736298 0.734741
0.000000 0.741882 0.739014
0.000000 0.766907 0.758179
0.058441 0.767609 0.805054
0.189697 0.728149 0.862549
0.412048 0.655518 0.834259
0.661987 0.593445 0.667816
0.710205 0.596832 0.679504
0.773499 0.590027 0.680573
0.069763 0.854248 0.736237
0.092316 0.850677 0.742249
0.144897 0.841827 0.755859
0.224609 0.827057 0.775238
0.326721 0.801483 0.801483
0.449890 0.760742 0.851685
0.665863 0.695831 0.786072
0.761475 0.687653 0.741089
0.827423 0.683502 0.739563
0.267944 0.904205 0.744751
0.284515 0.901367 0.748962
0.324158 0.894348 0.758759
0.387482 0.882263 0.773651
0.469910 0.862549 0.793640
0.568115 0.836945 0.815277
0.679352 0.806274 0.843903
0.814026 0.778381 0.803101
0.917938 0.765076 0.762238
0.371216 0.991943 0.757874
0.385132 0.989136 0.760956
0.419037 0.982147 0.768280
0.474640 0.970337 0.779846
0.547668 0.952087 0.796478
0.636475 0.929321 0.815338
0.738434 0.904938 0.832733
0.869080 0.869049 0.849304
1.000000 0.846283 0.777161
0.435089 1.000000 0.786896
0.443726 1.000000 0.788635
0.465179 1.000000 0.792877
0.501770 1.000000 0.799774
0.551788 1.000000 0.810364
0.617798 1.000000 0.822510
0.747467 1.000000 0.845123
0.885529 0.991608 0.857880
1.000000 0.966492 0.801483
0.000000 0.606964 1.000000
0.000000 0.603485 1.000000
0.000000 0.594421 1.000000
0.000031 0.578033 1.000000
0.000031 0.610168 1.000000
0.262848 0.535614 0.893829
0.569885 0.456085 0.633850
0.644684 0.438202 0.623016
0.695770 0.417603 0.635223
0.000000 0.629486 1.000000
0.000000 0.626129 1.000000
0.000000 0.617462 1.000000
0.000031 0.602570 1.000000
0.000031 0.633301 1.000000
0.263763 0.559387 0.917938
0.566650 0.485321 0.660980
0.654602 0.468323 0.635101
0.705627 0.453247 0.647614
0.000000 0.682861 1.000000
0.000000 0.679779 1.000000
0.000000 0.671814 1.000000
0.000031 0.661163 1.000000
0.000031 0.689026 1.000000
0.266479 0.611389 0.951263
0.560516 0.538452 0.722473
0.677551 0.516724 0.662903
0.728271 0.507141 0.675690
0.000000 0.767883 0.977692
0.000000 0.765137 0.975983
0.000000 0.758026 0.971527
0.000031 0.754822 1.000000
0.000031 0.776001 1.000000
0.274536 0.690033 0.980164
0.554871 0.612366 0.812317
0.712585 0.581421 0.705139
0.762207 0.576843 0.717590
0.000000 0.879456 0.925049
0.000000 0.876923 0.924225
0.000000 0.873199 0.927521
0.024017 0.868317 0.962555
0.109436 0.843750 1.000000
0.292419 0.782104 1.000000
0.554016 0.699097 0.917023
0.756226 0.656708 0.757080
0.803833 0.656403 0.768738
0.147034 0.930969 0.885803
0.151886 0.930054 0.888184
0.167816 0.927277 0.895599
0.200165 0.919830 0.916321
0.256287 0.903259 0.957855
0.368744 0.864136 1.000000
0.558716 0.801788 0.977478
0.792450 0.741425 0.828094
0.850311 0.740784 0.824707
0.338409 0.965637 0.884277
0.346649 0.964722 0.887421
0.367493 0.962372 0.895355
0.396027 0.958710 0.906860
0.432129 0.953217 0.922546
0.495789 0.931549 0.954224
0.599060 0.897888 0.996124
0.789734 0.839996 0.945251
0.898468 0.826447 0.881805
0.473846 1.000000 0.866760
0.481842 1.000000 0.869781
0.501801 0.999359 0.877319
0.535980 0.995575 0.890259
0.583923 0.990143 0.908600
0.642975 0.978577 0.934662
0.713287 0.966461 0.961578
0.803772 0.941986 0.994934
0.946625 0.910889 0.938324
0.529144 1.000000 0.859192
0.538269 1.000000 0.861847
0.561035 1.000000 0.868530
0.600067 1.000000 0.879974
0.655212 1.000000 0.896118
0.720581 1.000000 0.920074
0.801636 1.000000 0.945587
0.894592 1.000000 0.971436
0.996796 0.996796 0.996826
