Kodak Vision3 500T (5219) - Only contrast.cube
# Created by Benjamin (IWLTBAP) : http://luts.iwltbap.com
# Copyright: (C) Copyright 2010-2017 Triune Films and IWLTBAP SAS
# Cannot be resold, shared or otherwise redistributed
TITLE "Film Print Emulation LUTs Pack (Rec.709, sRGB, DCI-P3)"
LUT_3D_SIZE 5
0.001038 0.001038 0.001038
0.164825 0.000488 0.000488
0.409851 0.000000 0.000000
0.693207 0.000000 0.000000
0.856201 0.000000 0.000000
0.000488 0.164825 0.000488
0.165039 0.165039 0.000000
0.410614 0.164673 0.000000
0.693420 0.164093 0.000000
0.855835 0.164337 0.000000
0.000000 0.409851 0.000000
0.164673 0.410614 0.000000
0.410797 0.410797 0.000000
0.693085 0.410767 0.000000
0.854950 0.411591 0.000000
0.000000 0.693207 0.000000
0.164093 0.693420 0.000000
0.410767 0.693085 0.000000
0.692505 0.692505 0.000000
0.853790 0.692719 0.000000
0.000000 0.856201 0.000000
0.164337 0.855835 0.000000
0.411591 0.854950 0.000000
0.692719 0.853790 0.000000
0.853516 0.853424 0.003296
0.000488 0.000488 0.164825
0.165039 0.000000 0.165039
0.410614 0.000000 0.164673
0.693420 0.000000 0.164093
0.855835 0.000000 0.164337
0.000000 0.165039 0.165039
0.165222 0.165222 0.165222
0.411346 0.164886 0.164886
0.693634 0.164307 0.164307
0.855499 0.164581 0.164581
0.000000 0.410614 0.164673
0.164886 0.411346 0.164886
0.411560 0.411560 0.164551
0.693268 0.411530 0.163971
0.854584 0.412354 0.164246
0.000000 0.693420 0.164093
0.164307 0.693634 0.164307
0.411530 0.693268 0.163971
0.692657 0.692657 0.163422
0.853424 0.692902 0.163696
0.000000 0.855835 0.164337
0.164581 0.855499 0.164581
0.412354 0.854584 0.164246
0.692902 0.853424 0.163696
0.853119 0.853119 0.164001
0.000000 0.000000 0.409851
0.164673 0.000000 0.410614
0.410797 0.000000 0.410797
0.693085 0.000000 0.410767
0.854950 0.000000 0.411591
0.000000 0.164673 0.410614
0.164886 0.164886 0.411346
0.411560 0.164551 0.411560
0.693268 0.163971 0.411530
0.854584 0.164246 0.412354
0.000000 0.410797 0.410797
0.164551 0.411560 0.411560
0.411774 0.411774 0.411774
0.692902 0.411774 0.411774
0.853638 0.412628 0.412628
0.000000 0.693085 0.410767
0.163971 0.693268 0.411530
0.411774 0.692902 0.411774
0.692291 0.692291 0.411804
0.852509 0.692505 0.412689
0.000000 0.854950 0.411591
0.164246 0.854584 0.412354
0.412628 0.853638 0.412628
0.692505 0.852509 0.412689
0.852203 0.852203 0.413605
0.000000 0.000000 0.693207
0.164093 0.000000 0.693420
0.410767 0.000000 0.693085
0.692505 0.000000 0.692505
0.853790 0.000000 0.692719
0.000000 0.164093 0.693420
0.164307 0.164307 0.693634
0.411530 0.163971 0.693268
0.692657 0.163422 0.692657
0.853424 0.163696 0.692902
0.000000 0.410767 0.693085
0.163971 0.411530 0.693268
0.411774 0.411774 0.692902
0.692291 0.411804 0.692291
0.852509 0.412689 0.692505
0.000000 0.692505 0.692505
0.163422 0.692657 0.692657
0.411804 0.692291 0.692291
0.691681 0.691681 0.691681
0.851379 0.691895 0.691895
0.000000 0.853790 0.692719
0.163696 0.853424 0.692902
0.412689 0.852509 0.692505
0.691895 0.851379 0.691895
0.851074 0.851074 0.692108
0.000000 0.000000 0.856171
0.164337 0.000000 0.855835
0.411591 0.000000 0.854950
0.692719 0.000000 0.853790
0.853485 0.000000 0.853485
0.000000 0.164337 0.855835
0.164581 0.164581 0.855499
0.412354 0.164246 0.854584
0.692902 0.163696 0.853424
0.853119 0.164001 0.853119
0.000000 0.411591 0.854950
0.164246 0.412354 0.854584
0.412628 0.412628 0.853638
0.692505 0.412689 0.852509
0.852203 0.413605 0.852203
0.000000 0.692719 0.853790
0.163696 0.692902 0.853424
0.412689 0.692505 0.852509
0.691895 0.691895 0.851379
0.851074 0.692108 0.851074
0.000000 0.853485 0.853485
0.164001 0.853119 0.853119
0.413605 0.852203 0.852203
0.692108 0.851074 0.851074
0.850800 0.850800 0.850800
