Kodak Vision2 50D (5201) - Only color.cube
# Created by Benjamin (IWLTBAP) : http://luts.iwltbap.com
# Copyright: (C) Copyright 2010-2017 Triune Films and IWLTBAP SAS
# Cannot be resold, shared or otherwise redistributed
TITLE "Film Print Emulation LUTs Pack (Rec.709, sRGB, DCI-P3)"
LUT_3D_SIZE 9
0.001129 0.003265 0.007050
0.090118 0.002838 0.006439
0.193542 0.002625 0.006012
0.265808 0.002380 0.005859
0.324188 0.006592 0.005798
0.379700 0.005798 0.005859
0.440582 0.008667 0.005890
0.513428 0.012848 0.005981
0.587372 0.029205 0.006134
0.052094 0.098358 0.086761
0.109344 0.109192 0.026672
0.214081 0.103088 0.005798
0.313782 0.097046 0.005768
0.404938 0.086639 0.005890
0.493011 0.064697 0.006042
0.578400 0.062683 0.006165
0.639862 0.068024 0.006439
0.700500 0.088715 0.006897
0.102417 0.207123 0.105988
0.158844 0.235718 0.095245
0.255035 0.238617 0.050812
0.350342 0.214539 0.015533
0.475555 0.203796 0.006256
0.610779 0.185760 0.006897
0.691956 0.174622 0.007629
0.804840 0.180756 0.008514
0.846619 0.181763 0.020325
0.197571 0.321198 0.145325
0.256348 0.339172 0.136383
0.316376 0.329590 0.104095
0.423248 0.334656 0.078613
0.526001 0.318542 0.040710
0.662231 0.298431 0.028259
0.813232 0.283661 0.029846
0.869110 0.279968 0.038483
0.914825 0.280945 0.059174
0.303619 0.421844 0.169220
0.337585 0.454071 0.194458
0.409058 0.433167 0.147949
0.504150 0.434418 0.125427
0.626465 0.422699 0.095795
0.718140 0.406555 0.069244
0.853027 0.389160 0.063873
0.911285 0.385590 0.082184
0.971375 0.389191 0.129547
0.387512 0.509857 0.198425
0.421021 0.540344 0.222504
0.488190 0.526154 0.196747
0.580109 0.516296 0.176270
0.689697 0.524841 0.153473
0.828339 0.513214 0.140686
0.882111 0.500793 0.120483
0.952271 0.484650 0.131042
0.989014 0.487030 0.160980
0.477570 0.603760 0.225525
0.505493 0.632416 0.250946
0.572754 0.630859 0.240051
0.647949 0.610718 0.210541
0.782379 0.612396 0.199860
0.871765 0.612823 0.191010
0.924866 0.606567 0.185028
0.968903 0.595245 0.192657
0.995056 0.611603 0.237457
0.530731 0.681549 0.253784
0.495209 0.714874 0.309265
0.479034 0.732971 0.343903
0.656403 0.731506 0.314575
0.777313 0.721649 0.305450
0.859589 0.729736 0.305206
0.927338 0.733063 0.303680
0.986053 0.726654 0.279968
0.998871 0.698700 0.254791
0.525665 0.761719 0.341583
0.567291 0.778015 0.330017
0.571655 0.793457 0.373749
0.739929 0.806244 0.341309
0.849335 0.789459 0.308228
0.918518 0.787659 0.294159
0.983215 0.790619 0.282867
0.997772 0.803009 0.301941
0.999908 0.804230 0.317169
0.000763 0.010498 0.046997
0.040649 0.032166 0.116089
0.148041 0.010925 0.051025
0.238617 0.008301 0.006561
0.309998 0.005646 0.005798
0.375488 0.009491 0.005859
0.459930 0.010437 0.005920
0.536743 0.013214 0.006042
0.612823 0.018799 0.006195
0.053070 0.106720 0.146149
0.096252 0.133942 0.151123
0.211975 0.131104 0.092285
0.309357 0.114075 0.043732
0.398193 0.111267 0.029236
0.501129 0.097809 0.011139
0.584351 0.095947 0.007874
0.657776 0.098663 0.008636
0.727142 0.099121 0.019989
0.091980 0.222351 0.185608
0.145721 0.245209 0.191650
0.265381 0.244934 0.142334
0.345367 0.241394 0.100708
0.473267 0.226257 0.057373
0.608368 0.211731 0.045959
0.704010 0.209717 0.047516
0.820160 0.211609 0.058289
0.860229 0.207520 0.078735
0.183472 0.322693 0.206909
0.240448 0.353821 0.213196
0.331299 0.356415 0.185150
0.423706 0.355469 0.155762
0.520294 0.335785 0.118622
0.662170 0.320679 0.101349
0.814209 0.315216 0.095764
0.875336 0.314728 0.110291
0.928284 0.317474 0.140961
0.272339 0.424103 0.222992
0.306976 0.462280 0.260132
0.408386 0.459229 0.225098
0.493652 0.452759 0.204224
0.605499 0.449677 0.177704
0.708771 0.435516 0.144409
0.842926 0.417664 0.140381
0.908783 0.413910 0.144409
0.975891 0.420380 0.179016
0.358490 0.522217 0.242523
0.387634 0.553009 0.274658
0.480164 0.550995 0.255981
0.575226 0.545715 0.235779
0.674530 0.545288 0.212616
0.819122 0.533081 0.195343
0.875000 0.519775 0.177002
0.949066 0.511261 0.183594
0.991150 0.516296 0.206238
0.451721 0.614319 0.254761
0.484375 0.639374 0.281860
0.562073 0.645599 0.286133
0.643311 0.627319 0.253174
0.766693 0.630615 0.237396
0.868011 0.630035 0.222778
0.921967 0.624756 0.215759
0.970123 0.618744 0.220428
0.996002 0.629395 0.265625
0.510193 0.695557 0.276031
0.478638 0.725342 0.339020
0.472931 0.738586 0.373291
0.656250 0.747833 0.342377
0.779877 0.735474 0.335175
0.863586 0.742523 0.328186
0.940491 0.742279 0.304291
0.990875 0.729492 0.277863
0.999878 0.707214 0.252319
0.549438 0.771790 0.333496
0.548187 0.776825 0.341339
0.596039 0.809448 0.402527
0.756409 0.812775 0.368103
0.853516 0.798431 0.338654
0.921722 0.799286 0.325806
0.980713 0.810791 0.332458
0.996246 0.817596 0.357727
0.999939 0.827148 0.398987
0.002991 0.042328 0.135468
0.033508 0.066711 0.187988
0.094116 0.062500 0.184753
0.173615 0.029022 0.149750
0.278290 0.021484 0.075714
0.348541 0.026489 0.047150
0.429535 0.031067 0.041260
0.524048 0.048065 0.041168
0.601440 0.048401 0.041412
0.067139 0.133484 0.206757
0.081604 0.165466 0.246307
0.158173 0.166412 0.242920
0.260803 0.131531 0.186829
0.361969 0.129974 0.143646
0.457031 0.130035 0.123138
0.573395 0.137512 0.124023
0.661011 0.151428 0.134949
0.757538 0.149628 0.140930
0.080811 0.241608 0.260895
0.113220 0.261139 0.277496
0.229126 0.276154 0.271698
0.336609 0.259430 0.224030
0.449341 0.249481 0.198944
0.586578 0.250366 0.185211
0.684265 0.250916 0.188263
0.809021 0.251526 0.191559
0.866486 0.244080 0.196442
0.129608 0.342773 0.311096
0.155304 0.358063 0.316132
0.294922 0.374451 0.309998
0.396210 0.370514 0.273346
0.484222 0.360077 0.241150
0.626862 0.353577 0.215515
0.782379 0.353180 0.216888
0.864655 0.353302 0.229431
0.929993 0.352692 0.233734
0.234070 0.436371 0.316681
0.243866 0.465179 0.346649
0.366577 0.480713 0.333160
0.462982 0.479492 0.312195
0.573151 0.479858 0.296051
0.656860 0.465881 0.264954
0.810760 0.452179 0.256470
0.892761 0.459930 0.269073
0.968140 0.473114 0.280731
0.307343 0.533447 0.343567
0.336487 0.572357 0.376251
0.425110 0.573151 0.359497
0.535858 0.587921 0.348267
0.632141 0.579590 0.339478
0.738983 0.572052 0.313599
0.835724 0.549042 0.300537
0.909607 0.550995 0.300903
0.981415 0.556030 0.307220
0.372498 0.616821 0.355865
0.404572 0.649445 0.384705
0.484070 0.672729 0.390320
0.607239 0.677063 0.376129
0.680725 0.671631 0.367676
0.819794 0.675781 0.350891
0.881866 0.674164 0.340393
0.930847 0.666199 0.340515
0.988953 0.674469 0.365356
0.424591 0.708527 0.376587
0.412933 0.728149 0.437439
0.401764 0.742310 0.465698
0.595459 0.756012 0.439178
0.693573 0.766998 0.438568
0.823944 0.769196 0.435822
0.892944 0.768799 0.423126
0.967407 0.768921 0.398224
0.996704 0.746674 0.365509
0.476501 0.769623 0.408813
0.472107 0.777679 0.436188
0.490631 0.798340 0.493927
0.663910 0.827423 0.462708
0.818481 0.831329 0.440460
0.884552 0.831207 0.438507
0.944916 0.836639 0.437714
0.990601 0.852844 0.457336
0.999084 0.867432 0.489868
0.040253 0.084717 0.204193
0.050476 0.099365 0.248108
0.084534 0.095673 0.247040
0.159912 0.080505 0.225616
0.234985 0.062347 0.199829
0.312775 0.048920 0.151855
0.402649 0.061249 0.136749
0.486389 0.067902 0.129822
0.590790 0.089172 0.141754
0.076508 0.167450 0.273315
0.083923 0.194885 0.313751
0.143005 0.204315 0.320496
0.221375 0.178070 0.296478
0.306091 0.161987 0.259155
0.417664 0.149323 0.215729
0.525757 0.161346 0.206055
0.625641 0.165314 0.207336
0.706329 0.169373 0.210175
0.082123 0.265198 0.341339
0.088043 0.282654 0.362152
0.198120 0.309814 0.376312
0.287842 0.305603 0.354736
0.393372 0.278351 0.311462
0.530121 0.272217 0.273560
0.641876 0.273773 0.265930
0.748260 0.277161 0.268799
0.842377 0.276245 0.271912
0.119873 0.357574 0.380493
0.157227 0.380188 0.404907
0.267090 0.392639 0.399750
0.346161 0.399017 0.387268
0.475647 0.390137 0.354187
0.597809 0.380402 0.331726
0.709503 0.382538 0.325195
0.841736 0.386200 0.328217
0.902863 0.385040 0.332275
0.195526 0.454865 0.422546
0.209259 0.487244 0.448639
0.299194 0.491302 0.433716
0.414276 0.502411 0.424683
0.528381 0.498779 0.401978
0.625153 0.492493 0.373535
0.748444 0.482269 0.363342
0.867157 0.488708 0.367340
0.946747 0.499542 0.373627
0.268158 0.548584 0.442078
0.270905 0.583984 0.470856
0.371674 0.593903 0.456238
0.499237 0.607819 0.455109
0.597961 0.604645 0.441345
0.671509 0.607819 0.437744
0.799072 0.600708 0.409912
0.881134 0.594208 0.407562
0.967377 0.603455 0.408020
0.333069 0.638367 0.449219
0.358154 0.675568 0.488342
0.434387 0.688354 0.489136
0.542755 0.694397 0.483887
0.651855 0.712708 0.483368
0.757172 0.709900 0.467834
0.846405 0.711914 0.462830
0.898682 0.703674 0.453613
0.976379 0.709961 0.461456
0.368286 0.714569 0.469177
0.362091 0.737030 0.521484
0.356323 0.751953 0.561127
0.520294 0.757782 0.525116
0.638397 0.789154 0.533844
0.777618 0.805603 0.534271
0.864594 0.810059 0.524445
0.944366 0.808228 0.495056
0.992401 0.790924 0.465607
0.414642 0.778320 0.493713
0.394348 0.792603 0.516937
0.420959 0.811035 0.574280
0.594482 0.829102 0.545380
0.752930 0.860779 0.536896
0.861053 0.867096 0.531586
0.925476 0.874878 0.537231
0.984070 0.889099 0.557831
0.998016 0.896820 0.592438
0.062683 0.125427 0.272400
0.065552 0.131744 0.313080
0.084320 0.130981 0.313812
0.143280 0.118622 0.293488
0.222473 0.098938 0.269623
0.275024 0.081909 0.240540
0.345032 0.074310 0.217072
0.463959 0.095428 0.209747
0.553894 0.097168 0.200806
0.084930 0.202881 0.336090
0.085052 0.211609 0.373291
0.121979 0.238281 0.386871
0.198090 0.208618 0.356842
0.278503 0.201691 0.338776
0.346466 0.186005 0.311249
0.452301 0.176361 0.291077
0.580597 0.192627 0.273438
0.668335 0.195251 0.265533
0.090424 0.286591 0.403564
0.092773 0.306580 0.430786
0.189850 0.321320 0.446198
0.267242 0.331360 0.446777
0.337189 0.318604 0.412415
0.433563 0.294556 0.383240
0.574402 0.288116 0.352142
0.674683 0.284790 0.337982
0.808899 0.281006 0.334045
0.134552 0.375488 0.458374
0.147186 0.390289 0.479370
0.232880 0.418213 0.496521
0.317932 0.425079 0.487488
0.414948 0.429962 0.483124
0.526306 0.402527 0.442230
0.654755 0.396454 0.406677
0.793213 0.403900 0.407471
0.868927 0.393219 0.405975
0.190613 0.474243 0.507263
0.195740 0.501160 0.539581
0.289673 0.512573 0.531372
0.378815 0.522675 0.519409
0.474426 0.528137 0.515564
0.600861 0.524292 0.492340
0.698914 0.509094 0.466522
0.842743 0.514618 0.465942
0.917725 0.517334 0.465668
0.239349 0.574310 0.550934
0.255341 0.608795 0.597687
0.302948 0.612976 0.569000
0.421570 0.615234 0.550995
0.544403 0.626740 0.548584
0.644348 0.626556 0.531464
0.748566 0.620148 0.512695
0.860718 0.619537 0.495209
0.951080 0.629028 0.494659
0.296997 0.664948 0.556396
0.301636 0.696289 0.593719
0.363708 0.700623 0.586609
0.482819 0.704834 0.573914
0.610077 0.712769 0.576324
0.702576 0.729523 0.573883
0.821075 0.736420 0.576324
0.886139 0.737793 0.559265
0.964905 0.741455 0.556641
0.330933 0.733063 0.577698
0.329346 0.756165 0.634888
0.330383 0.771240 0.659363
0.444580 0.769958 0.616364
0.569641 0.795258 0.632965
0.694580 0.817108 0.645691
0.845917 0.827942 0.630829
0.925446 0.832733 0.610779
0.989655 0.821747 0.562653
0.360535 0.797760 0.597473
0.355591 0.811462 0.616241
0.394287 0.820648 0.662872
0.523071 0.831421 0.620026
0.662109 0.862671 0.631012
0.838715 0.890564 0.631531
0.903137 0.898682 0.640900
0.975342 0.912964 0.664398
0.996796 0.923431 0.706879
0.067261 0.151733 0.337463
0.070343 0.165222 0.364105
0.088013 0.166016 0.380432
0.133698 0.146240 0.350739
0.208130 0.133514 0.330017
0.272522 0.125549 0.310394
0.322998 0.102966 0.278625
0.394470 0.101929 0.273071
0.503998 0.127777 0.265198
0.086029 0.219910 0.390106
0.084229 0.234131 0.418396
0.113739 0.247406 0.446564
0.191467 0.240906 0.421509
0.265228 0.229462 0.400238
0.335632 0.219696 0.378754
0.399841 0.205902 0.356140
0.496582 0.205841 0.346558
0.623779 0.212250 0.338715
0.093567 0.314697 0.466095
0.100586 0.319794 0.490967
0.170807 0.345642 0.517487
0.248993 0.354889 0.520721
0.308624 0.333191 0.488922
0.399536 0.324005 0.464294
0.496704 0.317169 0.438599
0.604950 0.315918 0.434723
0.731201 0.306915 0.407410
0.144501 0.391510 0.529022
0.151398 0.406769 0.560883
0.226257 0.434753 0.584686
0.300446 0.447418 0.579163
0.388031 0.451141 0.564850
0.468964 0.436340 0.532806
0.576172 0.419617 0.497498
0.702087 0.418610 0.484680
0.844147 0.415863 0.467346
0.193481 0.492615 0.599701
0.196136 0.511108 0.623810
0.270508 0.531616 0.631073
0.356262 0.536133 0.617889
0.449432 0.551025 0.615448
0.548859 0.548676 0.596069
0.650543 0.529388 0.557556
0.809937 0.528870 0.538879
0.891235 0.528900 0.532318
0.233276 0.596680 0.647217
0.251862 0.627960 0.695923
0.332184 0.630585 0.653748
0.418488 0.635010 0.640015
0.510223 0.638367 0.634491
0.613007 0.646423 0.628906
0.715637 0.644104 0.615845
0.849304 0.636536 0.594604
0.933350 0.647858 0.581390
0.273193 0.681702 0.673340
0.288971 0.713379 0.705322
0.332642 0.713745 0.697052
0.436890 0.722412 0.673767
0.547729 0.730164 0.659149
0.663391 0.745758 0.676941
0.805054 0.748230 0.669922
0.867981 0.749268 0.654755
0.951630 0.763458 0.656250
0.304840 0.747589 0.693268
0.309448 0.770844 0.725342
0.313202 0.782959 0.728607
0.418365 0.792938 0.714966
0.519592 0.804993 0.713501
0.640625 0.822418 0.719971
0.809326 0.844421 0.723877
0.905396 0.853790 0.714355
0.983643 0.848022 0.677338
0.332062 0.811371 0.702148
0.331665 0.815979 0.716827
0.390259 0.840546 0.735382
0.494415 0.846863 0.714203
0.617767 0.867310 0.711548
0.763885 0.892670 0.722778
0.883453 0.919891 0.732361
0.960022 0.931702 0.750732
0.994629 0.944153 0.777496
0.075317 0.179108 0.394928
0.074310 0.190674 0.418427
0.079071 0.191071 0.431061
0.125885 0.167694 0.410522
0.197937 0.165222 0.387817
0.268402 0.160553 0.368561
0.324707 0.147522 0.346802
0.368561 0.128845 0.319916
0.439514 0.129608 0.312592
0.081268 0.239807 0.446899
0.076172 0.244659 0.478027
0.095459 0.265045 0.500519
0.177307 0.253815 0.486023
0.242645 0.245605 0.471313
0.313721 0.242798 0.441833
0.391571 0.241394 0.422760
0.453491 0.230927 0.397736
0.549011 0.234985 0.398926
0.103394 0.320190 0.522095
0.106628 0.327576 0.557831
0.157349 0.355011 0.583557
0.242401 0.375153 0.601349
0.301422 0.354065 0.549927
0.373444 0.341736 0.521179
0.462250 0.328888 0.496155
0.542572 0.318695 0.472626
0.649689 0.318237 0.471313
0.151642 0.407715 0.601807
0.153107 0.420410 0.623718
0.219147 0.448242 0.649231
0.298553 0.475525 0.660400
0.378357 0.482056 0.647827
0.440063 0.449402 0.599640
0.539062 0.445312 0.572571
0.635773 0.428650 0.545685
0.781464 0.429993 0.547394
0.192688 0.501404 0.677063
0.194366 0.512512 0.700745
0.262268 0.545532 0.710907
0.337463 0.566772 0.705231
0.421692 0.567078 0.697784
0.525574 0.571564 0.672943
0.616852 0.549713 0.638672
0.722382 0.541016 0.620453
0.857361 0.532623 0.612732
0.230133 0.598755 0.713013
0.239929 0.630676 0.732605
0.306824 0.644470 0.732300
0.392975 0.658051 0.722412
0.487579 0.664276 0.716461
0.595520 0.675049 0.716827
0.688568 0.677582 0.716095
0.822083 0.656250 0.685181
0.907562 0.653748 0.667511
0.275146 0.683746 0.729218
0.291901 0.713409 0.743530
0.358429 0.731964 0.755737
0.442078 0.731049 0.736267
0.536224 0.747833 0.736389
0.635559 0.761017 0.740112
0.752747 0.767426 0.739594
0.861908 0.786407 0.738312
0.937561 0.785675 0.739410
0.301941 0.751099 0.743408
0.309601 0.779297 0.767303
0.313324 0.792084 0.776794
0.418365 0.805145 0.759796
0.514343 0.813385 0.758606
0.628967 0.828156 0.759674
0.775635 0.847290 0.770752
0.891113 0.870087 0.773682
0.977997 0.873474 0.756012
0.322296 0.816132 0.747559
0.324219 0.825073 0.764099
0.378265 0.841522 0.783020
0.466888 0.860077 0.769073
0.570984 0.880981 0.762238
0.689056 0.897308 0.777435
0.847107 0.919830 0.792908
0.942322 0.946228 0.819916
0.992004 0.965546 0.890381
0.076508 0.203339 0.453705
0.078766 0.204620 0.475891
0.081909 0.205170 0.485901
0.120422 0.197052 0.459656
0.195862 0.193024 0.447449
0.259857 0.181244 0.421021
0.313904 0.177094 0.412567
0.367432 0.164215 0.383606
0.412933 0.150146 0.360687
0.074127 0.247620 0.510986
0.072113 0.260620 0.540894
0.093262 0.280579 0.560516
0.166840 0.278931 0.543671
0.233643 0.270447 0.524780
0.305298 0.263092 0.503021
0.369598 0.259064 0.476410
0.439575 0.247131 0.462006
0.507019 0.240662 0.436005
0.104431 0.327881 0.599152
0.112061 0.341492 0.620544
0.154358 0.357208 0.640320
0.235046 0.388519 0.655701
0.285736 0.367126 0.620880
0.354340 0.353027 0.582367
0.432861 0.348328 0.555817
0.519806 0.335144 0.525391
0.606506 0.326965 0.511139
0.153473 0.423889 0.682159
0.156738 0.434540 0.702515
0.204620 0.456665 0.715424
0.288055 0.482666 0.720276
0.364410 0.494965 0.717468
0.421661 0.478302 0.681610
0.508606 0.450714 0.628876
0.605408 0.445770 0.606628
0.691406 0.435974 0.593323
0.192719 0.512573 0.731140
0.193756 0.527283 0.741333
0.248596 0.550812 0.745300
0.323853 0.576416 0.747589
0.417419 0.595001 0.744995
0.517731 0.610840 0.740692
0.589172 0.576202 0.722107
0.672791 0.559662 0.692719
0.811310 0.544434 0.672821
0.229126 0.607605 0.755524
0.235413 0.631989 0.776520
0.297150 0.646515 0.770721
0.364410 0.669708 0.775330
0.461853 0.692200 0.773773
0.563965 0.692535 0.763611
0.669067 0.708923 0.760864
0.777557 0.685425 0.740204
0.872314 0.664551 0.726837
0.266449 0.699585 0.772736
0.273773 0.724030 0.796783
0.332489 0.731567 0.788666
0.416565 0.745758 0.790985
0.507141 0.768127 0.796204
0.620544 0.777649 0.793884
0.720673 0.781464 0.794220
0.852844 0.801422 0.802887
0.920685 0.788727 0.785828
0.300751 0.767059 0.800537
0.301086 0.776001 0.832764
0.349518 0.806702 0.850861
0.439728 0.813477 0.817444
0.525543 0.827545 0.827881
0.635956 0.839172 0.811707
0.761230 0.863251 0.835327
0.879150 0.876862 0.854340
0.974701 0.890900 0.852112
0.315796 0.823151 0.808685
0.326019 0.830627 0.828522
0.380920 0.843170 0.844940
0.450134 0.873566 0.839203
0.546997 0.887848 0.848938
0.661774 0.904846 0.859863
0.824127 0.928528 0.890137
0.922333 0.958740 0.919525
0.992126 0.985474 0.976166
0.082001 0.214081 0.506012
0.084442 0.220581 0.526276
0.085327 0.223938 0.539062
0.115540 0.209686 0.514862
0.185364 0.203735 0.500458
0.242096 0.203400 0.487274
0.305817 0.201447 0.461731
0.364960 0.194519 0.445496
0.410583 0.172577 0.414001
0.077026 0.256592 0.567780
0.080780 0.273712 0.588562
0.092041 0.282135 0.610901
0.168610 0.294250 0.619690
0.226227 0.280975 0.598053
0.290222 0.279419 0.562439
0.357727 0.277557 0.539948
0.424316 0.268951 0.511505
0.483276 0.246643 0.494629
0.113617 0.330841 0.647247
0.117279 0.351501 0.677399
0.153107 0.364136 0.703552
0.231445 0.396210 0.717926
0.269348 0.383118 0.695312
0.335358 0.363770 0.649475
0.413788 0.354828 0.617035
0.485443 0.349304 0.598175
0.574493 0.325867 0.542480
0.159760 0.423767 0.724762
0.165253 0.436218 0.732361
0.200287 0.463440 0.745544
0.267670 0.499146 0.764282
0.348816 0.509033 0.762939
0.405487 0.486816 0.731323
0.481934 0.473724 0.707214
0.576904 0.451019 0.674561
0.652893 0.435120 0.637329
0.192841 0.519379 0.766907
0.193085 0.523590 0.775146
0.236206 0.552246 0.788422
0.302399 0.592407 0.795227
0.392639 0.612213 0.788452
0.498138 0.620850 0.788422
0.571747 0.604309 0.761200
0.651031 0.570679 0.736481
0.757843 0.545715 0.717529
0.228455 0.614349 0.785187
0.229248 0.629211 0.800415
0.273010 0.646454 0.824890
0.342377 0.675842 0.836639
0.430878 0.699829 0.832764
0.536591 0.711700 0.839630
0.656799 0.727997 0.819946
0.756805 0.706726 0.787445
0.842255 0.673401 0.769592
0.263123 0.696808 0.841003
0.263428 0.717499 0.870209
0.311005 0.733917 0.880005
0.379547 0.748932 0.876495
0.469299 0.772583 0.881409
0.570038 0.789276 0.881439
0.688660 0.809570 0.900269
0.842377 0.815887 0.899139
0.894379 0.798859 0.865356
0.283539 0.757324 0.871582
0.269989 0.769470 0.900940
0.300446 0.792053 0.911591
0.385132 0.814178 0.914825
0.473389 0.834534 0.912201
0.592682 0.856628 0.929352
0.731201 0.878876 0.927795
0.874573 0.896637 0.948273
0.966492 0.898346 0.949493
0.301910 0.821869 0.887482
0.329620 0.838318 0.906158
0.362396 0.849030 0.917480
0.430054 0.869629 0.913818
0.527130 0.888885 0.915131
0.647827 0.917206 0.945190
0.823975 0.941223 0.962921
0.923767 0.968903 0.980743
0.996399 0.999969 0.999969
