Kodachrome 25 (K-14) - Only color.cube
# Copyright: (C) Copyright 2017 by IWLTBAP
# Cannot be resold, shared or otherwise redistributed
# Website: https://luts.iwltbap.com
TITLE "Kodak Kodachrome 25 (K-14) - Color neutral (Rec.709 sRGB)"
LUT_3D_SIZE 33
0.000000 0.000000 0.000000
0.018781 0.000016 0.000054
0.043342 0.000055 0.000147
0.068670 0.000066 0.000208
0.088231 0.000073 0.000252
0.106642 0.000088 0.000304
0.123061 0.000102 0.000351
0.143095 0.000115 0.000404
0.159857 0.000123 0.000445
0.173378 0.000143 0.000495
0.189737 0.000176 0.000566
0.210503 0.000206 0.000642
0.239694 0.000210 0.000700
0.303611 0.000149 0.000739
0.382165 0.000103 0.005576
0.469176 0.000039 0.009454
0.570943 0.000000 0.009585
0.693333 0.000000 0.009770
0.789506 0.000000 0.006147
0.865506 0.000000 0.001506
0.915238 0.000000 0.001548
0.972903 0.000000 0.001494
0.984656 0.000000 0.003419
0.984682 0.000000 0.010061
0.984686 0.000000 0.008163
0.984660 0.000000 0.001522
0.984650 0.008058 0.001537
0.984607 0.056206 0.001621
0.984562 0.089150 0.006409
0.984376 0.129062 0.049315
0.984205 0.166854 0.087892
0.984127 0.190182 0.099904
0.984052 0.209096 0.119499
0.014729 0.036891 0.007701
0.033437 0.036156 0.007761
0.054481 0.036190 0.007841
0.080305 0.036956 0.001246
0.099018 0.036972 0.000349
0.117473 0.036988 0.000402
0.137243 0.037761 0.000458
0.161084 0.037774 0.000517
0.181051 0.037053 0.000597
0.200131 0.031795 0.000663
0.218673 0.030307 0.000720
0.242177 0.030302 0.000757
0.288336 0.030257 0.000783
0.347172 0.030225 0.000849
0.424882 0.030182 0.000936
0.517657 0.033899 0.001033
0.632169 0.037651 0.001194
0.734338 0.037665 0.001390
0.810433 0.040627 0.001509
0.870575 0.044847 0.001596
0.909139 0.047521 0.001633
0.954680 0.058003 0.001601
0.984583 0.071657 0.001643
0.984586 0.082378 0.001657
0.984564 0.092191 0.003566
0.984514 0.104047 0.014968
0.984440 0.119218 0.033100
0.984369 0.138648 0.045224
0.984273 0.160428 0.063270
0.984178 0.183169 0.081562
0.984096 0.206542 0.100404
0.984025 0.224744 0.119508
0.983938 0.243377 0.145295
0.033327 0.071552 0.026804
0.050460 0.072107 0.017377
0.064404 0.071608 0.016454
0.090104 0.072139 0.008921
0.110313 0.072675 0.001389
0.130607 0.071690 0.000496
0.152775 0.075206 0.000555
0.178048 0.075742 0.000646
0.199934 0.073308 0.006424
0.224596 0.068728 0.008387
0.255703 0.062797 0.002720
0.296202 0.060517 0.000839
0.341317 0.061072 0.000895
0.400992 0.060482 0.000959
0.476875 0.064895 0.001032
0.570823 0.070192 0.001166
0.688299 0.074765 0.001348
0.778418 0.076286 0.001518
0.834470 0.078231 0.001596
0.877036 0.079675 0.001660
0.906328 0.082947 0.001684
0.945191 0.089626 0.001657
0.984547 0.104059 0.001682
0.984463 0.126783 0.001704
0.984457 0.147139 0.004568
0.984349 0.166564 0.030243
0.984213 0.186323 0.062452
0.984152 0.200883 0.077912
0.984101 0.216742 0.089542
0.984056 0.230715 0.099922
0.983989 0.245481 0.119520
0.983903 0.262791 0.145995
0.983834 0.280733 0.164021
0.049818 0.106008 0.066619
0.063860 0.102549 0.054306
0.083336 0.102575 0.045361
0.101470 0.102611 0.037510
0.117597 0.102645 0.028028
0.144267 0.102681 0.027148
0.171147 0.105837 0.017731
0.192417 0.107043 0.016874
0.211950 0.104006 0.016940
0.235734 0.105572 0.017938
0.271931 0.108983 0.017967
0.309081 0.108969 0.017041
0.353646 0.106710 0.011402
0.417317 0.105565 0.008626
0.502599 0.105557 0.003959
0.612781 0.105959 0.001247
0.716392 0.108325 0.001444
0.791318 0.112475 0.001575
0.834948 0.117554 0.001640
0.871700 0.125188 0.004545
0.892715 0.133410 0.014069
0.921503 0.140280 0.019774
0.949277 0.148893 0.022595
0.974838 0.167689 0.039098
0.983217 0.188175 0.062450
0.984138 0.204549 0.081567
0.984086 0.219881 0.094335
0.984050 0.231575 0.101888
0.984004 0.243879 0.113933
0.983955 0.258190 0.125672
0.983905 0.271030 0.138602
0.983849 0.283979 0.154653
0.983795 0.297661 0.168797
0.060352 0.138458 0.089631
0.080049 0.135677 0.080467
0.098461 0.135396 0.072772
0.112187 0.133215 0.061821
0.128386 0.133250 0.055525
0.157224 0.135507 0.054669
0.184057 0.135902 0.047824
0.203884 0.136582 0.045877
0.223034 0.136308 0.039918
0.248804 0.139728 0.037997
0.286391 0.144551 0.038029
0.319988 0.146036 0.038070
0.366475 0.144275 0.032360
0.435002 0.143403 0.021972
0.525033 0.142217 0.012564
0.640545 0.141365 0.007979
0.737586 0.142978 0.004373
0.800281 0.146594 0.001619
0.835346 0.152982 0.005465
0.866613 0.162212 0.017852
0.883947 0.172293 0.038097
0.901389 0.179647 0.048326
0.922239 0.187794 0.057202
0.939902 0.203178 0.074108
0.962144 0.220062 0.087877
0.983582 0.233965 0.099922
0.983995 0.247869 0.114812
0.983943 0.259537 0.129996
0.983899 0.268316 0.143925
0.983863 0.281148 0.150062
0.983837 0.291765 0.154012
0.983796 0.302439 0.164035
0.983758 0.310770 0.175502
0.072064 0.173860 0.118968
0.086857 0.171100 0.106172
0.104610 0.171421 0.098513
0.122931 0.168658 0.091336
0.144302 0.168705 0.086427
0.169956 0.168776 0.085909
0.192126 0.169428 0.083673
0.211960 0.169491 0.079531
0.231378 0.169526 0.077055
0.259832 0.171798 0.075778
0.299359 0.174877 0.072444
0.339285 0.176300 0.071778
0.393379 0.176626 0.068915
0.464908 0.176139 0.062592
0.549973 0.176510 0.061006
0.648120 0.179321 0.063711
0.726859 0.184083 0.065482
0.784925 0.188462 0.064777
0.816200 0.194449 0.067159
0.843243 0.201607 0.074785
0.867648 0.208836 0.081644
0.881540 0.214616 0.086864
0.894119 0.221463 0.090176
0.912799 0.233218 0.096475
0.929930 0.246038 0.107189
0.949955 0.258665 0.118687
0.978128 0.270881 0.133797
0.983880 0.280473 0.142884
0.983847 0.287309 0.152707
0.983815 0.299814 0.157538
0.983788 0.310051 0.161906
0.983751 0.320261 0.170559
0.983717 0.328992 0.181287
0.080198 0.209566 0.154080
0.093138 0.207417 0.142331
0.105333 0.207439 0.127927
0.131117 0.205278 0.113487
0.155155 0.205104 0.104873
0.177879 0.205154 0.103987
0.200103 0.205609 0.101650
0.219539 0.203614 0.099732
0.240310 0.203415 0.097249
0.273004 0.205225 0.094688
0.310891 0.207408 0.092591
0.357673 0.206812 0.091546
0.420738 0.206407 0.088301
0.495980 0.206182 0.086627
0.573003 0.207385 0.086100
0.654246 0.211888 0.087826
0.714768 0.218144 0.090617
0.762508 0.223460 0.091207
0.794873 0.229287 0.092284
0.817214 0.235114 0.095950
0.840200 0.241252 0.100973
0.862797 0.248315 0.106743
0.876091 0.255909 0.112691
0.888756 0.265714 0.120868
0.906079 0.274103 0.131994
0.925959 0.283260 0.140458
0.945817 0.293092 0.148402
0.976738 0.299175 0.153350
0.983806 0.304922 0.157541
0.983774 0.315441 0.163740
0.983740 0.326605 0.170272
0.983701 0.339337 0.178955
0.983663 0.349814 0.192894
0.054624 0.249577 0.174268
0.069341 0.247055 0.168528
0.083993 0.245153 0.162876
0.113670 0.245029 0.159237
0.145838 0.244743 0.153568
0.177310 0.244801 0.142870
0.204148 0.245022 0.131638
0.225568 0.243107 0.127808
0.251012 0.240818 0.123831
0.289167 0.244044 0.120126
0.327407 0.246601 0.116329
0.372506 0.245792 0.115045
0.428031 0.244980 0.110634
0.492421 0.244948 0.107894
0.557700 0.246386 0.108393
0.629530 0.248596 0.108426
0.687658 0.252356 0.110756
0.729748 0.257123 0.112604
0.764175 0.262068 0.113966
0.794145 0.267604 0.116157
0.817772 0.272730 0.121250
0.839737 0.277321 0.127718
0.859339 0.282637 0.133502
0.875069 0.291123 0.140131
0.887764 0.298182 0.146098
0.905392 0.304540 0.152133
0.925553 0.312660 0.157279
0.946139 0.319239 0.161610
0.976938 0.325109 0.164032
0.983728 0.335153 0.168525
0.983696 0.346261 0.174194
0.983658 0.357688 0.184610
0.983607 0.368332 0.201605
0.035769 0.289142 0.196271
0.056673 0.286530 0.192554
0.071097 0.283863 0.191293
0.106528 0.283762 0.188103
0.141524 0.283796 0.182887
0.178654 0.283993 0.170216
0.209800 0.282036 0.159164
0.232984 0.280010 0.155070
0.263084 0.279449 0.150167
0.304285 0.280646 0.149493
0.343440 0.283886 0.146817
0.384825 0.282933 0.143379
0.432834 0.281978 0.138781
0.489137 0.281946 0.135860
0.540140 0.283428 0.135891
0.602343 0.284610 0.135905
0.662554 0.285297 0.137797
0.703843 0.288486 0.140002
0.736535 0.292559 0.140052
0.772657 0.297052 0.141149
0.800550 0.301212 0.141164
0.822542 0.304321 0.143993
0.843029 0.307752 0.147439
0.864160 0.313549 0.150146
0.878235 0.318644 0.152148
0.891801 0.322713 0.157632
0.910650 0.329885 0.162597
0.928621 0.339515 0.166501
0.950050 0.348629 0.168823
0.981502 0.356486 0.172837
0.983653 0.364741 0.177494
0.983614 0.375477 0.190675
0.983551 0.387053 0.208768
0.089468 0.326826 0.217140
0.100632 0.323982 0.215197
0.110700 0.321106 0.214975
0.138226 0.319047 0.205757
0.166935 0.318961 0.192971
0.195573 0.317140 0.183666
0.222523 0.313259 0.172923
0.250513 0.312656 0.168885
0.284468 0.312031 0.164719
0.316635 0.311897 0.163514
0.357510 0.314403 0.162008
0.399089 0.313676 0.161097
0.443584 0.312709 0.158936
0.490427 0.312562 0.155769
0.538682 0.313997 0.154190
0.590195 0.315171 0.151921
0.647491 0.315065 0.152951
0.692447 0.315192 0.154611
0.727292 0.317932 0.154658
0.758399 0.320522 0.155015
0.789883 0.323988 0.155026
0.813294 0.327992 0.155044
0.833661 0.332272 0.156336
0.854977 0.336491 0.158875
0.871090 0.340664 0.160762
0.883506 0.345100 0.164140
0.897313 0.352810 0.168317
0.918158 0.362252 0.170636
0.941877 0.368229 0.173140
0.975003 0.375349 0.177232
0.983608 0.383116 0.183706
0.983570 0.395288 0.195136
0.983508 0.408726 0.210595
0.133929 0.371658 0.229556
0.147331 0.368032 0.229348
0.159893 0.364474 0.229382
0.179361 0.361049 0.216736
0.195879 0.358446 0.199561
0.218178 0.352974 0.191745
0.241326 0.346624 0.184815
0.276879 0.345315 0.180765
0.307260 0.345298 0.177941
0.336747 0.345300 0.174938
0.371812 0.345291 0.174946
0.410109 0.346462 0.174394
0.455288 0.345269 0.172981
0.498028 0.345145 0.170685
0.539396 0.345150 0.168377
0.582285 0.346322 0.165124
0.636731 0.346330 0.163651
0.682895 0.346343 0.164294
0.719198 0.346471 0.164335
0.749808 0.347668 0.164376
0.781569 0.350114 0.163478
0.806681 0.354844 0.162886
0.826687 0.360865 0.163506
0.847435 0.363322 0.165922
0.864550 0.365348 0.168013
0.877199 0.369862 0.170366
0.889012 0.377158 0.172941
0.910058 0.385376 0.175072
0.935611 0.389785 0.177299
0.968790 0.398035 0.181685
0.983555 0.407461 0.190662
0.983510 0.421845 0.201157
0.983465 0.433655 0.210384
0.181536 0.412238 0.228117
0.190663 0.407747 0.228149
0.200594 0.406129 0.228187
0.213722 0.398704 0.220386
0.225092 0.394410 0.208488
0.246246 0.389460 0.202726
0.274160 0.386738 0.198239
0.302761 0.385120 0.194570
0.329397 0.385118 0.191389
0.356126 0.379723 0.188400
0.387283 0.379719 0.185546
0.418129 0.379818 0.185521
0.458910 0.379805 0.183690
0.501488 0.379796 0.181104
0.541161 0.379804 0.178660
0.582363 0.379801 0.175267
0.632876 0.377851 0.173062
0.677706 0.377277 0.173097
0.710754 0.377299 0.173129
0.740297 0.377429 0.173168
0.771846 0.378911 0.172332
0.797766 0.382662 0.170326
0.817581 0.388016 0.170341
0.839757 0.390869 0.171793
0.860682 0.390867 0.172933
0.873573 0.394147 0.174571
0.885214 0.402142 0.176130
0.904571 0.408337 0.179288
0.927933 0.413446 0.181778
0.955713 0.423306 0.187191
0.983503 0.433904 0.194915
0.983451 0.448403 0.206561
0.983424 0.454584 0.212473
0.222046 0.458274 0.222988
0.230072 0.453539 0.223239
0.240114 0.453459 0.224482
0.251045 0.444542 0.221273
0.265184 0.439221 0.216802
0.289598 0.434106 0.213813
0.308455 0.433160 0.212830
0.331428 0.433156 0.211863
0.354560 0.433149 0.209139
0.378514 0.428896 0.204197
0.402100 0.422562 0.198631
0.433317 0.422550 0.197735
0.464720 0.422523 0.195518
0.505107 0.422505 0.194196
0.544828 0.419569 0.191182
0.583162 0.419139 0.186438
0.632774 0.416582 0.183773
0.675605 0.411744 0.183534
0.703690 0.410905 0.182626
0.730989 0.411008 0.182176
0.761977 0.412864 0.181020
0.788447 0.417671 0.178632
0.808820 0.421187 0.177401
0.830177 0.423124 0.178131
0.853684 0.423114 0.178602
0.870230 0.425368 0.180255
0.882590 0.434742 0.180709
0.899047 0.439651 0.184274
0.920802 0.444619 0.187279
0.945250 0.451480 0.193353
0.983351 0.460616 0.198961
0.983403 0.471319 0.209683
0.983379 0.475773 0.215325
0.266065 0.497781 0.228007
0.275202 0.493380 0.226791
0.286793 0.493302 0.227530
0.294603 0.484876 0.225816
0.304572 0.479820 0.223610
0.321783 0.475405 0.221408
0.339017 0.474637 0.221187
0.359980 0.474696 0.221463
0.379732 0.474620 0.219750
0.401544 0.471338 0.217027
0.422763 0.466830 0.213786
0.448856 0.465328 0.212302
0.481418 0.465160 0.210561
0.514318 0.459503 0.205567
0.550188 0.456821 0.203856
0.586489 0.454615 0.202152
0.632817 0.454615 0.197714
0.675609 0.452711 0.195692
0.701823 0.448501 0.195028
0.727403 0.447845 0.193715
0.756044 0.447926 0.192403
0.783572 0.451540 0.190210
0.801815 0.454692 0.188041
0.822234 0.454687 0.187163
0.842546 0.455843 0.187143
0.863410 0.458598 0.188428
0.878189 0.465195 0.188421
0.893168 0.468936 0.190142
0.913784 0.471367 0.192978
0.937289 0.476123 0.196360
0.979271 0.484654 0.200466
0.983366 0.490883 0.210487
0.983341 0.495305 0.216380
0.308555 0.533951 0.235940
0.314773 0.527836 0.234075
0.322942 0.527582 0.233855
0.328408 0.517454 0.232196
0.337062 0.512251 0.231250
0.351081 0.507878 0.229345
0.368466 0.507221 0.227675
0.384101 0.507216 0.227698
0.402669 0.507279 0.226265
0.422993 0.506556 0.225316
0.444979 0.502280 0.223616
0.466961 0.500744 0.222640
0.497471 0.498351 0.221437
0.528241 0.493022 0.217983
0.558034 0.486624 0.214497
0.593965 0.484497 0.213263
0.633150 0.484642 0.212075
0.675596 0.484648 0.209612
0.699624 0.482540 0.207873
0.724688 0.480018 0.207927
0.753038 0.480030 0.206967
0.779835 0.480021 0.203435
0.797401 0.481941 0.202445
0.815569 0.483240 0.200715
0.833770 0.485755 0.199745
0.855837 0.488191 0.198547
0.872951 0.489548 0.197847
0.888458 0.493178 0.196436
0.908539 0.493689 0.198078
0.931664 0.497787 0.198532
0.974229 0.503874 0.202514
0.983334 0.508167 0.210515
0.983313 0.512895 0.214625
0.343308 0.580059 0.241949
0.351271 0.572511 0.239715
0.359429 0.572226 0.240621
0.363935 0.566526 0.238818
0.372119 0.558443 0.238589
0.384348 0.551293 0.236536
0.396098 0.542686 0.234450
0.408474 0.542686 0.234000
0.427165 0.542688 0.232613
0.447895 0.542684 0.232164
0.469528 0.541551 0.230750
0.491016 0.539236 0.230058
0.517509 0.535022 0.229135
0.544645 0.528345 0.226749
0.573679 0.520288 0.223835
0.605392 0.515270 0.221879
0.636173 0.512940 0.220953
0.675537 0.512890 0.218525
0.699596 0.510740 0.217312
0.718712 0.508196 0.217610
0.745317 0.508151 0.216668
0.775136 0.508150 0.214173
0.794018 0.508151 0.212417
0.810584 0.509336 0.212448
0.827670 0.512944 0.211711
0.849466 0.514187 0.208923
0.869447 0.511313 0.206905
0.884995 0.515249 0.204115
0.905389 0.515884 0.204117
0.930085 0.520797 0.204359
0.971569 0.526288 0.207929
0.983285 0.532136 0.210549
0.983269 0.535308 0.213891
0.376630 0.615150 0.247047
0.382924 0.612684 0.245759
0.391500 0.612437 0.248341
0.398316 0.612436 0.245992
0.407222 0.607930 0.244481
0.418780 0.602542 0.243614
0.429661 0.595092 0.242520
0.437433 0.589443 0.240972
0.453054 0.589428 0.239192
0.475133 0.589403 0.238756
0.496390 0.589341 0.236963
0.519008 0.589330 0.236771
0.542188 0.584911 0.235416
0.567056 0.577659 0.234509
0.591022 0.570306 0.232403
0.621374 0.562903 0.229348
0.645428 0.559454 0.227459
0.677762 0.555901 0.226544
0.699816 0.552607 0.225607
0.718589 0.548612 0.225651
0.740625 0.545994 0.224723
0.770797 0.545200 0.222792
0.792368 0.545141 0.220578
0.809034 0.545209 0.220358
0.825992 0.548713 0.219888
0.845772 0.547182 0.217387
0.868232 0.541689 0.214626
0.883895 0.546341 0.212614
0.903701 0.549631 0.212370
0.930002 0.555742 0.212622
0.968653 0.559699 0.213623
0.983205 0.566852 0.213938
0.983201 0.566850 0.215473
0.407544 0.645543 0.252844
0.412425 0.642728 0.252847
0.419711 0.642727 0.255555
0.429980 0.642729 0.253076
0.440201 0.640373 0.250352
0.450679 0.637367 0.249931
0.461285 0.631751 0.249928
0.470652 0.626126 0.247583
0.481775 0.622170 0.245006
0.499202 0.622115 0.244595
0.519074 0.619572 0.243097
0.541531 0.619518 0.242256
0.561215 0.616219 0.240956
0.587420 0.613483 0.240084
0.611710 0.608435 0.238987
0.632817 0.605678 0.237672
0.661927 0.603095 0.234731
0.684320 0.602943 0.233840
0.706814 0.600544 0.232946
0.722936 0.597316 0.232274
0.743323 0.595129 0.232084
0.772970 0.591131 0.231169
0.793947 0.591120 0.229527
0.810658 0.591066 0.227380
0.827606 0.589316 0.226670
0.846661 0.587853 0.224728
0.868141 0.584202 0.223526
0.883909 0.584199 0.221561
0.903912 0.587816 0.221329
0.930382 0.591095 0.220322
0.965321 0.591747 0.220293
0.983132 0.600015 0.220620
0.983129 0.602415 0.220375
0.437758 0.676223 0.259484
0.440584 0.669531 0.259481
0.448245 0.669331 0.260695
0.455963 0.669379 0.258676
0.466992 0.669328 0.255817
0.477876 0.669329 0.255414
0.488315 0.664029 0.255421
0.499123 0.657930 0.254603
0.510413 0.652148 0.251902
0.523508 0.650642 0.251290
0.537840 0.646463 0.249404
0.558086 0.644555 0.247296
0.579111 0.640928 0.245806
0.601864 0.638762 0.244740
0.623856 0.635374 0.244782
0.648281 0.632894 0.243737
0.673181 0.632853 0.242686
0.694516 0.632962 0.241627
0.714154 0.630394 0.240787
0.729965 0.627205 0.238368
0.751078 0.627215 0.237508
0.777251 0.623880 0.237533
0.797317 0.622081 0.236878
0.814009 0.621355 0.234834
0.831350 0.619851 0.232988
0.850508 0.615566 0.231350
0.869263 0.615612 0.231152
0.885023 0.615560 0.229504
0.905391 0.615483 0.229271
0.930555 0.615386 0.227321
0.965582 0.615927 0.227292
0.983068 0.627184 0.227369
0.983059 0.632920 0.226403
0.467512 0.707375 0.266090
0.469803 0.701925 0.266084
0.480219 0.699501 0.266090
0.483606 0.699503 0.263736
0.491445 0.699504 0.261157
0.502301 0.699504 0.260769
0.513524 0.694984 0.260779
0.525140 0.689617 0.260789
0.536354 0.683540 0.258983
0.547265 0.679274 0.258385
0.558396 0.677360 0.256558
0.573988 0.675188 0.255130
0.597686 0.673776 0.252228
0.617836 0.671256 0.250369
0.638158 0.667435 0.250406
0.662316 0.664675 0.250444
0.684483 0.662049 0.249207
0.701966 0.659512 0.247958
0.720725 0.659338 0.246930
0.736412 0.655939 0.244370
0.756492 0.656007 0.243097
0.779734 0.655959 0.243120
0.799275 0.655970 0.242492
0.815982 0.652445 0.240311
0.833360 0.650932 0.238773
0.852618 0.646428 0.237441
0.870520 0.646392 0.237476
0.886402 0.646499 0.235442
0.907694 0.646432 0.234754
0.931171 0.646347 0.232638
0.968320 0.646185 0.232610
0.982995 0.653565 0.232667
0.982987 0.659517 0.230544
0.494295 0.737516 0.271348
0.499653 0.732508 0.271347
0.508403 0.727503 0.271350
0.511386 0.727185 0.269833
0.516455 0.727187 0.267340
0.527417 0.727186 0.267161
0.538415 0.723057 0.267170
0.547254 0.718199 0.267174
0.558389 0.715050 0.265233
0.570808 0.709914 0.263662
0.581506 0.706338 0.262870
0.595750 0.706244 0.262082
0.613889 0.704214 0.260306
0.631639 0.704311 0.257911
0.654572 0.703208 0.256926
0.675638 0.700810 0.256956
0.694138 0.697957 0.255545
0.709179 0.692670 0.254328
0.725298 0.689795 0.254156
0.744061 0.689813 0.251688
0.764885 0.689772 0.250026
0.783424 0.689862 0.249196
0.799383 0.689776 0.248367
0.815896 0.689783 0.245812
0.833352 0.688369 0.244094
0.852588 0.682287 0.244110
0.870455 0.681310 0.243707
0.886377 0.682400 0.241755
0.908283 0.683742 0.239547
0.932867 0.683609 0.237512
0.974634 0.683463 0.237272
0.982915 0.683437 0.236625
0.982912 0.687375 0.234798
0.518195 0.766583 0.276433
0.524034 0.761262 0.276435
0.529682 0.757880 0.276439
0.535270 0.755683 0.276443
0.542649 0.755686 0.274055
0.550957 0.755764 0.273692
0.562516 0.751374 0.273698
0.574550 0.748041 0.273702
0.586821 0.746819 0.271832
0.596027 0.742977 0.269555
0.605112 0.736220 0.268600
0.616120 0.734647 0.268810
0.631667 0.731451 0.267874
0.650596 0.729629 0.265570
0.670875 0.729590 0.264620
0.686677 0.729591 0.263857
0.703728 0.726927 0.263490
0.718145 0.722084 0.262125
0.731426 0.719424 0.262151
0.750982 0.719428 0.262187
0.771411 0.719380 0.259800
0.786928 0.719375 0.259009
0.802676 0.719418 0.256379
0.817111 0.719378 0.253710
0.833765 0.718072 0.251842
0.852572 0.713030 0.251224
0.870404 0.708927 0.250829
0.886328 0.709717 0.248727
0.908482 0.714158 0.246159
0.935884 0.714019 0.244179
0.977969 0.713882 0.244180
0.982839 0.713895 0.242013
0.982846 0.713898 0.239582
0.536995 0.791827 0.281843
0.542467 0.786438 0.281844
0.547960 0.786286 0.281849
0.553429 0.782091 0.281851
0.564766 0.781584 0.279387
0.571925 0.781544 0.279033
0.584388 0.779138 0.279034
0.602019 0.778227 0.279043
0.616639 0.776616 0.277080
0.619618 0.774473 0.274516
0.623849 0.765447 0.273775
0.633778 0.760327 0.273786
0.648461 0.756944 0.273804
0.668029 0.754946 0.273083
0.682090 0.754951 0.271414
0.696439 0.754917 0.270870
0.713224 0.752261 0.268997
0.727231 0.748741 0.269023
0.740850 0.745923 0.269810
0.761534 0.745883 0.269836
0.779611 0.745915 0.268895
0.793613 0.744228 0.266402
0.807105 0.744231 0.264073
0.820650 0.744231 0.262307
0.837294 0.744226 0.259919
0.853632 0.739428 0.258717
0.871125 0.735453 0.256292
0.886757 0.735368 0.256309
0.908642 0.738930 0.254248
0.936865 0.738833 0.251499
0.980324 0.738709 0.251090
0.982777 0.738640 0.247914
0.982783 0.738643 0.245545
0.559213 0.813761 0.288132
0.565372 0.806274 0.287306
0.571765 0.804934 0.287306
0.578401 0.802413 0.287303
0.589716 0.802049 0.285638
0.597575 0.802045 0.285135
0.610225 0.802047 0.285149
0.622381 0.802054 0.285335
0.632509 0.799084 0.283309
0.637548 0.798148 0.280534
0.642074 0.792431 0.279827
0.652979 0.787117 0.279836
0.666166 0.784000 0.279849
0.678863 0.782293 0.279864
0.692874 0.782341 0.278276
0.707324 0.782395 0.277217
0.723781 0.779945 0.275973
0.737816 0.777512 0.274712
0.751001 0.777521 0.275100
0.771424 0.777520 0.276579
0.786803 0.776055 0.276409
0.800312 0.775745 0.273851
0.813790 0.772241 0.271434
0.826600 0.772244 0.269551
0.841947 0.772245 0.269182
0.858620 0.772214 0.266119
0.874218 0.767299 0.262206
0.889694 0.766734 0.262217
0.910402 0.766754 0.262014
0.939421 0.766620 0.259370
0.982695 0.766528 0.256956
0.982702 0.766571 0.254277
0.982710 0.766533 0.251350
0.587229 0.833205 0.296458
0.594306 0.825752 0.293707
0.601234 0.822871 0.293552
0.606429 0.821696 0.293555
0.612940 0.822638 0.293562
0.618960 0.822674 0.293568
0.629749 0.821703 0.293578
0.640570 0.821770 0.293585
0.648427 0.818906 0.291400
0.655160 0.817959 0.288845
0.663713 0.813601 0.288035
0.672777 0.808668 0.288689
0.681688 0.807275 0.288695
0.694091 0.807312 0.288056
0.707329 0.807353 0.286429
0.721295 0.807328 0.285285
0.736289 0.805447 0.283958
0.751690 0.803406 0.282607
0.764683 0.803401 0.281924
0.779674 0.803394 0.281930
0.793548 0.801939 0.281941
0.806208 0.799510 0.281605
0.819788 0.799510 0.278984
0.833771 0.799435 0.277201
0.846578 0.799430 0.276485
0.863716 0.799471 0.274124
0.879694 0.798723 0.269832
0.894741 0.795415 0.269451
0.914257 0.795353 0.269253
0.947172 0.795168 0.267092
0.982610 0.795054 0.264991
0.982617 0.795093 0.262430
0.982624 0.795096 0.260031
0.621693 0.856565 0.305098
0.626213 0.850398 0.303016
0.632316 0.850166 0.302877
0.632804 0.846767 0.302877
0.638324 0.848033 0.302314
0.644637 0.848567 0.301891
0.657040 0.845473 0.301893
0.664972 0.844709 0.301894
0.670410 0.841921 0.299599
0.675081 0.840927 0.297546
0.682812 0.839171 0.296805
0.692220 0.836353 0.298584
0.701895 0.835030 0.299611
0.714279 0.835037 0.298014
0.724410 0.834215 0.295337
0.735019 0.833391 0.293515
0.750113 0.832265 0.292752
0.764663 0.830264 0.291347
0.775966 0.829526 0.290080
0.787586 0.829490 0.288642
0.800397 0.828090 0.288001
0.812538 0.825618 0.287518
0.824040 0.825680 0.287195
0.838312 0.825606 0.285216
0.853881 0.825634 0.285058
0.868197 0.825604 0.283052
0.881994 0.825670 0.279952
0.898082 0.822606 0.277280
0.917746 0.822574 0.277268
0.951027 0.822390 0.274847
0.982533 0.822251 0.274518
0.982540 0.822288 0.271920
0.982544 0.822323 0.270415
0.661195 0.884651 0.315426
0.661196 0.880934 0.315428
0.667221 0.880903 0.315426
0.667516 0.877388 0.315429
0.671183 0.874613 0.313016
0.675844 0.874096 0.310694
0.683961 0.871071 0.310436
0.689612 0.870339 0.309915
0.694557 0.867560 0.308338
0.699353 0.866646 0.307540
0.706663 0.866055 0.307142
0.716863 0.866071 0.308481
0.726030 0.866085 0.309408
0.737220 0.866099 0.308225
0.746526 0.864055 0.305539
0.754834 0.861200 0.303475
0.766978 0.859445 0.302070
0.779722 0.859446 0.302066
0.790250 0.857912 0.300933
0.800426 0.855835 0.299355
0.810525 0.854532 0.298338
0.820798 0.852157 0.295671
