Kodak Vision3 50D (5203) - Only contrast.cube
# Created by Benjamin (IWLTBAP) : http://luts.iwltbap.com
# Copyright: (C) Copyright 2010-2017 Triune Films and IWLTBAP SAS
# Cannot be resold, shared or otherwise redistributed
TITLE "Film Print Emulation LUTs Pack (Rec.709, sRGB, DCI-P3)"
LUT_3D_SIZE 9
0.000519 0.000519 0.000519
0.077423 0.000244 0.000244
0.203156 0.000000 0.000000
0.337219 0.000000 0.000000
0.467163 0.000000 0.000000
0.607605 0.000000 0.000000
0.759064 0.000000 0.000000
0.910278 0.000000 0.000000
0.991302 0.000000 0.000000
0.000244 0.077423 0.000244
0.077698 0.077698 0.000000
0.203522 0.077667 0.000000
0.337677 0.077576 0.000000
0.467529 0.077515 0.000000
0.608002 0.077393 0.000000
0.759552 0.077179 0.000000
0.910400 0.076965 0.000000
0.990936 0.077240 0.000000
0.000000 0.203156 0.000000
0.077667 0.203522 0.000000
0.203552 0.203552 0.000000
0.337799 0.203552 0.000000
0.467560 0.203552 0.000000
0.608124 0.203491 0.000000
0.759705 0.203369 0.000000
0.910217 0.203217 0.000000
0.990265 0.203583 0.000000
0.000000 0.337219 0.000000
0.077576 0.337677 0.000000
0.203552 0.337799 0.000000
0.337891 0.337891 0.000000
0.467529 0.337982 0.000000
0.608185 0.337982 0.000000
0.759796 0.337921 0.000000
0.909943 0.337891 0.000000
0.989532 0.338348 0.000000
0.000000 0.467163 0.000000
0.077515 0.467529 0.000000
0.203552 0.467560 0.000000
0.337982 0.467529 0.000000
0.467529 0.467529 0.000000
0.608246 0.467468 0.000000
0.759949 0.467316 0.000000
0.909729 0.467194 0.000000
0.988831 0.467529 0.000000
0.000000 0.607605 0.000000
0.077393 0.608002 0.000000
0.203491 0.608124 0.000000
0.337982 0.608185 0.000000
0.467468 0.608246 0.000000
0.608276 0.608276 0.000000
0.760010 0.608185 0.000000
0.909424 0.608154 0.000000
0.988037 0.608582 0.000000
0.000000 0.759064 0.000000
0.077179 0.759552 0.000000
0.203369 0.759705 0.000000
0.337921 0.759796 0.000000
0.467316 0.759949 0.000000
0.608185 0.760010 0.000000
0.760010 0.760010 0.000000
0.909027 0.760040 0.000000
0.987183 0.760559 0.000000
0.000000 0.910278 0.000000
0.076965 0.910400 0.000000
0.203217 0.910217 0.000000
0.337891 0.909943 0.000000
0.467194 0.909729 0.000000
0.608154 0.909424 0.000000
0.760040 0.909027 0.000000
0.908661 0.908661 0.000000
0.986328 0.908783 0.000000
0.000000 0.991302 0.000000
0.077240 0.990936 0.000000
0.203583 0.990265 0.000000
0.338348 0.989532 0.000000
0.467529 0.988831 0.000000
0.608582 0.988037 0.000000
0.760559 0.987183 0.000000
0.908783 0.986328 0.000000
0.985931 0.985901 0.000000
0.000244 0.000244 0.077423
0.077698 0.000000 0.077698
0.203522 0.000000 0.077667
0.337677 0.000000 0.077576
0.467529 0.000000 0.077515
0.608002 0.000000 0.077393
0.759552 0.000000 0.077179
0.910400 0.000000 0.076965
0.990936 0.000000 0.077240
0.000000 0.077698 0.077698
0.078003 0.078003 0.078003
0.203888 0.077942 0.077942
0.338135 0.077850 0.077850
0.467865 0.077789 0.077789
0.608429 0.077667 0.077667
0.760010 0.077454 0.077454
0.910522 0.077240 0.077240
0.990570 0.077515 0.077515
0.000000 0.203522 0.077667
0.077942 0.203888 0.077942
0.203918 0.203918 0.077911
0.338257 0.203888 0.077820
0.467896 0.203888 0.077759
0.608551 0.203827 0.077606
0.760162 0.203705 0.077393
0.910309 0.203552 0.077209
0.989899 0.203918 0.077484
0.000000 0.337677 0.077576
0.077850 0.338135 0.077850
0.203888 0.338257 0.077820
0.338318 0.338318 0.077728
0.467865 0.338409 0.077667
0.608582 0.338409 0.077515
0.760284 0.338348 0.077301
0.910034 0.338318 0.077118
0.989136 0.338776 0.077393
0.000000 0.467529 0.077515
0.077789 0.467865 0.077789
0.203888 0.467896 0.077759
0.338409 0.467865 0.077667
0.467865 0.467865 0.077606
0.608673 0.467804 0.077454
0.760406 0.467651 0.077240
0.909821 0.467499 0.077057
0.988434 0.467865 0.077332
0.000000 0.608002 0.077393
0.077667 0.608429 0.077667
0.203827 0.608551 0.077606
0.338409 0.608582 0.077515
0.467804 0.608673 0.077454
0.608673 0.608673 0.077332
0.760498 0.608612 0.077118
0.909485 0.608551 0.076904
0.987640 0.608978 0.077209
0.000000 0.759552 0.077179
0.077454 0.760010 0.077454
0.203705 0.760162 0.077393
0.338348 0.760284 0.077301
0.467651 0.760406 0.077240
0.608612 0.760498 0.077118
0.760468 0.760468 0.076904
0.909088 0.760498 0.076691
0.986755 0.761017 0.076996
0.000000 0.910400 0.076965
0.077240 0.910522 0.077240
0.203552 0.910309 0.077209
0.338318 0.910034 0.077118
0.467499 0.909821 0.077057
0.608551 0.909485 0.076904
0.760498 0.909088 0.076691
0.908722 0.908722 0.076508
0.985901 0.908844 0.076813
0.000000 0.990936 0.077240
0.077515 0.990570 0.077515
0.203918 0.989899 0.077484
0.338776 0.989136 0.077393
0.467865 0.988434 0.077332
0.608978 0.987640 0.077209
0.761017 0.986755 0.076996
0.908844 0.985901 0.076813
0.985535 0.985535 0.077148
0.000000 0.000000 0.203156
0.077667 0.000000 0.203522
0.203552 0.000000 0.203552
0.337799 0.000000 0.203552
0.467560 0.000000 0.203552
0.608124 0.000000 0.203491
0.759705 0.000000 0.203369
0.910217 0.000000 0.203217
0.990265 0.000000 0.203583
0.000000 0.077667 0.203522
0.077942 0.077942 0.203888
0.203918 0.077911 0.203918
0.338257 0.077820 0.203888
0.467896 0.077759 0.203888
0.608551 0.077606 0.203827
0.760162 0.077393 0.203705
0.910309 0.077209 0.203552
0.989899 0.077484 0.203918
0.000000 0.203552 0.203552
0.077911 0.203918 0.203918
0.203949 0.203949 0.203949
0.338379 0.203918 0.203918
0.467926 0.203949 0.203949
0.608643 0.203857 0.203857
0.760345 0.203735 0.203735
0.910095 0.203613 0.203613
0.989197 0.203949 0.203949
0.000000 0.337799 0.203552
0.077820 0.338257 0.203888
0.203918 0.338379 0.203918
0.338409 0.338409 0.203888
0.467896 0.338501 0.203918
0.608673 0.338531 0.203857
0.760437 0.338470 0.203705
0.909851 0.338440 0.203583
0.988464 0.338898 0.203949
0.000000 0.467560 0.203552
0.077759 0.467896 0.203888
0.203949 0.467926 0.203949
0.338501 0.467896 0.203918
0.467896 0.467896 0.203918
0.608765 0.467804 0.203857
0.760590 0.467651 0.203705
0.909607 0.467529 0.203583
0.987732 0.467896 0.203949
0.000000 0.608124 0.203491
0.077606 0.608551 0.203827
0.203857 0.608643 0.203857
0.338531 0.608673 0.203857
0.467804 0.608765 0.203857
0.608765 0.608765 0.203796
0.760651 0.608704 0.203644
0.909271 0.608673 0.203522
0.986938 0.609100 0.203888
0.000000 0.759705 0.203369
0.077393 0.760162 0.203705
0.203735 0.760345 0.203735
0.338470 0.760437 0.203705
0.467651 0.760590 0.203705
0.608704 0.760651 0.203644
0.760651 0.760651 0.203491
0.908875 0.760681 0.203369
0.986053 0.761200 0.203766
0.000000 0.910217 0.203217
0.077209 0.910309 0.203552
0.203613 0.910095 0.203613
0.338440 0.909851 0.203583
0.467529 0.909607 0.203583
0.608673 0.909271 0.203522
0.760681 0.908875 0.203369
0.908508 0.908508 0.203278
0.985199 0.908600 0.203644
0.000000 0.990265 0.203583
0.077484 0.989899 0.203918
0.203949 0.989197 0.203949
0.338898 0.988464 0.203949
0.467896 0.987732 0.203949
0.609100 0.986938 0.203888
0.761200 0.986053 0.203766
0.908600 0.985199 0.203644
0.984802 0.984802 0.204041
0.000000 0.000000 0.337219
0.077576 0.000000 0.337677
0.203552 0.000000 0.337799
0.337891 0.000000 0.337891
0.467529 0.000000 0.337982
0.608185 0.000000 0.337982
0.759796 0.000000 0.337921
0.909943 0.000000 0.337891
0.989532 0.000000 0.338348
0.000000 0.077576 0.337677
0.077850 0.077850 0.338135
0.203888 0.077820 0.338257
0.338318 0.077728 0.338318
0.467865 0.077667 0.338409
0.608582 0.077515 0.338409
0.760284 0.077301 0.338348
0.910034 0.077118 0.338318
0.989136 0.077393 0.338776
0.000000 0.203552 0.337799
0.077820 0.203888 0.338257
0.203918 0.203918 0.338379
0.338409 0.203888 0.338409
0.467896 0.203918 0.338501
0.608673 0.203857 0.338531
0.760437 0.203705 0.338470
0.909851 0.203583 0.338440
0.988464 0.203949 0.338898
0.000000 0.337891 0.337891
0.077728 0.338318 0.338318
0.203888 0.338409 0.338409
0.338470 0.338470 0.338470
0.467865 0.338562 0.338562
0.608734 0.338593 0.338593
0.760559 0.338531 0.338531
0.909546 0.338531 0.338531
0.987701 0.338989 0.338989
0.000000 0.467529 0.337982
0.077667 0.467865 0.338409
0.203918 0.467896 0.338501
0.338562 0.467865 0.338562
0.467865 0.467865 0.338684
0.608826 0.467773 0.338684
0.760712 0.467621 0.338654
0.909332 0.467499 0.338623
0.986969 0.467865 0.339111
0.000000 0.608185 0.337982
0.077515 0.608582 0.338409
0.203857 0.608673 0.338531
0.338593 0.608734 0.338593
0.467773 0.608826 0.338684
0.608826 0.608826 0.338715
0.760773 0.608765 0.338684
0.908997 0.608704 0.338684
0.986145 0.609161 0.339172
0.000000 0.759796 0.337921
0.077301 0.760284 0.338348
0.203705 0.760437 0.338470
0.338531 0.760559 0.338531
0.467621 0.760712 0.338654
0.608765 0.760773 0.338684
0.760773 0.760773 0.338654
0.908600 0.760803 0.338654
0.985260 0.761353 0.339142
0.000000 0.909943 0.337891
0.077118 0.910034 0.338318
0.203583 0.909851 0.338440
0.338531 0.909546 0.338531
0.467499 0.909332 0.338623
0.608704 0.908997 0.338684
0.760803 0.908600 0.338654
0.908203 0.908203 0.338654
0.984406 0.908325 0.339142
0.000000 0.989532 0.338348
0.077393 0.989136 0.338776
0.203949 0.988464 0.338898
0.338989 0.987701 0.338989
0.467865 0.986969 0.339111
0.609161 0.986145 0.339172
0.761353 0.985260 0.339142
0.908325 0.984406 0.339142
0.984039 0.984039 0.339661
0.000000 0.000000 0.467163
0.077515 0.000000 0.467529
0.203552 0.000000 0.467560
0.337982 0.000000 0.467529
0.467529 0.000000 0.467529
0.608246 0.000000 0.467468
0.759949 0.000000 0.467316
0.909729 0.000000 0.467194
0.988831 0.000000 0.467529
0.000000 0.077515 0.467529
0.077789 0.077789 0.467865
0.203888 0.077759 0.467896
0.338409 0.077667 0.467865
0.467865 0.077606 0.467865
0.608673 0.077454 0.467804
0.760406 0.077240 0.467651
0.909821 0.077057 0.467499
0.988434 0.077332 0.467865
0.000000 0.203552 0.467560
0.077759 0.203888 0.467896
0.203949 0.203949 0.467926
0.338501 0.203918 0.467896
0.467896 0.203918 0.467896
0.608765 0.203857 0.467804
0.760590 0.203705 0.467651
0.909607 0.203583 0.467529
0.987732 0.203949 0.467896
0.000000 0.337982 0.467529
0.077667 0.338409 0.467865
0.203918 0.338501 0.467896
0.338562 0.338562 0.467865
0.467865 0.338684 0.467865
0.608826 0.338684 0.467773
0.760712 0.338654 0.467621
0.909332 0.338623 0.467499
0.986969 0.339111 0.467865
0.000000 0.467529 0.467529
0.077606 0.467865 0.467865
0.203918 0.467896 0.467896
0.338684 0.467865 0.467865
0.467865 0.467865 0.467865
0.608917 0.467773 0.467773
0.760864 0.467621 0.467621
0.909088 0.467499 0.467499
0.986237 0.467865 0.467865
0.000000 0.608246 0.467468
0.077454 0.608673 0.467804
0.203857 0.608765 0.467804
0.338684 0.608826 0.467773
0.467773 0.608917 0.467773
0.608917 0.608917 0.467712
0.760925 0.608856 0.467560
0.908752 0.608795 0.467438
0.985443 0.609253 0.467804
0.000000 0.759949 0.467316
0.077240 0.760406 0.467651
0.203705 0.760590 0.467651
0.338654 0.760712 0.467621
0.467621 0.760864 0.467621
0.608856 0.760925 0.467560
0.760956 0.760956 0.467407
0.908325 0.760986 0.467255
0.984528 0.761536 0.467651
0.000000 0.909729 0.467194
0.077057 0.909821 0.467499
0.203583 0.909607 0.467529
0.338623 0.909332 0.467499
0.467499 0.909088 0.467499
0.608795 0.908752 0.467438
0.760986 0.908325 0.467255
0.907959 0.907959 0.467163
0.983673 0.908081 0.467529
0.000000 0.988831 0.467529
0.077332 0.988434 0.467865
0.203949 0.987732 0.467896
0.339111 0.986969 0.467865
0.467865 0.986237 0.467865
0.609253 0.985443 0.467804
0.761536 0.984528 0.467651
0.908081 0.983673 0.467529
0.983307 0.983307 0.467926
0.000000 0.000000 0.607605
0.077393 0.000000 0.608002
0.203491 0.000000 0.608124
0.337982 0.000000 0.608185
0.467468 0.000000 0.608246
0.608276 0.000000 0.608276
0.760010 0.000000 0.608185
0.909424 0.000000 0.608154
0.988037 0.000000 0.608582
0.000000 0.077393 0.608002
0.077667 0.077667 0.608429
0.203827 0.077606 0.608551
0.338409 0.077515 0.608582
0.467804 0.077454 0.608673
0.608673 0.077332 0.608673
0.760498 0.077118 0.608612
0.909485 0.076904 0.608551
0.987640 0.077209 0.608978
0.000000 0.203491 0.608124
0.077606 0.203827 0.608551
0.203857 0.203857 0.608643
0.338531 0.203857 0.608673
0.467804 0.203857 0.608765
0.608765 0.203796 0.608765
0.760651 0.203644 0.608704
0.909271 0.203522 0.608673
0.986938 0.203888 0.609100
0.000000 0.337982 0.608185
0.077515 0.338409 0.608582
0.203857 0.338531 0.608673
0.338593 0.338593 0.608734
0.467773 0.338684 0.608826
0.608826 0.338715 0.608826
0.760773 0.338684 0.608765
0.908997 0.338684 0.608704
0.986145 0.339172 0.609161
0.000000 0.467468 0.608246
0.077454 0.467804 0.608673
0.203857 0.467804 0.608765
0.338684 0.467773 0.608826
0.467773 0.467773 0.608917
0.608917 0.467712 0.608917
0.760925 0.467560 0.608856
0.908752 0.467438 0.608795
0.985443 0.467804 0.609253
0.000000 0.608276 0.608276
0.077332 0.608673 0.608673
0.203796 0.608765 0.608765
0.338715 0.608826 0.608826
0.467712 0.608917 0.608917
0.608917 0.608917 0.608917
0.761017 0.608856 0.608856
0.908417 0.608826 0.608826
0.984619 0.609283 0.609283
0.000000 0.760010 0.608185
0.077118 0.760498 0.608612
0.203644 0.760651 0.608704
0.338684 0.760773 0.608765
0.467560 0.760925 0.608856
0.608856 0.761017 0.608856
0.761017 0.761017 0.608795
0.907990 0.761078 0.608765
0.983704 0.761627 0.609222
0.000000 0.909424 0.608154
0.076904 0.909485 0.608551
0.203522 0.909271 0.608673
0.338684 0.908997 0.608704
0.467438 0.908752 0.608795
0.608826 0.908417 0.608826
0.761078 0.907990 0.608765
0.907623 0.907623 0.608734
0.982849 0.907745 0.609222
0.000000 0.988037 0.608582
0.077209 0.987640 0.608978
0.203888 0.986938 0.609100
0.339172 0.986145 0.609161
0.467804 0.985443 0.609253
0.609283 0.984619 0.609283
0.761627 0.983704 0.609222
0.907745 0.982849 0.609222
0.982483 0.982483 0.609711
0.000000 0.000000 0.759064
0.077179 0.000000 0.759552
0.203369 0.000000 0.759705
0.337921 0.000000 0.759796
0.467316 0.000000 0.759949
0.608185 0.000000 0.760010
0.760010 0.000000 0.760010
0.909027 0.000000 0.760040
0.987183 0.000000 0.760559
0.000000 0.077179 0.759552
0.077454 0.077454 0.760010
0.203705 0.077393 0.760162
0.338348 0.077301 0.760284
0.467651 0.077240 0.760406
0.608612 0.077118 0.760498
0.760468 0.076904 0.760468
0.909088 0.076691 0.760498
0.986755 0.076996 0.761017
0.000000 0.203369 0.759705
0.077393 0.203705 0.760162
0.203735 0.203735 0.760345
0.338470 0.203705 0.760437
0.467651 0.203705 0.760590
0.608704 0.203644 0.760651
0.760651 0.203491 0.760651
0.908875 0.203369 0.760681
0.986053 0.203766 0.761200
0.000000 0.337921 0.759796
0.077301 0.338348 0.760284
0.203705 0.338470 0.760437
0.338531 0.338531 0.760559
0.467621 0.338654 0.760712
0.608765 0.338684 0.760773
0.760773 0.338654 0.760773
0.908600 0.338654 0.760803
0.985260 0.339142 0.761353
0.000000 0.467316 0.759949
0.077240 0.467651 0.760406
0.203705 0.467651 0.760590
0.338654 0.467621 0.760712
0.467621 0.467621 0.760864
0.608856 0.467560 0.760925
0.760956 0.467407 0.760956
0.908325 0.467255 0.760986
0.984528 0.467651 0.761536
0.000000 0.608185 0.760010
0.077118 0.608612 0.760498
0.203644 0.608704 0.760651
0.338684 0.608765 0.760773
0.467560 0.608856 0.760925
0.608856 0.608856 0.761017
0.761017 0.608795 0.761017
0.907990 0.608765 0.761078
0.983704 0.609222 0.761627
0.000000 0.760010 0.760010
0.076904 0.760468 0.760468
0.203491 0.760651 0.760651
0.338654 0.760773 0.760773
0.467407 0.760956 0.760956
0.608795 0.761017 0.761017
0.761047 0.761047 0.761047
0.907593 0.761108 0.761108
0.982788 0.761658 0.761658
0.000000 0.909027 0.760040
0.076691 0.909088 0.760498
0.203369 0.908875 0.760681
0.338654 0.908600 0.760803
0.467255 0.908325 0.760986
0.608765 0.907990 0.761078
0.761108 0.907593 0.761108
0.907227 0.907227 0.761169
0.981934 0.907349 0.761749
0.000000 0.987183 0.760559
0.076996 0.986755 0.761017
0.203766 0.986053 0.761200
0.339142 0.985260 0.761353
0.467651 0.984528 0.761536
0.609222 0.983704 0.761627
0.761658 0.982788 0.761658
0.907349 0.981934 0.761749
0.981567 0.981567 0.762329
0.000000 0.000000 0.910278
0.076965 0.000000 0.910400
0.203217 0.000000 0.910217
0.337891 0.000000 0.909943
0.467194 0.000000 0.909729
0.608154 0.000000 0.909424
0.760040 0.000000 0.909027
0.908661 0.000000 0.908661
0.986328 0.000000 0.908783
0.000000 0.076965 0.910400
0.077240 0.077240 0.910522
0.203552 0.077209 0.910309
0.338318 0.077118 0.910034
0.467499 0.077057 0.909821
0.608551 0.076904 0.909485
0.760498 0.076691 0.909088
0.908722 0.076508 0.908722
0.985901 0.076813 0.908844
0.000000 0.203217 0.910217
0.077209 0.203552 0.910309
0.203613 0.203613 0.910095
0.338440 0.203583 0.909851
0.467529 0.203583 0.909607
0.608673 0.203522 0.909271
0.760681 0.203369 0.908875
0.908508 0.203278 0.908508
0.985199 0.203644 0.908600
0.000000 0.337891 0.909943
0.077118 0.338318 0.910034
0.203583 0.338440 0.909851
0.338531 0.338531 0.909546
0.467499 0.338623 0.909332
0.608704 0.338684 0.908997
0.760803 0.338654 0.908600
0.908203 0.338654 0.908203
0.984406 0.339142 0.908325
0.000000 0.467194 0.909729
0.077057 0.467499 0.909821
0.203583 0.467529 0.909607
0.338623 0.467499 0.909332
0.467499 0.467499 0.909088
0.608795 0.467438 0.908752
0.760986 0.467255 0.908325
0.907959 0.467163 0.907959
0.983673 0.467529 0.908081
0.000000 0.608154 0.909424
0.076904 0.608551 0.909485
0.203522 0.608673 0.909271
0.338684 0.608704 0.908997
0.467438 0.608795 0.908752
0.608826 0.608826 0.908417
0.761078 0.608765 0.907990
0.907623 0.608734 0.907623
0.982849 0.609222 0.907745
0.000000 0.760040 0.909027
0.076691 0.760498 0.909088
0.203369 0.760681 0.908875
0.338654 0.760803 0.908600
0.467255 0.760986 0.908325
0.608765 0.761078 0.907990
0.761108 0.761108 0.907593
0.907227 0.761169 0.907227
0.981934 0.761749 0.907349
0.000000 0.908661 0.908661
0.076508 0.908722 0.908722
0.203278 0.908508 0.908508
0.338654 0.908203 0.908203
0.467163 0.907959 0.907959
0.608734 0.907623 0.907623
0.761169 0.907227 0.907227
0.906860 0.906860 0.906860
0.981079 0.906982 0.906982
0.000000 0.986328 0.908783
0.076813 0.985901 0.908844
0.203644 0.985199 0.908600
0.339142 0.984406 0.908325
0.467529 0.983673 0.908081
0.609222 0.982849 0.907745
0.761749 0.981934 0.907349
0.906982 0.981079 0.906982
0.980713 0.980713 0.907104
0.000000 0.000000 0.991272
0.077240 0.000000 0.990936
0.203583 0.000000 0.990265
0.338348 0.000000 0.989532
0.467529 0.000000 0.988831
0.608582 0.000000 0.988037
0.760559 0.000000 0.987183
0.908783 0.000000 0.986328
0.985962 0.000000 0.985962
0.000000 0.077240 0.990936
0.077515 0.077515 0.990570
0.203918 0.077484 0.989899
0.338776 0.077393 0.989136
0.467865 0.077332 0.988434
0.608978 0.077209 0.987640
0.761017 0.076996 0.986755
0.908844 0.076813 0.985901
0.985535 0.077148 0.985535
0.000000 0.203583 0.990265
0.077484 0.203918 0.989899
0.203949 0.203949 0.989197
0.338898 0.203949 0.988464
0.467896 0.203949 0.987732
0.609100 0.203888 0.986938
0.761200 0.203766 0.986053
0.908600 0.203644 0.985199
0.984802 0.204041 0.984802
0.000000 0.338348 0.989532
0.077393 0.338776 0.989136
0.203949 0.338898 0.988464
0.338989 0.338989 0.987701
0.467865 0.339111 0.986969
0.609161 0.339172 0.986145
0.761353 0.339142 0.985260
0.908325 0.339142 0.984406
0.984039 0.339661 0.984039
0.000000 0.467529 0.988831
0.077332 0.467865 0.988434
0.203949 0.467896 0.987732
0.339111 0.467865 0.986969
0.467865 0.467865 0.986237
0.609253 0.467804 0.985443
0.761536 0.467651 0.984528
0.908081 0.467529 0.983673
0.983307 0.467926 0.983307
0.000000 0.608582 0.988037
0.077209 0.608978 0.987640
0.203888 0.609100 0.986938
0.339172 0.609161 0.986145
0.467804 0.609253 0.985443
0.609283 0.609283 0.984619
0.761627 0.609222 0.983704
0.907745 0.609222 0.982849
0.982483 0.609711 0.982483
0.000000 0.760559 0.987183
0.076996 0.761017 0.986755
0.203766 0.761200 0.986053
0.339142 0.761353 0.985260
0.467651 0.761536 0.984528
0.609222 0.761627 0.983704
0.761658 0.761658 0.982788
0.907349 0.761749 0.981934
0.981567 0.762329 0.981567
0.000000 0.908783 0.986328
0.076813 0.908844 0.985901
0.203644 0.908600 0.985199
0.339142 0.908325 0.984406
0.467529 0.908081 0.983673
0.609222 0.907745 0.982849
0.761749 0.907349 0.981934
0.906982 0.906982 0.981079
0.980713 0.907104 0.980713
0.000000 0.985962 0.985962
0.077148 0.985535 0.985535
0.204041 0.984802 0.984802
0.339661 0.984039 0.984039
0.467926 0.983307 0.983307
0.609711 0.982483 0.982483
0.762329 0.981567 0.981567
0.907104 0.980713 0.980713
0.980347 0.980347 0.980347
