Kodak Vision 200T (5274) - Look.cube
# Created by Benjamin (IWLTBAP) : http://luts.iwltbap.com
# Copyright: (C) Copyright 2010-2017 Triune Films and IWLTBAP SAS
# Cannot be resold, shared or otherwise redistributed
TITLE "Film Print Emulation LUTs Pack (Rec.709, sRGB, DCI-P3)"
LUT_3D_SIZE 9
0.000000 0.000000 0.000000
0.049652 0.008667 0.000000
0.142273 0.022064 0.000000
0.225525 0.031555 0.000000
0.283844 0.044006 0.000000
0.324127 0.057434 0.000000
0.355469 0.067871 0.000000
0.384308 0.077667 0.000000
0.414825 0.080536 0.000000
0.000793 0.029968 0.003143
0.079102 0.059845 0.000000
0.213684 0.088287 0.000000
0.307159 0.110413 0.000000
0.370819 0.128723 0.000000
0.418365 0.140869 0.000000
0.457001 0.149384 0.000000
0.492889 0.156433 0.000000
0.525848 0.158203 0.000000
0.000000 0.084717 0.007874
0.082397 0.131500 0.000793
0.260040 0.188812 0.000000
0.381805 0.215149 0.000000
0.457001 0.229248 0.000000
0.515503 0.239105 0.000000
0.564545 0.246674 0.000000
0.607513 0.252777 0.000000
0.645111 0.254120 0.000000
0.000000 0.153870 0.011810
0.080536 0.207764 0.002380
0.286438 0.286438 0.000000
0.442535 0.322418 0.000000
0.529480 0.333282 0.000000
0.594360 0.341309 0.000000
0.651978 0.349121 0.000000
0.702667 0.353821 0.000000
0.747009 0.353821 0.000000
0.000000 0.231262 0.008667
0.072601 0.287872 0.003174
0.282257 0.368622 0.000000
0.460907 0.415802 0.000000
0.570801 0.433136 0.000000
0.647827 0.440155 0.000000
0.713257 0.446533 0.000000
0.771545 0.450073 0.000000
0.823090 0.448944 0.000000
0.000000 0.316833 0.002380
0.053650 0.373413 0.003174
0.246674 0.441315 0.000000
0.434235 0.490326 0.000000
0.573853 0.520752 0.000000
0.675537 0.535461 0.000000
0.753357 0.542175 0.000000
0.819336 0.544434 0.000000
0.878479 0.542419 0.000000
0.000000 0.412567 0.000000
0.031525 0.466248 0.002380
0.195953 0.519745 0.000793
0.387756 0.563446 0.000000
0.549744 0.601257 0.000000
0.678253 0.627136 0.000000
0.773865 0.638641 0.000000
0.849304 0.640808 0.000793
0.915588 0.638733 0.000793
0.000000 0.518951 0.000000
0.021271 0.569061 0.006287
0.152557 0.616577 0.006317
0.350372 0.651337 0.000793
0.522919 0.687836 0.000000
0.666656 0.719116 0.001556
0.778137 0.737305 0.003937
0.864014 0.741486 0.004730
0.938141 0.739868 0.004730
0.000000 0.636078 0.000000
0.022064 0.683807 0.011047
0.122040 0.733459 0.020508
0.325348 0.758179 0.006317
0.505157 0.789337 0.004730
0.655182 0.819580 0.006287
0.777344 0.841736 0.009460
0.872345 0.848694 0.011047
0.952759 0.848785 0.011841
0.000000 0.000000 0.018921
0.034698 0.010254 0.038635
0.120728 0.027588 0.042511
0.206085 0.040222 0.035492
0.267517 0.045441 0.026794
0.311829 0.052368 0.022858
0.345642 0.061066 0.023651
0.374939 0.068390 0.025238
0.406311 0.070007 0.026794
0.000000 0.037048 0.046875
0.054932 0.063385 0.051666
0.188812 0.095093 0.049652
0.298248 0.111847 0.041748
0.365326 0.124634 0.035492
0.412140 0.136261 0.033112
0.448486 0.145874 0.034698
0.481140 0.150208 0.036255
0.512726 0.147247 0.036255
0.000000 0.093842 0.067291
0.051025 0.126221 0.060455
0.222412 0.186920 0.048981
0.372253 0.220856 0.040222
0.453735 0.235870 0.035492
0.512085 0.245605 0.033905
0.559265 0.252014 0.036255
0.598785 0.253540 0.038635
0.633301 0.249146 0.040985
0.000000 0.162415 0.080994
0.045441 0.196350 0.067841
0.226715 0.274292 0.044739
0.416229 0.328461 0.033112
0.522461 0.345520 0.032318
0.591705 0.353638 0.033112
0.649170 0.359344 0.035492
0.698730 0.360809 0.037842
0.741821 0.356659 0.040222
0.000000 0.238159 0.086060
0.039429 0.274841 0.074158
0.220673 0.352295 0.043243
0.427887 0.417389 0.026794
0.560181 0.443939 0.029968
0.643250 0.452484 0.035492
0.709778 0.457947 0.038635
0.768433 0.459747 0.040222
0.820740 0.456573 0.040985
0.000000 0.322540 0.085602
0.029968 0.362000 0.081482
0.198730 0.428986 0.046173
0.408508 0.493622 0.023651
0.565704 0.531891 0.026001
0.671539 0.548218 0.036255
0.750549 0.553741 0.041748
0.817871 0.555359 0.042511
0.878326 0.553711 0.041748
0.000000 0.417816 0.085602
0.019714 0.458466 0.090027
0.166290 0.514526 0.056183
0.372437 0.570587 0.023651
0.545746 0.614105 0.022064
0.676758 0.641052 0.034698
0.773071 0.651245 0.044739
0.850525 0.653259 0.044739
0.918304 0.652771 0.042511
0.000000 0.525543 0.086517
0.017334 0.567169 0.097107
0.133911 0.617188 0.072601
0.338135 0.660278 0.029968
0.518555 0.701324 0.021271
0.666107 0.734161 0.033112
0.779480 0.751953 0.046875
0.868286 0.756836 0.048981
0.944519 0.757324 0.045441
0.000000 0.645660 0.086517
0.022064 0.689270 0.102631
0.109711 0.738586 0.090027
0.310852 0.767151 0.040222
0.496216 0.802460 0.024445
0.653076 0.834351 0.030731
0.779663 0.857544 0.046173
0.878326 0.867554 0.054291
0.958740 0.869965 0.052979
0.000000 0.003937 0.067841
0.020508 0.009460 0.086945
0.101868 0.027588 0.108978
0.201080 0.052338 0.112549
0.271973 0.064514 0.101868
0.317535 0.066742 0.090454
0.352417 0.066742 0.085175
0.384491 0.067322 0.086060
0.417572 0.068390 0.088715
0.000000 0.045441 0.101074
0.032318 0.067291 0.119751
0.143402 0.104156 0.142273
0.270569 0.131195 0.144501
0.353119 0.140015 0.130280
0.404144 0.141998 0.117065
0.440399 0.143402 0.109344
0.472412 0.142548 0.105286
0.504974 0.137146 0.102631
0.000000 0.104523 0.133301
0.030731 0.130280 0.144775
0.168427 0.190857 0.164612
0.343109 0.233429 0.168915
0.447571 0.245758 0.157440
0.507904 0.251129 0.145325
0.549774 0.253845 0.136841
0.582977 0.250366 0.130280
0.615753 0.239929 0.124969
0.000000 0.176910 0.161194
0.022858 0.197144 0.161194
0.158447 0.264069 0.167236
0.367462 0.332855 0.172150
0.507050 0.358429 0.172394
0.583557 0.367462 0.166534
0.640381 0.370911 0.159698
0.686768 0.367065 0.152557
0.727417 0.357056 0.147797
0.000000 0.254883 0.178253
0.018921 0.275940 0.175812
0.149658 0.335571 0.166779
0.361603 0.411713 0.164368
0.527039 0.453430 0.174225
0.626099 0.466980 0.179810
0.697937 0.472473 0.177155
0.757965 0.470703 0.171234
0.811096 0.463745 0.165344
0.000000 0.339722 0.186279
0.014191 0.364929 0.188385
0.137726 0.415375 0.171692
0.345093 0.484924 0.159210
0.525421 0.535522 0.167725
0.647675 0.557953 0.184357
0.735382 0.565521 0.187958
0.806854 0.567230 0.184784
0.869690 0.564789 0.180023
0.000000 0.435120 0.191498
0.011810 0.464661 0.200897
0.120728 0.508881 0.187134
0.319336 0.564514 0.162170
0.506470 0.616272 0.161438
0.650574 0.647461 0.180908
0.756592 0.660339 0.192505
0.839630 0.664093 0.191284
0.910339 0.665375 0.190033
0.000000 0.542664 0.198334
0.014191 0.576447 0.214417
0.102234 0.618591 0.210938
0.294891 0.657715 0.173309
0.481171 0.703552 0.155151
0.639191 0.739197 0.173065
0.763153 0.759583 0.193115
0.858643 0.766602 0.195953
0.938141 0.769531 0.195343
0.000000 0.662903 0.207581
0.021271 0.700378 0.228912
0.085602 0.743683 0.235565
0.271545 0.766296 0.190247
0.458130 0.803497 0.155151
0.625000 0.837799 0.161926
0.762848 0.863647 0.188995
0.869629 0.876404 0.203613
0.955963 0.881042 0.205139
0.000000 0.009460 0.114319
0.011047 0.010254 0.123352
0.078613 0.022858 0.150726
0.191895 0.051025 0.178253
0.287476 0.073639 0.185638
0.343964 0.081940 0.178711
0.378387 0.080536 0.170074
0.405609 0.075684 0.165100
0.433777 0.073151 0.163879
0.000000 0.053650 0.152832
0.019714 0.070007 0.169128
0.104156 0.100311 0.200104
0.241974 0.136841 0.229431
0.350464 0.158966 0.232758
0.412048 0.161438 0.219788
0.450836 0.155670 0.205902
0.482269 0.147522 0.195557
0.513031 0.139740 0.188171
0.000000 0.113251 0.192505
0.023651 0.138000 0.210571
0.124329 0.192719 0.245422
0.288788 0.247925 0.277557
0.419525 0.272644 0.281708
0.494812 0.272797 0.266510
0.541992 0.264801 0.248077
0.576538 0.252625 0.231110
0.608948 0.236694 0.216217
0.000000 0.189209 0.233093
0.018127 0.206085 0.241821
0.116364 0.264374 0.267059
0.310730 0.340485 0.299622
0.480804 0.376617 0.311798
0.576660 0.382080 0.304382
0.636230 0.379120 0.288910
0.677551 0.370636 0.270569
0.712891 0.356049 0.253235
0.000000 0.273468 0.266205
0.012604 0.287628 0.270844
0.105652 0.332520 0.277710
0.298767 0.408844 0.299622
0.492279 0.462708 0.318420
0.618713 0.479095 0.324554
0.696045 0.483856 0.317383
0.753174 0.480530 0.303558
0.800964 0.471222 0.288513
0.000000 0.363861 0.287750
0.009460 0.382172 0.294647
0.103760 0.418854 0.291840
0.290070 0.480804 0.301086
0.477753 0.538239 0.316925
0.623047 0.569244 0.331085
0.724731 0.580719 0.333069
0.799438 0.583649 0.325684
0.863098 0.580383 0.315643
0.000000 0.463013 0.302094
0.011047 0.486115 0.313202
0.098724 0.520325 0.311554
0.277008 0.564789 0.310028
0.458771 0.616180 0.317383
0.615784 0.654572 0.329773
0.738525 0.674225 0.336945
0.830322 0.681030 0.334808
0.905090 0.683472 0.332520
0.000000 0.570953 0.313202
0.015778 0.599274 0.329987
0.089600 0.634766 0.336426
0.260315 0.662537 0.324554
0.435242 0.703705 0.319000
0.601288 0.743408 0.322968
0.741943 0.769897 0.333710
0.849060 0.781036 0.336212
0.933716 0.785706 0.337494
0.000793 0.688782 0.324341
0.022858 0.721069 0.344788
0.077148 0.759338 0.360718
0.239594 0.772827 0.341309
0.413879 0.802887 0.322083
0.586792 0.839905 0.313568
0.739990 0.870544 0.325684
0.859741 0.886932 0.337799
0.952850 0.893677 0.342896
0.000000 0.017334 0.151794
0.007080 0.014984 0.154388
0.057434 0.019714 0.176239
0.165802 0.043243 0.213867
0.283569 0.074158 0.242462
0.362427 0.093018 0.251129
0.405548 0.099121 0.248840
0.431946 0.095490 0.242767
0.452789 0.085175 0.233765
0.000793 0.063934 0.199921
0.014984 0.074158 0.209259
0.073639 0.094666 0.232605
0.197937 0.125916 0.270996
0.334381 0.160950 0.300354
0.422699 0.176910 0.304138
0.470062 0.175354 0.295135
0.501190 0.165802 0.283447
0.527100 0.151520 0.270294
0.000000 0.123016 0.246063
0.020508 0.144226 0.260620
0.092163 0.187958 0.290833
0.233093 0.237671 0.330109
0.385376 0.278625 0.360229
0.487793 0.293884 0.363190
0.545013 0.286560 0.348511
0.583466 0.269043 0.329437
0.616150 0.247284 0.310028
0.000000 0.197754 0.292480
0.019714 0.217316 0.304626
0.099915 0.269470 0.333069
0.259003 0.338348 0.373199
0.425537 0.388733 0.404144
0.542603 0.407471 0.410614
0.615082 0.401978 0.396301
0.665375 0.383728 0.373199
0.706299 0.359833 0.348816
0.000000 0.285675 0.337158
0.013397 0.298645 0.345825
0.087402 0.337067 0.360229
0.251740 0.407898 0.392059
0.444153 0.470490 0.423920
0.589569 0.495636 0.436035
0.681793 0.496704 0.430023
0.744476 0.487061 0.412140
0.790619 0.472839 0.390015
0.000000 0.384216 0.374359
0.009460 0.399658 0.385376
0.084717 0.426819 0.388641
0.247284 0.481995 0.404846
0.434998 0.541229 0.430511
0.597839 0.578491 0.446655
0.722229 0.589844 0.450531
0.803833 0.591064 0.442688
0.865051 0.587769 0.429169
0.000000 0.492279 0.402435
0.012604 0.511505 0.416046
0.091309 0.537628 0.417969
0.255920 0.574890 0.422302
0.426666 0.620148 0.438995
0.582458 0.660828 0.452026
0.723114 0.687134 0.459564
0.827942 0.696808 0.458618
0.905823 0.701447 0.453522
0.000793 0.603912 0.421570
0.018921 0.627411 0.438385
0.092163 0.656433 0.445465
0.253387 0.678192 0.440857
0.410950 0.710815 0.448486
0.567322 0.748657 0.454102
0.717590 0.781494 0.459442
0.839111 0.798065 0.462219
0.931946 0.805054 0.462341
0.003143 0.718781 0.435333
0.026001 0.746918 0.455139
0.082397 0.780273 0.471069
0.237030 0.789154 0.458710
0.390350 0.811157 0.455231
0.553131 0.844482 0.452240
0.714081 0.879333 0.453308
0.848022 0.899963 0.461487
0.950500 0.909424 0.468048
0.001556 0.024445 0.180267
0.006287 0.020508 0.179169
0.045441 0.020508 0.194550
0.139435 0.036255 0.231110
0.260773 0.067291 0.268341
0.361816 0.096313 0.292877
0.420593 0.112579 0.300262
0.451813 0.115356 0.298035
0.472351 0.107544 0.289948
0.002350 0.073120 0.238464
0.014191 0.079559 0.242767
0.056183 0.091309 0.256653
0.156952 0.112915 0.290588
0.296783 0.149139 0.331085
0.413971 0.179596 0.354034
0.480042 0.187958 0.355530
0.515076 0.181549 0.346863
0.540436 0.167480 0.333832
0.000793 0.133911 0.293488
0.019714 0.148315 0.302094
0.072083 0.182220 0.323761
0.185638 0.221191 0.358246
0.338013 0.262512 0.397644
0.471039 0.295654 0.422150
0.549561 0.301086 0.420898
0.591614 0.285004 0.405334
0.623444 0.260468 0.385284
0.000000 0.207397 0.345093
0.022064 0.225861 0.355133
0.089142 0.270447 0.379120
0.218719 0.327911 0.415558
0.374146 0.376221 0.451721
0.513184 0.411041 0.477631
0.607788 0.419617 0.479431
0.664185 0.401550 0.461182
0.706512 0.371582 0.435883
0.000000 0.293762 0.394928
0.018127 0.308838 0.404327
0.091309 0.347595 0.421234
0.234741 0.409943 0.453735
0.401306 0.467468 0.489044
0.542480 0.504547 0.514008
0.649170 0.517548 0.520142
0.722351 0.506561 0.505371
0.777893 0.482422 0.480743
0.000000 0.396057 0.442719
0.011810 0.411133 0.455536
0.082886 0.435730 0.462219
0.228760 0.486786 0.481171
0.404999 0.543365 0.511139
0.562988 0.586151 0.535400
0.694275 0.604431 0.545441
0.786804 0.603790 0.540344
0.855652 0.594910 0.525055
0.000000 0.511627 0.484619
0.014984 0.529633 0.500275
0.086517 0.549805 0.504608
0.240540 0.584412 0.509918
0.407410 0.627563 0.529999
0.558411 0.667297 0.548981
0.706177 0.696655 0.560425
0.830231 0.706085 0.563446
0.917480 0.708923 0.558929
0.003143 0.629578 0.514465
0.022858 0.650940 0.532806
0.097534 0.674713 0.540283
0.257385 0.695007 0.537384
0.408752 0.724731 0.549042
0.551208 0.757446 0.561401
0.694885 0.791351 0.569641
0.830078 0.812622 0.574860
0.937469 0.820801 0.576324
0.007080 0.745361 0.534515
0.029968 0.770630 0.555878
0.097107 0.801392 0.570953
0.254272 0.809631 0.561493
0.396301 0.827881 0.564392
0.540802 0.854980 0.571014
0.691071 0.888855 0.575470
0.831543 0.914551 0.582794
0.946899 0.929016 0.593201
0.002380 0.028381 0.200714
0.007080 0.022888 0.197174
0.039429 0.021301 0.208740
0.122711 0.031525 0.241669
0.236542 0.057434 0.279205
0.345734 0.090454 0.311218
0.420685 0.113983 0.328461
0.459595 0.121735 0.330902
0.481293 0.116394 0.323883
0.003937 0.079559 0.268341
0.014984 0.083801 0.270020
0.047577 0.089600 0.277710
0.129028 0.102631 0.304138
0.258728 0.133301 0.345398
0.388733 0.168915 0.379120
0.475647 0.188599 0.391968
0.519958 0.186920 0.387848
0.544800 0.172150 0.375183
0.002380 0.142548 0.333405
0.020508 0.152832 0.338440
0.061646 0.178467 0.353424
0.150726 0.206451 0.379761
0.289673 0.240875 0.418121
0.437347 0.280243 0.453827
0.541046 0.300110 0.467346
0.593628 0.290070 0.457672
0.623962 0.263092 0.437286
0.000000 0.216583 0.392334
0.023651 0.230255 0.398773
0.078125 0.266632 0.417450
0.183929 0.314850 0.448853
0.325562 0.356232 0.483154
0.476288 0.395172 0.517548
0.596375 0.419434 0.536133
0.664551 0.409180 0.527161
0.704773 0.375854 0.502502
0.000000 0.302338 0.448212
0.022858 0.318207 0.456146
0.094238 0.354126 0.471649
0.219086 0.407318 0.501526
0.364471 0.455750 0.534271
0.503815 0.493011 0.564056
0.629211 0.519623 0.585815
0.716187 0.517944 0.583344
0.773499 0.491882 0.562408
0.000000 0.403137 0.501251
0.016541 0.419525 0.513824
0.095093 0.446381 0.521881
0.234253 0.494690 0.543671
0.391602 0.544037 0.573456
0.531830 0.584137 0.601654
0.656738 0.612213 0.623108
0.757324 0.620361 0.627625
0.834106 0.609863 0.615692
0.000793 0.520691 0.552307
0.017334 0.538666 0.568787
0.091736 0.558258 0.574677
0.241821 0.593475 0.583862
0.401031 0.634979 0.605957
0.544159 0.672668 0.629852
0.681061 0.705078 0.649719
0.806274 0.720032 0.659088
0.901611 0.721924 0.657410
0.005524 0.643066 0.593567
0.024445 0.663452 0.612823
0.097534 0.683899 0.621857
0.259003 0.706299 0.621674
0.410950 0.737427 0.636169
0.547577 0.768341 0.653687
0.680969 0.800598 0.668945
0.820007 0.824280 0.679108
0.945404 0.831879 0.685394
0.010254 0.762512 0.623596
0.033112 0.786102 0.645691
0.107880 0.814697 0.660706
0.274994 0.826447 0.654877
0.416626 0.846497 0.662964
0.551361 0.872498 0.675751
0.686188 0.901611 0.688080
0.818359 0.929443 0.700317
0.942444 0.949707 0.716980
0.003174 0.029968 0.214447
0.007874 0.022888 0.210022
0.037842 0.019714 0.220673
0.114655 0.026794 0.250977
0.219086 0.047577 0.285950
0.325470 0.078125 0.318329
0.406982 0.103790 0.340485
0.456146 0.116730 0.348022
0.484283 0.116394 0.345337
0.005524 0.081940 0.290955
0.016541 0.084259 0.291718
0.044006 0.086060 0.295776
0.112213 0.093842 0.317261
0.228424 0.117065 0.354828
0.358337 0.150726 0.391449
0.457214 0.175568 0.411469
0.514526 0.181122 0.413635
0.545990 0.171478 0.404572
0.004730 0.147797 0.366211
0.022858 0.155914 0.370270
0.056824 0.174683 0.381073
0.127472 0.192932 0.400330
0.248383 0.217651 0.433289
0.397095 0.254883 0.471893
0.517029 0.281860 0.493958
0.585876 0.282379 0.492798
0.623322 0.261353 0.476685
0.000793 0.223114 0.433838
0.025238 0.232941 0.438385
0.071564 0.262787 0.453949
0.158722 0.301971 0.480591
0.282898 0.334045 0.510162
0.433838 0.368927 0.544983
0.570404 0.399475 0.571686
0.655762 0.401398 0.573303
0.702942 0.374451 0.554169
0.000000 0.309326 0.497223
0.026001 0.322632 0.503082
0.091309 0.353424 0.516724
0.197540 0.399292 0.544373
0.327911 0.441010 0.575195
0.466492 0.473816 0.604675
0.604950 0.503998 0.632233
0.707458 0.513123 0.640900
0.771820 0.493896 0.627289
0.000000 0.407928 0.555603
0.022064 0.426025 0.567261
0.106415 0.453522 0.576569
0.234894 0.497620 0.599792
0.374542 0.540527 0.628937
0.505707 0.575470 0.656860
0.631592 0.603943 0.682007
0.742737 0.620361 0.696686
0.828339 0.616638 0.693665
0.000793 0.523315 0.611816
0.020508 0.542297 0.628326
0.107513 0.564789 0.635315
0.255188 0.601349 0.650146
0.403015 0.640381 0.674805
0.537048 0.675171 0.700806
0.660797 0.706512 0.725586
0.775543 0.728271 0.742889
0.874512 0.736908 0.747925
0.006317 0.646210 0.661926
0.026001 0.666840 0.681702
0.104919 0.688354 0.692291
0.269043 0.714722 0.697784
0.417786 0.746704 0.716003
0.549866 0.777161 0.737122
0.676331 0.808105 0.758698
0.804626 0.834595 0.776337
0.926270 0.848511 0.788055
0.011841 0.768188 0.702515
0.033905 0.791168 0.725098
0.112213 0.819336 0.741821
0.291718 0.837891 0.741974
0.438049 0.862549 0.755188
0.569641 0.888794 0.772217
0.695862 0.915100 0.789795
0.818848 0.942505 0.807281
0.944855 0.962891 0.827087
0.003937 0.028381 0.227234
0.008667 0.018921 0.219635
0.038635 0.016541 0.231781
0.111481 0.022064 0.261078
0.208710 0.038635 0.293762
0.308502 0.065063 0.323456
0.388306 0.086975 0.344604
0.442322 0.100708 0.356049
0.482147 0.108276 0.361237
0.007111 0.080536 0.310150
0.017334 0.080994 0.309784
0.041748 0.079559 0.312256
0.100677 0.084259 0.330322
0.204926 0.102631 0.364471
0.330109 0.130585 0.399811
0.432343 0.154388 0.422058
0.499603 0.165588 0.429718
0.544312 0.167023 0.428589
0.007111 0.148865 0.395264
0.025238 0.156189 0.399109
0.054291 0.169128 0.407745
0.110413 0.179138 0.420898
0.216400 0.196960 0.449005
0.360718 0.227570 0.486389
0.486847 0.253998 0.511169
0.568848 0.262939 0.517029
0.621948 0.258575 0.510986
0.003174 0.225708 0.471771
0.028381 0.234406 0.476440
0.069458 0.260193 0.491425
0.141449 0.290833 0.514374
0.249603 0.313080 0.538879
0.395508 0.340271 0.570190
0.539215 0.369598 0.598175
0.637634 0.380066 0.606964
0.701416 0.372833 0.600006
0.000000 0.312988 0.543549
0.029175 0.322968 0.547913
0.086517 0.350677 0.561493
0.180023 0.392242 0.588928
0.299866 0.428345 0.619171
0.436096 0.454346 0.646088
0.579620 0.481079 0.672241
0.691833 0.496155 0.685974
0.770691 0.493958 0.683807
0.000000 0.411896 0.609009
0.028381 0.430603 0.619507
0.112213 0.457520 0.630676
0.227753 0.497559 0.655273
0.355133 0.537170 0.685699
0.484131 0.567963 0.713684
0.612793 0.592041 0.736755
0.729279 0.610657 0.754120
0.825653 0.618866 0.760895
0.000793 0.523071 0.668976
0.024445 0.544373 0.685883
0.123352 0.570007 0.695038
0.263947 0.606842 0.714966
0.401215 0.643982 0.742554
0.529633 0.676422 0.769897
0.649780 0.703796 0.793884
0.760895 0.725281 0.812927
0.865753 0.741974 0.826172
0.005524 0.643921 0.725098
0.027588 0.665894 0.745544
0.122375 0.691986 0.757843
0.283966 0.721558 0.769958
0.425629 0.753174 0.792053
0.555847 0.783813 0.816589
0.679871 0.813416 0.841064
0.794769 0.840088 0.863251
0.901672 0.861633 0.881226
0.011841 0.768250 0.775635
0.034698 0.791809 0.798828
0.122040 0.821808 0.817169
0.306671 0.845520 0.824158
0.453369 0.873413 0.841675
0.583923 0.899658 0.861847
0.708801 0.926331 0.883087
0.827484 0.953125 0.905029
0.942383 0.972107 0.926544
