Kodak Vision 500T (5263) - Only color.cube
# Created by Benjamin (IWLTBAP) : http://luts.iwltbap.com
# Copyright: (C) Copyright 2010-2017 Triune Films and IWLTBAP SAS
# Cannot be resold, shared or otherwise redistributed
TITLE "Film Print Emulation LUTs Pack (Rec.709, sRGB, DCI-P3)"
LUT_3D_SIZE 9
0.000000 0.000000 0.000000
0.123840 0.000000 0.001740
0.234467 0.025787 0.003540
0.344116 0.058716 0.005066
0.446991 0.090179 0.006622
0.555450 0.123688 0.008331
0.669464 0.163361 0.027344
0.806915 0.212708 0.069122
0.998352 0.267792 0.105865
0.000000 0.109955 0.001343
0.099121 0.113159 0.002869
0.241516 0.119995 0.004578
0.350067 0.132324 0.005981
0.449493 0.149689 0.009491
0.558197 0.173279 0.021851
0.673248 0.203796 0.047699
0.812408 0.246490 0.080475
0.998383 0.291077 0.115204
0.036652 0.203766 0.003235
0.107300 0.199860 0.010315
0.210236 0.213104 0.028809
0.350800 0.233124 0.015778
0.457214 0.244812 0.032104
0.562439 0.258728 0.071350
0.681305 0.281799 0.086945
0.828705 0.314209 0.111511
0.998474 0.348267 0.138458
0.092407 0.312988 0.057526
0.139282 0.307068 0.066376
0.214813 0.300903 0.077026
0.310608 0.310394 0.093628
0.448395 0.338867 0.093811
0.572388 0.358521 0.106476
0.694519 0.379791 0.134674
0.843994 0.398956 0.148132
0.998566 0.422150 0.161804
0.154266 0.427887 0.110413
0.188568 0.422577 0.115204
0.249908 0.410034 0.125092
0.326141 0.401855 0.136932
0.419312 0.414276 0.153229
0.555511 0.445587 0.159607
0.703796 0.477112 0.172455
0.861877 0.496246 0.189545
0.998688 0.514648 0.205750
0.237640 0.561707 0.163727
0.261139 0.556854 0.166229
0.309753 0.545380 0.171722
0.373993 0.528534 0.183228
0.445862 0.517487 0.198456
0.539703 0.528381 0.214447
0.673065 0.568634 0.228241
0.869812 0.600037 0.236450
0.998840 0.618347 0.251648
0.324615 0.704895 0.219788
0.342316 0.702484 0.220673
0.380249 0.695801 0.223297
0.433350 0.679749 0.232147
0.497253 0.656586 0.246216
0.572418 0.641724 0.264923
0.666595 0.648193 0.281403
0.816833 0.684692 0.293091
0.998993 0.722656 0.299652
0.403046 0.866119 0.279205
0.416046 0.864899 0.281494
0.445770 0.857819 0.284088
0.493927 0.845551 0.287598
0.554169 0.827515 0.293976
0.621643 0.793732 0.311279
0.696411 0.767487 0.330627
0.804321 0.771362 0.346344
0.999084 0.804413 0.349518
0.473938 0.998901 0.334106
0.482758 0.998901 0.334106
0.504333 0.998932 0.334503
0.542816 0.998962 0.336975
0.596558 0.999023 0.341187
0.659393 0.999084 0.346832
0.734558 0.964417 0.363800
0.827362 0.924591 0.382996
0.977020 0.921448 0.395203
0.000000 0.000000 0.067841
0.114929 0.000000 0.112610
0.249939 0.000000 0.123993
0.341309 0.062988 0.097473
0.446106 0.092285 0.103058
0.554901 0.126617 0.117981
0.670227 0.165192 0.130981
0.811127 0.210419 0.145569
0.998383 0.261230 0.163635
0.000000 0.114655 0.134216
0.102966 0.115356 0.156708
0.240295 0.122650 0.081909
0.349030 0.134521 0.097351
0.449829 0.152557 0.115173
0.558624 0.176392 0.127228
0.674011 0.207245 0.138885
0.816650 0.245209 0.152588
0.998413 0.285767 0.168640
0.022247 0.209381 0.100739
0.102997 0.212219 0.110321
0.205536 0.218567 0.130859
0.354858 0.238281 0.114258
0.458557 0.249664 0.126373
0.563629 0.264099 0.148376
0.682220 0.285767 0.158600
0.830048 0.313019 0.170868
0.998474 0.344513 0.185913
0.077362 0.313568 0.130463
0.129913 0.307770 0.132080
0.207184 0.301758 0.138367
0.312958 0.319183 0.156525
0.455292 0.349365 0.156586
0.576874 0.365784 0.165924
0.692993 0.381042 0.188446
0.838989 0.398285 0.198730
0.998596 0.421692 0.210632
0.148743 0.429596 0.164246
0.184052 0.424438 0.166748
0.247681 0.414734 0.172241
0.327148 0.408905 0.181519
0.419006 0.418793 0.196411
0.557007 0.448090 0.202179
0.697571 0.473114 0.213318
0.853455 0.493561 0.232117
0.998688 0.511871 0.246124
0.226807 0.554565 0.204285
0.251129 0.549835 0.205475
0.302856 0.540955 0.211151
0.367310 0.524200 0.220825
0.439026 0.513824 0.233704
0.534332 0.526550 0.249420
0.660828 0.561066 0.259399
0.859406 0.595428 0.270081
0.998840 0.615112 0.284180
0.315521 0.700714 0.251282
0.333710 0.696930 0.252960
0.372498 0.687317 0.257172
0.425903 0.671875 0.264679
0.490540 0.650940 0.277588
0.567291 0.638763 0.294250
0.661926 0.646484 0.309967
0.812195 0.684143 0.322693
0.998993 0.719330 0.326904
0.396698 0.862457 0.305847
0.409790 0.861389 0.307739
0.440033 0.854034 0.309479
0.488098 0.842041 0.312347
0.548187 0.819366 0.321014
0.615601 0.786560 0.336212
0.692169 0.764771 0.354370
0.797333 0.767120 0.369080
0.995209 0.800446 0.372986
0.463806 0.998901 0.350433
0.472900 0.998901 0.350433
0.496704 0.998932 0.352753
0.538208 0.998962 0.357300
0.592468 0.999023 0.361298
0.656006 0.997742 0.367096
0.727753 0.948517 0.385468
0.818970 0.913269 0.403351
0.965088 0.911316 0.414764
0.011810 0.000000 0.200806
0.102539 0.000000 0.244629
0.233154 0.000000 0.253937
0.358337 0.001892 0.252380
0.463715 0.061432 0.208435
0.552185 0.130432 0.220703
0.668915 0.166412 0.229919
0.812897 0.208710 0.244568
0.998444 0.256500 0.259003
0.000000 0.119080 0.220184
0.059998 0.114685 0.281921
0.238861 0.106781 0.272614
0.366882 0.104797 0.259979
0.447571 0.155731 0.213989
0.555695 0.179932 0.227600
0.673218 0.208893 0.235870
0.818848 0.244324 0.250305
0.998474 0.282257 0.262756
0.027924 0.226746 0.252655
0.112305 0.232788 0.267365
0.227936 0.235718 0.286499
0.355743 0.243988 0.216278
0.457306 0.253479 0.225067
0.565277 0.268738 0.240265
0.683380 0.290070 0.252716
0.832275 0.316193 0.265503
0.998535 0.344299 0.274933
0.068207 0.313751 0.207947
0.125366 0.315765 0.212830
0.212891 0.321472 0.226501
0.315704 0.331390 0.249451
0.465668 0.360138 0.242218
0.581940 0.374023 0.252899
0.694794 0.388123 0.279846
0.840942 0.403625 0.287537
0.998627 0.422485 0.295319
0.134064 0.428375 0.244476
0.172241 0.424866 0.245453
0.239044 0.415741 0.247162
0.319061 0.410126 0.254303
0.424622 0.433044 0.279602
0.573944 0.466797 0.285309
0.705200 0.484039 0.293304
0.850983 0.496765 0.311340
0.998779 0.510864 0.322906
0.218384 0.555298 0.282990
0.245026 0.552704 0.284424
0.298126 0.543427 0.288086
0.365234 0.530273 0.293671
0.439728 0.523407 0.303009
0.532104 0.532166 0.317627
0.667786 0.562073 0.323853
0.845337 0.589905 0.334320
0.998901 0.609711 0.349701
0.299164 0.686310 0.319122
0.317719 0.682556 0.320099
0.357574 0.673004 0.322571
0.414551 0.661316 0.329285
0.479187 0.642822 0.339813
0.555634 0.632294 0.352844
0.652405 0.643463 0.367401
0.793945 0.678009 0.379089
0.999023 0.710815 0.382141
0.382477 0.853912 0.360291
0.396057 0.851501 0.360504
0.427155 0.842346 0.362640
0.474670 0.824219 0.368042
0.534729 0.800598 0.376068
0.603424 0.773224 0.389252
0.682831 0.758606 0.404205
0.786194 0.763885 0.417206
0.982910 0.799286 0.423004
0.448883 0.998901 0.394043
0.459564 0.998932 0.395416
0.485779 0.998932 0.399048
0.527924 0.998993 0.401611
0.582550 0.999023 0.404572
0.646088 0.978027 0.414917
0.716644 0.931396 0.429657
0.807068 0.902771 0.444977
0.945190 0.898224 0.455505
0.000000 0.000000 0.341156
0.102325 0.005035 0.346405
0.224609 0.016174 0.356262
0.346466 0.032074 0.363220
0.457733 0.053101 0.365753
0.574341 0.082214 0.362305
0.668427 0.172028 0.330231
0.810211 0.213654 0.350067
0.998505 0.258636 0.363831
0.000000 0.119019 0.355103
0.070984 0.115540 0.375122
0.224976 0.114258 0.376282
0.350281 0.116943 0.377411
0.463074 0.125641 0.374237
0.580872 0.141815 0.365936
0.671967 0.213531 0.338928
0.816010 0.248505 0.356567
0.998535 0.284485 0.367615
0.000000 0.236206 0.354553
0.000000 0.244019 0.385437
0.205750 0.235535 0.411926
0.358521 0.229980 0.401031
0.476440 0.231781 0.388885
0.579102 0.260712 0.337646
0.681030 0.293518 0.357056
0.829590 0.318909 0.367065
0.998627 0.344543 0.376526
0.101379 0.331573 0.357147
0.154205 0.338226 0.369202
0.243134 0.351562 0.394775
0.351807 0.357513 0.415833
0.469818 0.367889 0.349060
0.580994 0.378418 0.358459
0.696869 0.392792 0.378204
0.842407 0.407715 0.384949
0.998718 0.425598 0.393677
0.136078 0.429596 0.329498
0.173035 0.426178 0.329102
0.243988 0.427368 0.336304
0.335022 0.436218 0.355560
0.432770 0.448914 0.381958
0.590485 0.480682 0.377319
0.713684 0.493652 0.384033
0.854034 0.504150 0.406219
0.998840 0.517883 0.416382
0.204285 0.551300 0.371643
0.232300 0.548676 0.372223
0.287994 0.541504 0.373138
0.357819 0.529083 0.374481
0.433929 0.526154 0.383942
0.541260 0.551422 0.408691
0.694061 0.587341 0.414093
0.862244 0.605347 0.421234
0.998932 0.616760 0.434448
0.288940 0.683258 0.406067
0.309265 0.681213 0.407074
0.352844 0.675873 0.409851
0.411377 0.664825 0.414032
0.477722 0.650177 0.419861
0.556152 0.642792 0.428864
0.650818 0.651459 0.441925
0.786865 0.678314 0.446350
0.999084 0.708374 0.453339
0.366699 0.834839 0.435608
0.380524 0.830688 0.436157
0.411957 0.820038 0.437805
0.459503 0.804901 0.441559
0.523376 0.788483 0.449280
0.591858 0.763916 0.459137
0.670746 0.753113 0.470184
0.772003 0.760498 0.482056
0.955322 0.792267 0.487366
0.432495 0.998932 0.458099
0.443268 0.998932 0.459137
0.469513 0.998962 0.461365
0.512695 0.999023 0.465240
0.567291 0.982483 0.470856
0.630951 0.946442 0.478851
0.702362 0.912476 0.491791
0.792175 0.892883 0.503143
0.926117 0.893402 0.511963
0.043976 0.015961 0.436981
0.124237 0.022125 0.441406
0.229706 0.036255 0.450378
0.342773 0.055084 0.459106
0.450470 0.074982 0.466492
0.565399 0.101288 0.471283
0.687256 0.136383 0.474487
0.843994 0.179138 0.476440
0.998596 0.267365 0.461151
0.000000 0.117554 0.459473
0.111633 0.118469 0.461700
0.227875 0.122223 0.465851
0.343994 0.128693 0.471863
0.454010 0.139771 0.475525
0.569946 0.156006 0.478912
0.693085 0.182526 0.479858
0.851044 0.220520 0.476044
0.998627 0.292236 0.464966
0.000000 0.240692 0.471252
0.000000 0.239227 0.501953
0.209534 0.237122 0.499359
0.348022 0.236053 0.497955
0.462036 0.240723 0.497772
0.581146 0.250885 0.495270
0.707642 0.268341 0.492126
0.846527 0.313202 0.458466
0.998688 0.348816 0.475037
0.000000 0.345917 0.473907
0.085144 0.350616 0.483856
0.174408 0.361420 0.507294
0.337616 0.358093 0.536865
0.475983 0.356445 0.526398
0.602203 0.362152 0.516754
0.731903 0.375244 0.480835
0.838562 0.410431 0.483093
0.998779 0.428101 0.490204
0.174408 0.442657 0.469391
0.207916 0.441010 0.470551
0.282135 0.452576 0.490875
0.375763 0.471924 0.522766
0.475220 0.479828 0.545044
0.596252 0.489685 0.479950
0.711456 0.497650 0.485382
0.853912 0.509094 0.504059
0.998901 0.521942 0.506531
0.215454 0.555298 0.455750
0.241730 0.552399 0.455322
0.294800 0.545288 0.454224
0.368835 0.546448 0.462616
0.452698 0.556061 0.481781
0.551910 0.569916 0.506470
0.715942 0.602570 0.500549
0.878632 0.615234 0.504395
0.999023 0.623657 0.522827
0.276733 0.677368 0.491608
0.297638 0.675262 0.491852
0.342712 0.669586 0.492645
0.402710 0.659637 0.493591
0.470398 0.647095 0.495636
0.552887 0.648651 0.508148
0.662598 0.673828 0.530518
0.833527 0.708221 0.536652
0.999146 0.724304 0.536041
0.356201 0.826874 0.520111
0.371246 0.824799 0.520905
0.405212 0.819000 0.522797
0.455933 0.809235 0.526276
0.520966 0.794159 0.530792
0.591125 0.774200 0.536774
0.669586 0.763733 0.545197
0.772644 0.773499 0.556976
0.941345 0.798920 0.558533
0.419403 0.998962 0.536530
0.430511 0.998962 0.537018
0.456726 0.998993 0.538269
0.499603 0.987152 0.541199
0.557281 0.968536 0.546967
0.623260 0.939789 0.554749
0.693146 0.906708 0.564453
0.780579 0.892242 0.573364
0.909393 0.893311 0.581726
0.112854 0.038605 0.524200
0.161438 0.044128 0.528839
0.246277 0.057037 0.538879
0.347870 0.073517 0.549622
0.450012 0.093872 0.559662
0.561279 0.120667 0.570496
0.682068 0.154572 0.578857
0.835693 0.194489 0.588318
0.998657 0.235291 0.592346
0.093445 0.123657 0.544373
0.150909 0.125641 0.547363
0.243042 0.130310 0.554108
0.348083 0.138977 0.562805
0.452240 0.152313 0.570129
0.564697 0.170654 0.578949
0.686829 0.197968 0.585663
0.842468 0.231140 0.592957
0.998688 0.265228 0.595123
0.000000 0.240356 0.580597
0.104889 0.239868 0.581787
0.232513 0.239685 0.584961
0.349579 0.242706 0.588654
0.457184 0.249603 0.594116
0.574097 0.261810 0.598206
0.698547 0.279541 0.603455
0.856354 0.302155 0.604156
0.998749 0.327026 0.602051
0.000000 0.363159 0.594940
0.000000 0.362976 0.612885
0.187866 0.361938 0.626953
0.340424 0.361115 0.631317
0.467163 0.362732 0.630402
0.589264 0.369843 0.630951
0.715118 0.379425 0.626770
0.878448 0.391968 0.619720
0.998840 0.410797 0.602356
0.135529 0.453827 0.580658
0.175385 0.456421 0.587158
0.249634 0.465240 0.606232
0.331573 0.481537 0.640137
0.463867 0.479919 0.675354
0.603729 0.478058 0.661316
0.734924 0.481842 0.647614
0.917542 0.489166 0.622894
0.998962 0.524689 0.604797
0.252777 0.567169 0.591034
0.277283 0.565369 0.591553
0.328674 0.561066 0.592773
0.405823 0.573364 0.616119
0.496918 0.593933 0.651398
0.598572 0.602325 0.674225
0.722565 0.612213 0.604309
0.874359 0.619141 0.607574
0.999115 0.628113 0.625366
0.295471 0.685150 0.576233
0.314789 0.682617 0.575806
0.356201 0.676483 0.574921
0.412689 0.666443 0.573853
0.486603 0.669464 0.585968
0.574005 0.678986 0.605988
0.673798 0.693359 0.631897
0.867676 0.723969 0.623810
0.999207 0.732056 0.619690
0.348175 0.819489 0.608887
0.363342 0.816895 0.609009
0.397552 0.810394 0.609375
0.447876 0.798035 0.609375
0.512054 0.782532 0.610413
0.583679 0.767944 0.613495
0.669250 0.774414 0.629303
0.782959 0.798126 0.647980
0.999268 0.834076 0.650513
0.410034 0.998993 0.625916
0.421661 0.999023 0.626373
0.448975 0.999054 0.627655
0.493988 0.987976 0.629913
0.552704 0.968231 0.632721
0.619415 0.944397 0.637146
0.691315 0.918243 0.642792
0.774719 0.900726 0.649658
0.909454 0.911011 0.657990
0.171478 0.063232 0.614868
0.205353 0.067261 0.618622
0.273895 0.076813 0.626801
0.361755 0.092377 0.639252
0.455780 0.113129 0.654663
0.562744 0.139923 0.669067
0.681671 0.173096 0.682709
0.832428 0.210175 0.696930
0.998749 0.248199 0.703583
0.159241 0.133514 0.632233
0.196991 0.136139 0.635223
0.269684 0.141754 0.642487
0.360962 0.151367 0.653687
0.457031 0.165588 0.666504
0.565979 0.186127 0.677826
0.685486 0.213226 0.690796
0.837189 0.244568 0.702148
0.998779 0.276672 0.707062
0.126068 0.241852 0.666809
0.177521 0.241821 0.669006
0.262268 0.244232 0.674042
0.360870 0.249451 0.681427
0.461304 0.258179 0.690826
0.573853 0.272583 0.699280
0.695007 0.291534 0.709869
0.846680 0.312897 0.713165
0.998840 0.337219 0.715118
0.000000 0.363037 0.712708
0.093170 0.363007 0.717163
0.228149 0.363647 0.719971
0.355865 0.365082 0.722626
0.468842 0.369263 0.728149
0.585388 0.377686 0.733948
0.706848 0.387115 0.734009
0.863922 0.399597 0.733948
0.998932 0.416443 0.730347
0.098724 0.478333 0.717316
0.139984 0.480835 0.724518
0.202972 0.486450 0.744843
0.338074 0.484070 0.768402
0.465576 0.482544 0.775635
0.594574 0.483246 0.770782
0.719818 0.488495 0.766022
0.885590 0.496582 0.758057
0.999054 0.507721 0.748444
0.232971 0.576721 0.703918
0.257568 0.575470 0.705200
0.309174 0.573364 0.708710
0.383667 0.584412 0.733002
0.458862 0.602844 0.772919
0.588562 0.602051 0.813904
0.732178 0.600128 0.796051
0.911163 0.603607 0.778656
0.999176 0.608398 0.753540
0.326721 0.693878 0.713409
0.345245 0.692322 0.713989
0.385101 0.688568 0.715149
0.442169 0.682190 0.716858
0.525055 0.696869 0.743958
0.619171 0.717712 0.780609
0.721985 0.725189 0.803131
0.879303 0.733429 0.724396
0.999298 0.735474 0.721893
0.371826 0.833557 0.693939
0.385345 0.830536 0.693634
0.416565 0.822968 0.692963
0.464081 0.810822 0.691956
0.525879 0.795380 0.691223
0.603668 0.801361 0.706116
0.689514 0.809326 0.723694
0.797821 0.823212 0.746277
0.999359 0.852356 0.732971
0.405853 0.999054 0.714050
0.417480 0.997406 0.714050
0.444885 0.989838 0.714355
0.490051 0.976410 0.715149
0.547302 0.953796 0.714508
0.612061 0.926727 0.713989
0.686035 0.914093 0.719910
0.776672 0.918701 0.733154
0.916656 0.937347 0.747101
0.227966 0.083374 0.706482
0.252960 0.087830 0.710602
0.306274 0.096710 0.720398
0.381500 0.112488 0.734283
0.468781 0.133942 0.749939
0.570862 0.160126 0.769745
0.685333 0.193542 0.788757
0.831696 0.229248 0.804657
0.998840 0.263489 0.815948
0.221222 0.146881 0.721375
0.247498 0.149231 0.725067
0.303864 0.155243 0.733459
0.382172 0.166199 0.744019
0.470428 0.181854 0.758636
0.573792 0.203552 0.777344
0.689117 0.230377 0.797424
0.835419 0.259674 0.810364
0.998871 0.290344 0.820404
0.200256 0.247742 0.757996
0.231873 0.248871 0.760193
0.296387 0.252472 0.765625
0.380219 0.258850 0.775146
0.473389 0.269165 0.789154
0.579681 0.284180 0.804749
0.697235 0.303711 0.818176
0.843506 0.323853 0.825531
0.998932 0.347443 0.831848
0.145325 0.365417 0.808746
0.193451 0.365784 0.810181
0.279755 0.367126 0.814301
0.381409 0.369263 0.822235
0.480103 0.376190 0.831665
0.588989 0.384552 0.841095
0.705292 0.394836 0.844971
0.856415 0.408020 0.848907
0.999054 0.424561 0.848175
0.082153 0.485352 0.852173
0.145569 0.485352 0.856659
0.246552 0.485199 0.866058
0.360687 0.484833 0.878021
0.476837 0.485992 0.876709
0.594696 0.488678 0.878174
0.713989 0.495178 0.877899
0.871948 0.503754 0.874603
0.999176 0.514618 0.871094
0.225098 0.592773 0.837616
0.250122 0.594208 0.842529
0.301453 0.598145 0.854950
0.363220 0.607361 0.879608
0.463409 0.606476 0.910614
0.590027 0.604523 0.919250
0.722351 0.605072 0.911591
0.886841 0.609497 0.903259
0.999359 0.615509 0.891296
0.317383 0.702515 0.832153
0.335205 0.701416 0.833191
0.374146 0.698700 0.835663
0.429291 0.694336 0.839966
0.505310 0.707123 0.868500
0.583466 0.726654 0.907562
0.711639 0.724213 0.944214
0.893158 0.719391 0.922302
0.999512 0.718018 0.900574
0.393982 0.838898 0.836884
0.407867 0.837067 0.836456
0.439545 0.832153 0.837128
0.490021 0.823975 0.838440
0.554016 0.812683 0.839722
0.639343 0.832520 0.869232
0.731720 0.852875 0.897949
0.855133 0.857117 0.912964
0.999420 0.860565 0.828705
0.452515 0.999146 0.801605
0.461060 0.999146 0.800354
0.482422 0.999176 0.797852
0.518188 0.989716 0.794983
0.565186 0.970398 0.792908
0.629150 0.953949 0.796570
0.705200 0.954865 0.809814
0.798615 0.958374 0.824921
0.937012 0.969177 0.844177
0.283325 0.106140 0.804901
0.302521 0.109985 0.808777
0.346313 0.119415 0.818420
0.409027 0.134460 0.834747
0.487793 0.154510 0.857178
0.584564 0.180481 0.880646
0.695679 0.213562 0.899933
0.836090 0.247589 0.913269
0.999115 0.282471 0.924011
0.279755 0.162323 0.818817
0.299652 0.164490 0.822571
0.344604 0.171204 0.831787
0.408569 0.182220 0.847137
0.489105 0.198425 0.868164
0.587158 0.220490 0.888214
0.698639 0.247314 0.907898
0.838928 0.276154 0.918854
0.999146 0.306854 0.928406
0.268005 0.257355 0.853485
0.290070 0.258575 0.856506
0.339325 0.263062 0.863983
0.408051 0.270691 0.876495
0.493805 0.282654 0.889801
0.593689 0.298828 0.905640
0.703613 0.316132 0.921295
0.845917 0.336578 0.932373
0.999268 0.360138 0.938995
0.239990 0.370209 0.907074
0.269745 0.370575 0.908966
0.331604 0.372345 0.913605
0.408234 0.377411 0.920990
0.498291 0.384521 0.930817
0.598877 0.392303 0.940399
0.709747 0.403107 0.948975
0.857269 0.416992 0.953796
0.999420 0.432953 0.957031
0.187683 0.486053 0.959900
0.226105 0.485992 0.962189
0.301331 0.486450 0.965607
0.395294 0.487701 0.968506
0.496704 0.489624 0.973083
0.603455 0.494568 0.976257
0.716370 0.501709 0.981293
0.867645 0.510925 0.982269
0.999634 0.522461 0.981171
0.189209 0.607666 0.971222
0.224304 0.606873 0.979614
0.289581 0.607483 0.989685
0.379120 0.607697 1.000000
0.479950 0.607239 1.000000
0.598419 0.607910 1.000000
0.721161 0.610321 1.000000
0.876831 0.615387 1.000000
0.999817 0.621490 1.000000
0.318970 0.716339 0.958679
0.335938 0.715729 0.960358
0.372986 0.714783 0.964264
0.428131 0.719757 0.980316
0.492126 0.729126 1.000000
0.586609 0.729980 1.000000
0.711548 0.725769 1.000000
0.875183 0.722839 1.000000
0.999908 0.722290 1.000000
0.390289 0.847168 0.946228
0.403168 0.845703 0.946838
0.433014 0.841766 0.948242
0.480530 0.835236 0.950562
0.541412 0.826202 0.953918
0.618744 0.842712 0.983521
0.693329 0.863739 1.000000
0.838867 0.853088 1.000000
0.999969 0.840210 1.000000
0.445068 0.999451 0.935791
0.456238 0.999451 0.935394
0.484344 0.999481 0.934296
0.528564 0.996704 0.933990
0.585632 0.981720 0.934662
0.652161 0.963501 0.935425
0.739166 0.989075 0.963226
0.846832 0.999969 0.987396
0.999969 0.999969 0.999969
