Kodak 8mm - Look.cube
# Created by Benjamin (IWLTBAP) : http://luts.iwltbap.com
# Copyright: (C) Copyright 2010-2017 Triune Films and IWLTBAP SAS
# Cannot be resold, shared or otherwise redistributed
TITLE "Film Print Emulation LUTs Pack (Rec.709, sRGB, DCI-P3)"
LUT_3D_SIZE 5
0.000610 0.000610 0.000000
0.163025 0.017029 0.017517
0.349701 0.022369 0.032288
0.557220 0.052826 0.064270
0.740021 0.075684 0.093628
0.034698 0.100708 0.040222
0.205322 0.185272 0.028046
0.442352 0.206696 0.060638
0.676971 0.224976 0.103149
0.857361 0.236877 0.133270
0.061646 0.198334 0.046173
0.236053 0.319366 0.059753
0.508148 0.425201 0.078430
0.752777 0.454163 0.127014
0.940094 0.474609 0.157593
0.108246 0.315796 0.066193
0.304016 0.477814 0.118073
0.582306 0.613647 0.123291
0.825104 0.679871 0.150452
0.998383 0.698364 0.169708
0.155670 0.408203 0.090454
0.381989 0.608032 0.155670
0.667511 0.745117 0.183014
0.891144 0.843048 0.188141
1.000000 0.879700 0.170959
0.038635 0.050995 0.131805
0.158539 0.040558 0.187958
0.374176 0.039795 0.215302
0.577820 0.067230 0.228058
0.754639 0.088470 0.251892
0.068390 0.147797 0.195343
0.223633 0.215637 0.222534
0.467529 0.256470 0.273987
0.699768 0.272003 0.296600
0.874725 0.282806 0.317810
0.101074 0.272369 0.221558
0.258850 0.398987 0.265411
0.534912 0.478027 0.276520
0.781799 0.509125 0.298187
0.964264 0.523346 0.316711
0.170776 0.408783 0.254578
0.312958 0.582336 0.296631
0.617981 0.694244 0.279816
0.846863 0.740692 0.288544
1.000000 0.757904 0.304108
0.226227 0.516510 0.332092
0.371399 0.720886 0.377808
0.698853 0.855499 0.379425
0.908875 0.924072 0.340973
1.000000 0.952515 0.332611
0.053650 0.062225 0.270569
0.126862 0.076660 0.329132
0.344727 0.067749 0.401550
0.585785 0.078827 0.431580
0.760223 0.100800 0.449097
0.108246 0.197540 0.379211
0.206268 0.268616 0.458618
0.456970 0.291656 0.499695
0.698303 0.301514 0.525360
0.873413 0.314148 0.541656
0.147766 0.333496 0.433350
0.246826 0.454102 0.504700
0.541290 0.529175 0.544373
0.772400 0.554565 0.563507
0.958221 0.572357 0.577728
0.197357 0.467072 0.469849
0.295776 0.638336 0.550476
0.613190 0.736359 0.577911
0.830750 0.773041 0.570190
1.000000 0.797150 0.587280
0.248993 0.568634 0.554626
0.352509 0.775146 0.620544
0.681274 0.901459 0.651978
0.889679 0.958649 0.624756
1.000000 0.984192 0.613251
0.083344 0.101868 0.392456
0.140015 0.124329 0.466431
0.314209 0.129425 0.538422
0.547546 0.114777 0.595428
0.752899 0.116364 0.635559
0.153076 0.249908 0.544159
0.210754 0.324768 0.642242
0.465332 0.364563 0.699036
0.683014 0.345856 0.728973
0.866669 0.346802 0.749695
0.199524 0.390198 0.610199
0.256653 0.513977 0.709045
0.557526 0.584595 0.748688
0.764160 0.594879 0.772522
0.944427 0.598450 0.787659
0.245605 0.520081 0.662598
0.313904 0.683502 0.754669
0.610016 0.770233 0.786774
0.820709 0.806824 0.814880
1.000000 0.820953 0.805267
0.282257 0.608673 0.713806
0.349457 0.808472 0.795502
0.656647 0.928741 0.835327
0.876434 0.983032 0.838623
1.000000 0.998535 0.825714
0.109344 0.135986 0.497437
0.153595 0.164154 0.586365
0.311920 0.186279 0.647888
0.520569 0.175873 0.723358
0.707397 0.160736 0.779419
0.184570 0.306213 0.673828
0.228424 0.388367 0.796082
0.476837 0.449768 0.858521
0.686829 0.435150 0.909973
0.851624 0.412964 0.928345
0.239441 0.445312 0.750092
0.286835 0.561218 0.865112
0.546967 0.655457 0.935059
0.766968 0.665649 0.970001
0.920959 0.648407 0.979462
0.278381 0.562195 0.800781
0.323120 0.715454 0.903076
0.578796 0.823883 0.974304
0.827606 0.858612 1.000000
0.978394 0.847473 0.998260
0.300629 0.632019 0.827454
0.341217 0.821960 0.915161
0.594299 0.939636 0.990662
0.857330 0.999786 1.000000
1.000000 1.000000 1.000000
