Kodak Vision3 250D (5207) - Only color.cube
# Created by Benjamin (IWLTBAP) : http://luts.iwltbap.com
# Copyright: (C) Copyright 2010-2017 Triune Films and IWLTBAP SAS
# Cannot be resold, shared or otherwise redistributed
TITLE "Film Print Emulation LUTs Pack (Rec.709, sRGB, DCI-P3)"
LUT_3D_SIZE 5
0.000854 0.000000 0.000092
0.332214 0.018799 0.012665
0.600464 0.088623 0.078369
0.818451 0.159546 0.138824
0.970581 0.230530 0.173828
0.029419 0.178223 0.026794
0.285828 0.233246 0.050507
0.613892 0.278198 0.073456
0.838684 0.326691 0.124329
0.978577 0.371307 0.165131
0.153320 0.377808 0.125671
0.290161 0.433136 0.139374
0.621918 0.504578 0.142029
0.872040 0.547485 0.153290
0.996887 0.572845 0.191467
0.284943 0.592529 0.231964
0.373230 0.623169 0.241150
0.683411 0.723358 0.272308
0.902344 0.734100 0.255005
1.000000 0.754028 0.258972
0.385406 0.736908 0.297302
0.476471 0.765228 0.315582
0.719574 0.844849 0.340576
0.936829 0.899658 0.348175
1.000000 0.901031 0.338440
0.033905 0.012726 0.203522
0.288818 0.052765 0.214233
0.600952 0.097198 0.241455
0.811890 0.130585 0.268250
0.966949 0.194427 0.296234
0.110199 0.252167 0.271088
0.234436 0.259033 0.256836
0.604919 0.299591 0.250366
0.843903 0.343750 0.265778
0.980103 0.389954 0.286102
0.179596 0.437714 0.324890
0.253265 0.456512 0.309204
0.595490 0.521851 0.301147
0.880463 0.546509 0.274536
0.998505 0.562317 0.293823
0.312592 0.630585 0.386597
0.371277 0.647919 0.375732
0.621399 0.719666 0.397461
0.904388 0.748260 0.366302
1.000000 0.766663 0.365509
0.399323 0.755859 0.411682
0.465820 0.773865 0.412476
0.687469 0.845490 0.441895
0.934235 0.912445 0.442749
1.000000 0.916046 0.433746
0.130310 0.104462 0.356262
0.208893 0.087646 0.366425
0.527069 0.145844 0.407166
0.790039 0.192322 0.440857
0.964539 0.209717 0.467072
0.198639 0.313873 0.438477
0.237579 0.314331 0.444458
0.486877 0.309326 0.432373
0.815826 0.342041 0.434906
0.971405 0.370300 0.442657
0.255249 0.475708 0.479218
0.297729 0.497955 0.491425
0.477020 0.526581 0.496155
0.864105 0.572632 0.479523
0.999329 0.592590 0.486450
0.317627 0.645447 0.529358
0.368011 0.672272 0.534454
0.511841 0.711212 0.538452
0.887573 0.773926 0.551392
1.000000 0.780487 0.528168
0.410370 0.773956 0.546814
0.460876 0.788544 0.538666
0.614777 0.837250 0.549957
0.917572 0.927063 0.583160
1.000000 0.938538 0.574493
0.196564 0.167877 0.483521
0.255676 0.150574 0.511719
0.415985 0.143829 0.511444
0.721069 0.215698 0.561188
0.934021 0.272095 0.590088
0.264404 0.358795 0.563568
0.295898 0.362213 0.570923
0.390289 0.328094 0.567230
0.718414 0.353394 0.571930
0.949219 0.404694 0.591370
0.318542 0.507355 0.595337
0.355103 0.527435 0.609131
0.424011 0.538452 0.626526
0.739563 0.556641 0.622772
0.981110 0.586853 0.620209
0.377106 0.656799 0.639587
0.420563 0.685272 0.657043
0.492462 0.710571 0.672150
0.779907 0.772278 0.698029
1.000000 0.809967 0.693390
0.422821 0.791565 0.678558
0.462067 0.804840 0.681610
0.532318 0.832977 0.686279
0.837402 0.919159 0.705353
1.000000 0.951660 0.723145
0.255005 0.209808 0.582336
0.301575 0.185760 0.600464
0.388824 0.164276 0.585480
0.626312 0.207520 0.624573
0.901886 0.279114 0.674713
0.308990 0.385345 0.640442
0.333954 0.380219 0.645081
0.381134 0.346741 0.641388
0.613373 0.333679 0.642242
0.913910 0.399994 0.678558
0.351807 0.523163 0.667603
0.380402 0.532806 0.676392
0.421173 0.532318 0.685608
0.627167 0.523438 0.692749
0.935028 0.561554 0.696442
0.406860 0.651093 0.696533
0.447113 0.672424 0.709900
0.503357 0.692291 0.727509
0.696655 0.741669 0.782593
0.984070 0.777344 0.789429
0.466309 0.779266 0.737976
0.505768 0.795654 0.750458
0.559784 0.820129 0.773651
0.713013 0.886414 0.852539
1.000000 0.946045 0.858154
