Kodak Vision 250D (5246) - Only contrast.cube
# Created by Benjamin (IWLTBAP) : http://luts.iwltbap.com
# Copyright: (C) Copyright 2010-2017 Triune Films and IWLTBAP SAS
# Cannot be resold, shared or otherwise redistributed
TITLE "Film Print Emulation LUTs Pack (Rec.709, sRGB, DCI-P3)"
LUT_3D_SIZE 33
0.000885 0.000885 0.000885
0.020294 0.000885 0.000885
0.040680 0.000885 0.000885
0.065674 0.000854 0.000854
0.091553 0.000793 0.000793
0.118958 0.000732 0.000732
0.146515 0.000671 0.000671
0.174835 0.000610 0.000610
0.203705 0.000549 0.000549
0.232727 0.000488 0.000488
0.261292 0.000427 0.000427
0.289093 0.000366 0.000366
0.316833 0.000305 0.000305
0.345459 0.000244 0.000244
0.379181 0.000122 0.000122
0.412720 0.000031 0.000031
0.446899 0.000000 0.000000
0.484222 0.000000 0.000000
0.520050 0.000000 0.000000
0.553345 0.000000 0.000000
0.584778 0.000000 0.000000
0.615967 0.000000 0.000000
0.647675 0.000000 0.000000
0.679932 0.000000 0.000000
0.713379 0.000000 0.000000
0.747925 0.000000 0.000000
0.783234 0.000000 0.000000
0.819580 0.000000 0.000000
0.857147 0.000000 0.000000
0.894470 0.000000 0.000000
0.930511 0.000000 0.000000
0.965515 0.000000 0.000000
0.998077 0.000000 0.000000
0.000885 0.020294 0.000885
0.020294 0.020294 0.000885
0.040680 0.020264 0.000885
0.065704 0.020233 0.000854
0.091614 0.020203 0.000793
0.119019 0.020142 0.000732
0.146576 0.020081 0.000671
0.174896 0.020020 0.000610
0.203766 0.019958 0.000549
0.232819 0.019897 0.000488
0.261353 0.019836 0.000427
0.289154 0.019775 0.000366
0.316895 0.019714 0.000305
0.345551 0.019653 0.000244
0.379272 0.019562 0.000122
0.412811 0.019470 0.000031
0.447021 0.019348 0.000000
0.484375 0.019226 0.000000
0.520142 0.019135 0.000000
0.553436 0.019043 0.000000
0.584869 0.018951 0.000000
0.616058 0.018860 0.000000
0.647766 0.018799 0.000000
0.680023 0.018707 0.000000
0.713470 0.018616 0.000000
0.748016 0.018494 0.000000
0.783356 0.018402 0.000000
0.819702 0.018280 0.000000
0.857300 0.018158 0.000000
0.894592 0.018036 0.000000
0.930634 0.017914 0.000000
0.965607 0.017822 0.000000
0.998169 0.017731 0.000000
0.000885 0.040680 0.000885
0.020264 0.040680 0.000885
0.040710 0.040710 0.000854
0.065735 0.040680 0.000824
0.091675 0.040680 0.000793
0.119080 0.040649 0.000732
0.146606 0.040619 0.000671
0.174957 0.040588 0.000610
0.203827 0.040527 0.000549
0.232849 0.040497 0.000458
0.261383 0.040466 0.000397
0.289215 0.040436 0.000336
0.316925 0.040405 0.000275
0.345642 0.040344 0.000214
0.379364 0.040283 0.000122
0.412903 0.040222 0.000031
0.447113 0.040131 0.000000
0.484467 0.040039 0.000000
0.520233 0.039948 0.000000
0.553497 0.039886 0.000000
0.584930 0.039856 0.000000
0.616119 0.039795 0.000000
0.647827 0.039734 0.000000
0.680084 0.039673 0.000000
0.713562 0.039612 0.000000
0.748108 0.039520 0.000000
0.783447 0.039459 0.000000
0.819824 0.039368 0.000000
0.857391 0.039276 0.000000
0.894684 0.039185 0.000000
0.930725 0.039093 0.000000
0.965698 0.039001 0.000000
0.998230 0.038971 0.000000
0.000854 0.065674 0.000854
0.020233 0.065704 0.000854
0.040680 0.065735 0.000824
0.065765 0.065765 0.000793
0.091675 0.065735 0.000732
0.119080 0.065735 0.000671
0.146637 0.065735 0.000641
0.174988 0.065704 0.000549
0.203857 0.065674 0.000488
0.232880 0.065674 0.000427
0.261414 0.065643 0.000366
0.289215 0.065643 0.000305
0.316956 0.065613 0.000244
0.345673 0.065613 0.000183
0.379425 0.065552 0.000061
0.412964 0.065491 0.000000
0.447174 0.065430 0.000000
0.484558 0.065338 0.000000
0.520325 0.065277 0.000000
0.553558 0.065216 0.000000
0.584991 0.065186 0.000000
0.616150 0.065155 0.000000
0.647888 0.065125 0.000000
0.680145 0.065063 0.000000
0.713623 0.065002 0.000000
0.748199 0.064941 0.000000
0.783539 0.064880 0.000000
0.819916 0.064819 0.000000
0.857483 0.064728 0.000000
0.894775 0.064636 0.000000
0.930786 0.064575 0.000000
0.965759 0.064514 0.000000
0.998260 0.064453 0.000000
0.000793 0.091553 0.000793
0.020203 0.091614 0.000793
0.040680 0.091675 0.000793
0.065735 0.091675 0.000732
0.091705 0.091705 0.000702
0.119110 0.091705 0.000641
0.146637 0.091705 0.000580
0.175018 0.091675 0.000519
0.203888 0.091675 0.000458
0.232910 0.091675 0.000366
0.261444 0.091644 0.000305
0.289246 0.091644 0.000244
0.316956 0.091644 0.000183
0.345703 0.091644 0.000122
0.379486 0.091614 0.000031
0.413025 0.091553 0.000000
0.447235 0.091522 0.000000
0.484650 0.091431 0.000000
0.520355 0.091400 0.000000
0.553589 0.091339 0.000000
0.585022 0.091309 0.000000
0.616180 0.091309 0.000000
0.647919 0.091278 0.000000
0.680176 0.091248 0.000000
0.713684 0.091187 0.000000
0.748260 0.091156 0.000000
0.783600 0.091095 0.000000
0.819977 0.091034 0.000000
0.857574 0.090973 0.000000
0.894836 0.090881 0.000000
0.930847 0.090820 0.000000
0.965820 0.090790 0.000000
0.998291 0.090759 0.000000
0.000732 0.118958 0.000732
0.020142 0.119019 0.000732
0.040649 0.119080 0.000732
0.065735 0.119080 0.000671
0.091705 0.119110 0.000641
0.119110 0.119110 0.000580
0.146637 0.119110 0.000519
0.175018 0.119110 0.000458
0.203888 0.119080 0.000397
0.232910 0.119080 0.000336
0.261444 0.119080 0.000244
0.289246 0.119080 0.000183
0.316956 0.119080 0.000122
0.345734 0.119049 0.000061
0.379547 0.119019 0.000000
0.413055 0.118958 0.000000
0.447296 0.118927 0.000000
0.484741 0.118866 0.000000
0.520416 0.118805 0.000000
0.553619 0.118774 0.000000
0.585052 0.118744 0.000000
0.616211 0.118713 0.000000
0.647949 0.118683 0.000000
0.680237 0.118652 0.000000
0.713745 0.118591 0.000000
0.748291 0.118561 0.000000
0.783661 0.118500 0.000000
0.820038 0.118439 0.000000
0.857635 0.118378 0.000000
0.894897 0.118286 0.000000
0.930908 0.118256 0.000000
0.965851 0.118195 0.000000
0.998322 0.118164 0.000000
0.000671 0.146515 0.000671
0.020081 0.146576 0.000671
0.040619 0.146606 0.000671
0.065735 0.146637 0.000641
0.091705 0.146637 0.000580
0.119110 0.146637 0.000519
0.146637 0.146637 0.000458
0.175018 0.146637 0.000397
0.203888 0.146637 0.000336
0.232941 0.146606 0.000275
0.261444 0.146606 0.000183
0.289246 0.146606 0.000153
0.316956 0.146606 0.000092
0.345764 0.146576 0.000000
0.379578 0.146545 0.000000
0.413116 0.146515 0.000000
0.447357 0.146454 0.000000
0.484802 0.146393 0.000000
0.520477 0.146332 0.000000
0.553650 0.146301 0.000000
0.585083 0.146271 0.000000
0.616241 0.146240 0.000000
0.647980 0.146210 0.000000
0.680267 0.146179 0.000000
0.713776 0.146149 0.000000
0.748352 0.146118 0.000000
0.783722 0.146057 0.000000
0.820099 0.145996 0.000000
0.857727 0.145935 0.000000
0.894958 0.145874 0.000000
0.930969 0.145813 0.000000
0.965912 0.145752 0.000000
0.998352 0.145721 0.000000
0.000610 0.174835 0.000610
0.020020 0.174896 0.000610
0.040588 0.174957 0.000610
0.065704 0.174988 0.000549
0.091675 0.175018 0.000519
0.119110 0.175018 0.000458
0.146637 0.175018 0.000397
0.175018 0.175018 0.000336
0.203888 0.175018 0.000275
0.232941 0.175018 0.000183
0.261444 0.175018 0.000122
0.289246 0.175049 0.000061
0.316956 0.175049 0.000000
0.345795 0.175049 0.000000
0.379608 0.175018 0.000000
0.413147 0.174988 0.000000
0.447388 0.174927 0.000000
0.484863 0.174866 0.000000
0.520508 0.174835 0.000000
0.553680 0.174805 0.000000
0.585083 0.174774 0.000000
0.616272 0.174774 0.000000
0.648010 0.174744 0.000000
0.680298 0.174713 0.000000
0.713837 0.174683 0.000000
0.748413 0.174652 0.000000
0.783752 0.174591 0.000000
0.820160 0.174561 0.000000
0.857788 0.174500 0.000000
0.895020 0.174438 0.000000
0.931030 0.174377 0.000000
0.965942 0.174347 0.000000
0.998383 0.174316 0.000000
0.000549 0.203705 0.000549
0.019958 0.203766 0.000549
0.040527 0.203827 0.000549
0.065674 0.203857 0.000488
0.091675 0.203888 0.000458
0.119080 0.203888 0.000397
0.146637 0.203888 0.000336
0.175018 0.203888 0.000275
0.203918 0.203918 0.000214
0.232941 0.203888 0.000122
0.261444 0.203918 0.000061
0.289215 0.203918 0.000000
0.316956 0.203918 0.000000
0.345825 0.203918 0.000000
0.379669 0.203888 0.000000
0.413177 0.203857 0.000000
0.447449 0.203827 0.000000
0.484924 0.203766 0.000000
0.520538 0.203705 0.000000
0.553711 0.203674 0.000000
0.585114 0.203674 0.000000
0.616272 0.203644 0.000000
0.648041 0.203644 0.000000
0.680328 0.203613 0.000000
0.713867 0.203583 0.000000
0.748444 0.203552 0.000000
0.783813 0.203491 0.000000
0.820221 0.203461 0.000000
0.857849 0.203400 0.000000
0.895081 0.203339 0.000000
0.931061 0.203278 0.000000
0.965973 0.203247 0.000000
0.998383 0.203217 0.000000
0.000488 0.232727 0.000488
0.019897 0.232819 0.000488
0.040497 0.232849 0.000458
0.065674 0.232880 0.000427
0.091675 0.232910 0.000366
0.119080 0.232910 0.000336
0.146606 0.232941 0.000275
0.175018 0.232941 0.000183
0.203888 0.232941 0.000122
0.232941 0.232941 0.000061
0.261414 0.232941 0.000000
0.289215 0.232941 0.000000
0.316956 0.232971 0.000000
0.345825 0.232971 0.000000
0.379700 0.232910 0.000000
0.413208 0.232880 0.000000
0.447479 0.232849 0.000000
0.484985 0.232788 0.000000
0.520569 0.232758 0.000000
0.553741 0.232727 0.000000
0.585114 0.232697 0.000000
0.616302 0.232697 0.000000
0.648071 0.232666 0.000000
0.680328 0.232635 0.000000
0.713898 0.232605 0.000000
0.748474 0.232574 0.000000
0.783875 0.232513 0.000000
0.820282 0.232483 0.000000
0.857910 0.232422 0.000000
0.895142 0.232361 0.000000
0.931122 0.232300 0.000000
0.966003 0.232269 0.000000
0.998413 0.232239 0.000000
0.000427 0.261292 0.000427
0.019836 0.261353 0.000427
0.040466 0.261383 0.000397
0.065643 0.261414 0.000366
0.091644 0.261444 0.000305
0.119080 0.261444 0.000244
0.146606 0.261444 0.000183
0.175018 0.261444 0.000122
0.203918 0.261444 0.000061
0.232941 0.261414 0.000000
0.261414 0.261414 0.000000
0.289215 0.261414 0.000000
0.316956 0.261414 0.000000
0.345856 0.261414 0.000000
0.379730 0.261383 0.000000
0.413239 0.261322 0.000000
0.447540 0.261292 0.000000
0.485046 0.261230 0.000000
0.520630 0.261169 0.000000
0.553741 0.261139 0.000000
0.585144 0.261108 0.000000
0.616333 0.261078 0.000000
0.648102 0.261078 0.000000
0.680359 0.261047 0.000000
0.713959 0.260986 0.000000
0.748535 0.260956 0.000000
0.783905 0.260895 0.000000
0.820343 0.260834 0.000000
0.857971 0.260773 0.000000
0.895203 0.260712 0.000000
0.931152 0.260651 0.000000
0.966064 0.260590 0.000000
0.998413 0.260559 0.000000
0.000366 0.289093 0.000366
0.019775 0.289154 0.000366
0.040436 0.289215 0.000336
0.065643 0.289215 0.000305
0.091644 0.289246 0.000244
0.119080 0.289246 0.000183
0.146606 0.289246 0.000153
0.175049 0.289246 0.000061
0.203918 0.289215 0.000000
0.232941 0.289215 0.000000
0.261414 0.289215 0.000000
0.289215 0.289215 0.000000
0.316956 0.289215 0.000000
0.345886 0.289215 0.000000
0.379761 0.289154 0.000000
0.413300 0.289124 0.000000
0.447571 0.289093 0.000000
0.485138 0.289032 0.000000
0.520660 0.288971 0.000000
0.553772 0.288940 0.000000
0.585175 0.288910 0.000000
0.616333 0.288879 0.000000
0.648132 0.288849 0.000000
0.680420 0.288818 0.000000
0.713989 0.288788 0.000000
0.748566 0.288727 0.000000
0.783966 0.288696 0.000000
0.820404 0.288635 0.000000
0.858063 0.288544 0.000000
0.895264 0.288483 0.000000
0.931213 0.288422 0.000000
0.966095 0.288391 0.000000
0.998444 0.288361 0.000000
0.000305 0.316833 0.000305
0.019714 0.316895 0.000305
0.040405 0.316925 0.000275
0.065613 0.316956 0.000244
0.091644 0.316956 0.000183
0.119080 0.316956 0.000122
0.146606 0.316956 0.000092
0.175049 0.316956 0.000000
0.203918 0.316956 0.000000
0.232971 0.316956 0.000000
0.261414 0.316956 0.000000
0.289215 0.316956 0.000000
0.316956 0.316956 0.000000
0.345917 0.316925 0.000000
0.379822 0.316895 0.000000
0.413330 0.316864 0.000000
0.447632 0.316803 0.000000
0.485199 0.316742 0.000000
0.520721 0.316681 0.000000
0.553802 0.316650 0.000000
0.585205 0.316620 0.000000
0.616364 0.316589 0.000000
0.648163 0.316589 0.000000
0.680450 0.316559 0.000000
0.714050 0.316498 0.000000
0.748627 0.316467 0.000000
0.784027 0.316406 0.000000
0.820465 0.316345 0.000000
0.858124 0.316284 0.000000
0.895325 0.316223 0.000000
0.931274 0.316162 0.000000
0.966156 0.316101 0.000000
0.998474 0.316071 0.000000
0.000244 0.345459 0.000244
0.019653 0.345551 0.000244
0.040344 0.345642 0.000214
0.065613 0.345673 0.000183
0.091644 0.345703 0.000122
0.119049 0.345734 0.000061
0.146576 0.345764 0.000000
0.175049 0.345795 0.000000
0.203918 0.345825 0.000000
0.232971 0.345825 0.000000
0.261414 0.345856 0.000000
0.289215 0.345886 0.000000
0.316925 0.345917 0.000000
0.345947 0.345947 0.000000
0.379852 0.345947 0.000000
0.413361 0.345917 0.000000
0.447662 0.345917 0.000000
0.485260 0.345886 0.000000
0.520752 0.345856 0.000000
0.553833 0.345856 0.000000
0.585205 0.345856 0.000000
0.616394 0.345886 0.000000
0.648163 0.345886 0.000000
0.680481 0.345886 0.000000
0.714081 0.345886 0.000000
0.748657 0.345886 0.000000
0.784058 0.345856 0.000000
0.820526 0.345825 0.000000
0.858185 0.345795 0.000000
0.895355 0.345795 0.000000
0.931305 0.345764 0.000000
0.966187 0.345764 0.000000
0.998474 0.345764 0.000000
0.000122 0.379181 0.000122
0.019562 0.379272 0.000122
0.040283 0.379364 0.000122
0.065552 0.379425 0.000061
0.091614 0.379486 0.000031
0.119019 0.379547 0.000000
0.146545 0.379578 0.000000
0.175018 0.379608 0.000000
0.203888 0.379669 0.000000
0.232910 0.379700 0.000000
0.261383 0.379730 0.000000
0.289154 0.379761 0.000000
0.316895 0.379822 0.000000
0.345947 0.379852 0.000000
0.379852 0.379852 0.000000
0.413361 0.379852 0.000000
0.447693 0.379852 0.000000
0.485291 0.379822 0.000000
0.520752 0.379822 0.000000
0.553833 0.379822 0.000000
0.585175 0.379822 0.000000
0.616364 0.379852 0.000000
0.648163 0.379883 0.000000
0.680450 0.379883 0.000000
0.714081 0.379883 0.000000
0.748688 0.379883 0.000000
0.784088 0.379852 0.000000
0.820557 0.379852 0.000000
0.858215 0.379822 0.000000
0.895386 0.379791 0.000000
0.931305 0.379791 0.000000
0.966187 0.379761 0.000000
0.998444 0.379791 0.000000
0.000031 0.412720 0.000031
0.019470 0.412811 0.000031
0.040222 0.412903 0.000031
0.065491 0.412964 0.000000
0.091553 0.413025 0.000000
0.118958 0.413055 0.000000
0.146515 0.413116 0.000000
0.174988 0.413147 0.000000
0.203857 0.413177 0.000000
0.232880 0.413208 0.000000
0.261322 0.413239 0.000000
0.289124 0.413300 0.000000
0.316864 0.413330 0.000000
0.345917 0.413361 0.000000
0.379852 0.413361 0.000000
0.413361 0.413361 0.000000
0.447693 0.413361 0.000000
0.485321 0.413330 0.000000
0.520752 0.413330 0.000000
0.553802 0.413330 0.000000
0.585175 0.413330 0.000000
0.616333 0.413361 0.000000
0.648163 0.413361 0.000000
0.680450 0.413391 0.000000
0.714081 0.413391 0.000000
0.748688 0.413361 0.000000
0.784088 0.413361 0.000000
0.820557 0.413330 0.000000
0.858246 0.413330 0.000000
0.895416 0.413300 0.000000
0.931335 0.413269 0.000000
0.966187 0.413269 0.000000
0.998444 0.413269 0.000000
0.000000 0.446899 0.000000
0.019348 0.447021 0.000000
0.040131 0.447113 0.000000
0.065430 0.447174 0.000000
0.091522 0.447235 0.000000
0.118927 0.447296 0.000000
0.146454 0.447357 0.000000
0.174927 0.447388 0.000000
0.203827 0.447449 0.000000
0.232849 0.447479 0.000000
0.261292 0.447540 0.000000
0.289093 0.447571 0.000000
0.316803 0.447632 0.000000
0.345917 0.447662 0.000000
0.379852 0.447693 0.000000
0.413361 0.447693 0.000000
0.447693 0.447693 0.000000
0.485321 0.447693 0.000000
0.520752 0.447693 0.000000
0.553802 0.447693 0.000000
0.585144 0.447723 0.000000
0.616333 0.447754 0.000000
0.648132 0.447784 0.000000
0.680450 0.447784 0.000000
0.714081 0.447815 0.000000
0.748688 0.447815 0.000000
0.784119 0.447815 0.000000
0.820587 0.447815 0.000000
0.858276 0.447784 0.000000
0.895416 0.447784 0.000000
0.931335 0.447784 0.000000
0.966187 0.447784 0.000000
0.998413 0.447784 0.000000
0.000000 0.484222 0.000000
0.019226 0.484375 0.000000
0.040039 0.484467 0.000000
0.065338 0.484558 0.000000
0.091431 0.484650 0.000000
0.118866 0.484741 0.000000
0.146393 0.484802 0.000000
0.174866 0.484863 0.000000
0.203766 0.484924 0.000000
0.232788 0.484985 0.000000
0.261230 0.485046 0.000000
0.289032 0.485138 0.000000
0.316742 0.485199 0.000000
0.345886 0.485260 0.000000
0.379822 0.485291 0.000000
0.413330 0.485321 0.000000
0.447693 0.485321 0.000000
0.485321 0.485321 0.000000
0.520721 0.485352 0.000000
0.553741 0.485382 0.000000
0.585114 0.485413 0.000000
0.616272 0.485443 0.000000
0.648102 0.485504 0.000000
0.680420 0.485535 0.000000
0.714050 0.485565 0.000000
0.748657 0.485565 0.000000
0.784088 0.485565 0.000000
0.820587 0.485596 0.000000
0.858276 0.485565 0.000000
0.895416 0.485565 0.000000
0.931335 0.485565 0.000000
0.966156 0.485596 0.000000
0.998383 0.485626 0.000000
0.000000 0.520050 0.000000
0.019135 0.520142 0.000000
0.039948 0.520233 0.000000
0.065277 0.520325 0.000000
0.091400 0.520355 0.000000
0.118805 0.520416 0.000000
0.146332 0.520477 0.000000
0.174835 0.520508 0.000000
0.203705 0.520538 0.000000
0.232758 0.520569 0.000000
0.261169 0.520630 0.000000
0.288971 0.520660 0.000000
0.316681 0.520721 0.000000
0.345856 0.520752 0.000000
0.379822 0.520752 0.000000
0.413330 0.520752 0.000000
0.447693 0.520752 0.000000
0.485352 0.520721 0.000000
0.520721 0.520721 0.000000
0.553741 0.520721 0.000000
0.585083 0.520752 0.000000
0.616241 0.520752 0.000000
0.648071 0.520782 0.000000
0.680389 0.520782 0.000000
0.714050 0.520782 0.000000
0.748657 0.520782 0.000000
0.784119 0.520782 0.000000
0.820587 0.520752 0.000000
0.858276 0.520721 0.000000
0.895416 0.520721 0.000000
0.931335 0.520691 0.000000
0.966125 0.520691 0.000000
0.998352 0.520691 0.000000
0.000000 0.553345 0.000000
0.019043 0.553436 0.000000
0.039886 0.553497 0.000000
0.065216 0.553558 0.000000
0.091339 0.553589 0.000000
0.118774 0.553619 0.000000
0.146301 0.553650 0.000000
0.174805 0.553680 0.000000
0.203674 0.553711 0.000000
0.232727 0.553741 0.000000
0.261139 0.553741 0.000000
0.288940 0.553772 0.000000
0.316650 0.553802 0.000000
0.345856 0.553833 0.000000
0.379822 0.553833 0.000000
0.413330 0.553802 0.000000
0.447693 0.553802 0.000000
0.485382 0.553741 0.000000
0.520721 0.553741 0.000000
0.553711 0.553711 0.000000
0.585083 0.553711 0.000000
0.616241 0.553741 0.000000
0.648071 0.553741 0.000000
0.680389 0.553741 0.000000
0.714081 0.553711 0.000000
0.748688 0.553680 0.000000
0.784119 0.553680 0.000000
0.820618 0.553650 0.000000
0.858337 0.553589 0.000000
0.895447 0.553558 0.000000
0.931335 0.553528 0.000000
0.966156 0.553497 0.000000
0.998322 0.553497 0.000000
0.000000 0.584778 0.000000
0.018951 0.584869 0.000000
0.039856 0.584930 0.000000
0.065186 0.584991 0.000000
0.091309 0.585022 0.000000
0.118744 0.585052 0.000000
0.146271 0.585083 0.000000
0.174774 0.585083 0.000000
0.203674 0.585114 0.000000
0.232697 0.585114 0.000000
0.261108 0.585144 0.000000
0.288910 0.585175 0.000000
0.316620 0.585205 0.000000
0.345856 0.585205 0.000000
0.379822 0.585175 0.000000
0.413330 0.585175 0.000000
0.447723 0.585144 0.000000
0.485413 0.585114 0.000000
0.520752 0.585083 0.000000
0.553711 0.585083 0.000000
0.585083 0.585083 0.000000
0.616241 0.585083 0.000000
0.648071 0.585052 0.000000
0.680389 0.585052 0.000000
0.714081 0.585052 0.000000
0.748718 0.585022 0.000000
0.784149 0.584991 0.000000
0.820679 0.584961 0.000000
0.858368 0.584900 0.000000
0.895477 0.584869 0.000000
0.931366 0.584839 0.000000
0.966156 0.584808 0.000000
0.998322 0.584808 0.000000
0.000000 0.615967 0.000000
0.018860 0.616058 0.000000
0.039795 0.616119 0.000000
0.065155 0.616150 0.000000
0.091309 0.616180 0.000000
0.118713 0.616211 0.000000
0.146240 0.616241 0.000000
0.174774 0.616272 0.000000
0.203644 0.616272 0.000000
0.232697 0.616302 0.000000
0.261078 0.616333 0.000000
0.288879 0.616333 0.000000
0.316589 0.616364 0.000000
0.345886 0.616394 0.000000
0.379852 0.616364 0.000000
0.413361 0.616333 0.000000
0.447754 0.616333 0.000000
0.485443 0.616272 0.000000
0.520752 0.616241 0.000000
0.553741 0.616241 0.000000
0.585083 0.616241 0.000000
0.616241 0.616241 0.000000
0.648102 0.616241 0.000000
0.680420 0.616241 0.000000
0.714111 0.616211 0.000000
0.748749 0.616180 0.000000
0.784210 0.616180 0.000000
0.820709 0.616119 0.000000
0.858429 0.616089 0.000000
0.895508 0.616058 0.000000
0.931396 0.616028 0.000000
0.966187 0.615997 0.000000
0.998322 0.615997 0.000000
0.000000 0.647675 0.000000
0.018799 0.647766 0.000000
0.039734 0.647827 0.000000
0.065125 0.647888 0.000000
0.091278 0.647919 0.000000
0.118683 0.647949 0.000000
0.146210 0.647980 0.000000
0.174744 0.648010 0.000000
0.203644 0.648041 0.000000
0.232666 0.648071 0.000000
0.261078 0.648102 0.000000
0.288849 0.648132 0.000000
0.316589 0.648163 0.000000
0.345886 0.648163 0.000000
0.379883 0.648163 0.000000
0.413361 0.648163 0.000000
0.447784 0.648132 0.000000
0.485504 0.648102 0.000000
0.520782 0.648071 0.000000
0.553741 0.648071 0.000000
0.585052 0.648071 0.000000
0.616241 0.648102 0.000000
0.648102 0.648102 0.000000
0.680420 0.648102 0.000000
0.714142 0.648071 0.000000
0.748749 0.648071 0.000000
0.784210 0.648041 0.000000
0.820740 0.648010 0.000000
0.858459 0.647980 0.000000
0.895569 0.647949 0.000000
0.931427 0.647919 0.000000
0.966187 0.647888 0.000000
0.998322 0.647888 0.000000
0.000000 0.679932 0.000000
0.018707 0.680023 0.000000
0.039673 0.680084 0.000000
0.065063 0.680145 0.000000
0.091248 0.680176 0.000000
0.118652 0.680237 0.000000
0.146179 0.680267 0.000000
0.174713 0.680298 0.000000
0.203613 0.680328 0.000000
0.232635 0.680328 0.000000
0.261047 0.680359 0.000000
0.288818 0.680420 0.000000
0.316559 0.680450 0.000000
0.345886 0.680481 0.000000
0.379883 0.680450 0.000000
0.413391 0.680450 0.000000
0.447784 0.680450 0.000000
0.485535 0.680420 0.000000
0.520782 0.680389 0.000000
0.553741 0.680389 0.000000
0.585052 0.680389 0.000000
0.616241 0.680420 0.000000
0.648102 0.680420 0.000000
0.680420 0.680420 0.000000
0.714142 0.680420 0.000000
0.748779 0.680420 0.000000
0.784241 0.680389 0.000000
0.820770 0.680359 0.000000
0.858490 0.680328 0.000000
0.895599 0.680298 0.000000
0.931458 0.680298 0.000000
0.966217 0.680267 0.000000
0.998322 0.680267 0.000000
0.000000 0.713379 0.000000
0.018616 0.713470 0.000000
0.039612 0.713562 0.000000
0.065002 0.713623 0.000000
0.091187 0.713684 0.000000
0.118591 0.713745 0.000000
0.146149 0.713776 0.000000
0.174683 0.713837 0.000000
0.203583 0.713867 0.000000
0.232605 0.713898 0.000000
0.260986 0.713959 0.000000
0.288788 0.713989 0.000000
0.316498 0.714050 0.000000
0.345886 0.714081 0.000000
0.379883 0.714081 0.000000
0.413391 0.714081 0.000000
0.447815 0.714081 0.000000
0.485565 0.714050 0.000000
0.520782 0.714050 0.000000
0.553711 0.714081 0.000000
0.585052 0.714081 0.000000
0.616211 0.714111 0.000000
0.648071 0.714142 0.000000
0.680420 0.714142 0.000000
0.714142 0.714142 0.000000
0.748779 0.714142 0.000000
0.784271 0.714142 0.000000
0.820801 0.714142 0.000000
0.858521 0.714111 0.000000
0.895599 0.714081 0.000000
0.931458 0.714081 0.000000
0.966217 0.714081 0.000000
0.998291 0.714081 0.000000
0.000000 0.747925 0.000000
0.018494 0.748016 0.000000
0.039520 0.748108 0.000000
0.064941 0.748199 0.000000
0.091156 0.748260 0.000000
0.118561 0.748291 0.000000
0.146118 0.748352 0.000000
0.174652 0.748413 0.000000
0.203552 0.748444 0.000000
0.232574 0.748474 0.000000
0.260956 0.748535 0.000000
0.288727 0.748566 0.000000
0.316467 0.748627 0.000000
0.345886 0.748657 0.000000
0.379883 0.748688 0.000000
0.413361 0.748688 0.000000
0.447815 0.748688 0.000000
0.485565 0.748657 0.000000
0.520782 0.748657 0.000000
0.553680 0.748688 0.000000
0.585022 0.748718 0.000000
0.616180 0.748749 0.000000
0.648071 0.748749 0.000000
0.680420 0.748779 0.000000
0.714142 0.748779 0.000000
0.748779 0.748779 0.000000
0.784271 0.748779 0.000000
0.820831 0.748779 0.000000
0.858551 0.748749 0.000000
0.895630 0.748749 0.000000
0.931458 0.748749 0.000000
0.966187 0.748749 0.000000
0.998260 0.748779 0.000000
0.000000 0.783234 0.000000
0.018402 0.783356 0.000000
0.039459 0.783447 0.000000
0.064880 0.783539 0.000000
0.091095 0.783600 0.000000
0.118500 0.783661 0.000000
0.146057 0.783722 0.000000
0.174591 0.783752 0.000000
0.203491 0.783813 0.000000
0.232513 0.783875 0.000000
0.260895 0.783905 0.000000
0.288696 0.783966 0.000000
0.316406 0.784027 0.000000
0.345856 0.784058 0.000000
0.379852 0.784088 0.000000
0.413361 0.784088 0.000000
0.447815 0.784119 0.000000
0.485565 0.784088 0.000000
0.520782 0.784119 0.000000
0.553680 0.784119 0.000000
0.584991 0.784149 0.000000
