Kodak 8mm - Look.cube
# Created by Benjamin (IWLTBAP) : http://luts.iwltbap.com
# Copyright: (C) Copyright 2010-2017 Triune Films and IWLTBAP SAS
# Cannot be resold, shared or otherwise redistributed
TITLE "Film Print Emulation LUTs Pack (Rec.709, sRGB, DCI-P3)"
LUT_3D_SIZE 33
0.000610 0.000610 0.000000
0.021698 0.001953 0.000977
0.040955 0.002899 0.002899
0.059265 0.006317 0.003876
0.078522 0.008759 0.006317
0.100006 0.010681 0.010193
0.118805 0.013123 0.012146
0.140411 0.014587 0.014587
0.163025 0.017029 0.017517
0.185242 0.019928 0.022858
0.208008 0.020447 0.025269
0.230988 0.021423 0.027130
0.253357 0.021881 0.028931
0.277252 0.022369 0.030212
0.300446 0.021881 0.029785
0.325012 0.021881 0.029358
0.349701 0.022369 0.032288
0.376587 0.025757 0.037292
0.403595 0.029785 0.041504
0.431213 0.032684 0.044495
0.456604 0.036163 0.049377
0.479980 0.041168 0.052277
0.503845 0.043823 0.054749
0.531219 0.048187 0.060669
0.557220 0.052826 0.064270
0.583344 0.056061 0.068115
0.611816 0.060669 0.073883
0.635590 0.064484 0.076904
0.659180 0.066559 0.080933
0.680756 0.068115 0.086212
0.702118 0.070099 0.089478
0.720581 0.073242 0.091675
0.740021 0.075684 0.093628
0.003143 0.013397 0.002350
0.021698 0.020721 0.001465
0.040955 0.021210 0.003387
0.059753 0.023651 0.007294
0.079346 0.025574 0.010193
0.102051 0.029968 0.011658
0.122101 0.033356 0.013611
0.145447 0.035309 0.016052
0.168610 0.037262 0.020905
0.191620 0.039124 0.024323
0.214813 0.039551 0.027130
0.238464 0.037720 0.028931
0.261047 0.038666 0.030640
0.285767 0.035797 0.030212
0.308929 0.035309 0.029785
0.333954 0.034332 0.031464
0.360779 0.036285 0.035797
0.387848 0.041321 0.040497
0.413696 0.043854 0.043182
0.442413 0.047394 0.048798
0.467285 0.053131 0.051971
0.491852 0.055786 0.054718
0.516327 0.059265 0.059906
0.544067 0.064514 0.063995
0.569855 0.067780 0.067444
0.597656 0.071869 0.073456
0.624451 0.076691 0.077087
0.647980 0.078735 0.081299
0.671570 0.080750 0.087921
0.692871 0.083344 0.090485
0.714417 0.087250 0.092957
0.731812 0.088654 0.095367
0.751678 0.090210 0.099274
0.007874 0.022858 0.005524
0.019501 0.027008 0.004944
0.040955 0.037567 0.003876
0.059753 0.040955 0.008270
0.079773 0.044861 0.012146
0.102722 0.047760 0.014099
0.124359 0.052429 0.015076
0.148071 0.054565 0.017975
0.171875 0.056641 0.022858
0.195526 0.057434 0.025757
0.219940 0.057037 0.028046
0.242615 0.055817 0.030212
0.268311 0.054565 0.031036
0.293060 0.052429 0.030212
0.317871 0.048737 0.030640
0.343292 0.049713 0.035034
0.369232 0.052429 0.038727
0.397980 0.054993 0.042511
0.425598 0.058594 0.047272
0.452484 0.063385 0.051117
0.478607 0.067444 0.054443
0.503052 0.070923 0.059387
0.528717 0.075928 0.063293
0.556366 0.079193 0.066986
0.582458 0.082855 0.073029
0.610992 0.088196 0.076691
0.636841 0.090942 0.081665
0.660400 0.092926 0.088104
0.684479 0.097198 0.091644
0.705261 0.099823 0.093933
0.726471 0.101807 0.098358
0.746124 0.103363 0.100647
0.763397 0.106171 0.102600
0.012604 0.035492 0.015778
0.019714 0.036255 0.015778
0.037750 0.048340 0.012268
0.062592 0.059265 0.010681
0.081390 0.063965 0.013611
0.104980 0.067383 0.015564
0.127380 0.070190 0.016541
0.154114 0.074310 0.022369
0.177094 0.077087 0.024811
0.203949 0.078094 0.027588
0.228027 0.077423 0.028931
0.253204 0.077087 0.030212
0.276489 0.073944 0.030640
0.304626 0.071716 0.030640
0.330170 0.070953 0.034271
0.356628 0.070587 0.038727
0.383972 0.071716 0.042175
0.412720 0.072113 0.046967
0.439545 0.077759 0.051117
0.466888 0.080383 0.054443
0.494934 0.085876 0.060638
0.520844 0.089294 0.064240
0.545807 0.091980 0.067444
0.574341 0.096558 0.073639
0.600708 0.100861 0.077271
0.627167 0.103363 0.082581
0.654785 0.106628 0.089630
0.678406 0.111206 0.092957
0.701996 0.113770 0.098053
0.722931 0.115692 0.100922
0.742188 0.119781 0.103302
0.761444 0.121765 0.105194
0.781250 0.123322 0.107330
0.014984 0.047577 0.021271
0.022064 0.048981 0.022064
0.036194 0.056915 0.019775
0.059845 0.071960 0.016541
0.083313 0.081390 0.015564
0.107147 0.084808 0.017029
0.130981 0.090088 0.019928
0.158295 0.092987 0.023834
0.183044 0.096069 0.026672
0.209290 0.097565 0.029358
0.236206 0.098724 0.029785
0.261383 0.097260 0.029785
0.285919 0.094879 0.030212
0.314972 0.092987 0.032684
0.342224 0.093323 0.036926
0.369965 0.092377 0.041168
0.396637 0.092377 0.045746
0.423920 0.092987 0.050842
0.453522 0.094238 0.054169
0.481873 0.099304 0.060394
0.510406 0.102356 0.064697
0.535889 0.105255 0.068329
0.563721 0.109772 0.073853
0.590088 0.113525 0.077850
0.618622 0.115997 0.084229
0.644562 0.120087 0.090302
0.670380 0.124573 0.094421
0.694550 0.127106 0.100037
0.717712 0.131927 0.103302
0.738800 0.134247 0.105469
0.759949 0.136169 0.108978
0.778351 0.137695 0.111847
0.796021 0.139221 0.113586
0.018921 0.059875 0.026001
0.022064 0.062805 0.026001
0.034149 0.067169 0.025879
0.059540 0.084137 0.021484
0.082947 0.097015 0.019165
0.111847 0.105591 0.017975
0.135620 0.110992 0.020905
0.162659 0.114868 0.024811
0.189240 0.116699 0.027130
0.216339 0.118500 0.030212
0.242676 0.119507 0.030212
0.270386 0.120026 0.029358
0.295380 0.117218 0.030640
0.326202 0.119019 0.036163
0.353424 0.117737 0.039795
0.383514 0.120270 0.044800
0.409149 0.118011 0.049683
0.438660 0.121735 0.053070
0.465759 0.120758 0.059387
0.497101 0.123413 0.064484
0.524902 0.126404 0.069214
0.553070 0.128632 0.074463
0.578217 0.132477 0.078064
0.607422 0.135742 0.084595
0.633698 0.138489 0.090637
0.659973 0.141724 0.095551
0.688080 0.146423 0.101227
0.711517 0.148132 0.104462
0.735321 0.150696 0.108856
0.755829 0.152344 0.112244
0.775604 0.156372 0.114502
0.793488 0.158234 0.116089
0.812683 0.159912 0.117981
0.023651 0.073639 0.033112
0.029175 0.075653 0.033905
0.033112 0.078613 0.034698
0.056671 0.094635 0.029663
0.081726 0.109497 0.025787
0.109558 0.121399 0.023529
0.138397 0.129730 0.021881
0.167145 0.135864 0.024811
0.194611 0.139282 0.027588
0.223969 0.140839 0.029358
0.250305 0.141907 0.028931
0.278595 0.142120 0.028931
0.306396 0.143829 0.033478
0.335999 0.145294 0.038025
0.364258 0.147339 0.042175
0.394318 0.148315 0.048492
0.421326 0.149689 0.051971
0.451416 0.150848 0.058136
0.481140 0.152557 0.063782
0.511169 0.152954 0.068329
0.541992 0.154236 0.074677
0.567108 0.156799 0.078247
0.595947 0.158386 0.083862
0.622437 0.159943 0.090820
0.649414 0.161316 0.096008
0.677216 0.163330 0.101685
0.703583 0.167389 0.105896
0.726624 0.169586 0.111298
0.750916 0.171417 0.114227
0.770752 0.172943 0.116333
0.791901 0.175873 0.119110
0.811340 0.178894 0.122711
0.828552 0.180542 0.124878
0.030731 0.087860 0.037048
0.033112 0.090027 0.037048
0.035492 0.091309 0.037048
0.058258 0.103790 0.035034
0.080261 0.120544 0.031342
0.109680 0.135742 0.029419
0.140533 0.146545 0.025757
0.171936 0.158691 0.026215
0.201111 0.161865 0.027588
0.229614 0.164917 0.028931
0.257904 0.167328 0.028503
0.285187 0.169312 0.031036
0.315063 0.170532 0.035797
0.345703 0.171753 0.039795
0.374420 0.173279 0.045746
0.405182 0.175293 0.051117
0.431915 0.176788 0.054993
0.463348 0.180939 0.062592
0.494537 0.181702 0.066986
0.523529 0.183258 0.073639
0.553436 0.183411 0.077667
0.581909 0.184753 0.082031
0.608368 0.185791 0.088776
0.635040 0.189728 0.094269
0.663879 0.191284 0.100342
0.690247 0.193207 0.104767
0.717102 0.194855 0.110626
0.741852 0.196594 0.113861
0.765106 0.197784 0.117249
0.785645 0.200256 0.121002
0.805328 0.202576 0.124756
0.824646 0.204193 0.126770
0.842804 0.205658 0.128876
0.034698 0.100708 0.040222
0.036255 0.103790 0.039429
0.037842 0.106049 0.039429
0.059265 0.113220 0.039520
0.083038 0.130341 0.036011
0.110382 0.147095 0.033752
0.141083 0.161591 0.030212
0.172363 0.176239 0.028473
0.205322 0.185272 0.028046
0.235687 0.187439 0.028503
0.263611 0.191956 0.028931
0.293182 0.194000 0.032684
0.322601 0.196594 0.038025
0.353119 0.198792 0.042175
0.384430 0.202698 0.049683
0.413971 0.204651 0.053345
0.442352 0.206696 0.060638
0.473999 0.208832 0.064941
0.505951 0.212891 0.071777
0.537323 0.214905 0.076691
0.566467 0.216156 0.081116
0.594910 0.217163 0.087769
0.620667 0.218750 0.092133
0.649689 0.222656 0.098663
0.676971 0.224976 0.103149
0.703247 0.226135 0.107605
0.731506 0.226685 0.113342
0.755249 0.227936 0.117249
0.779144 0.229279 0.123901
0.800110 0.230164 0.126648
0.820618 0.231018 0.129333
0.837921 0.234589 0.131256
0.857361 0.236877 0.133270
0.038635 0.111145 0.041779
0.040985 0.115021 0.041779
0.044739 0.119080 0.041748
0.063934 0.125916 0.043243
0.084351 0.141357 0.039734
0.112274 0.160004 0.038330
0.140472 0.175110 0.034882
0.174683 0.192596 0.032135
0.207886 0.203735 0.030121
0.240570 0.214386 0.028503
0.269501 0.216888 0.029358
0.301331 0.219482 0.035034
0.329803 0.222809 0.039795
0.362183 0.226776 0.046356
0.393219 0.228516 0.051697
0.420837 0.230835 0.056061
0.451477 0.234650 0.062836
0.484070 0.237762 0.067230
0.515717 0.239807 0.073853
0.545868 0.242249 0.079224
0.576782 0.243561 0.085663
0.605225 0.246887 0.090637
0.631317 0.248749 0.094757
0.659729 0.251953 0.101379
0.687866 0.253448 0.105499
0.715515 0.257233 0.112122
0.742950 0.257904 0.116730
0.767029 0.259247 0.123199
0.790527 0.260406 0.127350
0.811401 0.262207 0.130127
0.831299 0.262573 0.132599
0.849274 0.264069 0.136017
0.868622 0.266083 0.138916
0.044739 0.123993 0.043274
0.047577 0.126862 0.044006
0.048981 0.130890 0.044006
0.067291 0.140320 0.044739
0.084778 0.152222 0.042480
0.111603 0.171387 0.040070
0.142975 0.188965 0.038147
0.174683 0.207611 0.034393
0.210175 0.221039 0.033081
0.244141 0.233734 0.030365
0.274078 0.241455 0.031464
0.306061 0.245789 0.036926
0.337372 0.249634 0.041840
0.370056 0.251892 0.049683
0.401550 0.254639 0.053619
0.430176 0.258850 0.060638
0.460815 0.261658 0.064941
0.493713 0.264221 0.070709
0.525757 0.269104 0.075897
0.555908 0.271606 0.081116
0.586975 0.273987 0.088959
0.613892 0.275574 0.093140
0.641998 0.278412 0.099426
0.671234 0.281738 0.104034
0.698334 0.283691 0.110077
0.724701 0.285248 0.114899
0.754425 0.287048 0.122589
0.778137 0.288177 0.127136
0.801605 0.289429 0.130920
0.822540 0.292175 0.133820
0.843567 0.294556 0.138367
0.860535 0.296265 0.140167
0.879761 0.297852 0.142059
0.048981 0.136841 0.044006
0.050323 0.141174 0.044739
0.051666 0.144501 0.044739
0.067291 0.154633 0.046173
0.082825 0.164154 0.044312
0.113098 0.186371 0.042145
0.144989 0.203278 0.040497
0.179779 0.223022 0.036957
0.212036 0.238922 0.034088
0.245361 0.252441 0.033600
0.279083 0.261993 0.034546
0.313843 0.271545 0.039093
0.344360 0.274475 0.044464
0.375763 0.278015 0.051117
0.406982 0.282532 0.055267
0.439392 0.286041 0.063049
0.470459 0.287994 0.066986
0.502808 0.292725 0.073639
0.532990 0.295837 0.078247
0.564484 0.298767 0.083679
0.595947 0.300232 0.090637
0.623505 0.303101 0.095551
0.651550 0.306366 0.101837
0.678650 0.308472 0.106476
0.707977 0.310486 0.113464
0.735443 0.314758 0.118134
0.764709 0.316681 0.126068
0.788269 0.318787 0.129791
0.812073 0.319855 0.133270
0.833557 0.321411 0.138062
0.854462 0.322662 0.140594
0.871429 0.325195 0.142548
0.890472 0.327759 0.144592
0.051025 0.146149 0.044006
0.052338 0.151520 0.044739
0.053650 0.158478 0.044739
0.068939 0.168213 0.044739
0.081482 0.178497 0.045471
0.110474 0.197266 0.044037
0.146240 0.217346 0.041351
0.180298 0.237152 0.038086
0.216370 0.253784 0.036560
0.249023 0.269318 0.036896
0.281982 0.280670 0.038513
0.316803 0.292389 0.042053
0.351074 0.299622 0.047882
0.383453 0.304535 0.052795
0.415222 0.308167 0.058655
0.447266 0.311096 0.064697
0.477753 0.315460 0.070068
0.510498 0.319580 0.075684
0.541870 0.322693 0.080353
0.573761 0.327972 0.087769
0.605682 0.329803 0.092957
0.632202 0.331879 0.100037
0.661316 0.334106 0.104309
0.688568 0.338165 0.110779
0.718445 0.341370 0.116211
0.745544 0.343048 0.123322
0.774567 0.345612 0.128296
0.798462 0.349670 0.131927
0.822845 0.351196 0.138580
0.844299 0.352722 0.141327
0.865021 0.354156 0.144104
0.881744 0.355469 0.146912
0.900757 0.357269 0.150452
0.053650 0.159973 0.044739
0.055573 0.165833 0.044739
0.056824 0.173553 0.045471
0.070007 0.183075 0.046173
0.082886 0.194946 0.046173
0.113281 0.212952 0.044373
0.147583 0.230988 0.041931
0.183777 0.252960 0.040131
0.219513 0.270691 0.041565
0.253632 0.286163 0.042786
0.287811 0.299835 0.042206
0.323547 0.312561 0.046295
0.357971 0.321594 0.052002
0.391449 0.331055 0.054169
0.423645 0.334503 0.061127
0.454529 0.340332 0.065857
0.486176 0.343109 0.072815
0.518860 0.346588 0.077850
0.550537 0.352081 0.082397
0.582672 0.354675 0.089813
0.614716 0.356812 0.096497
0.641541 0.361511 0.102722
0.668549 0.363647 0.107056
0.698120 0.366333 0.113983
0.727936 0.368347 0.118896
0.755249 0.371887 0.125122
0.782745 0.374969 0.130127
0.808197 0.376831 0.134827
0.832672 0.378174 0.140808
0.853668 0.382324 0.143585
0.874207 0.384216 0.147217
0.891052 0.385742 0.150330
0.910492 0.387268 0.152069
0.056824 0.174225 0.044739
0.058044 0.179596 0.045471
0.059265 0.184998 0.045471
0.071564 0.197937 0.046173
0.083344 0.211121 0.046173
0.111023 0.222443 0.045959
0.150970 0.244751 0.044342
0.186401 0.266907 0.045685
0.225494 0.285309 0.048553
0.256897 0.301971 0.049042
0.292267 0.318939 0.048157
0.327484 0.332428 0.050659
0.362762 0.345428 0.054932
0.396606 0.354218 0.056427
0.430115 0.363678 0.062592
0.462280 0.367004 0.067230
0.494507 0.371796 0.074463
0.526794 0.375549 0.079590
0.559113 0.379150 0.086548
0.590088 0.381714 0.092133
0.621246 0.386078 0.100342
0.650543 0.388428 0.105194
0.677582 0.391541 0.111725
0.707092 0.395844 0.116455
0.734619 0.397766 0.122833
0.764374 0.399933 0.127594
0.793152 0.402679 0.132599
0.816986 0.405396 0.138062
0.841858 0.408264 0.141937
0.862946 0.410522 0.144806
0.881622 0.413116 0.149078
0.900970 0.416138 0.150909
0.920166 0.417938 0.152252
0.058655 0.184601 0.045471
0.060455 0.194153 0.046173
0.062225 0.199127 0.046173
0.072601 0.213348 0.045471
0.085602 0.225525 0.046173
0.117065 0.238800 0.046906
0.154785 0.257690 0.049866
0.192963 0.281250 0.053314
0.229980 0.299255 0.054779
0.264465 0.319061 0.054199
0.299957 0.338379 0.054138
0.335022 0.351746 0.056244
0.370087 0.366089 0.058563
0.404114 0.379028 0.061035
0.437714 0.387817 0.065552
0.471130 0.394531 0.069855
0.502716 0.399231 0.076477
0.534485 0.402283 0.081482
0.566254 0.407349 0.089142
0.597382 0.410339 0.094421
0.629456 0.412476 0.102875
0.658356 0.415802 0.108978
0.686005 0.419769 0.114532
0.715607 0.422546 0.118744
0.743561 0.424988 0.125000
0.773254 0.429962 0.129456
0.801208 0.432098 0.134705
0.826691 0.434082 0.139648
0.851044 0.436035 0.143188
0.869659 0.440338 0.145996
0.890991 0.442291 0.150238
0.910278 0.443939 0.151886
0.927673 0.445312 0.153687
0.061646 0.198334 0.046173
0.063934 0.207977 0.046173
0.066193 0.213715 0.045471
0.078125 0.227753 0.045471
0.088715 0.241028 0.046173
0.120728 0.252197 0.050995
0.157227 0.270721 0.056427
0.194489 0.295166 0.057861
0.236053 0.319366 0.059753
0.268311 0.335938 0.059174
0.306824 0.356445 0.061951
0.341400 0.373901 0.062317
0.376831 0.387024 0.061951
0.410858 0.400818 0.067413
0.445374 0.412079 0.069824
0.477203 0.419617 0.074677
0.508148 0.425201 0.078430
0.540436 0.430145 0.084595
0.573303 0.432922 0.091309
0.605164 0.436310 0.098816
0.638000 0.441071 0.105621
0.665100 0.443542 0.112396
0.695221 0.446198 0.117096
0.722931 0.449951 0.123444
0.752777 0.454163 0.127014
0.782440 0.457123 0.131500
0.810791 0.459137 0.138702
0.835938 0.462006 0.142242
0.859711 0.465393 0.147217
0.880402 0.467590 0.151123
0.901031 0.469910 0.153503
0.920898 0.472534 0.155273
0.940094 0.474609 0.157593
0.065643 0.213348 0.045471
0.068390 0.220154 0.045471
0.070526 0.229431 0.044739
0.080536 0.245300 0.046173
0.091309 0.256958 0.049652
0.126221 0.270844 0.056183
0.161011 0.286560 0.062103
0.204620 0.314270 0.063354
0.244659 0.338318 0.065552
0.279083 0.360504 0.069214
0.316010 0.377655 0.068726
0.350861 0.395416 0.068237
0.384796 0.411835 0.067688
0.419678 0.424622 0.072235
0.452972 0.435883 0.074646
0.485382 0.444397 0.079742
0.516724 0.451965 0.082214
0.549622 0.457458 0.088287
0.582092 0.460510 0.093445
0.614075 0.465546 0.101837
0.645782 0.468628 0.110901
0.674133 0.471222 0.115143
0.704620 0.474915 0.120880
0.733582 0.479279 0.127014
0.762665 0.482330 0.130341
0.790314 0.487244 0.136658
0.820801 0.489471 0.142883
0.845001 0.491852 0.147491
0.870972 0.493591 0.152374
0.890381 0.497528 0.154907
0.912567 0.499756 0.158142
0.932800 0.501007 0.162292
0.951599 0.502045 0.164307
0.070007 0.228119 0.044739
0.072601 0.234924 0.045471
0.076172 0.245605 0.046173
0.086945 0.260498 0.050323
0.095490 0.273773 0.056183
0.127472 0.290710 0.060455
0.168915 0.305359 0.065643
0.207886 0.331665 0.068604
0.252747 0.357452 0.074341
0.286591 0.380676 0.075439
0.327667 0.401794 0.075256
0.362366 0.419922 0.076752
0.396515 0.434631 0.077850
0.429810 0.447815 0.077728
0.463837 0.458557 0.081573
0.495453 0.468811 0.084717
0.526154 0.475677 0.086761
0.558075 0.482819 0.091705
0.590240 0.490112 0.096497
0.622223 0.493439 0.103882
0.654297 0.499390 0.113312
0.683777 0.501587 0.118011
0.712585 0.503723 0.124634
0.742737 0.508270 0.129791
0.773285 0.512543 0.135254
0.802856 0.515808 0.141846
0.831573 0.520599 0.148682
0.855865 0.522644 0.152740
0.880066 0.524475 0.156128
0.901276 0.526154 0.159332
0.923157 0.527679 0.162811
0.943115 0.530426 0.164398
0.961945 0.533020 0.165527
0.074677 0.243744 0.045471
0.080994 0.251282 0.046875
0.085175 0.261658 0.050995
0.093414 0.276215 0.056183
0.104156 0.293121 0.060455
0.131805 0.309692 0.065643
0.172150 0.325806 0.070007
0.214294 0.351562 0.077606
0.261475 0.381042 0.080078
0.299500 0.403839 0.082642
0.337677 0.426086 0.085175
0.375275 0.441895 0.086243
0.409119 0.458893 0.085205
0.441406 0.469330 0.084686
0.473663 0.482452 0.087372
0.504822 0.491547 0.089996
0.532776 0.501984 0.092194
0.564728 0.510193 0.096039
0.596466 0.516144 0.101166
0.630310 0.524475 0.105774
0.663116 0.528656 0.114380
0.693634 0.532288 0.121246
0.721741 0.534698 0.127136
0.752136 0.537598 0.132263
0.783386 0.541321 0.139740
0.814514 0.546448 0.144592
0.841766 0.548492 0.151581
0.865692 0.551727 0.154816
0.891022 0.554871 0.158600
0.911743 0.556671 0.162109
0.933319 0.558441 0.163788
0.952789 0.560028 0.164581
0.970154 0.561768 0.165619
0.083801 0.256256 0.048981
0.087830 0.267212 0.052979
0.091736 0.275391 0.056183
0.102631 0.294281 0.061035
0.109344 0.309448 0.065643
0.139435 0.328369 0.069458
0.175812 0.346771 0.077148
0.220306 0.371307 0.083344
0.269714 0.400879 0.086884
0.309570 0.424774 0.092560
0.348053 0.447479 0.093262
0.383148 0.463196 0.092865
0.417603 0.480072 0.094086
0.449280 0.494354 0.093903
0.480621 0.504120 0.092773
0.511902 0.514496 0.094910
0.542816 0.526611 0.098511
0.574615 0.537384 0.100433
0.606628 0.544067 0.106140
0.639618 0.550934 0.110626
0.673706 0.558502 0.116974
0.704132 0.560516 0.124878
0.731476 0.563690 0.129547
0.761993 0.567413 0.136658
0.793335 0.570587 0.142059
0.821136 0.574982 0.147400
0.851562 0.579498 0.153229
0.876007 0.581696 0.156128
0.900818 0.583893 0.159698
0.922363 0.586884 0.162201
0.943970 0.588989 0.163696
0.963165 0.590607 0.164917
0.980682 0.592224 0.166229
0.089172 0.270050 0.054932
0.093414 0.282654 0.057434
0.099518 0.291107 0.060455
0.107880 0.308838 0.065063
0.118408 0.327911 0.068909
0.145050 0.344574 0.076660
0.182220 0.368927 0.081940
0.229065 0.391266 0.088287
0.278412 0.417969 0.096985
0.317139 0.442566 0.098450
0.356201 0.465240 0.099060
0.393860 0.484375 0.100159
0.427399 0.498566 0.101807
0.458893 0.513885 0.100494
0.490082 0.524536 0.099609
0.521118 0.537628 0.098816
0.552368 0.547943 0.103516
0.584381 0.559540 0.105652
0.616486 0.567566 0.111481
0.649445 0.576233 0.117065
0.682800 0.582489 0.121063
0.712097 0.588562 0.126526
0.740021 0.591187 0.131042
0.770599 0.593811 0.138580
0.801025 0.597778 0.143799
0.829315 0.602478 0.150238
0.859497 0.605499 0.154266
0.884705 0.607758 0.157043
0.909821 0.610474 0.161743
0.931183 0.612640 0.163269
0.952423 0.614471 0.165009
0.967834 0.615753 0.165863
0.986359 0.617584 0.167175
0.094269 0.284637 0.058044
0.101868 0.296661 0.061035
0.105652 0.306213 0.064514
0.115356 0.325226 0.068390
0.123352 0.343658 0.074158
0.153870 0.362030 0.080994
0.191498 0.388397 0.086060
0.237823 0.410553 0.095062
0.285309 0.434540 0.102783
0.327881 0.459656 0.104492
0.364899 0.482574 0.108521
0.399750 0.502045 0.108124
0.434143 0.520905 0.107666
0.464813 0.532318 0.106873
0.497589 0.546326 0.105988
0.527557 0.557007 0.105438
0.559296 0.570862 0.108612
0.591522 0.580383 0.113953
0.624146 0.590790 0.116913
0.657043 0.599060 0.122192
0.690002 0.608429 0.128204
0.718719 0.613922 0.129944
0.748260 0.617401 0.132599
0.778229 0.620453 0.139862
0.807648 0.624268 0.144806
0.837494 0.627472 0.151398
0.865662 0.631042 0.155365
0.892395 0.634186 0.158966
0.919006 0.636505 0.163269
0.940216 0.638062 0.165009
0.960846 0.639648 0.166901
0.975525 0.641235 0.167847
0.989868 0.644012 0.168854
0.103027 0.300629 0.062225
0.107147 0.310394 0.065643
0.112213 0.323456 0.068390
0.122375 0.343536 0.073639
0.130280 0.361237 0.080536
0.161438 0.382935 0.085144
0.199310 0.408356 0.090881
0.246216 0.431396 0.101868
0.296387 0.454865 0.108612
0.337738 0.479218 0.114990
0.376495 0.503754 0.115448
0.411011 0.522186 0.115234
0.445282 0.540680 0.114136
0.477478 0.553864 0.114594
0.509308 0.567963 0.115479
0.539642 0.578766 0.114532
0.570618 0.592194 0.114227
0.603516 0.605865 0.120361
0.636505 0.614441 0.125427
0.669067 0.623596 0.128113
0.701477 0.633026 0.134308
0.729034 0.637817 0.135468
0.754669 0.642517 0.136749
0.785767 0.648590 0.141205
0.816193 0.651245 0.147217
0.844086 0.655487 0.153229
0.874695 0.659729 0.157043
0.900055 0.661224 0.162109
0.926941 0.662811 0.164825
0.944946 0.664001 0.166229
0.965240 0.666931 0.167847
0.978577 0.669464 0.168365
0.993164 0.671143 0.169281
0.108246 0.315796 0.066193
0.114655 0.328125 0.068909
0.120087 0.340607 0.072083
0.128113 0.359650 0.080048
0.141144 0.378845 0.085144
0.172394 0.404419 0.089142
0.207977 0.428528 0.098724
0.254272 0.451202 0.106415
0.304016 0.477814 0.118073
0.346527 0.500183 0.121521
0.385010 0.524170 0.122162
0.419128 0.542999 0.121857
0.453491 0.560120 0.122559
0.489471 0.575134 0.124023
0.521881 0.588135 0.123535
0.552216 0.602844 0.122894
0.582306 0.613647 0.123291
0.615112 0.627594 0.126556
0.649078 0.637421 0.132141
0.681488 0.648376 0.134979
0.713104 0.656952 0.139587
0.739197 0.664612 0.140106
0.764893 0.669525 0.143188
0.795319 0.673676 0.144745
0.825104 0.679871 0.150452
0.852905 0.683746 0.154816
0.884369 0.686493 0.160400
0.909332 0.689941 0.163879
0.935760 0.692535 0.166473
0.953491 0.693939 0.167603
0.969757 0.695831 0.168854
0.984467 0.697113 0.169281
0.998383 0.698364 0.169708
0.117065 0.333527 0.069489
0.121735 0.344269 0.074158
0.125916 0.357269 0.079559
0.139435 0.377350 0.084717
0.153076 0.397217 0.088715
0.180695 0.424591 0.096710
0.215149 0.449188 0.103394
0.263062 0.473816 0.114655
0.312500 0.499420 0.123352
0.354431 0.518585 0.128143
0.395355 0.542450 0.128387
0.432281 0.563812 0.131500
0.465820 0.581482 0.131439
0.498840 0.595398 0.131470
0.531097 0.610626 0.132660
0.562500 0.623596 0.134338
0.592773 0.635773 0.133057
0.624207 0.648468 0.133087
0.658661 0.662231 0.137848
0.693237 0.671448 0.142883
0.723907 0.682770 0.144684
0.748535 0.689117 0.144928
0.776154 0.695618 0.148560
0.805969 0.701569 0.150208
0.832703 0.707092 0.153900
0.861877 0.710419 0.156677
0.894226 0.715698 0.162903
0.917908 0.717529 0.165192
0.942841 0.719452 0.167603
0.956909 0.721893 0.168182
0.974823 0.725494 0.169373
0.987000 0.726288 0.169373
1.000000 0.727570 0.169800
0.122375 0.346802 0.075165
0.127167 0.359863 0.080048
0.135956 0.373993 0.083801
0.148865 0.394196 0.088287
0.161926 0.415070 0.093414
0.191895 0.443329 0.101868
0.225861 0.469635 0.108978
0.269318 0.496765 0.122040
0.317841 0.519379 0.128113
0.364746 0.537170 0.134491
0.403534 0.561340 0.138580
0.442444 0.582428 0.138458
0.478607 0.602509 0.138275
0.511169 0.615326 0.141235
0.544006 0.631989 0.142578
0.574890 0.644287 0.141998
0.605804 0.658997 0.141998
0.637115 0.669556 0.143463
0.670135 0.683197 0.144226
0.702850 0.696960 0.148773
0.735443 0.706482 0.149963
