Kodak Vision 800T (5289) - Only contrast.cube
# Created by Benjamin (IWLTBAP) : http://luts.iwltbap.com
# Copyright: (C) Copyright 2010-2017 Triune Films and IWLTBAP SAS
# Cannot be resold, shared or otherwise redistributed
TITLE "Film Print Emulation LUTs Pack (Rec.709, sRGB, DCI-P3)"
LUT_3D_SIZE 33
0.000000 0.000000 0.000000
0.042633 0.000000 0.000000
0.065613 0.000153 0.000153
0.087128 0.000336 0.000336
0.110687 0.000458 0.000458
0.136475 0.000610 0.000610
0.162598 0.000732 0.000732
0.189972 0.000854 0.000854
0.218506 0.000977 0.000977
0.247925 0.001099 0.001099
0.278687 0.001190 0.001190
0.310791 0.001312 0.001312
0.345947 0.001373 0.001373
0.381561 0.001465 0.001465
0.416260 0.001526 0.001526
0.450684 0.001617 0.001617
0.487030 0.001709 0.001709
0.523529 0.001770 0.001770
0.559235 0.001831 0.001831
0.593933 0.001923 0.001923
0.627289 0.002014 0.002014
0.659424 0.002136 0.002136
0.689850 0.002228 0.002228
0.717712 0.002380 0.002380
0.743713 0.002502 0.002502
0.767303 0.002686 0.002686
0.789398 0.002869 0.002869
0.809967 0.003052 0.003052
0.828217 0.003235 0.003235
0.845062 0.003448 0.003448
0.860931 0.003662 0.003662
0.876221 0.003876 0.003876
0.890198 0.004120 0.004120
0.000000 0.042633 0.000000
0.042542 0.042542 0.000031
0.065460 0.042572 0.000183
0.086975 0.042603 0.000336
0.110596 0.042603 0.000488
0.136353 0.042603 0.000641
0.162476 0.042603 0.000763
0.189880 0.042603 0.000885
0.218414 0.042603 0.001007
0.247864 0.042572 0.001129
0.278625 0.042542 0.001251
0.310730 0.042480 0.001343
0.345917 0.042419 0.001404
0.381531 0.042358 0.001495
0.416229 0.042297 0.001587
0.450653 0.042236 0.001648
0.487000 0.042145 0.001740
0.523499 0.042084 0.001801
0.559204 0.041992 0.001892
0.593872 0.041931 0.001953
0.627228 0.041870 0.002045
0.659363 0.041840 0.002167
0.689758 0.041809 0.002289
0.717621 0.041779 0.002411
0.743622 0.041779 0.002563
0.767181 0.041779 0.002716
0.789276 0.041809 0.002899
0.809814 0.041840 0.003113
0.828064 0.041870 0.003296
0.844910 0.041931 0.003510
0.860779 0.041992 0.003723
0.876038 0.042053 0.003967
0.890015 0.042145 0.004181
0.000153 0.065613 0.000153
0.042572 0.065460 0.000183
0.065460 0.065460 0.000336
0.086975 0.065460 0.000488
0.110596 0.065430 0.000641
0.136383 0.065399 0.000793
0.162506 0.065369 0.000916
0.189911 0.065338 0.001038
0.218475 0.065277 0.001160
0.247894 0.065216 0.001282
0.278687 0.065155 0.001404
0.310791 0.065063 0.001495
0.346008 0.064972 0.001587
0.381622 0.064880 0.001648
0.416290 0.064789 0.001740
0.450714 0.064697 0.001831
0.487091 0.064606 0.001892
0.523590 0.064484 0.001953
0.559296 0.064392 0.002045
0.593964 0.064301 0.002136
0.627319 0.064209 0.002228
0.659424 0.064117 0.002319
0.689819 0.064056 0.002441
0.717651 0.064026 0.002594
0.743652 0.063995 0.002716
0.767181 0.063965 0.002899
0.789276 0.063965 0.003082
0.809814 0.063965 0.003265
0.828033 0.063965 0.003448
0.844879 0.063995 0.003662
0.860748 0.064056 0.003906
0.876007 0.064087 0.004120
0.889954 0.064117 0.004333
0.000336 0.087128 0.000336
0.042603 0.086975 0.000336
0.065460 0.086975 0.000488
0.086975 0.086975 0.000671
0.110626 0.086975 0.000824
0.136414 0.086945 0.000946
0.162537 0.086914 0.001099
0.189941 0.086884 0.001221
0.218506 0.086853 0.001343
0.247955 0.086792 0.001465
0.278748 0.086731 0.001587
0.310883 0.086670 0.001678
0.346100 0.086578 0.001740
0.381714 0.086487 0.001831
0.416382 0.086395 0.001923
0.450806 0.086334 0.001984
0.487213 0.086243 0.002075
0.523682 0.086121 0.002136
0.559387 0.086029 0.002228
0.594055 0.085968 0.002319
0.627380 0.085876 0.002411
0.659485 0.085815 0.002502
0.689850 0.085754 0.002625
0.717682 0.085724 0.002747
0.743652 0.085693 0.002899
0.767181 0.085693 0.003082
0.789276 0.085693 0.003265
0.809784 0.085724 0.003448
0.828003 0.085754 0.003632
0.844849 0.085785 0.003845
0.860687 0.085846 0.004089
0.875946 0.085876 0.004303
0.889893 0.085938 0.004517
0.000458 0.110687 0.000458
0.042603 0.110596 0.000488
0.065430 0.110596 0.000641
0.086975 0.110626 0.000824
0.110626 0.110626 0.000977
0.136414 0.110626 0.001099
0.162567 0.110626 0.001251
0.189972 0.110626 0.001373
0.218536 0.110596 0.001495
0.247986 0.110565 0.001617
0.278809 0.110535 0.001740
0.310974 0.110474 0.001831
0.346191 0.110413 0.001892
0.381805 0.110352 0.001984
0.416473 0.110291 0.002075
0.450897 0.110229 0.002167
0.487305 0.110138 0.002228
0.523773 0.110077 0.002289
0.559448 0.110016 0.002380
0.594116 0.109955 0.002472
0.627441 0.109894 0.002563
0.659546 0.109833 0.002655
0.689880 0.109802 0.002777
0.717712 0.109802 0.002930
0.743683 0.109802 0.003082
0.767181 0.109802 0.003235
0.789246 0.109833 0.003418
0.809753 0.109863 0.003601
0.827942 0.109924 0.003815
0.844788 0.109985 0.004028
0.860626 0.110046 0.004242
0.875885 0.110107 0.004456
0.889801 0.110199 0.004700
0.000610 0.136475 0.000610
0.042603 0.136353 0.000641
0.065399 0.136383 0.000793
0.086945 0.136414 0.000946
0.110626 0.136414 0.001099
0.136414 0.136414 0.001251
0.162567 0.136414 0.001404
0.190002 0.136414 0.001526
0.218567 0.136383 0.001648
0.248016 0.136353 0.001770
0.278839 0.136322 0.001862
0.311005 0.136292 0.001984
0.346252 0.136230 0.002045
0.381866 0.136139 0.002136
0.416504 0.136078 0.002228
0.450958 0.136017 0.002289
0.487366 0.135956 0.002380
0.523865 0.135895 0.002441
0.559540 0.135803 0.002533
0.594177 0.135742 0.002625
0.627502 0.135712 0.002716
0.659576 0.135651 0.002808
0.689911 0.135620 0.002930
0.717712 0.135620 0.003082
0.743652 0.135620 0.003235
0.767151 0.135620 0.003387
0.789215 0.135651 0.003571
0.809692 0.135681 0.003754
0.827881 0.135742 0.003967
0.844727 0.135803 0.004181
0.860565 0.135864 0.004395
0.875793 0.135956 0.004639
0.889709 0.136017 0.004852
0.000732 0.162598 0.000732
0.042603 0.162476 0.000763
0.065369 0.162506 0.000916
0.086914 0.162537 0.001099
0.110626 0.162567 0.001251
0.136414 0.162567 0.001404
0.162567 0.162567 0.001526
0.190002 0.162537 0.001648
0.218597 0.162537 0.001801
0.248047 0.162506 0.001892
0.278870 0.162476 0.002014
0.311066 0.162445 0.002106
0.346313 0.162384 0.002197
0.381927 0.162323 0.002258
0.416565 0.162262 0.002350
0.451019 0.162201 0.002441
0.487457 0.162140 0.002533
0.523926 0.162048 0.002594
0.559601 0.161987 0.002686
0.594238 0.161926 0.002747
0.627533 0.161896 0.002869
0.659637 0.161835 0.002960
0.689941 0.161835 0.003082
0.717712 0.161804 0.003204
0.743652 0.161804 0.003357
0.767120 0.161835 0.003540
0.789185 0.161865 0.003723
0.809662 0.161926 0.003906
0.827820 0.161957 0.004089
0.844666 0.162048 0.004333
0.860474 0.162109 0.004547
0.875732 0.162201 0.004791
0.889618 0.162292 0.005005
0.000854 0.189972 0.000854
0.042603 0.189880 0.000885
0.065338 0.189911 0.001038
0.086884 0.189941 0.001221
0.110626 0.189972 0.001373
0.136414 0.190002 0.001526
0.162537 0.190002 0.001648
0.190002 0.190002 0.001801
0.218597 0.190002 0.001923
0.248077 0.190002 0.002045
0.278900 0.189972 0.002136
0.311127 0.189941 0.002258
0.346375 0.189911 0.002319
0.381989 0.189850 0.002411
0.416626 0.189789 0.002502
0.451080 0.189758 0.002594
0.487518 0.189697 0.002655
0.523987 0.189636 0.002716
0.559631 0.189575 0.002808
0.594269 0.189545 0.002899
0.627563 0.189514 0.002991
0.659637 0.189484 0.003113
0.689941 0.189453 0.003235
0.717712 0.189453 0.003357
0.743622 0.189484 0.003510
0.767090 0.189514 0.003662
0.789154 0.189545 0.003845
0.809601 0.189606 0.004028
0.827759 0.189667 0.004242
0.844574 0.189758 0.004456
0.860382 0.189850 0.004700
0.875641 0.189911 0.004913
0.889526 0.190033 0.005157
0.000977 0.218506 0.000977
0.042603 0.218414 0.001007
0.065277 0.218475 0.001160
0.086853 0.218506 0.001343
0.110596 0.218536 0.001495
0.136383 0.218567 0.001648
0.162537 0.218597 0.001801
0.190002 0.218597 0.001923
0.218597 0.218597 0.002045
0.248077 0.218597 0.002167
0.278900 0.218597 0.002258
0.311157 0.218567 0.002380
0.346436 0.218506 0.002441
0.382019 0.218475 0.002533
0.416656 0.218445 0.002625
0.451111 0.218384 0.002716
0.487549 0.218353 0.002777
0.524048 0.218292 0.002869
0.559692 0.218231 0.002930
0.594299 0.218201 0.003021
0.627594 0.218170 0.003113
0.659668 0.218140 0.003235
0.689941 0.218140 0.003357
0.717712 0.218140 0.003479
0.743591 0.218170 0.003632
0.767029 0.218201 0.003815
0.789093 0.218262 0.003967
0.809540 0.218323 0.004181
0.827667 0.218384 0.004395
0.844482 0.218475 0.004608
0.860291 0.218567 0.004822
0.875519 0.218658 0.005035
0.889404 0.218781 0.005280
0.001099 0.247925 0.001099
0.042572 0.247864 0.001129
0.065216 0.247894 0.001282
0.086792 0.247955 0.001465
0.110565 0.247986 0.001617
0.136353 0.248016 0.001770
0.162506 0.248047 0.001892
0.190002 0.248077 0.002045
0.218597 0.248077 0.002167
0.248077 0.248077 0.002289
0.278931 0.248077 0.002380
0.311188 0.248047 0.002502
0.346466 0.248016 0.002563
0.382050 0.247986 0.002655
0.416687 0.247955 0.002747
0.451172 0.247925 0.002838
0.487610 0.247894 0.002899
0.524078 0.247833 0.002991
0.559723 0.247803 0.003052
0.594330 0.247772 0.003143
0.627625 0.247742 0.003235
0.659668 0.247742 0.003357
0.689941 0.247711 0.003479
0.717682 0.247742 0.003601
0.743561 0.247772 0.003754
0.766998 0.247803 0.003937
0.789032 0.247864 0.004120
0.809448 0.247925 0.004303
0.827576 0.248016 0.004517
0.844391 0.248108 0.004730
0.860199 0.248199 0.004944
0.875427 0.248322 0.005157
0.889313 0.248444 0.005402
0.001190 0.278687 0.001190
0.042542 0.278625 0.001251
0.065155 0.278687 0.001404
0.086731 0.278748 0.001587
0.110535 0.278809 0.001740
0.136322 0.278839 0.001862
0.162476 0.278870 0.002014
0.189972 0.278900 0.002136
0.218597 0.278900 0.002258
0.248077 0.278931 0.002380
0.278931 0.278931 0.002502
0.311218 0.278931 0.002594
0.346497 0.278900 0.002686
0.382080 0.278870 0.002777
0.416718 0.278839 0.002869
0.451202 0.278809 0.002930
0.487640 0.278778 0.003021
0.524109 0.278748 0.003082
0.559753 0.278717 0.003174
0.594360 0.278687 0.003265
0.627625 0.278687 0.003357
0.659668 0.278656 0.003479
0.689911 0.278687 0.003601
0.717651 0.278687 0.003723
0.743530 0.278748 0.003876
0.766937 0.278778 0.004059
0.788971 0.278870 0.004242
0.809387 0.278931 0.004425
0.827484 0.279022 0.004639
0.844299 0.279114 0.004852
0.860077 0.279236 0.005066
0.875305 0.279327 0.005280
0.889191 0.279449 0.005524
0.001312 0.310791 0.001312
0.042480 0.310730 0.001343
0.065063 0.310791 0.001495
0.086670 0.310883 0.001678
0.110474 0.310974 0.001831
0.136292 0.311005 0.001984
0.162445 0.311066 0.002106
0.189941 0.311127 0.002258
0.218567 0.311157 0.002380
0.248047 0.311188 0.002502
0.278931 0.311218 0.002594
0.311218 0.311218 0.002716
0.346527 0.311218 0.002777
0.382111 0.311218 0.002869
0.416718 0.311218 0.002960
0.451202 0.311218 0.003052
0.487671 0.311188 0.003113
0.524139 0.311188 0.003204
0.559753 0.311188 0.003296
0.594360 0.311188 0.003387
0.627625 0.311188 0.003479
0.659668 0.311218 0.003601
0.689911 0.311249 0.003723
0.717590 0.311279 0.003845
0.743469 0.311340 0.003998
0.766846 0.311432 0.004150
0.788879 0.311523 0.004333
0.809265 0.311615 0.004517
0.827393 0.311737 0.004730
0.844177 0.311859 0.004944
0.859985 0.311981 0.005157
0.875183 0.312134 0.005402
0.889038 0.312286 0.005615
0.001373 0.345947 0.001373
0.042419 0.345917 0.001404
0.064972 0.346008 0.001587
0.086578 0.346100 0.001740
0.110413 0.346191 0.001892
0.136230 0.346252 0.002045
0.162384 0.346313 0.002197
0.189911 0.346375 0.002319
0.218506 0.346436 0.002441
0.248016 0.346466 0.002563
0.278900 0.346497 0.002686
0.311218 0.346527 0.002777
0.346527 0.346527 0.002869
0.382111 0.346527 0.002960
0.416718 0.346527 0.003052
0.451233 0.346527 0.003143
0.487671 0.346527 0.003235
0.524170 0.346527 0.003296
0.559753 0.346527 0.003387
0.594360 0.346527 0.003479
0.627625 0.346527 0.003571
0.659637 0.346558 0.003662
0.689850 0.346588 0.003784
0.717529 0.346649 0.003937
0.743408 0.346710 0.004089
0.766754 0.346802 0.004242
0.788788 0.346893 0.004425
0.809174 0.346985 0.004608
0.827271 0.347107 0.004822
0.844055 0.347229 0.005035
0.859833 0.347382 0.005249
0.875031 0.347534 0.005463
0.888885 0.347656 0.005707
0.001465 0.381561 0.001465
0.042358 0.381531 0.001495
0.064880 0.381622 0.001648
0.086487 0.381714 0.001831
0.110352 0.381805 0.001984
0.136139 0.381866 0.002136
0.162323 0.381927 0.002258
0.189850 0.381989 0.002411
0.218475 0.382019 0.002533
0.247986 0.382050 0.002655
0.278870 0.382080 0.002777
0.311218 0.382111 0.002869
0.346527 0.382111 0.002960
0.382111 0.382111 0.003052
0.416718 0.382111 0.003143
0.451202 0.382111 0.003235
0.487701 0.382111 0.003296
0.524170 0.382111 0.003387
0.559753 0.382080 0.003448
0.594360 0.382111 0.003540
0.627594 0.382111 0.003662
0.659607 0.382141 0.003754
0.689789 0.382172 0.003876
0.717468 0.382202 0.004028
0.743317 0.382263 0.004150
0.766663 0.382355 0.004333
0.788696 0.382446 0.004517
0.809052 0.382538 0.004700
0.827118 0.382660 0.004913
0.843903 0.382782 0.005127
0.859680 0.382935 0.005341
0.874908 0.383057 0.005554
0.888733 0.383209 0.005798
0.001526 0.416260 0.001526
0.042297 0.416229 0.001587
0.064789 0.416290 0.001740
0.086395 0.416382 0.001923
0.110291 0.416473 0.002075
0.136078 0.416504 0.002228
0.162262 0.416565 0.002350
0.189789 0.416626 0.002502
0.218445 0.416656 0.002625
0.247955 0.416687 0.002747
0.278839 0.416718 0.002869
0.311218 0.416718 0.002960
0.346527 0.416718 0.003052
0.382111 0.416718 0.003143
0.416718 0.416718 0.003204
0.451233 0.416718 0.003326
0.487701 0.416687 0.003387
0.524170 0.416687 0.003479
0.559753 0.416687 0.003540
0.594330 0.416687 0.003632
0.627563 0.416687 0.003754
0.659576 0.416687 0.003845
0.689758 0.416718 0.003967
0.717438 0.416779 0.004120
0.743256 0.416840 0.004242
0.766602 0.416901 0.004425
0.788605 0.416992 0.004608
0.808929 0.417084 0.004791
0.827026 0.417206 0.005005
0.843781 0.417328 0.005219
0.859558 0.417450 0.005432
0.874756 0.417603 0.005646
0.888580 0.417725 0.005890
0.001617 0.450684 0.001617
0.042236 0.450653 0.001648
0.064697 0.450714 0.001831
0.086334 0.450806 0.001984
0.110229 0.450897 0.002167
0.136017 0.450958 0.002289
0.162201 0.451019 0.002441
0.189758 0.451080 0.002594
0.218384 0.451111 0.002716
0.247925 0.451172 0.002838
0.278809 0.451202 0.002930
0.311218 0.451202 0.003052
0.346527 0.451233 0.003143
0.382111 0.451202 0.003235
0.416718 0.451233 0.003326
0.451233 0.451233 0.003418
0.487701 0.451233 0.003479
0.524170 0.451233 0.003571
0.559753 0.451233 0.003632
0.594330 0.451233 0.003723
0.627563 0.451233 0.003815
0.659576 0.451263 0.003937
0.689728 0.451294 0.004059
0.717377 0.451355 0.004211
0.743195 0.451447 0.004333
0.766510 0.451508 0.004517
0.788513 0.451630 0.004700
0.808838 0.451721 0.004883
0.826904 0.451843 0.005096
0.843658 0.451965 0.005310
0.859436 0.452118 0.005524
0.874634 0.452271 0.005737
0.888428 0.452423 0.005981
0.001709 0.487030 0.001709
0.042145 0.487000 0.001740
0.064606 0.487091 0.001892
0.086243 0.487213 0.002075
0.110138 0.487305 0.002228
0.135956 0.487366 0.002380
0.162140 0.487457 0.002533
0.189697 0.487518 0.002655
0.218353 0.487549 0.002777
0.247894 0.487610 0.002899
0.278778 0.487640 0.003021
0.311188 0.487671 0.003113
0.346527 0.487671 0.003235
0.382111 0.487701 0.003296
0.416687 0.487701 0.003387
0.451233 0.487701 0.003479
0.487701 0.487701 0.003571
0.524170 0.487701 0.003632
0.559753 0.487732 0.003723
0.594330 0.487732 0.003815
0.627533 0.487762 0.003906
0.659515 0.487793 0.004028
0.689667 0.487823 0.004150
0.717285 0.487885 0.004272
0.743103 0.487976 0.004425
0.766418 0.488068 0.004608
0.788391 0.488159 0.004761
0.808716 0.488281 0.004974
0.826752 0.488403 0.005157
0.843506 0.488525 0.005371
0.859283 0.488678 0.005585
0.874481 0.488831 0.005829
0.888245 0.488983 0.006042
0.001770 0.523529 0.001770
0.042084 0.523499 0.001801
0.064484 0.523590 0.001953
0.086121 0.523682 0.002136
0.110077 0.523773 0.002289
0.135895 0.523865 0.002441
0.162048 0.523926 0.002594
0.189636 0.523987 0.002716
0.218292 0.524048 0.002869
0.247833 0.524078 0.002991
0.278748 0.524109 0.003082
0.311188 0.524139 0.003204
0.346527 0.524170 0.003296
0.382111 0.524170 0.003387
0.416687 0.524170 0.003479
0.451233 0.524170 0.003571
0.487701 0.524170 0.003632
0.524170 0.524170 0.003723
0.559753 0.524200 0.003784
0.594299 0.524200 0.003876
0.627502 0.524231 0.003998
0.659485 0.524261 0.004089
0.689606 0.524292 0.004211
0.717224 0.524353 0.004364
0.743011 0.524414 0.004517
0.766296 0.524506 0.004669
0.788300 0.524628 0.004852
0.808594 0.524719 0.005035
0.826630 0.524841 0.005249
0.843384 0.524994 0.005463
0.859131 0.525116 0.005676
0.874329 0.525269 0.005890
0.888092 0.525421 0.006134
0.001831 0.559235 0.001831
0.041992 0.559204 0.001892
0.064392 0.559296 0.002045
0.086029 0.559387 0.002228
0.110016 0.559448 0.002380
0.135803 0.559540 0.002533
0.161987 0.559601 0.002686
0.189575 0.559631 0.002808
0.218231 0.559692 0.002930
0.247803 0.559723 0.003052
0.278717 0.559753 0.003174
0.311188 0.559753 0.003296
0.346527 0.559753 0.003387
0.382080 0.559753 0.003448
0.416687 0.559753 0.003540
0.451233 0.559753 0.003632
0.487732 0.559753 0.003723
0.524200 0.559753 0.003784
0.559723 0.559723 0.003876
0.594299 0.559723 0.003967
0.627472 0.559753 0.004059
0.659454 0.559784 0.004181
0.689575 0.559814 0.004303
0.717163 0.559845 0.004425
0.742950 0.559906 0.004578
0.766205 0.559998 0.004761
0.788208 0.560089 0.004944
0.808472 0.560181 0.005127
0.826508 0.560303 0.005341
0.843231 0.560425 0.005554
0.858978 0.560547 0.005768
0.874176 0.560699 0.005981
0.887939 0.560852 0.006226
0.001923 0.593933 0.001923
0.041931 0.593872 0.001953
0.064301 0.593964 0.002136
0.085968 0.594055 0.002319
0.109955 0.594116 0.002472
0.135742 0.594177 0.002625
0.161926 0.594238 0.002747
0.189545 0.594269 0.002899
0.218201 0.594299 0.003021
0.247772 0.594330 0.003143
0.278687 0.594360 0.003265
0.311188 0.594360 0.003387
0.346527 0.594360 0.003479
0.382111 0.594360 0.003540
0.416687 0.594330 0.003632
0.451233 0.594330 0.003723
0.487732 0.594330 0.003815
0.524200 0.594299 0.003876
0.559723 0.594299 0.003967
0.594269 0.594269 0.004059
0.627472 0.594299 0.004150
0.659424 0.594299 0.004272
0.689514 0.594330 0.004395
0.717102 0.594360 0.004517
0.742859 0.594421 0.004669
0.766144 0.594482 0.004852
0.788116 0.594574 0.005035
0.808380 0.594666 0.005219
0.826385 0.594788 0.005432
0.843109 0.594910 0.005615
0.858856 0.595032 0.005859
0.874023 0.595154 0.006073
0.887787 0.595276 0.006317
0.002014 0.627289 0.002014
0.041870 0.627228 0.002045
0.064209 0.627319 0.002228
0.085876 0.627380 0.002411
0.109894 0.627441 0.002563
0.135712 0.627502 0.002716
0.161896 0.627533 0.002869
0.189514 0.627563 0.002991
0.218170 0.627594 0.003113
0.247742 0.627625 0.003235
0.278687 0.627625 0.003357
0.311188 0.627625 0.003479
0.346527 0.627625 0.003571
0.382111 0.627594 0.003662
0.416687 0.627563 0.003754
0.451233 0.627563 0.003815
0.487762 0.627533 0.003906
0.524231 0.627502 0.003998
0.559753 0.627472 0.004059
0.594299 0.627472 0.004150
0.627472 0.627472 0.004272
0.659424 0.627472 0.004364
0.689484 0.627472 0.004486
0.717072 0.627533 0.004639
0.742798 0.627563 0.004791
0.766052 0.627625 0.004944
0.788025 0.627686 0.005127
0.808258 0.627777 0.005310
0.826263 0.627899 0.005524
0.842987 0.627991 0.005737
0.858734 0.628113 0.005951
0.873901 0.628235 0.006165
0.887665 0.628357 0.006409
0.002136 0.659424 0.002136
0.041840 0.659363 0.002167
0.064117 0.659424 0.002319
0.085815 0.659485 0.002502
0.109833 0.659546 0.002655
0.135651 0.659576 0.002808
0.161835 0.659637 0.002960
0.189484 0.659637 0.003113
0.218140 0.659668 0.003235
0.247742 0.659668 0.003357
0.278656 0.659668 0.003479
0.311218 0.659668 0.003601
0.346558 0.659637 0.003662
0.382141 0.659607 0.003754
0.416687 0.659576 0.003845
0.451263 0.659576 0.003937
0.487793 0.659515 0.004028
0.524261 0.659485 0.004089
0.559784 0.659454 0.004181
0.594299 0.659424 0.004272
0.627472 0.659424 0.004364
0.659424 0.659424 0.004486
0.689484 0.659424 0.004608
0.717041 0.659454 0.004730
0.742767 0.659485 0.004883
0.765991 0.659546 0.005066
0.787933 0.659607 0.005249
0.808167 0.659668 0.005432
0.826172 0.659760 0.005615
0.842896 0.659882 0.005829
0.858612 0.659973 0.006073
0.873779 0.660095 0.006287
0.887512 0.660217 0.006500
0.002228 0.689850 0.002228
0.041809 0.689758 0.002289
0.064056 0.689819 0.002441
0.085754 0.689850 0.002625
0.109802 0.689880 0.002777
0.135620 0.689911 0.002930
0.161835 0.689941 0.003082
0.189453 0.689941 0.003235
0.218140 0.689941 0.003357
0.247711 0.689941 0.003479
0.278687 0.689911 0.003601
0.311249 0.689911 0.003723
0.346588 0.689850 0.003784
0.382172 0.689789 0.003876
0.416718 0.689758 0.003967
0.451294 0.689728 0.004059
0.487823 0.689667 0.004150
0.524292 0.689606 0.004211
0.559814 0.689575 0.004303
0.594330 0.689514 0.004395
0.627472 0.689484 0.004486
0.659424 0.689484 0.004608
0.689453 0.689453 0.004730
0.717010 0.689484 0.004852
0.742706 0.689484 0.005005
0.765930 0.689514 0.005188
0.787872 0.689575 0.005371
0.808105 0.689636 0.005554
0.826080 0.689697 0.005737
0.842773 0.689789 0.005951
0.858521 0.689880 0.006195
0.873688 0.689972 0.006409
0.887390 0.690063 0.006622
0.002380 0.717712 0.002380
0.041779 0.717621 0.002411
0.064026 0.717651 0.002594
0.085724 0.717682 0.002747
0.109802 0.717712 0.002930
0.135620 0.717712 0.003082
0.161804 0.717712 0.003204
0.189453 0.717712 0.003357
0.218140 0.717712 0.003479
0.247742 0.717682 0.003601
0.278687 0.717651 0.003723
0.311279 0.717590 0.003845
0.346649 0.717529 0.003937
0.382202 0.717468 0.004028
0.416779 0.717438 0.004120
0.451355 0.717377 0.004211
0.487885 0.717285 0.004272
0.524353 0.717224 0.004364
0.559845 0.717163 0.004425
0.594360 0.717102 0.004517
0.627533 0.717072 0.004639
0.659454 0.717041 0.004730
0.689484 0.717010 0.004852
0.716980 0.716980 0.005005
0.742706 0.717010 0.005157
0.765900 0.717010 0.005310
0.787842 0.717041 0.005493
0.808044 0.717102 0.005676
0.825989 0.717163 0.005890
0.842712 0.717224 0.006104
0.858429 0.717285 0.006317
0.873596 0.717377 0.006531
0.887299 0.717468 0.006775
0.002502 0.743713 0.002502
0.041779 0.743622 0.002563
0.063995 0.743652 0.002716
0.085693 0.743652 0.002899
0.109802 0.743683 0.003082
0.135620 0.743652 0.003235
0.161804 0.743652 0.003357
0.189484 0.743622 0.003510
0.218170 0.743591 0.003632
0.247772 0.743561 0.003754
0.278748 0.743530 0.003876
0.311340 0.743469 0.003998
0.346710 0.743408 0.004089
0.382263 0.743317 0.004150
0.416840 0.743256 0.004242
0.451447 0.743195 0.004333
0.487976 0.743103 0.004425
0.524414 0.743011 0.004517
0.559906 0.742950 0.004578
0.594421 0.742859 0.004669
0.627563 0.742798 0.004791
0.659485 0.742767 0.004883
0.689484 0.742706 0.005005
0.717010 0.742706 0.005157
0.742676 0.742676 0.005310
0.765869 0.742706 0.005463
0.787811 0.742706 0.005646
0.807983 0.742737 0.005829
0.825928 0.742767 0.006042
0.842651 0.742828 0.006256
0.858368 0.742889 0.006470
0.873505 0.742950 0.006683
0.887207 0.743011 0.006927
0.002686 0.767303 0.002686
0.041779 0.767181 0.002716
0.063965 0.767181 0.002899
0.085693 0.767181 0.003082
0.109802 0.767181 0.003235
0.135620 0.767151 0.003387
0.161835 0.767120 0.003540
0.189514 0.767090 0.003662
0.218201 0.767029 0.003815
0.247803 0.766998 0.003937
0.278778 0.766937 0.004059
0.311432 0.766846 0.004150
0.346802 0.766754 0.004242
0.382355 0.766663 0.004333
0.416901 0.766602 0.004425
0.451508 0.766510 0.004517
0.488068 0.766418 0.004608
0.524506 0.766296 0.004669
0.559998 0.766205 0.004761
0.594482 0.766144 0.004852
0.627625 0.766052 0.004944
0.659546 0.765991 0.005066
0.689514 0.765930 0.005188
0.717010 0.765900 0.005310
0.742706 0.765869 0.005463
0.765869 0.765869 0.005646
0.787781 0.765869 0.005829
0.807953 0.765900 0.006012
0.825897 0.765930 0.006195
0.842590 0.765961 0.006409
0.858307 0.765991 0.006622
0.873444 0.766052 0.006866
0.887146 0.766113 0.007080
0.002869 0.789398 0.002869
0.041809 0.789276 0.002899
0.063965 0.789276 0.003082
0.085693 0.789276 0.003265
0.109833 0.789246 0.003418
0.135651 0.789215 0.003571
0.161865 0.789185 0.003723
0.189545 0.789154 0.003845
0.218262 0.789093 0.003967
0.247864 0.789032 0.004120
0.278870 0.788971 0.004242
0.311523 0.788879 0.004333
0.346893 0.788788 0.004425
0.382446 0.788696 0.004517
0.416992 0.788605 0.004608
0.451630 0.788513 0.004700
0.488159 0.788391 0.004761
0.524628 0.788300 0.004852
0.560089 0.788208 0.004944
0.594574 0.788116 0.005035
0.627686 0.788025 0.005127
