Kodak 8mm - Look.cube
# Created by Benjamin (IWLTBAP) : http://luts.iwltbap.com
# Copyright: (C) Copyright 2010-2017 Triune Films and IWLTBAP SAS
# Cannot be resold, shared or otherwise redistributed
TITLE "Film Print Emulation LUTs Pack (Rec.709, sRGB, DCI-P3)"
LUT_3D_SIZE 9
0.000610 0.000610 0.000000
0.078522 0.008759 0.006317
0.163025 0.017029 0.017517
0.253357 0.021881 0.028931
0.349701 0.022369 0.032288
0.456604 0.036163 0.049377
0.557220 0.052826 0.064270
0.659180 0.066559 0.080933
0.740021 0.075684 0.093628
0.014984 0.047577 0.021271
0.083313 0.081390 0.015564
0.183044 0.096069 0.026672
0.285919 0.094879 0.030212
0.396637 0.092377 0.045746
0.510406 0.102356 0.064697
0.618622 0.115997 0.084229
0.717712 0.131927 0.103302
0.796021 0.139221 0.113586
0.034698 0.100708 0.040222
0.083038 0.130341 0.036011
0.205322 0.185272 0.028046
0.322601 0.196594 0.038025
0.442352 0.206696 0.060638
0.566467 0.216156 0.081116
0.676971 0.224976 0.103149
0.779144 0.229279 0.123901
0.857361 0.236877 0.133270
0.051025 0.146149 0.044006
0.081482 0.178497 0.045471
0.216370 0.253784 0.036560
0.351074 0.299622 0.047882
0.477753 0.315460 0.070068
0.605682 0.329803 0.092957
0.718445 0.341370 0.116211
0.822845 0.351196 0.138580
0.900757 0.357269 0.150452
0.061646 0.198334 0.046173
0.088715 0.241028 0.046173
0.236053 0.319366 0.059753
0.376831 0.387024 0.061951
0.508148 0.425201 0.078430
0.638000 0.441071 0.105621
0.752777 0.454163 0.127014
0.859711 0.465393 0.147217
0.940094 0.474609 0.157593
0.083801 0.256256 0.048981
0.109344 0.309448 0.065643
0.269714 0.400879 0.086884
0.417603 0.480072 0.094086
0.542816 0.526611 0.098511
0.673706 0.558502 0.116974
0.793335 0.570587 0.142059
0.900818 0.583893 0.159698
0.980682 0.592224 0.166229
0.108246 0.315796 0.066193
0.141144 0.378845 0.085144
0.304016 0.477814 0.118073
0.453491 0.560120 0.122559
0.582306 0.613647 0.123291
0.713104 0.656952 0.139587
0.825104 0.679871 0.150452
0.935760 0.692535 0.166473
0.998383 0.698364 0.169708
0.133911 0.372284 0.083344
0.176910 0.446442 0.101868
0.333923 0.553528 0.140015
0.498657 0.634705 0.154694
0.625061 0.694672 0.158600
0.751556 0.746460 0.160034
0.859192 0.779480 0.168213
0.952087 0.797546 0.169464
1.000000 0.801758 0.170227
0.155670 0.408203 0.090454
0.204163 0.499084 0.120087
0.381989 0.608032 0.155670
0.543396 0.678558 0.178406
0.667511 0.745117 0.183014
0.789978 0.802643 0.183136
0.891144 0.843048 0.188141
0.957306 0.867737 0.182434
1.000000 0.879700 0.170959
0.016541 0.021271 0.059265
0.069061 0.023254 0.077545
0.170258 0.023834 0.097565
0.263947 0.027130 0.102631
0.362213 0.029785 0.103424
0.468109 0.043182 0.113312
0.568970 0.056335 0.123383
0.668640 0.068787 0.138214
0.748840 0.078064 0.150177
0.022858 0.061035 0.075653
0.084198 0.081787 0.081787
0.192139 0.104736 0.111206
0.299530 0.106781 0.115997
0.416687 0.105255 0.123566
0.524567 0.112366 0.128235
0.633362 0.122986 0.144684
0.730469 0.135834 0.160828
0.805206 0.144867 0.169495
0.045441 0.114319 0.092163
0.081696 0.148163 0.102539
0.214661 0.196594 0.112366
0.338745 0.212616 0.113983
0.463165 0.220886 0.124969
0.579254 0.227722 0.138885
0.690704 0.236359 0.157837
0.791321 0.241486 0.176636
0.868195 0.248810 0.187622
0.064514 0.171936 0.102234
0.082397 0.204376 0.103394
0.229309 0.276428 0.103882
0.369629 0.319489 0.112823
0.500122 0.332916 0.126343
0.618958 0.344299 0.148834
0.733154 0.355774 0.171326
0.835571 0.366180 0.190765
0.912720 0.376343 0.201385
0.077637 0.230103 0.103027
0.097534 0.272644 0.097931
0.252747 0.357910 0.102539
0.398499 0.422028 0.109924
0.531860 0.451111 0.135834
0.652832 0.462982 0.161865
0.773224 0.478027 0.181702
0.877319 0.489471 0.202972
0.956329 0.497009 0.213409
0.103394 0.293640 0.103790
0.127167 0.351593 0.098724
0.283417 0.444122 0.109894
0.438965 0.518280 0.126801
0.565491 0.557159 0.143250
0.689117 0.582062 0.171692
0.808502 0.593750 0.193787
0.916840 0.605438 0.210510
0.989349 0.615509 0.216675
0.128418 0.356171 0.107147
0.169128 0.427094 0.106781
0.314728 0.531036 0.132385
0.479340 0.606873 0.150146
0.610443 0.654480 0.166168
0.727417 0.689331 0.182648
0.841736 0.711182 0.202240
0.947937 0.720245 0.216064
1.000000 0.727722 0.217682
0.159943 0.413330 0.113251
0.201874 0.498871 0.126556
0.341217 0.608398 0.160461
0.522980 0.687134 0.179901
0.655823 0.743439 0.192596
0.771484 0.786316 0.198730
0.880035 0.814575 0.214905
0.952087 0.828644 0.218689
1.000000 0.832703 0.218842
0.185211 0.459229 0.147797
0.229095 0.554688 0.155914
0.373199 0.663086 0.177826
0.559753 0.736084 0.197266
0.687134 0.797729 0.208618
0.802155 0.849823 0.213562
0.903748 0.881073 0.225525
0.957306 0.902222 0.225372
1.000000 0.912079 0.219177
0.038635 0.050995 0.131805
0.062225 0.055573 0.146698
0.158539 0.040558 0.187958
0.273224 0.033478 0.208832
0.374176 0.039795 0.215302
0.479126 0.054443 0.221863
0.577820 0.067230 0.228058
0.676910 0.079224 0.240784
0.754639 0.088470 0.251892
0.052979 0.092590 0.168671
0.067841 0.103027 0.185638
0.182312 0.115326 0.214783
0.304810 0.119873 0.233948
0.423462 0.117310 0.246704
0.533813 0.125763 0.252258
0.641937 0.135468 0.265167
0.736908 0.148529 0.276215
0.812256 0.157715 0.286285
0.068390 0.147797 0.195343
0.079102 0.170990 0.212036
0.223633 0.215637 0.222534
0.334320 0.243378 0.253662
0.467529 0.256470 0.273987
0.588165 0.264404 0.286133
0.699768 0.272003 0.296600
0.799438 0.277069 0.305084
0.874725 0.282806 0.317810
0.082397 0.209106 0.209839
0.091309 0.245911 0.227234
0.235535 0.296844 0.248718
0.361450 0.340942 0.266754
0.501465 0.365692 0.276917
0.626892 0.378052 0.288849
0.741821 0.389374 0.298920
0.844849 0.399536 0.308197
0.921814 0.410004 0.317749
0.101074 0.272369 0.221558
0.123688 0.321503 0.237823
0.258850 0.398987 0.265411
0.403992 0.449768 0.276001
0.534912 0.478027 0.276520
0.661407 0.495361 0.287018
0.781799 0.509125 0.298187
0.886505 0.517792 0.304230
0.964264 0.523346 0.316711
0.132996 0.341003 0.234741
0.167969 0.403564 0.253845
0.287170 0.490295 0.282501
0.443024 0.553162 0.284454
0.568024 0.585388 0.276154
0.695099 0.611572 0.280762
0.815399 0.622833 0.288269
0.920898 0.631287 0.299133
0.997925 0.641296 0.306000
0.170776 0.408783 0.254578
0.208344 0.483215 0.272247
0.312958 0.582336 0.296631
0.489929 0.652893 0.299866
0.617981 0.694244 0.279816
0.733948 0.722260 0.277771
0.846863 0.740692 0.288544
0.952087 0.750061 0.298859
1.000000 0.757904 0.304108
0.204346 0.470428 0.280396
0.244812 0.556854 0.305695
0.340485 0.662750 0.319794
0.531372 0.742889 0.324554
0.664520 0.795502 0.301666
0.776947 0.831757 0.296478
0.882172 0.851929 0.299408
0.952087 0.862366 0.302582
1.000000 0.866852 0.305084
0.226227 0.516510 0.332092
0.277679 0.611450 0.361206
0.371399 0.720886 0.377808
0.571442 0.795502 0.396851
0.698853 0.855499 0.379425
0.813477 0.899109 0.361572
0.908875 0.924072 0.340973
0.957306 0.942596 0.328613
1.000000 0.952515 0.332611
0.051697 0.061646 0.202637
0.057434 0.067291 0.223633
0.136017 0.055542 0.262177
0.248718 0.049194 0.296875
0.371155 0.046356 0.320007
0.485962 0.060638 0.325653
0.582306 0.073639 0.332275
0.681091 0.087250 0.342987
0.758972 0.095551 0.352051
0.061646 0.107513 0.254150
0.070007 0.116364 0.285522
0.175720 0.138275 0.318115
0.291473 0.135254 0.344849
0.425751 0.126953 0.363861
0.541199 0.134949 0.371246
0.645294 0.143921 0.379822
0.741913 0.157562 0.389435
0.816345 0.166779 0.399048
0.083344 0.173981 0.292480
0.096313 0.196747 0.324890
0.218323 0.241455 0.332855
0.333435 0.263336 0.360046
0.464203 0.271942 0.389526
0.588959 0.281219 0.403503
0.699860 0.286957 0.413269
0.800934 0.294861 0.425293
0.876129 0.302155 0.437622
0.104156 0.238953 0.317963
0.119080 0.274719 0.343964
0.235229 0.323669 0.357208
0.383392 0.373199 0.386414
0.489044 0.393585 0.408203
0.623291 0.406616 0.424744
0.741150 0.419617 0.437805
0.846558 0.431549 0.448792
0.923431 0.442474 0.461243
0.121735 0.303314 0.330231
0.142273 0.355835 0.360535
0.248077 0.425232 0.390259
0.409698 0.461853 0.410950
0.518188 0.492554 0.426483
0.652649 0.519135 0.430573
0.777954 0.534454 0.444580
0.887146 0.545654 0.452972
0.967346 0.554077 0.463043
0.153870 0.376434 0.351898
0.184784 0.435577 0.378296
0.278168 0.523224 0.413422
0.444702 0.575562 0.430847
0.564209 0.602356 0.433685
0.687836 0.628662 0.436890
0.810577 0.645782 0.444885
0.925293 0.658997 0.454834
1.000000 0.669739 0.465515
0.189209 0.443939 0.370911
0.227234 0.517914 0.403198
0.310272 0.611389 0.436981
0.489502 0.676331 0.455811
0.617859 0.719940 0.457336
0.726257 0.740082 0.446167
0.843536 0.762115 0.448975
0.952087 0.775116 0.457947
1.000000 0.784424 0.465485
0.220856 0.505066 0.402588
0.265778 0.591003 0.438690
0.330444 0.697327 0.460815
0.525055 0.773895 0.490631
0.667847 0.826019 0.488312
0.776215 0.856781 0.474701
0.880585 0.874573 0.465851
0.952087 0.887695 0.465668
1.000000 0.894745 0.472778
0.243561 0.547577 0.458832
0.289276 0.641968 0.493683
0.355743 0.751984 0.514954
0.553894 0.826385 0.542633
0.694489 0.885284 0.543823
0.804169 0.924316 0.526672
0.900146 0.946808 0.508118
0.957306 0.965424 0.498871
1.000000 0.970978 0.496460
0.053650 0.062225 0.270569
0.057434 0.068909 0.294769
0.126862 0.076660 0.329132
0.228516 0.075958 0.370667
0.344727 0.067749 0.401550
0.476044 0.070801 0.421326
0.585785 0.078827 0.431580
0.682709 0.091827 0.438538
0.760223 0.100800 0.449097
0.076660 0.124634 0.331757
0.087830 0.139435 0.369019
0.175354 0.162415 0.405945
0.283569 0.157867 0.442932
0.409607 0.141815 0.467255
0.535583 0.145691 0.480804
0.646667 0.151642 0.489563
0.743988 0.164093 0.497864
0.817139 0.171692 0.502594
0.108246 0.197540 0.379211
0.123688 0.226196 0.421661
0.206268 0.268616 0.458618
0.339996 0.293365 0.478729
0.456970 0.291656 0.499695
0.584137 0.296265 0.514679
0.698303 0.301514 0.525360
0.799713 0.307159 0.533508
0.873413 0.314148 0.541656
0.128113 0.266357 0.412903
0.143677 0.303558 0.451111
0.226898 0.359741 0.482269
0.391846 0.402252 0.484894
0.495972 0.419525 0.510681
0.617615 0.425079 0.533936
0.736328 0.432739 0.547241
0.842133 0.444885 0.558899
0.917664 0.454407 0.566803
0.147766 0.333496 0.433350
0.174225 0.384033 0.473114
0.246826 0.454102 0.504700
0.423676 0.486115 0.513458
0.541290 0.529175 0.544373
0.641541 0.544647 0.553528
0.772400 0.554565 0.563507
0.877930 0.565765 0.574127
0.958221 0.572357 0.577728
0.175781 0.404846 0.455536
0.200500 0.464020 0.486786
0.267059 0.546661 0.531006
0.442169 0.592590 0.541290
0.572723 0.618408 0.562378
0.673340 0.639038 0.569122
0.798035 0.659485 0.567169
0.915527 0.675934 0.576080
0.997772 0.688049 0.581543
0.197357 0.467072 0.469849
0.239746 0.541656 0.517090
0.295776 0.638336 0.550476
0.466949 0.701447 0.566895
0.613190 0.736359 0.577911
0.715820 0.753265 0.571991
0.830750 0.773041 0.570190
0.951172 0.791412 0.580597
1.000000 0.797150 0.587280
0.230103 0.530975 0.502960
0.275391 0.613342 0.545563
0.330109 0.722412 0.576599
0.497101 0.795044 0.597626
0.657471 0.843658 0.610413
0.764618 0.870270 0.599915
0.864319 0.883911 0.587128
0.952087 0.898468 0.588409
1.000000 0.905670 0.591797
0.248993 0.568634 0.554626
0.295776 0.664276 0.598145
0.352509 0.775146 0.620544
0.521210 0.847809 0.642792
0.681274 0.901459 0.651978
0.796631 0.938751 0.640503
0.889679 0.958649 0.624756
0.957306 0.976501 0.614380
1.000000 0.984192 0.613251
0.067291 0.083344 0.334839
0.074158 0.090881 0.360229
0.133301 0.102997 0.400879
0.220520 0.105377 0.440216
0.324707 0.100220 0.473755
0.448090 0.093018 0.500946
0.570557 0.094666 0.521332
0.682983 0.098358 0.535950
0.760010 0.107758 0.545807
0.096313 0.146698 0.410797
0.108246 0.160217 0.443542
0.177155 0.181976 0.487335
0.280640 0.181458 0.526062
0.395386 0.167389 0.556519
0.518005 0.162384 0.577972
0.633636 0.162872 0.591339
0.740601 0.172058 0.599243
0.815857 0.180389 0.607513
0.132385 0.225189 0.470703
0.145325 0.250519 0.507507
0.205902 0.298126 0.551239
0.342865 0.326416 0.582092
0.458221 0.325684 0.604370
0.572601 0.317444 0.616425
0.690491 0.320587 0.628601
0.796417 0.320953 0.637390
0.869965 0.326691 0.647827
0.154114 0.296265 0.501526
0.170074 0.334900 0.540924
0.229584 0.390625 0.588379
0.386078 0.430725 0.609100
0.507080 0.446869 0.621948
0.615021 0.446686 0.637024
0.729156 0.453400 0.652100
0.835510 0.456879 0.661957
0.912415 0.465820 0.673279
0.175354 0.360535 0.526855
0.198151 0.411621 0.565247
0.245270 0.482056 0.608704
0.417023 0.524536 0.627686
0.554657 0.556488 0.633911
0.651764 0.569550 0.653076
0.765320 0.571991 0.668701
0.872589 0.576965 0.677124
0.951935 0.584412 0.686279
0.201874 0.431885 0.550079
0.225342 0.491943 0.589569
0.269043 0.572662 0.641815
0.432465 0.621124 0.649139
0.586182 0.641602 0.657227
0.686646 0.674500 0.688232
0.788818 0.684021 0.686035
0.908234 0.692139 0.688843
0.990173 0.703522 0.696991
0.224335 0.497253 0.575684
0.254425 0.567932 0.620453
0.297516 0.660492 0.658203
0.455322 0.718170 0.672394
0.612579 0.749817 0.680481
0.725037 0.768646 0.694000
0.822235 0.785553 0.696777
0.941772 0.802704 0.691864
1.000000 0.812958 0.702209
0.247467 0.553345 0.606445
0.280365 0.636658 0.643677
0.333069 0.745239 0.675934
0.482117 0.815826 0.699554
0.643127 0.858643 0.708069
0.762787 0.885986 0.710724
0.858459 0.896423 0.700806
0.952087 0.907562 0.701752
1.000000 0.916412 0.709808
0.267212 0.591248 0.649780
0.300354 0.684906 0.688965
0.352936 0.794220 0.715912
0.506592 0.866730 0.740479
0.666138 0.918243 0.752075
0.787689 0.953766 0.755280
0.878998 0.971436 0.739319
0.957306 0.985413 0.725281
1.000000 0.992157 0.725525
0.083344 0.101868 0.392456
0.090027 0.111481 0.423218
0.140015 0.124329 0.466431
0.216583 0.135101 0.497498
0.314209 0.129425 0.538422
0.432190 0.121490 0.570526
0.547546 0.114777 0.595428
0.659912 0.118500 0.619232
0.752899 0.116364 0.635559
0.117737 0.164368 0.475372
0.127167 0.179138 0.518555
0.183075 0.206268 0.567139
0.280396 0.210938 0.602234
0.392853 0.195953 0.637604
0.506409 0.189362 0.661377
0.618225 0.179077 0.681641
0.724304 0.187103 0.693146
0.810425 0.190247 0.702026
0.153076 0.249908 0.544159
0.166992 0.279449 0.589142
0.210754 0.324768 0.642242
0.352295 0.365906 0.674133
0.465332 0.364563 0.699036
0.573486 0.355530 0.715363
0.683014 0.345856 0.728973
0.785339 0.346283 0.739075
0.866669 0.346802 0.749695
0.172394 0.324890 0.580505
0.193115 0.362488 0.627625
0.238953 0.420654 0.684448
0.388031 0.465820 0.708923
0.513733 0.482422 0.725006
0.620178 0.481689 0.738647
0.725708 0.478546 0.750824
0.830048 0.483093 0.767212
0.908051 0.482574 0.775543
0.199524 0.390198 0.610199
0.222748 0.442688 0.659546
0.256653 0.513977 0.709045
0.412537 0.560364 0.736511
0.557526 0.584595 0.748688
0.663086 0.592133 0.761597
0.764160 0.594879 0.772522
0.865387 0.600006 0.784637
0.944427 0.598450 0.787659
0.221558 0.459076 0.631958
0.247437 0.518738 0.686005
0.285522 0.597717 0.735229
0.428925 0.654694 0.755249
0.585754 0.677032 0.765839
0.704803 0.699341 0.779938
0.794159 0.707092 0.786743
0.903015 0.711792 0.794556
0.984314 0.715088 0.797241
0.245605 0.520081 0.662598
0.277954 0.592773 0.710419
0.313904 0.683502 0.754669
0.451263 0.746155 0.782349
0.610016 0.770233 0.786774
0.735748 0.791718 0.796173
0.820709 0.806824 0.814880
0.937744 0.819611 0.803955
1.000000 0.820953 0.805267
0.269470 0.575195 0.688782
0.298645 0.658173 0.732239
0.334167 0.761414 0.772888
0.469208 0.832886 0.798950
0.641296 0.873932 0.809326
0.764740 0.901276 0.817444
0.865723 0.911743 0.814758
0.960785 0.918274 0.808929
1.000000 0.923309 0.810486
0.282257 0.608673 0.713806
0.314728 0.700714 0.767578
0.349457 0.808472 0.795502
0.489563 0.878052 0.821960
0.656647 0.928741 0.835327
0.780243 0.963409 0.841827
0.876434 0.983032 0.838623
0.960785 0.989075 0.823639
1.000000 0.998535 0.825714
0.097534 0.121735 0.451691
0.107544 0.131805 0.487091
0.145874 0.146179 0.538116
0.224854 0.159210 0.568573
0.309235 0.160522 0.603180
0.423309 0.155823 0.636322
0.529999 0.148315 0.668365
0.637939 0.138580 0.694702
0.728271 0.137177 0.715515
0.133301 0.186707 0.545746
0.143402 0.202454 0.592712
0.191681 0.228577 0.650269
0.287109 0.243073 0.688171
0.391479 0.230133 0.717743
0.500885 0.223419 0.744812
0.606812 0.216431 0.768036
0.709137 0.209930 0.784363
0.793152 0.210632 0.799805
0.171936 0.277161 0.623169
0.185425 0.310028 0.671936
0.218719 0.357758 0.731110
0.358246 0.400757 0.771545
0.475616 0.406219 0.798004
0.579773 0.398621 0.821869
0.681854 0.389709 0.838043
0.777222 0.377228 0.843262
0.854187 0.374359 0.851105
0.195770 0.356842 0.665222
0.219086 0.395508 0.717865
0.247589 0.454620 0.777649
0.386932 0.501190 0.816895
0.530884 0.529785 0.834717
0.635498 0.527771 0.853088
0.730469 0.520905 0.861877
0.824188 0.511444 0.869537
0.898285 0.510773 0.875977
0.224487 0.423309 0.697144
0.244019 0.474457 0.747986
0.278625 0.542633 0.812378
0.405334 0.594360 0.841370
0.566437 0.626251 0.859497
0.676758 0.637756 0.875763
0.769226 0.632233 0.881836
0.861084 0.625244 0.888184
0.935364 0.623230 0.891907
0.244507 0.490143 0.721924
0.271942 0.548859 0.779419
0.303436 0.624390 0.834717
0.421478 0.683594 0.863342
0.587463 0.720642 0.879364
0.711090 0.736816 0.894348
0.804840 0.733124 0.897217
0.895142 0.732697 0.903198
0.969086 0.735199 0.905060
0.266510 0.548676 0.748993
0.295380 0.615723 0.804321
0.323883 0.706207 0.848633
0.435333 0.771118 0.880310
0.610352 0.813202 0.900360
0.736603 0.829559 0.911652
0.837036 0.835876 0.912445
0.926849 0.833740 0.910980
0.989075 0.837006 0.917847
0.285156 0.595215 0.772095
0.313324 0.677277 0.819031
0.341217 0.781677 0.858185
0.440002 0.851135 0.893036
0.624634 0.893127 0.913940
0.754211 0.915771 0.926788
0.856720 0.924988 0.926605
0.933411 0.926270 0.936737
1.000000 0.935059 0.927399
0.295776 0.626038 0.789062
0.321289 0.717834 0.834656
0.350677 0.822510 0.871094
0.455963 0.888794 0.909119
0.631775 0.934723 0.931000
0.766663 0.969543 0.945099
0.865570 0.988708 0.946136
0.959015 0.994965 0.939209
1.000000 1.000000 0.939178
0.109344 0.135986 0.497437
0.121094 0.146179 0.537537
0.153595 0.164154 0.586365
0.228241 0.177612 0.623474
0.311920 0.186279 0.647888
0.419006 0.183258 0.689301
0.520569 0.175873 0.723358
0.621796 0.171143 0.755676
0.707397 0.160736 0.779419
0.145050 0.208710 0.598785
0.159698 0.223969 0.648712
0.195160 0.253387 0.709839
0.294403 0.273071 0.750092
0.388031 0.272369 0.774841
0.498230 0.258667 0.810974
0.600098 0.252441 0.840332
0.704468 0.245392 0.862640
0.782928 0.237976 0.876190
0.184570 0.306213 0.673828
0.198730 0.341309 0.726593
0.228424 0.388367 0.796082
0.351990 0.430023 0.836365
0.476837 0.449768 0.858521
0.585907 0.445679 0.889435
0.686829 0.435150 0.909973
0.779846 0.422943 0.920715
0.851624 0.412964 0.928345
0.213165 0.381256 0.720947
0.235870 0.424255 0.775452
0.259888 0.481567 0.832153
0.380524 0.528748 0.876404
0.527832 0.566193 0.901794
0.643677 0.569946 0.932068
0.732574 0.562347 0.948547
0.823120 0.551636 0.958008
0.889862 0.541229 0.961639
0.239441 0.445312 0.750092
0.255646 0.498016 0.802490
0.286835 0.561218 0.865112
0.391418 0.611847 0.901306
0.546967 0.655457 0.935059
0.675568 0.669861 0.960449
0.766968 0.665649 0.970001
0.853607 0.658966 0.980103
0.920959 0.648407 0.979462
0.256073 0.506622 0.774475
0.282379 0.565918 0.832092
0.310760 0.640564 0.890747
0.403290 0.699402 0.931366
0.564667 0.739990 0.959045
0.703522 0.767426 0.980255
0.800537 0.766449 0.992493
0.889557 0.759552 0.995697
0.955475 0.750885 0.989563
0.278381 0.562195 0.800781
0.301239 0.626282 0.852295
0.323120 0.715454 0.903076
0.406555 0.779785 0.941895
0.578796 0.823883 0.974304
0.717712 0.851654 0.998505
0.827606 0.858612 1.000000
0.921661 0.851471 0.999298
0.978394 0.847473 0.998260
0.295013 0.608002 0.817413
0.317169 0.687256 0.867615
0.335907 0.785034 0.912537
0.404144 0.852478 0.943848
0.581482 0.902039 0.983276
0.733551 0.935913 1.000000
0.846161 0.944305 1.000000
0.949036 0.942749 1.000000
0.996704 0.943237 1.000000
0.300629 0.632019 0.827454
0.326477 0.724915 0.875549
0.341217 0.821960 0.915161
0.417969 0.887695 0.953735
0.594299 0.939636 0.990662
0.745575 0.980957 1.000000
0.857330 0.999786 1.000000
0.959717 0.999664 1.000000
1.000000 1.000000 1.000000
