Kodak Vision3 500T (5219) - Only color.cube
# Created by Benjamin (IWLTBAP) : http://luts.iwltbap.com
# Copyright: (C) Copyright 2010-2017 Triune Films and IWLTBAP SAS
# Cannot be resold, shared or otherwise redistributed
TITLE "Film Print Emulation LUTs Pack (Rec.709, sRGB, DCI-P3)"
LUT_3D_SIZE 9
0.001587 0.001587 0.000000
0.119171 0.000549 0.000000
0.310577 0.034454 0.012604
0.401093 0.065216 0.000000
0.505310 0.084625 0.000000
0.597198 0.116547 0.000000
0.679291 0.128845 0.000000
0.800354 0.163635 0.000000
0.899567 0.202545 0.002167
0.000824 0.077484 0.022675
0.099152 0.104248 0.000000
0.321533 0.138062 0.061432
0.426880 0.159180 0.025238
0.523071 0.175415 0.000000
0.615570 0.201019 0.000000
0.698792 0.235382 0.000000
0.818054 0.272278 0.000000
0.903320 0.305450 0.000000
0.000427 0.157898 0.000000
0.098328 0.202423 0.000000
0.305634 0.218079 0.021179
0.429565 0.241608 0.000000
0.537262 0.263733 0.000000
0.628204 0.289886 0.000000
0.711548 0.322479 0.000000
0.820801 0.355652 0.000000
0.900879 0.387848 0.000153
0.007599 0.246185 0.000000
0.110077 0.283295 0.000000
0.295868 0.340668 0.000000
0.422943 0.326111 0.000000
0.548187 0.359192 0.000000
0.637756 0.387512 0.000000
0.714417 0.413269 0.000000
0.815460 0.439392 0.000000
0.895355 0.466797 0.000732
0.083923 0.342590 0.000000
0.150909 0.372925 0.000000
0.285034 0.429047 0.000000
0.427521 0.457336 0.000000
0.557495 0.437012 0.000000
0.641327 0.469116 0.000000
0.713928 0.501099 0.000000
0.813293 0.532349 0.000427
0.893188 0.556732 0.001404
0.104431 0.440643 0.000000
0.196014 0.470276 0.000000
0.292389 0.517914 0.000000
0.456024 0.569092 0.000000
0.554413 0.581207 0.000000
0.644043 0.545837 0.000000
0.721954 0.569702 0.000122
0.824493 0.598083 0.001007
0.899078 0.619263 0.002014
0.233398 0.546997 0.000000
0.283875 0.574890 0.000000
0.355194 0.606537 0.000000
0.491455 0.642212 0.000000
0.589172 0.682678 0.000336
0.651886 0.696472 0.000702
0.704956 0.656677 0.000763
0.816589 0.661285 0.001526
0.896667 0.688232 0.005768
0.320496 0.632690 0.000000
0.377350 0.665192 0.000000
0.496460 0.706757 0.000153
0.549957 0.751038 0.000732
0.604614 0.793121 0.001251
0.665161 0.831268 0.001831
0.736755 0.843658 0.002411
0.819580 0.814240 0.002686
0.887085 0.798828 0.003204
0.467834 0.744598 0.000305
0.535339 0.789978 0.000977
0.576660 0.826904 0.001404
0.605316 0.863922 0.001770
0.624878 0.891144 0.002258
0.670166 0.914307 0.002777
0.751038 0.940704 0.003540
0.844177 0.943451 0.004028
0.895020 0.909546 0.004211
0.039246 0.051910 0.104156
0.075470 0.064697 0.125549
0.262054 0.000000 0.120575
0.368896 0.000000 0.104523
0.489655 0.000000 0.079590
0.600067 0.067413 0.000000
0.684814 0.129517 0.000000
0.810272 0.180389 0.000000
0.904480 0.219666 0.002380
0.051697 0.089874 0.132263
0.083557 0.128723 0.161621
0.304321 0.154236 0.156952
0.418091 0.172089 0.117340
0.529999 0.184021 0.000000
0.627258 0.204102 0.000000
0.712921 0.238129 0.000000
0.831818 0.275482 0.000000
0.909637 0.308868 0.000000
0.079254 0.216614 0.200653
0.054932 0.226624 0.158142
0.263580 0.245697 0.090088
0.427917 0.264709 0.110382
0.537201 0.275421 0.000000
0.630951 0.302124 0.000000
0.712067 0.339752 0.000000
0.816223 0.376801 0.000000
0.895020 0.411804 0.000275
0.013672 0.309967 0.152863
0.036804 0.303986 0.103119
0.196136 0.358032 0.093689
0.411072 0.346832 0.090485
0.545898 0.373047 0.000000
0.636047 0.400604 0.000000
0.710175 0.430939 0.000000
0.810577 0.460754 0.000000
0.893311 0.489838 0.000885
0.038513 0.394989 0.112640
0.089264 0.391846 0.073883
0.209503 0.440308 0.055054
0.401276 0.484436 0.000000
0.553711 0.454132 0.098236
0.643372 0.484650 0.000000
0.717194 0.520966 0.000000
0.820862 0.550598 0.000610
0.900635 0.572937 0.001617
0.129333 0.476685 0.070374
0.173401 0.481232 0.049255
0.263794 0.532043 0.024628
0.383179 0.572113 0.000000
0.548981 0.600952 0.000000
0.631378 0.569641 0.045807
0.731079 0.587921 0.000336
0.839142 0.614410 0.001251
0.911591 0.633209 0.002289
0.247589 0.569977 0.054382
0.276642 0.579346 0.036926
0.322784 0.614929 0.000000
0.449768 0.642853 0.000000
0.573090 0.690887 0.000336
0.649384 0.717407 0.000854
0.708557 0.688599 0.001038
0.825226 0.686310 0.001770
0.903473 0.709625 0.005951
0.328461 0.646362 0.005432
0.359100 0.674774 0.000000
0.486420 0.721985 0.000214
0.538635 0.755463 0.000702
0.600250 0.802124 0.001282
0.665222 0.845337 0.001953
0.746643 0.866089 0.002625
0.838623 0.842957 0.002991
0.899445 0.825134 0.003510
0.454468 0.750671 0.000244
0.533112 0.809937 0.001129
0.574493 0.842224 0.001495
0.599121 0.870178 0.001801
0.624298 0.894806 0.002289
0.671722 0.923584 0.002899
0.756531 0.953339 0.003693
0.866913 0.964661 0.004333
0.912720 0.924103 0.004517
0.081787 0.095367 0.198761
0.079498 0.101471 0.196320
0.146484 0.099884 0.229218
0.355042 0.000000 0.213318
0.471741 0.000000 0.178741
0.578430 0.000000 0.158905
0.675446 0.069977 0.139313
0.814423 0.156708 0.106293
0.914490 0.214935 0.002441
0.088654 0.136536 0.236969
0.088348 0.165710 0.264740
0.137482 0.181671 0.277435
0.365356 0.162720 0.242523
0.505981 0.187927 0.214386
0.615356 0.225403 0.199280
0.713043 0.260590 0.171478
0.841583 0.286346 0.109467
0.923981 0.317047 0.000000
0.117218 0.196289 0.254059
0.145660 0.228027 0.280487
0.194336 0.258453 0.296600
0.412079 0.308899 0.293701
0.544525 0.327545 0.267792
0.633484 0.328217 0.209869
0.723999 0.352448 0.167938
0.842773 0.376068 0.102539
0.923157 0.405090 0.000549
0.173767 0.318726 0.320190
0.161438 0.351135 0.341858
0.137390 0.377441 0.312653
0.367554 0.390106 0.218933
0.549011 0.411224 0.269775
0.630829 0.416870 0.205627
0.713898 0.442108 0.165802
0.828796 0.465881 0.102570
0.913300 0.492218 0.001160
0.089813 0.445251 0.351807
0.138367 0.447754 0.324493
0.192902 0.446381 0.243225
0.328308 0.488098 0.230927
0.526672 0.484589 0.215759
0.641632 0.506622 0.215057
0.726196 0.537598 0.175659
0.840149 0.560364 0.079041
0.920013 0.581390 0.001923
0.213593 0.527588 0.287109
0.230927 0.527985 0.268951
0.251984 0.531586 0.242584
0.324280 0.572662 0.251801
0.532684 0.610077 0.113892
0.626404 0.595398 0.183502
0.727295 0.604065 0.233826
0.852722 0.627167 0.155182
0.932526 0.647491 0.005859
0.293091 0.605713 0.272705
0.298248 0.604095 0.232239
0.311890 0.612915 0.173920
0.392273 0.647888 0.203369
0.554413 0.694275 0.113403
0.646271 0.735718 0.000977
0.715088 0.710388 0.135406
0.832886 0.702881 0.166870
0.920868 0.731567 0.084473
0.343811 0.679840 0.170166
0.352539 0.681122 0.086426
0.436096 0.721771 0.000000
0.520172 0.770355 0.000763
0.589996 0.812927 0.069000
0.660095 0.858734 0.002014
0.748566 0.882141 0.002777
0.850464 0.866638 0.003235
0.918579 0.851105 0.003876
0.474243 0.793152 0.000702
0.499023 0.797089 0.000854
0.570801 0.852234 0.001587
0.605682 0.882965 0.001953
0.634827 0.915894 0.002594
0.683777 0.940491 0.003143
0.774902 0.974854 0.003967
0.882660 0.988159 0.004730
0.932251 0.944397 0.004822
0.093811 0.145172 0.276886
0.092255 0.148682 0.269745
0.097473 0.157745 0.288147
0.217499 0.125122 0.305786
0.445801 0.034302 0.276459
0.570160 0.000000 0.259857
0.661713 0.000000 0.236145
0.791168 0.108795 0.225739
0.902740 0.183044 0.218750
0.091888 0.190552 0.318329
0.089050 0.220062 0.350830
0.099365 0.225830 0.354126
0.230255 0.216980 0.359375
0.479980 0.187042 0.304077
0.606842 0.194580 0.283264
0.699921 0.248047 0.279785
0.831055 0.299835 0.283569
0.923065 0.337006 0.272522
0.095062 0.243408 0.348969
0.118378 0.269562 0.372681
0.147217 0.296631 0.402740
0.232849 0.310547 0.409790
0.513794 0.320129 0.352325
0.630341 0.349548 0.331848
0.723236 0.387207 0.327179
0.849731 0.409271 0.315277
0.933167 0.422607 0.292633
0.192657 0.294495 0.353210
0.210327 0.320618 0.379028
0.255249 0.359131 0.407257
0.324646 0.386810 0.413727
0.552612 0.446167 0.417053
0.652649 0.464844 0.396210
0.740570 0.470154 0.356445
0.847443 0.479126 0.325592
0.932281 0.494659 0.305328
0.221008 0.403625 0.419403
0.230621 0.437866 0.457916
0.215546 0.480499 0.490967
0.256073 0.502533 0.466980
0.512573 0.530090 0.326172
0.650146 0.545135 0.407745
0.726410 0.549866 0.353088
0.845703 0.563477 0.328491
0.933258 0.579590 0.305389
0.062225 0.559235 0.505219
0.118042 0.573242 0.515228
0.216278 0.580383 0.491058
0.318359 0.576599 0.352600
0.511047 0.613159 0.323303
0.631989 0.616669 0.324310
0.737976 0.621674 0.386749
0.865662 0.638672 0.346100
0.947357 0.655060 0.295197
0.284424 0.629364 0.465515
0.322815 0.632141 0.409943
0.353882 0.632111 0.350586
0.386841 0.648285 0.334320
0.550110 0.699280 0.291779
0.650848 0.744141 0.314026
0.725708 0.729065 0.303162
0.850006 0.721863 0.343750
0.934052 0.749817 0.332275
0.443085 0.729523 0.361145
0.462341 0.729309 0.334137
0.467743 0.726135 0.302124
0.529327 0.770203 0.274170
0.601807 0.821289 0.247589
0.662567 0.864227 0.262604
0.753845 0.886017 0.244904
0.854675 0.880066 0.231323
0.924103 0.863556 0.238129
0.562286 0.848419 0.281342
0.554199 0.847748 0.234467
0.562744 0.854370 0.147186
0.609406 0.896545 0.002258
0.642090 0.924988 0.085297
0.686462 0.953339 0.043793
0.772644 0.987488 0.179413
0.880859 1.000000 0.245575
0.938782 0.966492 0.005005
0.093170 0.196930 0.353119
0.092529 0.199249 0.343201
0.091858 0.203613 0.335144
0.114166 0.208160 0.374359
0.314880 0.146271 0.370605
0.546967 0.063721 0.322693
0.661255 0.000000 0.320343
0.777527 0.000000 0.307831
0.894043 0.132263 0.304260
0.087097 0.244446 0.401611
0.080597 0.275452 0.441956
0.085999 0.280182 0.434845
0.119873 0.280975 0.452271
0.345245 0.236938 0.426422
0.588470 0.218445 0.364502
0.694244 0.222961 0.359985
0.826202 0.266418 0.363312
0.920197 0.301788 0.361725
0.072083 0.291595 0.441925
0.064240 0.322113 0.477570
0.091980 0.349030 0.504578
0.124084 0.357178 0.512939
0.363922 0.347931 0.481201
0.614716 0.344177 0.412323
0.725037 0.366394 0.409119
0.859528 0.394562 0.411163
0.942932 0.420135 0.411469
0.150238 0.337494 0.462250
0.167786 0.362427 0.490265
0.197174 0.391846 0.514984
0.256287 0.418488 0.527374
0.363281 0.445862 0.524261
0.654419 0.469757 0.491211
0.761749 0.484985 0.476288
0.874939 0.501007 0.466797
0.959656 0.515839 0.462280
0.252533 0.395142 0.467316
0.274353 0.419830 0.490265
0.289642 0.449097 0.516815
0.343445 0.481781 0.526367
0.449829 0.517517 0.531494
0.654755 0.570953 0.533264
0.772522 0.584930 0.524506
0.881805 0.587402 0.502258
0.966675 0.590820 0.482574
0.231323 0.499512 0.526520
0.192780 0.533478 0.553467
0.162506 0.561859 0.573792
0.247345 0.595337 0.581024
0.434448 0.611694 0.554901
0.640747 0.640564 0.464172
0.750366 0.643829 0.526367
0.876862 0.649078 0.501678
0.962341 0.657471 0.480011
0.097107 0.632507 0.582550
0.113800 0.648560 0.593323
0.180084 0.665741 0.605682
0.342010 0.679840 0.573700
0.546234 0.702698 0.478912
0.653320 0.750427 0.469208
0.746979 0.749481 0.451447
0.871979 0.745453 0.500092
0.960236 0.769684 0.493103
0.357147 0.734100 0.555267
0.394287 0.747284 0.545990
0.511322 0.771729 0.506531
0.544830 0.779510 0.437195
0.610321 0.824646 0.396790
0.671112 0.872589 0.432556
0.771667 0.891998 0.419250
0.870514 0.884125 0.392395
0.942535 0.876984 0.431885
0.588287 0.873474 0.454712
0.603973 0.881866 0.421722
0.622009 0.884705 0.325714
0.631195 0.892029 0.282654
0.658844 0.931000 0.277222
0.704468 0.960571 0.360779
0.790314 0.994720 0.386932
0.886047 1.000000 0.388672
0.945709 0.975891 0.332001
0.083588 0.261047 0.453796
0.083130 0.263336 0.438995
0.084595 0.263367 0.426910
0.093140 0.265045 0.439606
0.141754 0.264221 0.481689
0.449646 0.170349 0.417938
0.644257 0.114441 0.377808
0.772186 0.076538 0.390442
0.889557 0.063629 0.404205
0.064240 0.306519 0.500214
0.045105 0.337616 0.526703
0.058685 0.338989 0.522217
0.090668 0.343048 0.526001
0.155182 0.341919 0.539734
0.519928 0.273010 0.467682
0.678589 0.262909 0.439697
0.822693 0.266113 0.448486
0.921844 0.271423 0.465607
0.032715 0.349731 0.525269
0.031097 0.381561 0.548401
0.053741 0.405487 0.569885
0.099365 0.414398 0.578064
0.199982 0.416351 0.581451
0.546295 0.381531 0.518707
0.707153 0.380554 0.491150
0.853180 0.388855 0.494659
0.941345 0.395844 0.504364
0.089630 0.391113 0.544159
0.106445 0.418091 0.567383
0.127960 0.440094 0.586182
0.185486 0.466217 0.609161
0.301270 0.478729 0.598389
0.549988 0.477264 0.552917
0.723602 0.476990 0.525818
0.869049 0.487854 0.525299
0.960052 0.494934 0.527496
0.151093 0.434937 0.559448
0.150818 0.460144 0.581329
0.167603 0.484924 0.599396
0.248749 0.517883 0.616302
0.373474 0.540466 0.601624
0.587463 0.570374 0.581146
0.809692 0.590759 0.573700
0.902252 0.588959 0.560516
0.988281 0.584900 0.549042
0.216522 0.498871 0.573090
0.194519 0.525604 0.592010
0.205109 0.549347 0.608154
0.301239 0.576508 0.620453
0.434601 0.595612 0.602173
0.623871 0.645660 0.607574
0.785889 0.669891 0.600525
0.906952 0.677765 0.592468
0.999359 0.675812 0.579651
0.117584 0.601379 0.602997
0.066345 0.622040 0.618225
0.000000 0.638733 0.640991
0.169495 0.660187 0.686005
0.362518 0.692230 0.674438
0.653809 0.747711 0.570618
0.754364 0.772034 0.548401
0.878174 0.771393 0.585693
0.986725 0.781586 0.575684
0.000031 0.733307 0.664734
0.000031 0.755096 0.680267
0.139618 0.765045 0.703247
0.315063 0.794220 0.703888
0.522186 0.814941 0.610626
0.671112 0.869720 0.543427
0.773285 0.892090 0.538574
0.877106 0.889709 0.524536
0.970276 0.882996 0.547516
0.366882 0.847076 0.656006
0.410767 0.861206 0.648285
0.480652 0.877686 0.631226
0.605499 0.901123 0.573730
0.665405 0.927002 0.493774
0.726410 0.968414 0.497681
0.809235 0.997162 0.514618
0.894989 1.000000 0.507294
0.969696 0.987610 0.501495
0.040405 0.335480 0.539886
0.043243 0.336609 0.531311
0.049683 0.335571 0.523651
0.059357 0.333832 0.515839
0.096588 0.331879 0.534119
0.217560 0.322083 0.554291
0.597961 0.205139 0.447876
0.754700 0.175934 0.451141
0.886017 0.162720 0.471680
0.023895 0.375031 0.569550
0.025208 0.405731 0.592590
0.038147 0.407532 0.589447
0.063507 0.407928 0.583801
0.117676 0.406555 0.594299
0.306793 0.404144 0.593872
0.649780 0.315277 0.503082
0.797058 0.306213 0.508209
0.915070 0.307465 0.521484
0.011169 0.412842 0.590240
0.024719 0.440033 0.617035
0.066589 0.458557 0.656647
0.097900 0.465698 0.662628
0.171753 0.466705 0.672516
0.367340 0.473175 0.639801
0.672546 0.419678 0.549194
0.826904 0.413361 0.544922
0.933167 0.418518 0.556274
0.000000 0.449310 0.609436
0.029297 0.474487 0.651245
0.106964 0.493896 0.686096
0.165588 0.515991 0.718262
0.256836 0.523895 0.719360
0.437347 0.540924 0.684448
0.704010 0.500305 0.578644
0.860382 0.500122 0.573029
0.953644 0.505981 0.579803
0.106049 0.488617 0.642273
0.111847 0.513275 0.677643
0.138672 0.533447 0.704041
0.196594 0.556488 0.743591
0.326477 0.575134 0.745880
0.515320 0.598999 0.707458
0.732941 0.581482 0.608704
0.878784 0.584900 0.599609
0.971741 0.585297 0.601624
0.078613 0.545868 0.666931
0.000000 0.567841 0.690613
0.072418 0.583496 0.718933
0.182037 0.601990 0.764984
0.351807 0.616974 0.751312
0.609070 0.642273 0.694641
0.760376 0.658234 0.670044
0.928711 0.670624 0.669861
1.000000 0.663513 0.653503
0.013916 0.607880 0.680573
0.000000 0.622406 0.705750
0.000000 0.635254 0.732330
0.199738 0.649872 0.779388
0.377106 0.670746 0.753357
0.630646 0.705353 0.704102
0.770874 0.777588 0.702271
0.896667 0.790619 0.706390
1.000000 0.796082 0.704193
0.000000 0.694885 0.717743
0.000000 0.715179 0.740601
0.000000 0.733154 0.761871
0.142212 0.752808 0.789032
0.335815 0.779968 0.787079
0.559875 0.843201 0.777222
0.797394 0.889832 0.612396
0.886261 0.902008 0.593414
0.983551 0.896210 0.650787
0.000000 0.823120 0.775421
0.000000 0.844086 0.785156
0.000000 0.858795 0.796173
0.181549 0.874237 0.844788
0.365509 0.898224 0.826416
0.725952 0.951843 0.592041
0.839661 0.995087 0.580475
0.907135 1.000000 0.577698
0.984192 1.000000 0.577179
0.017578 0.411163 0.608154
0.021881 0.411621 0.599518
0.025909 0.411407 0.592407
0.030640 0.408905 0.585449
0.070984 0.402924 0.586609
0.139526 0.404999 0.606964
0.441223 0.330017 0.575897
0.718231 0.258606 0.497192
0.875275 0.243103 0.524567
0.018921 0.440338 0.660706
0.049957 0.463379 0.698944
0.072083 0.467468 0.698273
0.083496 0.464752 0.685394
0.118774 0.466309 0.691620
0.231293 0.469421 0.707550
0.538940 0.422333 0.627350
0.772705 0.380585 0.563416
0.901367 0.366486 0.571960
0.025177 0.469177 0.699432
0.076080 0.493134 0.741730
0.105164 0.511292 0.781250
0.127625 0.515717 0.782501
0.189209 0.521576 0.784851
0.311737 0.527435 0.780823
0.602692 0.486755 0.683044
0.817474 0.456543 0.595856
0.922211 0.447540 0.600281
0.030273 0.502106 0.732422
0.090179 0.524994 0.779541
0.127869 0.542450 0.810425
0.181244 0.556122 0.861237
0.257629 0.566376 0.882172
0.364410 0.577118 0.843475
0.642883 0.551361 0.720825
0.846802 0.524811 0.636993
0.938049 0.522247 0.645111
0.090820 0.540100 0.768433
0.113983 0.559753 0.801880
0.157593 0.574188 0.852875
0.218018 0.587646 0.914307
0.319580 0.604828 0.948547
0.481720 0.620056 0.862183
0.674866 0.610992 0.766235
0.867981 0.592194 0.688690
0.954010 0.592621 0.692200
0.000000 0.583557 0.789673
0.010315 0.600128 0.836456
0.113770 0.611450 0.900848
0.205322 0.623230 0.972443
0.328705 0.639832 0.993713
0.582428 0.667908 0.837402
0.710907 0.682648 0.795349
0.878906 0.658417 0.742188
0.968109 0.654114 0.734863
0.000000 0.629333 0.825500
0.000000 0.642822 0.877441
0.083893 0.655762 0.935486
0.211792 0.674835 0.994476
0.344971 0.695190 0.995300
0.632416 0.721313 0.798248
0.754150 0.777435 0.822968
0.900116 0.772552 0.790070
1.000000 0.774902 0.800415
0.000000 0.701691 0.850464
0.000000 0.719971 0.900024
0.011688 0.736298 0.950012
0.215179 0.754272 0.994873
0.349518 0.772797 0.995697
0.630493 0.795258 0.823883
0.741150 0.870148 0.882172
0.892242 0.894745 0.796783
0.990662 0.903534 0.840637
0.000000 0.800598 0.902344
0.000000 0.816956 0.939453
0.079681 0.829987 0.981445
0.215149 0.840851 0.995270
0.329498 0.865875 0.995941
0.511353 0.889160 0.987030
0.810455 0.968964 0.778595
0.919617 1.000000 0.687927
0.987000 1.000000 0.675262
0.042206 0.473083 0.726776
0.049988 0.474396 0.714844
0.056610 0.475464 0.705414
0.064758 0.475616 0.697113
0.072632 0.474976 0.686249
0.135315 0.474030 0.714050
0.320404 0.495300 0.749481
0.666290 0.389038 0.606140
0.863068 0.353241 0.580475
0.078156 0.496674 0.784363
0.103912 0.518188 0.835754
0.116364 0.523743 0.846069
0.126831 0.525299 0.830261
0.143829 0.527344 0.814087
0.233490 0.530334 0.850433
0.418152 0.550720 0.842560
0.725006 0.449371 0.681519
0.893402 0.426941 0.630585
0.096832 0.522339 0.848114
0.128387 0.540771 0.923248
0.169281 0.554657 0.993622
0.198273 0.559906 0.993805
0.225739 0.564758 0.993958
0.312958 0.570404 0.994415
0.518463 0.587250 0.939423
0.786652 0.503113 0.730774
0.919983 0.481873 0.684784
0.114502 0.549835 0.933136
0.159546 0.565552 0.993622
0.206879 0.577789 0.993927
0.246460 0.587555 0.994171
0.293152 0.597351 0.994415
0.359558 0.604797 0.994904
0.600250 0.620667 0.995697
0.829041 0.560059 0.777771
0.939301 0.544861 0.732056
0.147217 0.579437 0.993622
0.192688 0.593353 0.993927
0.233704 0.604309 0.994202
0.281525 0.613129 0.994446
0.334686 0.625732 0.994873
0.433289 0.637543 0.995453
0.653839 0.661560 0.996033
0.857269 0.612640 0.827301
0.951874 0.602478 0.779694
0.123627 0.613770 0.993683
0.180206 0.624237 0.994049
0.235260 0.634399 0.994385
0.288849 0.644501 0.994659
0.343506 0.663147 0.995148
0.518494 0.687256 0.995911
0.693146 0.724945 0.996490
0.872162 0.676697 0.907104
0.958099 0.662750 0.852783
0.108276 0.655701 0.993805
0.169952 0.671875 0.994263
0.235962 0.684296 0.994629
0.299805 0.698822 0.994995
0.355774 0.718933 0.995483
0.562805 0.741608 0.996246
0.733978 0.793030 0.996948
0.873230 0.772675 0.993469
0.969452 0.762573 0.956482
0.074982 0.730133 0.993835
0.150818 0.744843 0.994476
0.230072 0.756500 0.994934
0.303345 0.771515 0.995361
0.362762 0.788635 0.995850
0.606934 0.804932 0.996582
0.788696 0.842499 0.995026
0.876862 0.883636 0.998199
0.996246 0.883514 0.999084
0.032104 0.806641 0.993866
0.130310 0.820374 0.994720
0.216919 0.831146 0.995239
0.298798 0.846649 0.995667
0.361053 0.861908 0.996155
0.580841 0.879059 0.996948
0.752075 0.900024 0.997711
0.874329 0.969391 0.998810
0.991241 0.999969 0.999908
