Kodak Vision 250D (5246) - Only color.cube
# Created by Benjamin (IWLTBAP) : http://luts.iwltbap.com
# Copyright: (C) Copyright 2010-2017 Triune Films and IWLTBAP SAS
# Cannot be resold, shared or otherwise redistributed
TITLE "Film Print Emulation LUTs Pack (Rec.709, sRGB, DCI-P3)"
LUT_3D_SIZE 9
0.000000 0.001617 0.001038
0.155579 0.000641 0.000092
0.324768 0.000000 0.000000
0.453125 0.000000 0.000000
0.572266 0.000000 0.000000
0.702148 0.000000 0.000000
0.819427 0.000000 0.000000
0.933014 0.000000 0.000000
1.000000 0.000000 0.000000
0.000000 0.105957 0.017212
0.144104 0.140869 0.000000
0.324982 0.149872 0.000000
0.453247 0.149719 0.000000
0.572266 0.149689 0.000000
0.702179 0.149689 0.000000
0.819550 0.149658 0.000000
0.933044 0.149658 0.000000
1.000000 0.149689 0.000000
0.000000 0.196136 0.045746
0.144440 0.227234 0.085815
0.318634 0.295868 0.018433
0.453339 0.305023 0.000000
0.572266 0.305023 0.000000
0.702179 0.305023 0.000000
0.819641 0.304993 0.000000
0.933105 0.304962 0.000000
1.000000 0.304993 0.000000
0.009949 0.280762 0.073792
0.171417 0.320099 0.125092
0.351624 0.385468 0.183502
0.457703 0.441772 0.063782
0.571838 0.447388 0.000000
0.702271 0.447052 0.000000
0.819794 0.446899 0.000000
0.933197 0.446747 0.000000
1.000000 0.446716 0.000000
0.049438 0.359375 0.102753
0.181183 0.398315 0.147614
0.372040 0.448608 0.215698
0.461700 0.509583 0.193359
0.573914 0.553070 0.089661
0.700256 0.565613 0.000000
0.820129 0.568176 0.000000
0.933441 0.567993 0.000000
1.000000 0.567932 0.000000
0.069824 0.429657 0.122955
0.173309 0.454376 0.154449
0.351196 0.494110 0.213531
0.450104 0.525146 0.255737
0.553955 0.612854 0.192017
0.694611 0.670685 0.104767
0.815704 0.692444 0.012451
0.933685 0.701935 0.000000
1.000000 0.701874 0.000000
0.078613 0.487335 0.137756
0.172150 0.505432 0.162201
0.321136 0.531464 0.202972
0.441467 0.563385 0.252075
0.531952 0.619293 0.280914
0.673645 0.730743 0.199066
0.809967 0.787201 0.116547
0.925171 0.810333 0.028717
1.000000 0.824463 0.000000
0.084625 0.537262 0.149475
0.161133 0.548431 0.162659
0.304596 0.578430 0.201569
0.433594 0.611359 0.250305
0.521790 0.653870 0.295319
0.655090 0.750916 0.288727
0.800934 0.847717 0.206116
0.916565 0.893188 0.124817
1.000000 0.917542 0.038116
0.088837 0.593628 0.160706
0.161957 0.603546 0.171570
0.295593 0.629913 0.203522
0.425995 0.665558 0.247803
0.522125 0.705109 0.300171
0.645050 0.761230 0.355103
0.790283 0.876587 0.297089
0.911285 0.957367 0.212311
1.000000 0.997894 0.125671
0.002960 0.007843 0.115326
0.091644 0.001190 0.117523
0.324738 0.000000 0.146332
0.453125 0.000000 0.146240
0.572144 0.000000 0.146271
0.702026 0.000000 0.146362
0.819397 0.000000 0.146393
0.932892 0.000000 0.146454
1.000000 0.000000 0.146515
0.000000 0.118896 0.144012
0.076202 0.140350 0.159180
0.324951 0.149750 0.146423
0.453217 0.149597 0.146332
0.572144 0.149567 0.146362
0.702057 0.149567 0.146454
0.819489 0.149536 0.146484
0.932922 0.149536 0.146515
1.000000 0.149567 0.146606
0.000000 0.212280 0.160248
0.060822 0.230774 0.168762
0.289917 0.294067 0.162598
0.453308 0.304901 0.146423
0.572144 0.304901 0.146454
0.702057 0.304901 0.146545
0.819580 0.304871 0.146576
0.932983 0.304840 0.146606
1.000000 0.304871 0.146698
0.000000 0.296356 0.177460
0.064117 0.313660 0.180725
0.204895 0.358063 0.204681
0.444794 0.434113 0.192169
0.570404 0.447174 0.154236
0.702148 0.446777 0.146698
0.819733 0.446625 0.146729
0.933075 0.446472 0.146759
0.999969 0.446442 0.146851
0.000000 0.374878 0.192352
0.077271 0.389099 0.193542
0.230011 0.419617 0.220428
0.441406 0.496185 0.259521
0.563873 0.551147 0.219330
0.698029 0.565979 0.170349
0.820068 0.567841 0.147064
0.933319 0.567688 0.147125
1.000000 0.567596 0.147186
0.000000 0.442749 0.203400
0.080353 0.452057 0.206085
0.211945 0.474121 0.227600
0.436676 0.514862 0.299500
0.552582 0.615967 0.285309
0.691132 0.673340 0.236969
0.813446 0.693542 0.185272
0.933563 0.701630 0.147430
1.000000 0.701569 0.147522
0.017975 0.500183 0.216278
0.084045 0.508575 0.219513
0.189758 0.522980 0.234985
0.422211 0.558777 0.292694
0.534515 0.627045 0.348358
0.674438 0.737152 0.303192
0.806580 0.790802 0.249756
0.923157 0.812012 0.195801
1.000000 0.824860 0.158295
0.022339 0.553314 0.229279
0.086548 0.563690 0.234924
0.175934 0.579315 0.246033
0.397308 0.608337 0.290009
0.525024 0.661865 0.358093
0.655548 0.757843 0.366364
0.796661 0.853607 0.319885
0.914215 0.896820 0.256348
1.000000 0.921143 0.203644
0.025818 0.615143 0.244659
0.089600 0.627960 0.253662
0.156250 0.647888 0.265533
0.386871 0.670044 0.299530
0.522308 0.710663 0.361359
0.639099 0.764526 0.411835
0.785889 0.883972 0.389954
0.908386 0.964508 0.328094
0.999847 0.999725 0.264648
0.020966 0.017639 0.182648
0.081787 0.012146 0.177490
0.172577 0.014374 0.192688
0.411072 0.000000 0.267120
0.572083 0.000000 0.301636
0.701996 0.000000 0.301880
0.819427 0.000000 0.301910
0.932861 0.000000 0.301727
1.000000 0.000000 0.302002
0.016724 0.126495 0.227203
0.079285 0.137756 0.239716
0.178009 0.153320 0.261200
0.424255 0.159363 0.285736
0.572083 0.149506 0.301910
0.701996 0.149506 0.301941
0.819519 0.149475 0.301971
0.932861 0.149475 0.301788
1.000000 0.149506 0.301849
0.009552 0.224579 0.264648
0.067200 0.243927 0.281982
0.153107 0.285370 0.312439
0.430542 0.312927 0.315491
0.572083 0.304840 0.301971
0.702026 0.304840 0.302002
0.819611 0.304810 0.302002
0.932861 0.304779 0.301849
0.999847 0.304810 0.301910
0.000000 0.315643 0.292419
0.062958 0.330627 0.297760
0.139496 0.370422 0.312927
0.421112 0.437378 0.316711
0.569214 0.447296 0.306122
0.702118 0.446564 0.302124
0.819763 0.446381 0.302155
0.933014 0.446259 0.302185
0.999725 0.446198 0.302246
0.000000 0.399780 0.311462
0.067505 0.408386 0.304199
0.117981 0.434357 0.314697
0.357971 0.499359 0.333130
0.551636 0.547272 0.337402
0.695801 0.566650 0.318176
0.820099 0.567566 0.302460
0.933289 0.567413 0.302490
0.999817 0.567322 0.302551
0.000977 0.465820 0.321289
0.059631 0.471741 0.314575
0.129730 0.493744 0.322144
0.287170 0.522644 0.340942
0.529663 0.607544 0.370880
0.681152 0.672455 0.359497
0.811218 0.694458 0.329102
0.933533 0.701355 0.302795
0.999847 0.701294 0.302856
0.000000 0.523132 0.332031
0.063080 0.529816 0.328857
0.133240 0.547455 0.336365
0.277496 0.577393 0.352203
0.487183 0.618774 0.396332
0.661041 0.736237 0.400055
0.799286 0.792145 0.376251
0.921539 0.813934 0.337524
0.999847 0.825348 0.310364
0.000000 0.583130 0.342224
0.063354 0.591675 0.344910
0.135406 0.608704 0.352264
0.237885 0.634766 0.366425
0.459564 0.664856 0.402008
0.639374 0.756165 0.434204
0.784149 0.853485 0.422150
0.912079 0.901001 0.383331
0.999756 0.924377 0.345154
0.000000 0.648346 0.358795
0.064087 0.656799 0.362030
0.138062 0.674713 0.370026
0.207581 0.700043 0.385223
0.430267 0.724335 0.403198
0.621643 0.761261 0.458008
0.768219 0.882904 0.461639
0.904938 0.970428 0.436157
0.999573 0.999420 0.391968
0.031250 0.029022 0.248138
0.087372 0.022308 0.241211
0.152649 0.030548 0.242126
0.284180 0.036041 0.271576
0.467438 0.004547 0.369873
0.649872 0.000000 0.421661
0.819550 0.000000 0.446442
0.932892 0.000000 0.446259
1.000000 0.000000 0.446198
0.031952 0.137848 0.299408
0.090729 0.146179 0.310089
0.154724 0.155518 0.319519
0.303802 0.162109 0.328949
0.484314 0.171936 0.394409
0.660767 0.164154 0.431274
0.819641 0.149506 0.446198
0.932922 0.149506 0.446014
0.999878 0.149536 0.445953
0.024231 0.231812 0.342224
0.073151 0.247253 0.359711
0.144073 0.275085 0.382324
0.300507 0.315918 0.424042
0.510895 0.322266 0.434235
0.678650 0.317474 0.443542
0.819733 0.304840 0.445953
0.932983 0.304840 0.445770
0.999695 0.304871 0.445709
0.023804 0.326050 0.381622
0.075989 0.342438 0.394897
0.132843 0.373322 0.416046
0.249573 0.424866 0.450775
0.517395 0.455688 0.457184
0.687195 0.454407 0.451416
0.819885 0.446259 0.445801
0.933075 0.446136 0.445618
0.999603 0.446075 0.445526
0.019531 0.419556 0.416412
0.075073 0.428162 0.419250
0.125122 0.448853 0.428223
0.271393 0.497375 0.448425
0.512329 0.549805 0.456390
0.688873 0.567139 0.457031
0.820221 0.567413 0.445801
0.933319 0.567230 0.445618
0.999664 0.567169 0.445526
0.012451 0.493500 0.436523
0.070129 0.498505 0.434448
0.128754 0.514709 0.437775
0.215240 0.543335 0.452484
0.477448 0.627563 0.465363
0.674957 0.672363 0.468414
0.809998 0.696411 0.459930
0.933563 0.701202 0.445587
0.999695 0.701141 0.445496
0.008392 0.555695 0.448822
0.065857 0.560852 0.445221
0.132843 0.576691 0.447144
0.190521 0.606476 0.460052
0.410248 0.655914 0.476501
0.642517 0.738129 0.485107
0.794830 0.794617 0.485046
0.921722 0.816742 0.464844
0.999664 0.826019 0.449219
0.002045 0.623779 0.460327
0.085022 0.627136 0.455872
0.122742 0.642487 0.459106
0.181458 0.668671 0.470062
0.350647 0.704315 0.484161
0.581207 0.766418 0.499725
0.777344 0.857117 0.510559
0.910461 0.906525 0.494446
0.999573 0.928223 0.469696
0.030792 0.689270 0.467712
0.074982 0.693146 0.465973
0.124451 0.706299 0.469025
0.181305 0.728241 0.478027
0.310547 0.753876 0.486816
0.495728 0.780975 0.502686
0.761108 0.888184 0.530090
0.902008 0.977051 0.524994
0.999451 0.999237 0.500000
0.039612 0.040314 0.312317
0.094543 0.032837 0.304016
0.154297 0.037476 0.303467
0.238831 0.052002 0.304993
0.368530 0.065491 0.354675
0.543488 0.042633 0.459869
0.728485 0.011688 0.513672
0.888123 0.000000 0.540985
1.000000 0.000000 0.563049
0.046265 0.148376 0.365387
0.102905 0.152832 0.371552
0.158813 0.158539 0.377289
0.255707 0.157837 0.367126
0.399078 0.179718 0.397797
0.565216 0.191284 0.482300
0.742371 0.181030 0.523895
0.893463 0.163147 0.544128
1.000000 0.149902 0.562714
0.037964 0.242889 0.413696
0.093475 0.252502 0.423706
0.137207 0.273956 0.443024
0.236969 0.309143 0.468811
0.422882 0.321167 0.486938
0.602905 0.338531 0.517853
0.766724 0.330414 0.539673
0.904419 0.313019 0.549286
0.999878 0.305206 0.562378
0.018188 0.333344 0.449982
0.083740 0.346100 0.457550
0.139740 0.370636 0.471832
0.202545 0.412506 0.501495
0.398621 0.457703 0.539490
0.629639 0.466156 0.546692
0.790802 0.462830 0.552765
0.916962 0.449707 0.551544
0.999756 0.446228 0.562134
0.034393 0.426453 0.481293
0.078766 0.437775 0.489380
0.140594 0.456940 0.500519
0.191986 0.493622 0.524719
0.413025 0.536896 0.551086
0.637421 0.570770 0.564484
0.794250 0.575592 0.565948
0.921021 0.568665 0.556732
0.999817 0.567261 0.562042
0.033020 0.509155 0.513245
0.085144 0.516388 0.515808
0.135162 0.531616 0.521729
0.198059 0.561890 0.534454
0.428955 0.613586 0.551819
0.636841 0.667755 0.566681
0.797058 0.694427 0.576813
0.923798 0.699768 0.565369
0.999786 0.701263 0.561920
0.025970 0.587646 0.532410
0.079712 0.594055 0.531494
0.128937 0.608154 0.533447
0.246124 0.636993 0.543518
0.402374 0.679108 0.560516
0.619537 0.755249 0.572266
0.791443 0.795837 0.581329
0.921692 0.819855 0.575531
0.999664 0.826996 0.563782
0.022186 0.660950 0.543915
0.074341 0.664551 0.539612
0.151917 0.677948 0.541260
0.235016 0.702454 0.552216
0.354736 0.731964 0.568817
0.545654 0.792969 0.580109
0.770477 0.860718 0.596802
0.909241 0.912872 0.600464
0.999542 0.932220 0.579224
0.016144 0.727325 0.552795
0.089142 0.727478 0.545837
0.151764 0.739014 0.547913
0.224823 0.760162 0.559265
0.319519 0.783081 0.571991
0.454010 0.811554 0.582947
0.739258 0.892181 0.606567
0.897980 0.983917 0.625885
0.999390 0.999176 0.605438
0.045624 0.048767 0.373657
0.099213 0.038879 0.363892
0.155396 0.041748 0.362762
0.238159 0.055023 0.364288
0.324005 0.079224 0.370056
0.445770 0.098602 0.444183
0.628540 0.078033 0.534088
0.802185 0.043732 0.598175
0.961243 0.007050 0.644989
0.054871 0.154938 0.425323
0.109955 0.159576 0.430695
0.163391 0.162170 0.432739
0.246185 0.157196 0.421753
0.339508 0.171783 0.418793
0.465393 0.207733 0.471191
0.653259 0.213654 0.554840
0.815887 0.196259 0.612427
0.969330 0.176422 0.651154
0.047760 0.252319 0.471710
0.102722 0.259796 0.478119
0.152527 0.275635 0.491333
0.210480 0.303528 0.515015
0.345398 0.310211 0.518188
0.511505 0.341736 0.530182
0.695343 0.357788 0.600861
0.840881 0.337677 0.637238
0.987244 0.318817 0.660950
0.035309 0.342255 0.506927
0.080292 0.352173 0.514038
0.148438 0.371460 0.523346
0.207672 0.406097 0.542816
0.334625 0.449127 0.583160
0.527802 0.467285 0.608185
0.732208 0.483490 0.643585
0.874298 0.466522 0.660431
0.999817 0.449249 0.668274
0.037842 0.431213 0.533936
0.099579 0.440216 0.537354
0.139923 0.456970 0.546539
0.205658 0.488678 0.571808
0.316498 0.527557 0.613861
0.542664 0.565155 0.646088
0.748657 0.581909 0.668549
0.894684 0.575897 0.673737
0.999847 0.563599 0.672302
0.034058 0.516357 0.569580
0.097382 0.523590 0.573395
0.145020 0.540222 0.583252
0.199249 0.570374 0.605957
0.375153 0.610504 0.635193
0.565491 0.650421 0.657135
0.760803 0.690613 0.688904
0.900482 0.698334 0.691284
0.999725 0.695282 0.684845
0.036377 0.602325 0.603638
0.091125 0.610870 0.605652
0.142181 0.628540 0.614105
0.255493 0.657806 0.630951
0.409363 0.688385 0.648193
0.568848 0.733215 0.670807
0.762970 0.781555 0.696716
0.905823 0.813385 0.710663
0.999542 0.820282 0.701874
0.033630 0.682709 0.623840
0.087891 0.691956 0.625305
0.146515 0.709381 0.632233
0.274048 0.733490 0.645905
0.413971 0.758423 0.661621
0.552551 0.806946 0.682159
0.759583 0.870148 0.703888
0.906036 0.914215 0.721161
0.999329 0.933685 0.712311
0.028412 0.750000 0.635162
0.080475 0.758575 0.636566
0.166809 0.770966 0.639954
0.267975 0.792084 0.654480
0.366333 0.813904 0.668457
0.473328 0.838806 0.684448
0.713135 0.918060 0.704376
0.894958 0.990875 0.734467
0.999207 0.998932 0.729370
0.049622 0.054962 0.430847
0.103088 0.045776 0.421112
0.156952 0.046906 0.420044
0.239441 0.058685 0.421173
0.323273 0.080383 0.425171
0.414032 0.116974 0.449127
0.525208 0.131622 0.516846
0.711548 0.104553 0.615570
0.868042 0.068329 0.689880
0.060577 0.160980 0.475372
0.115662 0.163879 0.478607
0.167023 0.165466 0.479309
0.246246 0.159576 0.469360
0.330902 0.168823 0.467133
0.429596 0.204224 0.473724
0.553711 0.239594 0.542755
0.734619 0.230438 0.640289
0.880615 0.205780 0.702179
0.053833 0.259033 0.522949
0.109009 0.264221 0.526459
0.158905 0.276917 0.534668
0.227875 0.298553 0.550781
0.328308 0.297211 0.548676
0.455963 0.321350 0.543182
0.606720 0.370697 0.602661
0.774933 0.365112 0.684235
0.904694 0.334778 0.721283
0.043671 0.350616 0.554565
0.092926 0.357758 0.560669
0.143372 0.373901 0.572510
0.231384 0.401703 0.593018
0.320160 0.437714 0.630066
0.459167 0.453674 0.644745
0.660736 0.488342 0.669708
0.820892 0.489349 0.730438
0.938019 0.458282 0.743866
0.037079 0.437714 0.590820
0.100983 0.444580 0.594116
0.150391 0.458466 0.603699
0.213318 0.486511 0.629242
0.313446 0.520203 0.668640
0.461121 0.556824 0.705780
0.683228 0.576111 0.717560
0.853516 0.593018 0.759338
0.978394 0.566559 0.762177
0.036499 0.517365 0.627106
0.093994 0.523468 0.630402
0.152893 0.538330 0.640839
0.218811 0.566803 0.664490
0.315277 0.606628 0.702026
0.480927 0.641754 0.726715
0.698639 0.678253 0.750946
0.873322 0.701324 0.779785
0.999634 0.690552 0.777679
0.046539 0.605011 0.666168
0.097900 0.616302 0.671600
0.149475 0.635620 0.683411
0.212036 0.666077 0.705811
0.396759 0.697388 0.726074
0.544281 0.725189 0.739624
0.711090 0.766083 0.769135
0.882965 0.807648 0.804596
0.999420 0.810822 0.798737
0.041687 0.690155 0.694092
0.097198 0.703278 0.700409
0.150055 0.724182 0.712402
0.298401 0.748627 0.726166
0.428284 0.773804 0.742157
0.548950 0.799469 0.756958
0.716980 0.845032 0.784241
0.884888 0.896179 0.819550
0.999207 0.921143 0.821533
0.038208 0.762451 0.710297
0.092133 0.774475 0.714172
0.166138 0.794952 0.725037
0.293732 0.817230 0.739471
0.422119 0.837982 0.752136
0.520935 0.863251 0.768250
0.698334 0.914734 0.792419
0.888397 0.982483 0.826019
0.999023 0.998749 0.838470
0.052612 0.060089 0.478119
0.105713 0.049927 0.468201
0.158478 0.050201 0.466858
0.239502 0.060883 0.467743
0.322418 0.080475 0.470886
0.411591 0.114868 0.490326
0.478363 0.152496 0.515564
0.608948 0.155823 0.586151
0.780334 0.120605 0.695496
0.064545 0.163055 0.520203
0.119507 0.165588 0.522614
0.170563 0.165894 0.522278
0.246338 0.158691 0.512329
0.323883 0.165161 0.511932
0.421661 0.194122 0.513702
0.497131 0.241486 0.538879
0.638123 0.258118 0.616669
0.797729 0.234528 0.713074
0.058441 0.263336 0.567902
0.113525 0.267883 0.572174
0.163910 0.278381 0.582275
0.236023 0.294312 0.598114
0.318512 0.289856 0.593018
0.438843 0.307281 0.588196
0.546265 0.359528 0.598877
0.691498 0.382477 0.674072
0.829834 0.352722 0.741943
0.050659 0.354797 0.610291
0.103058 0.360779 0.615540
0.139984 0.376038 0.630432
0.216217 0.397919 0.647644
0.320282 0.427032 0.678101
0.435852 0.438812 0.692810
0.602264 0.472015 0.678467
0.751129 0.498840 0.738312
0.870514 0.469147 0.776978
0.035156 0.441986 0.651520
0.098907 0.447906 0.654327
0.162415 0.460785 0.663177
0.210388 0.484985 0.686951
0.308197 0.515961 0.722443
0.449036 0.550476 0.759033
0.624756 0.562103 0.750885
0.793732 0.600159 0.783966
0.917572 0.575989 0.812378
0.052856 0.517303 0.683807
0.093384 0.524170 0.688354
0.154968 0.538940 0.699738
0.224182 0.564697 0.721008
0.320129 0.602081 0.754639
0.438232 0.642822 0.791290
0.644531 0.670563 0.801025
0.821136 0.701233 0.819336
0.963959 0.693085 0.843842
0.051788 0.604279 0.721344
0.105103 0.613159 0.724792
0.155060 0.631348 0.735901
0.217499 0.661224 0.757385
0.338318 0.693787 0.782715
0.486267 0.726227 0.806641
0.670532 0.754852 0.819855
0.841888 0.794983 0.853058
0.992859 0.803101 0.868561
0.045593 0.688354 0.747498
0.101990 0.705109 0.756622
0.154755 0.727692 0.770294
0.281250 0.755066 0.789001
0.419739 0.780762 0.806610
0.551575 0.806091 0.821045
0.697937 0.836578 0.842316
0.862000 0.882233 0.880371
0.999054 0.912903 0.903961
0.045990 0.763275 0.766327
0.100464 0.780029 0.774841
0.154175 0.802673 0.788849
0.313202 0.826935 0.803528
0.431641 0.850433 0.819092
0.543243 0.875610 0.836273
0.695221 0.905548 0.857819
0.864685 0.957794 0.894409
0.998840 0.998596 0.929108
0.056030 0.064301 0.523590
0.107880 0.053131 0.513458
0.159637 0.051849 0.511841
0.240784 0.063690 0.513794
0.321777 0.081146 0.516663
0.410767 0.114990 0.530670
0.476654 0.153015 0.555084
0.550659 0.180389 0.574249
0.683746 0.168274 0.660370
0.067902 0.164185 0.558838
0.123138 0.166748 0.561768
0.173737 0.165771 0.559784
0.248169 0.158508 0.549469
0.320129 0.163727 0.549866
0.417084 0.189392 0.550507
0.489014 0.236481 0.582062
0.580811 0.269653 0.606384
0.708374 0.263336 0.685760
0.063385 0.265228 0.620575
0.118286 0.268585 0.624146
0.169373 0.276550 0.632416
0.244324 0.290985 0.648102
0.314819 0.281494 0.637085
0.426361 0.295624 0.633728
0.528625 0.342346 0.637054
0.633423 0.382233 0.665222
0.754242 0.376129 0.730347
0.057953 0.356995 0.666107
0.110626 0.363037 0.671875
0.158295 0.375366 0.684357
0.207031 0.398804 0.707275
0.313782 0.424042 0.733032
0.419922 0.427094 0.737457
0.580109 0.455292 0.716431
0.698303 0.494049 0.736633
0.809357 0.486084 0.781372
0.032074 0.444244 0.710114
0.095703 0.449707 0.712616
0.158813 0.462311 0.721741
0.238831 0.485809 0.742798
0.316711 0.515106 0.774933
0.452911 0.543030 0.803162
0.610870 0.555115 0.800140
0.751282 0.595459 0.794067
0.862152 0.592285 0.833191
0.058136 0.518677 0.739349
0.110352 0.525238 0.742981
0.150391 0.540253 0.754639
0.233917 0.565704 0.774872
0.323639 0.603851 0.808350
0.441406 0.643555 0.847717
0.639282 0.672180 0.860382
0.789398 0.696014 0.842346
0.912598 0.707001 0.881531
0.046906 0.600861 0.769501
0.110107 0.608215 0.771912
0.161102 0.627838 0.784027
0.243042 0.658844 0.806641
0.326996 0.692322 0.836273
0.444214 0.730194 0.873047
0.645691 0.760712 0.890686
0.820129 0.788971 0.893005
0.949036 0.806549 0.917908
0.054657 0.681641 0.792297
0.105591 0.698303 0.800964
0.158051 0.721405 0.815613
0.232971 0.749084 0.837799
0.374207 0.777344 0.862457
0.486633 0.806763 0.887787
0.679413 0.835632 0.903320
0.840546 0.870178 0.924896
0.982300 0.903198 0.955475
0.048767 0.762421 0.816315
0.106750 0.780060 0.825867
0.160950 0.805878 0.845154
0.301392 0.832001 0.865021
0.428772 0.856995 0.883698
0.551819 0.882355 0.901031
0.702881 0.913208 0.923126
0.854309 0.952271 0.952789
0.998749 0.998474 0.997040
