Kodak Vision 500T (5263) - Look.cube
# Created by Benjamin (IWLTBAP) : http://luts.iwltbap.com
# Copyright: (C) Copyright 2010-2017 Triune Films and IWLTBAP SAS
# Cannot be resold, shared or otherwise redistributed
TITLE "Film Print Emulation LUTs Pack (Rec.709, sRGB, DCI-P3)"
LUT_3D_SIZE 5
0.000000 0.000000 0.000000
0.193420 0.022034 0.000000
0.375061 0.076172 0.030853
0.559967 0.138153 0.050568
0.751221 0.223236 0.097992
0.029907 0.170898 0.038879
0.173767 0.178528 0.054291
0.384064 0.204224 0.053986
0.569336 0.234589 0.084961
0.759186 0.289764 0.122681
0.127777 0.359161 0.101074
0.206146 0.343292 0.111450
0.350372 0.347046 0.134827
0.586700 0.402435 0.150818
0.780365 0.434235 0.178711
0.267792 0.588806 0.190399
0.315735 0.581818 0.193298
0.418121 0.550934 0.212189
0.557800 0.544159 0.240570
0.783661 0.602356 0.255524
0.398651 0.767914 0.283875
0.424255 0.768280 0.284241
0.501190 0.758087 0.289673
0.609680 0.733368 0.308380
0.735199 0.715302 0.334717
0.012573 0.000000 0.174866
0.192535 0.002380 0.218750
0.389801 0.049561 0.181183
0.559662 0.140869 0.198914
0.757446 0.214050 0.222626
0.022827 0.189575 0.217682
0.188263 0.196869 0.244904
0.384277 0.211395 0.194885
0.570984 0.241394 0.217468
0.764496 0.286438 0.235443
0.110931 0.359589 0.210938
0.197296 0.348328 0.213013
0.355164 0.363922 0.239197
0.587799 0.408356 0.250336
0.771820 0.431061 0.274689
0.246796 0.574493 0.271515
0.295807 0.564148 0.274323
0.402924 0.539795 0.288574
0.546356 0.540375 0.311340
0.771057 0.593506 0.323730
0.377106 0.767670 0.333679
0.408630 0.765808 0.337891
0.489655 0.753296 0.342560
0.596527 0.719604 0.364197
0.722412 0.704895 0.386932
0.036102 0.015778 0.370880
0.189789 0.029236 0.382629
0.378357 0.062469 0.396851
0.574097 0.116028 0.403839
0.753265 0.223053 0.392090
0.000214 0.201050 0.401215
0.173340 0.198181 0.426147
0.388458 0.201050 0.424622
0.589722 0.223694 0.419464
0.762421 0.290253 0.404327
0.144287 0.372650 0.399384
0.232727 0.381470 0.418427
0.399628 0.404877 0.465820
0.592590 0.419830 0.413300
0.774017 0.440430 0.432404
0.228271 0.567566 0.419006
0.283112 0.561462 0.419891
0.395569 0.543304 0.422546
0.554657 0.564850 0.453308
0.773438 0.603638 0.458160
0.350739 0.755920 0.458618
0.383942 0.749573 0.460083
0.468689 0.735016 0.467377
0.578735 0.708740 0.482025
0.707153 0.702545 0.496582
0.141907 0.050995 0.524780
0.226013 0.064362 0.534760
0.383057 0.096863 0.558014
0.569763 0.146423 0.581146
0.767395 0.207458 0.598267
0.104218 0.201965 0.568146
0.216400 0.204010 0.574097
0.387817 0.215454 0.587860
0.580139 0.242737 0.603302
0.773956 0.280670 0.607635
0.081024 0.403595 0.609436
0.167999 0.410492 0.631592
0.391571 0.407166 0.655457
0.598846 0.412231 0.648010
0.791626 0.428558 0.634369
0.269684 0.580475 0.606171
0.320068 0.576355 0.607544
0.441620 0.582825 0.630768
0.600464 0.604218 0.676147
0.777557 0.611908 0.613007
0.338654 0.747620 0.606720
0.373596 0.743408 0.606995
0.460449 0.729034 0.607025
0.573242 0.711975 0.611359
0.710266 0.722046 0.633270
0.233887 0.090851 0.677734
0.286224 0.101990 0.687683
0.410309 0.131165 0.715729
0.580658 0.179169 0.749084
0.764526 0.235413 0.769226
0.221191 0.214722 0.713013
0.280273 0.219360 0.720825
0.415314 0.235413 0.740845
0.586670 0.262909 0.766541
0.769867 0.299927 0.781403
0.155182 0.409973 0.796295
0.248535 0.410309 0.800720
0.417633 0.412964 0.806458
0.596130 0.423157 0.812500
0.779907 0.440735 0.812927
0.263062 0.597412 0.795959
0.309296 0.596283 0.800201
0.413666 0.606873 0.830414
0.592468 0.604401 0.865021
0.780670 0.601959 0.841980
0.373688 0.753448 0.778931
0.407410 0.750183 0.777832
0.492188 0.740021 0.778229
0.612915 0.742828 0.800537
0.743958 0.747131 0.825867
