Kodak Vision3 500T (5219) - Look 2.cube
# Created by Benjamin (IWLTBAP) : http://luts.iwltbap.com
# Copyright: (C) Copyright 2010-2017 Triune Films and IWLTBAP SAS
# Cannot be resold, shared or otherwise redistributed
TITLE "Film Print Emulation LUTs Pack (Rec.709, sRGB, DCI-P3)"
LUT_3D_SIZE 9
0.000000 0.000793 0.000000
0.072357 0.013580 0.000000
0.151398 0.049469 0.000000
0.231598 0.071442 0.000000
0.309967 0.096008 0.000000
0.397675 0.125000 0.000000
0.481659 0.162811 0.000000
0.565033 0.205231 0.000000
0.653717 0.249878 0.000000
0.041748 0.092163 0.000000
0.103790 0.092163 0.000000
0.196014 0.109253 0.000000
0.260742 0.113770 0.000000
0.340759 0.126373 0.000000
0.423920 0.148529 0.000000
0.502960 0.182526 0.000000
0.579803 0.224792 0.000000
0.666992 0.267792 0.000000
0.097931 0.170776 0.000000
0.130585 0.171936 0.000000
0.186066 0.176483 0.000000
0.306152 0.209290 0.000000
0.385284 0.210938 0.000000
0.463257 0.217834 0.000000
0.541504 0.236053 0.000000
0.613861 0.269958 0.000000
0.700836 0.306396 0.000000
0.137726 0.266510 0.000000
0.166290 0.267212 0.000000
0.219269 0.269592 0.000000
0.278229 0.277435 0.000000
0.398651 0.301086 0.000000
0.516541 0.323792 0.000000
0.589478 0.328125 0.000000
0.667999 0.345612 0.000000
0.755219 0.370605 0.000000
0.213867 0.363190 0.032318
0.233765 0.363678 0.040222
0.267914 0.367554 0.011047
0.321167 0.373871 0.000000
0.390900 0.382080 0.000000
0.500214 0.400085 0.000000
0.648926 0.444763 0.000000
0.734497 0.449127 0.000000
0.819336 0.461121 0.000000
0.306671 0.467865 0.122040
0.318176 0.469360 0.118744
0.341217 0.474457 0.088715
0.382996 0.481934 0.046906
0.436676 0.493164 0.000000
0.511719 0.504089 0.000000
0.618164 0.512756 0.000000
0.765442 0.556641 0.000000
0.882721 0.574188 0.000000
0.409363 0.578644 0.218567
0.418610 0.579803 0.217651
0.441162 0.582672 0.215698
0.473206 0.589691 0.187775
0.512543 0.601318 0.126556
0.560608 0.617035 0.000000
0.636047 0.629852 0.000000
0.749023 0.634735 0.000000
0.889313 0.671783 0.000000
0.519806 0.686768 0.330872
0.526611 0.687836 0.331970
0.541473 0.691406 0.323883
0.565643 0.698242 0.303436
0.603699 0.707245 0.277710
0.647247 0.721405 0.205322
0.694763 0.739777 0.107147
0.764587 0.757202 0.000000
0.888397 0.764008 0.000000
0.631348 0.799377 0.434631
0.636902 0.800537 0.435028
0.650787 0.803589 0.435883
0.674683 0.809174 0.437592
0.703674 0.820190 0.415894
0.742462 0.835480 0.382263
0.792114 0.855499 0.322876
0.853546 0.886414 0.254425
0.948853 0.929504 0.134796
0.000000 0.009460 0.018921
0.047577 0.028381 0.037048
0.111511 0.072083 0.073639
0.262787 0.035492 0.000000
0.326141 0.077637 0.000000
0.419952 0.095001 0.000122
0.513489 0.123749 0.001862
0.589050 0.180115 0.002899
0.662201 0.242279 0.018860
0.000000 0.099518 0.073639
0.093414 0.095490 0.070007
0.184265 0.098297 0.059723
0.282257 0.084229 0.005341
0.363647 0.094788 0.005341
0.446655 0.118073 0.005341
0.531403 0.148376 0.005341
0.611694 0.191193 0.005341
0.684265 0.251312 0.013641
0.054932 0.177826 0.038635
0.113251 0.175568 0.064514
0.184357 0.178497 0.023651
0.319641 0.209564 0.051147
0.395782 0.197937 0.028656
0.488068 0.193390 0.019287
0.570435 0.207458 0.014526
0.642609 0.243469 0.011780
0.716431 0.292328 0.014435
0.123016 0.269043 0.051025
0.162170 0.268066 0.068939
0.214050 0.271271 0.055573
0.277832 0.279175 0.000000
0.411255 0.306305 0.033997
0.519745 0.318146 0.044128
0.601898 0.317474 0.030853
0.684753 0.332275 0.023254
0.761047 0.364960 0.024536
0.201080 0.365814 0.070526
0.222748 0.366119 0.082886
0.261047 0.369507 0.066742
0.317627 0.375580 0.026794
0.383942 0.385468 0.000000
0.507751 0.402527 0.016449
0.655914 0.444702 0.055450
0.737946 0.445435 0.040497
0.823242 0.457397 0.031189
0.293884 0.470856 0.135376
0.304382 0.472778 0.126556
0.335022 0.476166 0.120728
0.382629 0.482208 0.110077
0.432343 0.495239 0.000000
0.511383 0.505249 0.000000
0.622437 0.514587 0.004578
0.770782 0.557861 0.043488
0.884338 0.572205 0.048584
0.402344 0.580505 0.230103
0.412140 0.581543 0.230103
0.435974 0.584198 0.230255
0.469055 0.590912 0.209259
0.508942 0.602570 0.154907
0.558075 0.618317 0.018127
0.636658 0.630524 0.000000
0.751068 0.634827 0.000000
0.893402 0.672546 0.032715
0.511108 0.689240 0.333405
0.518036 0.690308 0.334473
0.532745 0.694061 0.323883
0.559845 0.700104 0.310272
0.600098 0.708527 0.289032
0.644348 0.722412 0.225891
0.693420 0.740509 0.134491
0.763336 0.758362 0.000000
0.890167 0.764191 0.000000
0.626007 0.801086 0.438934
0.631836 0.802185 0.439697
0.646454 0.805054 0.441711
0.671204 0.810425 0.444305
0.701630 0.821198 0.422058
0.740662 0.836456 0.388489
0.791473 0.856354 0.327698
0.853241 0.887329 0.264679
0.946960 0.931335 0.139465
0.003937 0.029968 0.073639
0.067291 0.045441 0.065094
0.108612 0.084717 0.092590
0.153107 0.119751 0.126556
0.263672 0.133606 0.124969
0.417725 0.104919 0.076172
0.518311 0.119751 0.055573
0.614319 0.146973 0.043274
0.672577 0.232605 0.081940
0.000000 0.095490 0.158447
0.044739 0.107147 0.149384
0.130280 0.118073 0.122711
0.175354 0.143127 0.146973
0.317535 0.134796 0.111511
0.438324 0.124329 0.074646
0.538727 0.132385 0.047607
0.640503 0.144257 0.025238
0.690063 0.241577 0.079956
0.000000 0.183075 0.140320
0.000000 0.190033 0.142578
0.177368 0.179810 0.153870
0.274658 0.192230 0.154968
0.373352 0.185120 0.120117
0.485016 0.175507 0.087799
0.576172 0.186554 0.059540
0.675018 0.198090 0.036377
0.741547 0.262939 0.072449
0.070007 0.276489 0.114655
0.129669 0.274841 0.128113
0.207397 0.273071 0.155670
0.284088 0.277832 0.131195
0.438202 0.324799 0.170074
0.512299 0.309326 0.143250
0.613647 0.298309 0.114716
0.712952 0.302338 0.086853
0.794678 0.333435 0.091705
0.166779 0.371979 0.129028
0.195343 0.371796 0.138885
0.256653 0.370636 0.163391
0.319000 0.375305 0.157440
0.382996 0.387482 0.093414
0.528015 0.410889 0.052490
0.657715 0.436859 0.124603
0.747589 0.434235 0.110016
0.827820 0.449707 0.136566
0.269043 0.476715 0.165344
0.286438 0.477264 0.170776
0.325562 0.478882 0.186066
0.376709 0.484344 0.183289
0.439148 0.493774 0.156189
0.506348 0.509064 0.028381
0.632202 0.520325 0.019653
0.786224 0.560425 0.098328
0.888367 0.566986 0.098694
0.378754 0.586639 0.241364
0.389648 0.587555 0.243256
0.415649 0.589905 0.248077
0.451447 0.596313 0.229248
0.506470 0.603607 0.223969
0.560242 0.618469 0.150208
0.635559 0.633026 0.000000
0.756653 0.634979 0.000031
0.903687 0.674591 0.072845
0.490723 0.694977 0.339203
0.498993 0.695892 0.339539
0.519257 0.698212 0.340179
0.552246 0.702576 0.339966
0.592194 0.711334 0.317627
0.637482 0.724945 0.268341
0.690460 0.742340 0.187347
0.765076 0.759766 0.000000
0.894623 0.764740 0.000000
0.609436 0.806335 0.441254
0.615509 0.807434 0.442413
0.630615 0.810272 0.445374
0.655426 0.815948 0.444611
0.687988 0.826324 0.424255
0.735748 0.839050 0.405029
0.788727 0.858643 0.346252
0.852814 0.889587 0.287109
0.946472 0.934540 0.162201
0.070007 0.054291 0.084290
0.095886 0.069458 0.090454
0.124634 0.095886 0.111145
0.162933 0.128418 0.139465
0.207977 0.167938 0.177826
0.275269 0.208160 0.216400
0.427979 0.212585 0.193939
0.575531 0.202240 0.159973
0.687622 0.222778 0.153870
0.022888 0.111847 0.169830
0.090881 0.114319 0.148071
0.138000 0.127808 0.141998
0.178925 0.152832 0.161438
0.223999 0.188171 0.196350
0.292389 0.223785 0.229431
0.463837 0.213135 0.185211
0.596283 0.208527 0.157440
0.696869 0.239594 0.157440
0.000000 0.166046 0.200897
0.000000 0.164856 0.254425
0.103394 0.195557 0.251587
0.217133 0.205505 0.209839
0.263672 0.231934 0.236053
0.397583 0.233093 0.211304
0.533661 0.221893 0.173553
0.631256 0.239746 0.159210
0.729309 0.270020 0.159973
0.000000 0.282104 0.217651
0.000000 0.286713 0.221191
0.079590 0.293884 0.223297
0.277161 0.279175 0.250977
0.378021 0.296509 0.255280
0.473083 0.291992 0.221985
0.601349 0.280304 0.191101
0.692017 0.300964 0.175232
0.806519 0.309509 0.161102
0.056213 0.383759 0.190063
0.130280 0.382172 0.199921
0.224670 0.379028 0.222778
0.310516 0.378204 0.253845
0.392242 0.385010 0.234589
0.554779 0.438690 0.276154
0.638367 0.430237 0.262848
0.742188 0.422821 0.241028
0.846649 0.426697 0.223877
0.230438 0.484833 0.220856
0.250061 0.485443 0.227051
0.294525 0.486877 0.242767
0.369293 0.487091 0.273071
0.438385 0.494568 0.269470
0.508820 0.509003 0.220154
0.661011 0.528259 0.080292
0.791595 0.564148 0.266815
0.883545 0.561188 0.252899
0.344910 0.595215 0.266785
0.357147 0.596008 0.270721
0.389191 0.597534 0.280518
0.440155 0.600006 0.299988
0.498413 0.606812 0.298523
0.566437 0.617157 0.278107
0.637787 0.633575 0.196350
0.771301 0.640289 0.016602
0.918579 0.679779 0.199738
0.460083 0.703674 0.347931
0.469208 0.704498 0.349457
0.491486 0.706573 0.353424
0.528076 0.710297 0.360443
0.573456 0.717896 0.348328
0.632782 0.727051 0.341003
0.691376 0.743225 0.278381
0.770691 0.759857 0.172150
0.904755 0.764801 0.000031
0.583160 0.814636 0.448517
0.589508 0.815704 0.449707
0.605347 0.818542 0.453003
0.635010 0.823273 0.456573
0.677643 0.830597 0.459656
0.725769 0.843597 0.439850
0.779999 0.863037 0.396851
0.849945 0.893799 0.338898
0.953857 0.936798 0.253387
0.104156 0.083801 0.111511
0.117401 0.092590 0.117737
0.143127 0.111847 0.133606
0.177612 0.140594 0.158203
0.221191 0.178467 0.191895
0.269897 0.222595 0.234924
0.334167 0.265808 0.278137
0.414581 0.307404 0.315186
0.591034 0.310364 0.283844
0.091309 0.123352 0.168213
0.111145 0.128723 0.164368
0.157440 0.139160 0.160217
0.194946 0.163391 0.179382
0.236694 0.197937 0.210022
0.283844 0.238159 0.249603
0.344604 0.279724 0.290588
0.428009 0.318176 0.323334
0.619324 0.311432 0.278381
0.000000 0.196747 0.249756
0.000000 0.200500 0.273071
0.157440 0.200684 0.247009
0.224670 0.215515 0.230103
0.268768 0.241669 0.250671
0.312622 0.275665 0.284363
0.375397 0.310486 0.317871
0.525513 0.318207 0.298401
0.681091 0.318207 0.269196
0.042511 0.274841 0.258301
0.061035 0.264648 0.268768
0.026825 0.256958 0.352905
0.188812 0.298126 0.363190
0.316833 0.305847 0.309906
0.363678 0.331543 0.335449
0.495789 0.336853 0.315765
0.638885 0.335114 0.283844
0.748108 0.354218 0.272644
0.000000 0.387573 0.303192
0.000000 0.391083 0.305237
0.000000 0.400085 0.309662
0.223633 0.398254 0.322296
0.385193 0.387024 0.356842
0.490631 0.409576 0.365173
0.590118 0.410553 0.336975
0.729553 0.402435 0.308563
0.822693 0.423706 0.295349
0.015778 0.503021 0.278656
0.115692 0.502319 0.285919
0.229095 0.500000 0.304169
0.337708 0.497162 0.333954
0.429016 0.498505 0.367462
0.516052 0.507385 0.352509
0.680328 0.560699 0.390656
0.769196 0.556763 0.386932
0.874146 0.550354 0.366943
0.299866 0.605042 0.321869
0.315552 0.605621 0.326477
0.351807 0.606995 0.338043
0.408508 0.609222 0.358337
0.491211 0.609772 0.392334
0.562988 0.619049 0.385956
0.638306 0.634094 0.344696
0.793854 0.650787 0.236176
0.925354 0.692200 0.397919
0.421570 0.714233 0.370178
0.431854 0.714874 0.373230
0.456726 0.716675 0.381104
0.499878 0.719452 0.394745
0.559113 0.722961 0.419281
0.622253 0.731537 0.414581
0.696320 0.742279 0.401825
0.772003 0.760834 0.329468
0.917023 0.767639 0.157043
0.546021 0.825958 0.460114
0.552765 0.827087 0.461639
0.571899 0.829529 0.465332
0.605286 0.833771 0.472290
0.651733 0.840454 0.482880
0.708557 0.851105 0.482147
0.775421 0.867004 0.474609
0.852692 0.897400 0.430023
0.964569 0.939850 0.370270
0.130890 0.109344 0.143158
0.140594 0.116028 0.148346
0.163147 0.131500 0.160461
0.198730 0.156921 0.180908
0.238495 0.192719 0.212433
0.283600 0.234741 0.250854
0.332764 0.280670 0.294800
0.402710 0.324005 0.339966
0.478119 0.373505 0.386963
0.131805 0.139740 0.178711
0.147797 0.143951 0.178497
0.179382 0.155396 0.183075
0.212982 0.178467 0.201874
0.252502 0.210938 0.229950
0.297028 0.249603 0.264526
0.344177 0.293396 0.306824
0.410736 0.336334 0.351318
0.489075 0.383942 0.396240
0.087402 0.204163 0.285919
0.128418 0.205902 0.276764
0.182861 0.213501 0.260620
0.237823 0.228241 0.252655
0.284760 0.251892 0.268494
0.326355 0.285126 0.298035
0.372559 0.323669 0.335999
0.431335 0.366699 0.379150
0.516632 0.409790 0.418884
0.000000 0.286072 0.329376
0.000000 0.286194 0.348724
0.000000 0.299744 0.389832
0.237183 0.302948 0.362518
0.322876 0.315887 0.331116
0.368835 0.341644 0.350891
0.413757 0.376495 0.385315
0.478546 0.414581 0.422821
0.607635 0.437073 0.426117
0.104156 0.389923 0.347412
0.140594 0.390350 0.351898
0.174225 0.371124 0.360443
0.176270 0.353333 0.440857
0.302582 0.407318 0.473907
0.428925 0.418213 0.422058
0.479584 0.447205 0.451080
0.612122 0.457092 0.436920
0.756500 0.459900 0.407745
0.000000 0.506165 0.401764
0.000000 0.509125 0.403992
0.000000 0.517303 0.408264
0.168427 0.522461 0.423065
0.349548 0.519836 0.440552
0.508240 0.510040 0.478394
0.615356 0.533844 0.488068
0.718597 0.536469 0.461456
0.857941 0.531189 0.433868
0.099121 0.625702 0.384857
0.138306 0.626434 0.388123
0.214417 0.627716 0.397400
0.343018 0.624359 0.421600
0.458038 0.621307 0.455109
0.552124 0.623749 0.486816
0.644836 0.632782 0.476288
0.807251 0.684265 0.513214
0.901245 0.684540 0.515167
0.366974 0.726288 0.427490
0.380066 0.726776 0.431244
0.411652 0.728027 0.440399
0.461121 0.730316 0.456512
0.528259 0.733154 0.480896
0.617004 0.734161 0.517883
0.692291 0.744446 0.514130
0.772766 0.761780 0.473694
0.934052 0.779755 0.382263
0.501373 0.839386 0.480286
0.510590 0.840149 0.483032
0.533020 0.842255 0.490143
0.569916 0.846161 0.502441
0.623596 0.851624 0.521698
0.691315 0.858765 0.553131
0.767700 0.873505 0.558716
0.859558 0.900391 0.558533
0.967499 0.946716 0.515717
0.162445 0.135101 0.174469
0.171478 0.140594 0.178528
0.193726 0.153870 0.188843
0.226746 0.176697 0.207794
0.262665 0.209839 0.236572
0.304657 0.248993 0.271149
0.349670 0.293243 0.312653
0.403229 0.340790 0.357788
0.478271 0.389099 0.408447
0.169373 0.160950 0.202454
0.179138 0.165588 0.205322
0.202057 0.177582 0.213531
0.235382 0.197937 0.229095
0.274719 0.226898 0.253113
0.315796 0.263641 0.285156
0.360168 0.305725 0.324249
0.411407 0.352722 0.368927
0.485992 0.400421 0.418884
0.167023 0.217651 0.284363
0.180450 0.221375 0.281342
0.211853 0.230255 0.275543
0.263794 0.242462 0.272675
0.302094 0.266357 0.290985
0.342163 0.297882 0.318085
0.386322 0.335907 0.352142
0.435516 0.381256 0.395905
0.505402 0.428131 0.444702
0.000000 0.307037 0.398987
0.016571 0.308716 0.410461
0.169373 0.308136 0.403137
0.271118 0.312988 0.370636
0.332947 0.328674 0.355957
0.385834 0.352112 0.369507
0.429749 0.387024 0.400726
0.479736 0.428680 0.441559
0.537903 0.474243 0.487488
0.077118 0.392334 0.388672
0.062805 0.393768 0.399658
0.053009 0.392609 0.448273
0.063965 0.395721 0.522369
0.333832 0.415405 0.484802
0.434723 0.430206 0.446686
0.486206 0.458801 0.468292
0.532562 0.495300 0.504272
0.595581 0.532806 0.541840
0.155670 0.508179 0.452576
0.184570 0.508759 0.455627
0.243073 0.510162 0.464417
0.291229 0.491608 0.474823
0.298889 0.468506 0.558899
0.426300 0.531769 0.601929
0.553833 0.543213 0.547211
0.603638 0.572418 0.576630
0.726044 0.586243 0.570129
0.000000 0.631653 0.510223
0.000000 0.633423 0.512299
0.124939 0.635986 0.519501
0.223633 0.640686 0.532867
0.329773 0.645996 0.553070
0.453979 0.649963 0.569855
0.634430 0.636810 0.604218
0.743042 0.659576 0.616516
0.850830 0.664032 0.591827
0.127167 0.750641 0.497955
0.163177 0.751251 0.500488
0.229431 0.752808 0.506958
0.321411 0.754608 0.519897
0.460693 0.750427 0.548279
0.579620 0.747772 0.583771
0.677032 0.751648 0.610748
0.779816 0.761536 0.608490
0.938446 0.812836 0.649475
0.434540 0.854858 0.544159
0.444916 0.855743 0.546936
0.468842 0.858154 0.553589
0.514832 0.861481 0.567322
0.581268 0.865631 0.589569
0.663055 0.871002 0.621002
0.764191 0.880188 0.667664
0.861572 0.907043 0.691223
0.977753 0.953766 0.667999
0.205139 0.163422 0.206879
0.213715 0.167969 0.210602
0.233429 0.179382 0.220184
0.257996 0.201477 0.238831
0.290466 0.231110 0.264252
0.329590 0.267365 0.295563
0.374451 0.308258 0.333435
0.424438 0.355255 0.377655
0.481445 0.408752 0.428864
0.206848 0.187744 0.234100
0.214966 0.191895 0.237030
0.234924 0.202637 0.244690
0.267792 0.219788 0.257721
0.302460 0.246521 0.279724
0.340271 0.280914 0.309235
0.383850 0.320496 0.345032
0.432922 0.366791 0.388672
0.489075 0.419678 0.439178
0.212799 0.238800 0.296051
0.223114 0.241974 0.295898
0.247925 0.249603 0.296906
0.283173 0.263367 0.303314
0.322449 0.284760 0.318329
0.364685 0.313324 0.341339
0.407074 0.350494 0.373718
0.454651 0.395630 0.415985
0.509552 0.445923 0.463989
0.194946 0.311676 0.409546
0.214447 0.313324 0.405273
0.251434 0.318298 0.397400
0.295013 0.329437 0.386505
0.355347 0.343536 0.377838
0.403564 0.367371 0.393585
0.447601 0.401398 0.423065
0.495575 0.442627 0.460266
0.546234 0.489044 0.504883
0.000000 0.415894 0.486328
0.000000 0.418213 0.498230
0.000031 0.423676 0.529572
0.244843 0.421326 0.527496
0.374359 0.426117 0.491974
0.444702 0.445099 0.475616
0.505188 0.470581 0.488983
0.550507 0.506409 0.521088
0.599701 0.546967 0.560364
0.186279 0.520020 0.488098
0.207977 0.520752 0.492493
0.230591 0.512939 0.504089
0.214417 0.516876 0.548096
0.228607 0.515167 0.650482
0.451660 0.541412 0.617462
0.559174 0.555908 0.573975
0.612488 0.584259 0.594543
0.657837 0.620575 0.629791
0.233276 0.630096 0.564423
0.248230 0.631165 0.566895
0.288116 0.633362 0.573090
0.358948 0.635376 0.585724
0.411469 0.616028 0.600250
0.420288 0.593781 0.699493
0.546112 0.660919 0.737091
0.682617 0.671722 0.676605
0.730194 0.702057 0.707031
0.214966 0.749298 0.631470
0.227905 0.750580 0.633362
0.267639 0.753021 0.639099
0.329773 0.756744 0.649597
0.403290 0.762299 0.666748
0.496033 0.767395 0.693542
0.601624 0.773254 0.722351
0.765533 0.769257 0.736481
0.880066 0.793091 0.758484
0.022095 0.887024 0.626160
0.110809 0.887604 0.628174
0.212799 0.889221 0.633423
0.316956 0.892242 0.643127
0.438690 0.894867 0.661713
0.579315 0.896332 0.693451
0.716583 0.903687 0.740570
0.854767 0.921936 0.803528
0.985504 0.965118 0.822632
0.245300 0.195770 0.243134
0.251129 0.200317 0.247040
0.265228 0.211334 0.256561
0.288788 0.229950 0.272552
0.320862 0.255646 0.294922
0.356964 0.288910 0.323456
0.398804 0.327789 0.358582
0.448212 0.373505 0.401154
0.505798 0.424988 0.450256
0.248383 0.216583 0.265961
0.255920 0.220123 0.268799
0.274445 0.228912 0.275574
0.302582 0.244507 0.288300
0.332001 0.269592 0.309357
0.367004 0.301361 0.336243
0.408539 0.339417 0.369812
0.457764 0.384491 0.411835
0.514160 0.435181 0.460114
0.256683 0.261932 0.319244
0.264374 0.264923 0.320740
0.282135 0.272797 0.324921
0.311584 0.285919 0.332855
0.352112 0.304382 0.345215
0.391449 0.331879 0.367218
0.432343 0.368439 0.398468
0.480774 0.411896 0.438324
0.534149 0.460541 0.484436
0.265808 0.327362 0.410980
0.274048 0.329895 0.409973
0.292999 0.336853 0.407074
0.327820 0.347809 0.404510
0.376801 0.362793 0.406403
0.422333 0.386658 0.422668
0.471710 0.418060 0.447906
0.517822 0.458130 0.482910
0.566437 0.503418 0.525391
0.192108 0.421570 0.539276
0.217499 0.422150 0.539764
0.267365 0.424164 0.540863
0.338257 0.430115 0.524139
0.399750 0.443176 0.511261
0.464844 0.461578 0.500427
0.522827 0.486328 0.513947
0.568512 0.520752 0.543701
0.615692 0.560822 0.579590
0.000000 0.541290 0.574585
0.000000 0.543091 0.585449
0.000000 0.546875 0.620667
0.081970 0.553223 0.662598
0.351929 0.548035 0.658813
0.491150 0.551910 0.625061
0.567047 0.571014 0.604431
0.631561 0.596069 0.615479
0.676880 0.631714 0.647369
0.250214 0.643494 0.596741
0.267090 0.644226 0.600067
0.306458 0.645874 0.608856
0.357361 0.642212 0.624054
0.342804 0.647369 0.671143
0.368439 0.645264 0.783661
0.579193 0.669525 0.748352
0.688049 0.684875 0.704254
0.742798 0.713287 0.724487
0.313690 0.752777 0.677979
0.325470 0.753662 0.680115
0.353851 0.756012 0.685333
0.404175 0.759399 0.694641
0.481293 0.762085 0.711090
0.535461 0.743225 0.733276
0.549103 0.729797 0.862946
0.688965 0.793793 0.869141
0.823395 0.811615 0.817688
0.366211 0.875793 0.760803
0.376221 0.876984 0.763031
0.398773 0.880188 0.768372
0.445465 0.884705 0.778900
0.507263 0.892151 0.794922
0.578705 0.905731 0.820984
0.679749 0.924347 0.863220
0.800690 0.953766 0.917206
0.980988 0.982666 0.981964
