Kodak Eastman EXR 100T (5248) - Look.cube
# Created by Benjamin (IWLTBAP) : http://luts.iwltbap.com
# Copyright: (C) Copyright 2010-2017 Triune Films and IWLTBAP SAS
# Cannot be resold, shared or otherwise redistributed
TITLE "Film Print Emulation LUTs Pack (Rec.709, sRGB, DCI-P3)"
LUT_3D_SIZE 5
0.004700 0.002960 0.021515
0.159363 0.028961 0.019165
0.359772 0.062836 0.034393
0.583801 0.119751 0.057312
0.792023 0.206818 0.112305
0.051605 0.167511 0.080475
0.239716 0.212555 0.096619
0.459625 0.239807 0.053680
0.666565 0.279388 0.098297
0.856232 0.339294 0.174347
0.151550 0.367371 0.158112
0.328400 0.422241 0.181580
0.545013 0.468903 0.207977
0.754089 0.496521 0.171387
0.922424 0.539429 0.232880
0.292389 0.584045 0.259491
0.433746 0.640503 0.292786
0.629181 0.683685 0.311340
0.825317 0.720917 0.339966
0.980164 0.753387 0.349396
0.433777 0.796906 0.375397
0.548492 0.846619 0.422882
0.717773 0.884186 0.446564
0.898041 0.916473 0.471283
0.996094 0.938538 0.507019
0.008606 0.018646 0.169861
0.159698 0.042419 0.206329
0.371765 0.070129 0.244629
0.594635 0.148071 0.281250
0.798767 0.237396 0.326660
0.032990 0.195282 0.276215
0.237610 0.244293 0.312897
0.460846 0.277161 0.299347
0.675476 0.313354 0.327759
0.862915 0.372498 0.377899
0.105530 0.398438 0.327911
0.320465 0.444458 0.363434
0.525604 0.493164 0.406464
0.759430 0.524567 0.369354
0.926422 0.566833 0.412598
0.264069 0.611816 0.394501
0.424255 0.666840 0.432709
0.627045 0.708008 0.457306
0.824615 0.744965 0.483032
0.982849 0.776154 0.479950
0.422180 0.818420 0.480194
0.545624 0.866302 0.527863
0.717834 0.902161 0.551910
0.899658 0.933960 0.577209
0.996368 0.954834 0.646729
0.031891 0.042664 0.316864
0.156494 0.066071 0.365906
0.376251 0.102600 0.422302
0.599762 0.169342 0.472321
0.801849 0.260986 0.513824
0.022522 0.210846 0.439117
0.189240 0.263519 0.484344
0.458984 0.302795 0.500336
0.675323 0.337677 0.531708
0.864258 0.400269 0.566406
0.103210 0.438812 0.530243
0.290741 0.479645 0.561493
0.540314 0.530487 0.605194
0.747650 0.558136 0.580811
0.924591 0.593414 0.600006
0.206329 0.645813 0.575531
0.397278 0.691711 0.606781
0.617676 0.727661 0.638245
0.800934 0.767273 0.676208
0.982880 0.795959 0.646790
0.384430 0.840942 0.640717
0.517120 0.883636 0.683563
0.700928 0.918945 0.709442
0.887482 0.949768 0.733215
0.995453 0.970062 0.801361
0.070374 0.076202 0.480652
0.173218 0.107025 0.528595
0.387695 0.146759 0.580963
0.606689 0.215210 0.636780
0.807648 0.299316 0.684601
0.069855 0.258118 0.587463
0.207245 0.301361 0.629486
0.457947 0.332977 0.661041
0.675079 0.373474 0.698547
0.867096 0.432495 0.742249
0.057465 0.453766 0.681488
0.151062 0.507660 0.734467
0.518036 0.549622 0.766510
0.746887 0.582611 0.767487
0.921814 0.618683 0.792053
0.214874 0.689575 0.769897
0.382141 0.722504 0.797577
0.597076 0.755768 0.831635
0.807739 0.789612 0.875183
0.976746 0.817261 0.840271
0.363678 0.871216 0.819366
0.495728 0.902802 0.848846
0.680634 0.934418 0.871216
0.869385 0.964203 0.894257
0.993774 0.984650 0.945190
0.145905 0.136322 0.661560
0.202576 0.174957 0.701935
0.414124 0.210968 0.750427
0.623993 0.274780 0.803467
0.819702 0.354919 0.852264
0.143066 0.310577 0.754395
0.219757 0.360535 0.785797
0.469574 0.381165 0.816467
0.676910 0.423584 0.852020
0.857574 0.480377 0.886658
0.102142 0.505859 0.851715
0.208588 0.553497 0.878845
0.521698 0.585052 0.895081
0.736511 0.619598 0.912323
0.908569 0.663177 0.934235
0.201996 0.707245 0.908966
0.342285 0.744080 0.928589
0.545349 0.774109 0.958740
0.795898 0.809235 0.978210
0.960114 0.850769 0.984131
0.367218 0.882385 0.957764
0.524353 0.905548 0.972076
0.743073 0.935242 0.988831
0.927917 0.963562 0.999207
0.997925 0.995880 1.000000
