Kodak Vision 320T (5277) - Only contrast.cube
# Created by Benjamin (IWLTBAP) : http://luts.iwltbap.com
# Copyright: (C) Copyright 2010-2017 Triune Films and IWLTBAP SAS
# Cannot be resold, shared or otherwise redistributed
TITLE "Film Print Emulation LUTs Pack (Rec.709, sRGB, DCI-P3)"
LUT_3D_SIZE 9
0.001373 0.001373 0.001373
0.108582 0.001404 0.001404
0.234253 0.001282 0.001282
0.372345 0.001068 0.001068
0.508759 0.000885 0.000885
0.635162 0.000763 0.000763
0.759308 0.000641 0.000641
0.880035 0.000549 0.000549
0.972900 0.000671 0.000671
0.001404 0.108582 0.001404
0.108612 0.108612 0.001404
0.234436 0.108551 0.001282
0.372589 0.108368 0.001068
0.508881 0.108215 0.000885
0.635284 0.108124 0.000763
0.759430 0.108063 0.000641
0.880096 0.108032 0.000580
0.972717 0.108185 0.000671
0.001282 0.234253 0.001282
0.108551 0.234436 0.001282
0.234497 0.234497 0.001160
0.372711 0.234467 0.000946
0.508911 0.234467 0.000763
0.635284 0.234528 0.000641
0.759399 0.234589 0.000519
0.880005 0.234680 0.000458
0.972382 0.234985 0.000580
0.001068 0.372345 0.001068
0.108368 0.372589 0.001068
0.234467 0.372711 0.000946
0.372742 0.372742 0.000732
0.508850 0.372772 0.000549
0.635193 0.372894 0.000427
0.759277 0.373016 0.000336
0.879822 0.373169 0.000244
0.971954 0.373535 0.000366
0.000885 0.508759 0.000885
0.108215 0.508881 0.000885
0.234467 0.508911 0.000763
0.372772 0.508850 0.000549
0.508789 0.508789 0.000366
0.635132 0.508789 0.000244
0.759186 0.508820 0.000153
0.879669 0.508850 0.000061
0.971558 0.509094 0.000183
0.000763 0.635162 0.000763
0.108124 0.635284 0.000763
0.234528 0.635284 0.000641
0.372894 0.635193 0.000427
0.508789 0.635132 0.000244
0.635132 0.635132 0.000122
0.759155 0.635132 0.000031
0.879578 0.635162 0.000000
0.971252 0.635406 0.000061
0.000641 0.759308 0.000641
0.108063 0.759430 0.000641
0.234589 0.759399 0.000519
0.373016 0.759277 0.000336
0.508820 0.759186 0.000153
0.635132 0.759155 0.000031
0.759155 0.759155 0.000000
0.879517 0.759155 0.000000
0.970917 0.759369 0.000000
0.000549 0.880035 0.000549
0.108032 0.880096 0.000580
0.234680 0.880005 0.000458
0.373169 0.879822 0.000244
0.508850 0.879669 0.000061
0.635162 0.879578 0.000000
0.759155 0.879517 0.000000
0.879486 0.879486 0.000000
0.970642 0.879639 0.000000
0.000671 0.972900 0.000671
0.108185 0.972717 0.000671
0.234985 0.972382 0.000580
0.373535 0.971954 0.000366
0.509094 0.971558 0.000183
0.635406 0.971252 0.000061
0.759369 0.970917 0.000000
0.879639 0.970642 0.000000
0.970520 0.970428 0.019562
0.001404 0.001404 0.108582
0.108612 0.001404 0.108612
0.234436 0.001282 0.108551
0.372589 0.001068 0.108368
0.508881 0.000885 0.108215
0.635284 0.000763 0.108124
0.759430 0.000641 0.108063
0.880096 0.000580 0.108032
0.972717 0.000671 0.108185
0.001404 0.108612 0.108612
0.108673 0.108673 0.108673
0.234619 0.108582 0.108582
0.372833 0.108429 0.108429
0.509033 0.108276 0.108276
0.635406 0.108185 0.108185
0.759521 0.108124 0.108124
0.880127 0.108063 0.108063
0.972504 0.108215 0.108215
0.001282 0.234436 0.108551
0.108582 0.234619 0.108582
0.234680 0.234680 0.108490
0.372955 0.234650 0.108337
0.509064 0.234650 0.108185
0.635406 0.234711 0.108093
0.759491 0.234772 0.108032
0.880035 0.234863 0.107971
0.972168 0.235168 0.108154
0.001068 0.372589 0.108368
0.108429 0.372833 0.108429
0.234650 0.372955 0.108337
0.372986 0.372986 0.108154
0.508972 0.373016 0.108002
0.635315 0.373138 0.107941
0.759369 0.373260 0.107849
0.879883 0.373413 0.107819
0.971771 0.373779 0.107971
0.000885 0.508881 0.108215
0.108276 0.509033 0.108276
0.234650 0.509064 0.108185
0.373016 0.508972 0.108002
0.508911 0.508911 0.107849
0.635254 0.508942 0.107788
0.759277 0.508942 0.107727
0.879730 0.509003 0.107666
0.971375 0.509247 0.107849
0.000763 0.635284 0.108124
0.108185 0.635406 0.108185
0.234711 0.635406 0.108093
0.373138 0.635315 0.107941
0.508942 0.635254 0.107788
0.635254 0.635254 0.107697
0.759277 0.635254 0.107635
0.879639 0.635284 0.107605
0.971039 0.635529 0.107758
0.000641 0.759430 0.108063
0.108124 0.759521 0.108124
0.234772 0.759491 0.108032
0.373260 0.759369 0.107849
0.508942 0.759277 0.107727
0.635254 0.759277 0.107635
0.759247 0.759247 0.107574
0.879547 0.759277 0.107544
0.970734 0.759491 0.107697
0.000580 0.880096 0.108032
0.108063 0.880127 0.108063
0.234863 0.880035 0.107971
0.373413 0.879883 0.107819
0.509003 0.879730 0.107666
0.635284 0.879639 0.107605
0.759277 0.879547 0.107544
0.879517 0.879517 0.107483
0.970428 0.879669 0.107666
0.000671 0.972717 0.108185
0.108215 0.972504 0.108215
0.235168 0.972168 0.108154
0.373779 0.971771 0.107971
0.509247 0.971375 0.107849
0.635529 0.971039 0.107758
0.759491 0.970734 0.107697
0.879669 0.970428 0.107666
0.970367 0.970367 0.107849
0.001282 0.001282 0.234253
0.108551 0.001282 0.234436
0.234497 0.001160 0.234497
0.372711 0.000946 0.234467
0.508911 0.000763 0.234467
0.635284 0.000641 0.234528
0.759399 0.000519 0.234589
0.880005 0.000458 0.234680
0.972382 0.000580 0.234985
0.001282 0.108551 0.234436
0.108582 0.108582 0.234619
0.234680 0.108490 0.234680
0.372955 0.108337 0.234650
0.509064 0.108185 0.234650
0.635406 0.108093 0.234711
0.759491 0.108032 0.234772
0.880035 0.107971 0.234863
0.972168 0.108154 0.235168
0.001160 0.234497 0.234497
0.108490 0.234680 0.234680
0.234741 0.234741 0.234741
0.373047 0.234711 0.234711
0.509064 0.234711 0.234711
0.635406 0.234772 0.234772
0.759460 0.234833 0.234833
0.879944 0.234924 0.234924
0.971832 0.235229 0.235229
0.000946 0.372711 0.234467
0.108337 0.372955 0.234650
0.234711 0.373047 0.234711
0.373077 0.373077 0.234680
0.508972 0.373138 0.234680
0.635315 0.373260 0.234741
0.759338 0.373383 0.234802
0.879791 0.373535 0.234894
0.971436 0.373871 0.235199
0.000763 0.508911 0.234467
0.108185 0.509064 0.234650
0.234711 0.509064 0.234711
0.373138 0.508972 0.234680
0.508911 0.508911 0.234680
0.635223 0.508942 0.234711
0.759247 0.508942 0.234802
0.879639 0.509003 0.234894
0.971039 0.509216 0.235199
0.000641 0.635284 0.234528
0.108093 0.635406 0.234711
0.234772 0.635406 0.234772
0.373260 0.635315 0.234741
0.508942 0.635223 0.234711
0.635223 0.635223 0.234772
0.759216 0.635254 0.234863
0.879547 0.635284 0.234955
0.970703 0.635529 0.235260
0.000519 0.759399 0.234589
0.108032 0.759491 0.234772
0.234833 0.759460 0.234833
0.373383 0.759338 0.234802
0.508942 0.759247 0.234802
0.635254 0.759216 0.234863
0.759216 0.759216 0.234924
0.879456 0.759216 0.235016
0.970398 0.759430 0.235321
0.000458 0.880005 0.234680
0.107971 0.880035 0.234863
0.234924 0.879944 0.234924
0.373535 0.879791 0.234894
0.509003 0.879639 0.234894
0.635284 0.879547 0.234955
0.759216 0.879456 0.235016
0.879425 0.879425 0.235138
0.970093 0.879578 0.235443
0.000580 0.972382 0.234985
0.108154 0.972168 0.235168
0.235229 0.971832 0.235229
0.373871 0.971436 0.235199
0.509216 0.971039 0.235199
0.635529 0.970703 0.235260
0.759430 0.970398 0.235321
0.879578 0.970093 0.235443
0.970032 0.970032 0.235748
0.001068 0.001068 0.372345
0.108368 0.001068 0.372589
0.234467 0.000946 0.372711
0.372742 0.000732 0.372742
0.508850 0.000549 0.372772
0.635193 0.000427 0.372894
0.759277 0.000336 0.373016
0.879822 0.000244 0.373169
0.971954 0.000366 0.373535
0.001068 0.108368 0.372589
0.108429 0.108429 0.372833
0.234650 0.108337 0.372955
0.372986 0.108154 0.372986
0.508972 0.108002 0.373016
0.635315 0.107941 0.373138
0.759369 0.107849 0.373260
0.879883 0.107819 0.373413
0.971771 0.107971 0.373779
0.000946 0.234467 0.372711
0.108337 0.234650 0.372955
0.234711 0.234711 0.373047
0.373077 0.234680 0.373077
0.508972 0.234680 0.373138
0.635315 0.234741 0.373260
0.759338 0.234802 0.373383
0.879791 0.234894 0.373535
0.971436 0.235199 0.373871
0.000732 0.372742 0.372742
0.108154 0.372986 0.372986
0.234680 0.373077 0.373077
0.373108 0.373108 0.373108
0.508911 0.373169 0.373169
0.635223 0.373260 0.373260
0.759247 0.373413 0.373413
0.879608 0.373566 0.373566
0.971008 0.373901 0.373901
0.000549 0.508850 0.372772
0.108002 0.508972 0.373016
0.234680 0.508972 0.373138
0.373169 0.508911 0.373169
0.508850 0.508850 0.373199
0.635162 0.508850 0.373322
0.759155 0.508850 0.373444
0.879456 0.508911 0.373596
0.970612 0.509155 0.373962
0.000427 0.635193 0.372894
0.107941 0.635315 0.373138
0.234741 0.635315 0.373260
0.373260 0.635223 0.373260
0.508850 0.635162 0.373322
0.635132 0.635132 0.373444
0.759125 0.635162 0.373566
0.879364 0.635193 0.373718
0.970276 0.635437 0.374084
0.000336 0.759277 0.373016
0.107849 0.759369 0.373260
0.234802 0.759338 0.373383
0.373413 0.759247 0.373413
0.508850 0.759155 0.373444
0.635162 0.759125 0.373566
0.759094 0.759094 0.373688
0.879303 0.759125 0.373840
0.969971 0.759338 0.374207
0.000244 0.879822 0.373169
0.107819 0.879883 0.373413
0.234894 0.879791 0.373535
0.373566 0.879608 0.373566
0.508911 0.879456 0.373596
0.635193 0.879364 0.373718
0.759125 0.879303 0.373840
0.879242 0.879242 0.373993
0.969696 0.879395 0.374359
0.000366 0.971954 0.373535
0.107971 0.971771 0.373779
0.235199 0.971436 0.373871
0.373901 0.971008 0.373901
0.509155 0.970612 0.373962
0.635437 0.970276 0.374084
0.759338 0.969971 0.374207
0.879395 0.969696 0.374359
0.969604 0.969604 0.374725
0.000885 0.000885 0.508759
0.108215 0.000885 0.508881
0.234467 0.000763 0.508911
0.372772 0.000549 0.508850
0.508789 0.000366 0.508789
0.635132 0.000244 0.508789
0.759186 0.000153 0.508820
0.879669 0.000061 0.508850
0.971558 0.000183 0.509094
0.000885 0.108215 0.508881
0.108276 0.108276 0.509033
0.234650 0.108185 0.509064
0.373016 0.108002 0.508972
0.508911 0.107849 0.508911
0.635254 0.107788 0.508942
0.759277 0.107727 0.508942
0.879730 0.107666 0.509003
0.971375 0.107849 0.509247
0.000763 0.234467 0.508911
0.108185 0.234650 0.509064
0.234711 0.234711 0.509064
0.373138 0.234680 0.508972
0.508911 0.234680 0.508911
0.635223 0.234711 0.508942
0.759247 0.234802 0.508942
0.879639 0.234894 0.509003
0.971039 0.235199 0.509216
0.000549 0.372772 0.508850
0.108002 0.373016 0.508972
0.234680 0.373138 0.508972
0.373169 0.373169 0.508911
0.508850 0.373199 0.508850
0.635162 0.373322 0.508850
0.759155 0.373444 0.508850
0.879456 0.373596 0.508911
0.970612 0.373962 0.509155
0.000366 0.508789 0.508789
0.107849 0.508911 0.508911
0.234680 0.508911 0.508911
0.373199 0.508850 0.508850
0.508789 0.508789 0.508789
0.635071 0.508789 0.508789
0.759064 0.508789 0.508789
0.879303 0.508850 0.508850
0.970215 0.509094 0.509094
0.000244 0.635132 0.508789
0.107788 0.635254 0.508942
0.234711 0.635223 0.508942
0.373322 0.635162 0.508850
0.508789 0.635071 0.508789
0.635071 0.635071 0.508789
0.759033 0.635071 0.508789
0.879211 0.635132 0.508850
0.969910 0.635345 0.509094
0.000153 0.759186 0.508820
0.107727 0.759277 0.508942
0.234802 0.759247 0.508942
0.373444 0.759155 0.508850
0.508789 0.759064 0.508789
0.635071 0.759033 0.508789
0.759003 0.759003 0.508820
0.879150 0.759033 0.508850
0.969574 0.759247 0.509125
0.000061 0.879669 0.508850
0.107666 0.879730 0.509003
0.234894 0.879639 0.509003
0.373596 0.879456 0.508911
0.508850 0.879303 0.508850
0.635132 0.879211 0.508850
0.759033 0.879150 0.508850
0.879089 0.879089 0.508911
0.969299 0.879242 0.509155
0.000183 0.971558 0.509094
0.107849 0.971375 0.509247
0.235199 0.971039 0.509216
0.373962 0.970612 0.509155
0.509094 0.970215 0.509094
0.635345 0.969910 0.509094
0.759247 0.969574 0.509125
0.879242 0.969299 0.509155
0.969238 0.969238 0.509399
0.000763 0.000763 0.635162
0.108124 0.000763 0.635284
0.234528 0.000641 0.635284
0.372894 0.000427 0.635193
0.508789 0.000244 0.635132
0.635132 0.000122 0.635132
0.759155 0.000031 0.635132
0.879578 0.000000 0.635162
0.971252 0.000061 0.635406
0.000763 0.108124 0.635284
0.108185 0.108185 0.635406
0.234711 0.108093 0.635406
0.373138 0.107941 0.635315
0.508942 0.107788 0.635254
0.635254 0.107697 0.635254
0.759277 0.107635 0.635254
0.879639 0.107605 0.635284
0.971039 0.107758 0.635529
0.000641 0.234528 0.635284
0.108093 0.234711 0.635406
0.234772 0.234772 0.635406
0.373260 0.234741 0.635315
0.508942 0.234711 0.635223
0.635223 0.234772 0.635223
0.759216 0.234863 0.635254
0.879547 0.234955 0.635284
0.970703 0.235260 0.635529
0.000427 0.372894 0.635193
0.107941 0.373138 0.635315
0.234741 0.373260 0.635315
0.373260 0.373260 0.635223
0.508850 0.373322 0.635162
0.635132 0.373444 0.635132
0.759125 0.373566 0.635162
0.879364 0.373718 0.635193
0.970276 0.374084 0.635437
0.000244 0.508789 0.635132
0.107788 0.508942 0.635254
0.234711 0.508942 0.635223
0.373322 0.508850 0.635162
0.508789 0.508789 0.635071
0.635071 0.508789 0.635071
0.759033 0.508789 0.635071
0.879211 0.508850 0.635132
0.969910 0.509094 0.635345
0.000122 0.635132 0.635132
0.107697 0.635254 0.635254
0.234772 0.635223 0.635223
0.373444 0.635132 0.635132
0.508789 0.635071 0.635071
0.635071 0.635071 0.635071
0.759003 0.635071 0.635071
0.879120 0.635101 0.635101
0.969574 0.635345 0.635345
0.000031 0.759155 0.635132
0.107635 0.759277 0.635254
0.234863 0.759216 0.635254
0.373566 0.759125 0.635162
0.508789 0.759033 0.635071
0.635071 0.759003 0.635071
0.758972 0.758972 0.635101
0.879059 0.759003 0.635132
0.969269 0.759216 0.635345
0.000000 0.879578 0.635162
0.107605 0.879639 0.635284
0.234955 0.879547 0.635284
0.373718 0.879364 0.635193
0.508850 0.879211 0.635132
0.635101 0.879120 0.635101
0.759003 0.879059 0.635132
0.878998 0.878998 0.635162
0.968964 0.879181 0.635406
0.000061 0.971252 0.635406
0.107758 0.971039 0.635529
0.235260 0.970703 0.635529
0.374084 0.970276 0.635437
0.509094 0.969910 0.635345
0.635345 0.969574 0.635345
0.759216 0.969269 0.635345
0.879181 0.968964 0.635406
0.968903 0.968903 0.635620
0.000641 0.000641 0.759308
0.108063 0.000641 0.759430
0.234589 0.000519 0.759399
0.373016 0.000336 0.759277
0.508820 0.000153 0.759186
0.635132 0.000031 0.759155
0.759155 0.000000 0.759155
0.879517 0.000000 0.759155
0.970917 0.000000 0.759369
0.000641 0.108063 0.759430
0.108124 0.108124 0.759521
0.234772 0.108032 0.759491
0.373260 0.107849 0.759369
0.508942 0.107727 0.759277
0.635254 0.107635 0.759277
0.759247 0.107574 0.759247
0.879547 0.107544 0.759277
0.970734 0.107697 0.759491
0.000519 0.234589 0.759399
0.108032 0.234772 0.759491
0.234833 0.234833 0.759460
0.373383 0.234802 0.759338
0.508942 0.234802 0.759247
0.635254 0.234863 0.759216
0.759216 0.234924 0.759216
0.879456 0.235016 0.759216
0.970398 0.235321 0.759430
0.000336 0.373016 0.759277
0.107849 0.373260 0.759369
0.234802 0.373383 0.759338
0.373413 0.373413 0.759247
0.508850 0.373444 0.759155
0.635162 0.373566 0.759125
0.759094 0.373688 0.759094
0.879303 0.373840 0.759125
0.969971 0.374207 0.759338
0.000153 0.508820 0.759186
0.107727 0.508942 0.759277
0.234802 0.508942 0.759247
0.373444 0.508850 0.759155
0.508789 0.508789 0.759064
0.635071 0.508789 0.759033
0.759003 0.508820 0.759003
0.879150 0.508850 0.759033
0.969574 0.509125 0.759247
0.000031 0.635132 0.759155
0.107635 0.635254 0.759277
0.234863 0.635254 0.759216
0.373566 0.635162 0.759125
0.508789 0.635071 0.759033
0.635071 0.635071 0.759003
0.758972 0.635101 0.758972
0.879059 0.635132 0.759003
0.969269 0.635345 0.759216
0.000000 0.759155 0.759155
0.107574 0.759247 0.759247
0.234924 0.759216 0.759216
0.373688 0.759094 0.759094
0.508820 0.759003 0.759003
0.635101 0.758972 0.758972
0.758972 0.758972 0.758972
0.878967 0.758972 0.758972
0.968933 0.759216 0.759216
0.000000 0.879517 0.759155
0.107544 0.879547 0.759277
0.235016 0.879456 0.759216
0.373840 0.879303 0.759125
0.508850 0.879150 0.759033
0.635132 0.879059 0.759003
0.758972 0.878967 0.758972
0.878937 0.878937 0.759003
0.968658 0.879089 0.759216
0.000000 0.970917 0.759369
0.107697 0.970734 0.759491
0.235321 0.970398 0.759430
0.374207 0.969971 0.759338
0.509125 0.969574 0.759247
0.635345 0.969269 0.759216
0.759216 0.968933 0.759216
0.879089 0.968658 0.759216
0.968597 0.968597 0.759460
0.000549 0.000549 0.880035
0.108032 0.000580 0.880096
0.234680 0.000458 0.880005
0.373169 0.000244 0.879822
0.508850 0.000061 0.879669
0.635162 0.000000 0.879578
0.759155 0.000000 0.879517
0.879486 0.000000 0.879486
0.970642 0.000000 0.879639
0.000580 0.108032 0.880096
0.108063 0.108063 0.880127
0.234863 0.107971 0.880035
0.373413 0.107819 0.879883
0.509003 0.107666 0.879730
0.635284 0.107605 0.879639
0.759277 0.107544 0.879547
0.879517 0.107483 0.879517
0.970428 0.107666 0.879669
0.000458 0.234680 0.880005
0.107971 0.234863 0.880035
0.234924 0.234924 0.879944
0.373535 0.234894 0.879791
0.509003 0.234894 0.879639
0.635284 0.234955 0.879547
0.759216 0.235016 0.879456
0.879425 0.235138 0.879425
0.970093 0.235443 0.879578
0.000244 0.373169 0.879822
0.107819 0.373413 0.879883
0.234894 0.373535 0.879791
0.373566 0.373566 0.879608
0.508911 0.373596 0.879456
0.635193 0.373718 0.879364
0.759125 0.373840 0.879303
0.879242 0.373993 0.879242
0.969696 0.374359 0.879395
0.000061 0.508850 0.879669
0.107666 0.509003 0.879730
0.234894 0.509003 0.879639
0.373596 0.508911 0.879456
0.508850 0.508850 0.879303
0.635132 0.508850 0.879211
0.759033 0.508850 0.879150
0.879089 0.508911 0.879089
0.969299 0.509155 0.879242
0.000000 0.635162 0.879578
0.107605 0.635284 0.879639
0.234955 0.635284 0.879547
0.373718 0.635193 0.879364
0.508850 0.635132 0.879211
0.635101 0.635101 0.879120
0.759003 0.635132 0.879059
0.878998 0.635162 0.878998
0.968964 0.635406 0.879181
0.000000 0.759155 0.879517
0.107544 0.759277 0.879547
0.235016 0.759216 0.879456
0.373840 0.759125 0.879303
0.508850 0.759033 0.879150
0.635132 0.759003 0.879059
0.758972 0.758972 0.878967
0.878937 0.759003 0.878937
0.968658 0.759216 0.879089
0.000000 0.879486 0.879486
0.107483 0.879517 0.879517
0.235138 0.879425 0.879425
0.373993 0.879242 0.879242
0.508911 0.879089 0.879089
0.635162 0.878998 0.878998
0.759003 0.878937 0.878937
0.878906 0.878906 0.878906
0.968384 0.879059 0.879059
0.000000 0.970642 0.879639
0.107666 0.970428 0.879669
0.235443 0.970093 0.879578
0.374359 0.969696 0.879395
0.509155 0.969299 0.879242
0.635406 0.968964 0.879181
0.759216 0.968658 0.879089
0.879059 0.968384 0.879059
0.968323 0.968323 0.879242
0.000671 0.000671 0.972839
0.108185 0.000671 0.972717
0.234985 0.000580 0.972382
0.373535 0.000366 0.971954
0.509094 0.000183 0.971558
0.635406 0.000061 0.971252
0.759369 0.000000 0.970917
0.879639 0.000000 0.970642
0.970551 0.000000 0.970551
0.000671 0.108185 0.972717
0.108215 0.108215 0.972504
0.235168 0.108154 0.972168
0.373779 0.107971 0.971771
0.509247 0.107849 0.971375
0.635529 0.107758 0.971039
0.759491 0.107697 0.970734
0.879669 0.107666 0.970428
0.970367 0.107849 0.970367
0.000580 0.234985 0.972382
0.108154 0.235168 0.972168
0.235229 0.235229 0.971832
0.373871 0.235199 0.971436
0.509216 0.235199 0.971039
0.635529 0.235260 0.970703
0.759430 0.235321 0.970398
0.879578 0.235443 0.970093
0.970032 0.235748 0.970032
0.000366 0.373535 0.971954
0.107971 0.373779 0.971771
0.235199 0.373871 0.971436
0.373901 0.373901 0.971008
0.509155 0.373962 0.970612
0.635437 0.374084 0.970276
0.759338 0.374207 0.969971
0.879395 0.374359 0.969696
0.969604 0.374725 0.969604
0.000183 0.509094 0.971558
0.107849 0.509247 0.971375
0.235199 0.509216 0.971039
0.373962 0.509155 0.970612
0.509094 0.509094 0.970215
0.635345 0.509094 0.969910
0.759247 0.509125 0.969574
0.879242 0.509155 0.969299
0.969238 0.509399 0.969238
0.000061 0.635406 0.971252
0.107758 0.635529 0.971039
0.235260 0.635529 0.970703
0.374084 0.635437 0.970276
0.509094 0.635345 0.969910
0.635345 0.635345 0.969574
0.759216 0.635345 0.969269
0.879181 0.635406 0.968964
0.968903 0.635620 0.968903
0.000000 0.759369 0.970917
0.107697 0.759491 0.970734
0.235321 0.759430 0.970398
0.374207 0.759338 0.969971
0.509125 0.759247 0.969574
0.635345 0.759216 0.969269
0.759216 0.759216 0.968933
0.879089 0.759216 0.968658
0.968597 0.759460 0.968597
0.000000 0.879639 0.970642
0.107666 0.879669 0.970428
0.235443 0.879578 0.970093
0.374359 0.879395 0.969696
0.509155 0.879242 0.969299
0.635406 0.879181 0.968964
0.759216 0.879089 0.968658
0.879059 0.879059 0.968384
0.968323 0.879242 0.968323
0.000000 0.970551 0.970551
0.107849 0.970367 0.970367
0.235748 0.970032 0.970032
0.374725 0.969604 0.969604
0.509399 0.969238 0.969238
0.635620 0.968903 0.968903
0.759460 0.968597 0.968597
0.879242 0.968323 0.968323
0.968262 0.968262 0.968262
