Kodak Vision3 500T (5219) - Only contrast.cube
# Created by Benjamin (IWLTBAP) : http://luts.iwltbap.com
# Copyright: (C) Copyright 2010-2017 Triune Films and IWLTBAP SAS
# Cannot be resold, shared or otherwise redistributed
TITLE "Film Print Emulation LUTs Pack (Rec.709, sRGB, DCI-P3)"
LUT_3D_SIZE 9
0.001038 0.001038 0.001038
0.069580 0.000854 0.000854
0.164825 0.000488 0.000488
0.273743 0.000031 0.000031
0.409851 0.000000 0.000000
0.570648 0.000000 0.000000
0.693207 0.000000 0.000000
0.782593 0.000000 0.000000
0.856201 0.000000 0.000000
0.000854 0.069580 0.000854
0.069702 0.069702 0.000671
0.165009 0.069672 0.000275
0.274109 0.069550 0.000000
0.410309 0.069244 0.000000
0.571350 0.068756 0.000000
0.693420 0.068542 0.000000
0.782684 0.068573 0.000000
0.856110 0.068695 0.000000
0.000488 0.164825 0.000488
0.069672 0.165009 0.000275
0.165039 0.165039 0.000000
0.274292 0.164948 0.000000
0.410614 0.164673 0.000000
0.571899 0.164246 0.000000
0.693420 0.164093 0.000000
0.782593 0.164154 0.000000
0.855835 0.164337 0.000000
0.000031 0.273743 0.000031
0.069550 0.274109 0.000000
0.164948 0.274292 0.000000
0.274384 0.274384 0.000000
0.410797 0.274292 0.000000
0.572357 0.274048 0.000000
0.693359 0.274048 0.000000
0.782410 0.274292 0.000000
0.855499 0.274658 0.000000
0.000000 0.409851 0.000000
0.069244 0.410309 0.000000
0.164673 0.410614 0.000000
0.274292 0.410797 0.000000
0.410797 0.410797 0.000000
0.572601 0.410645 0.000000
0.693085 0.410767 0.000000
0.782043 0.411133 0.000000
0.854950 0.411591 0.000000
0.000000 0.570648 0.000000
0.068756 0.571350 0.000000
0.164246 0.571899 0.000000
0.274048 0.572357 0.000000
0.410645 0.572601 0.000000
0.572662 0.572662 0.000000
0.692627 0.573029 0.000000
0.781494 0.573578 0.000000
0.854218 0.574249 0.000000
0.000000 0.693207 0.000000
0.068542 0.693420 0.000000
0.164093 0.693420 0.000000
0.274048 0.693359 0.000000
0.410767 0.693085 0.000000
0.573029 0.692627 0.000000
0.692505 0.692505 0.000000
0.781250 0.692566 0.000000
0.853790 0.692719 0.000000
0.000000 0.782593 0.000000
0.068573 0.782684 0.000000
0.164154 0.782593 0.000000
0.274292 0.782410 0.000000
0.411133 0.782043 0.000000
0.573578 0.781494 0.000000
0.692566 0.781250 0.000000
0.781189 0.781189 0.000000
0.853607 0.781281 0.000000
0.000000 0.856201 0.000000
0.068695 0.856110 0.000000
0.164337 0.855835 0.000000
0.274658 0.855499 0.000000
0.411591 0.854950 0.000000
0.574249 0.854218 0.000000
0.692719 0.853790 0.000000
0.781281 0.853607 0.000000
0.853516 0.853424 0.003296
0.000854 0.000854 0.069580
0.069702 0.000671 0.069702
0.165009 0.000275 0.069672
0.274109 0.000000 0.069550
0.410309 0.000000 0.069244
0.571350 0.000000 0.068756
0.693420 0.000000 0.068542
0.782684 0.000000 0.068573
0.856110 0.000000 0.068695
0.000671 0.069702 0.069702
0.069855 0.069855 0.069855
0.165192 0.069824 0.069824
0.274475 0.069702 0.069702
0.410767 0.069366 0.069366
0.572083 0.068909 0.068909
0.693604 0.068695 0.068695
0.782776 0.068726 0.068726
0.856018 0.068848 0.068848
0.000275 0.165009 0.069672
0.069824 0.165192 0.069824
0.165222 0.165222 0.069794
0.274658 0.165131 0.069672
0.411072 0.164886 0.069336
0.572601 0.164429 0.068878
0.693604 0.164276 0.068665
0.782684 0.164368 0.068695
0.855743 0.164551 0.068848
0.000000 0.274109 0.069550
0.069702 0.274475 0.069702
0.165131 0.274658 0.069672
0.274750 0.274750 0.069519
0.411255 0.274658 0.069214
0.573059 0.274384 0.068756
0.693542 0.274414 0.068542
0.782471 0.274658 0.068573
0.855377 0.274994 0.068726
0.000000 0.410309 0.069244
0.069366 0.410767 0.069366
0.164886 0.411072 0.069336
0.274658 0.411255 0.069214
0.411255 0.411255 0.068909
0.573273 0.411102 0.068451
0.693268 0.411224 0.068268
0.782104 0.411591 0.068298
0.854828 0.412048 0.068420
0.000000 0.571350 0.068756
0.068909 0.572083 0.068909
0.164429 0.572601 0.068878
0.274384 0.573059 0.068756
0.411102 0.573273 0.068451
0.573334 0.573334 0.067963
0.692810 0.573700 0.067780
0.781555 0.574249 0.067810
0.854126 0.574921 0.067963
0.000000 0.693420 0.068542
0.068695 0.693604 0.068695
0.164276 0.693604 0.068665
0.274414 0.693542 0.068542
0.411224 0.693268 0.068268
0.573700 0.692810 0.067780
0.692657 0.692657 0.067596
0.781311 0.692719 0.067657
0.853699 0.692871 0.067810
0.000000 0.782684 0.068573
0.068726 0.782776 0.068726
0.164368 0.782684 0.068695
0.274658 0.782471 0.068573
0.411591 0.782104 0.068298
0.574249 0.781555 0.067810
0.692719 0.781311 0.067657
0.781250 0.781250 0.067688
0.853485 0.781311 0.067841
0.000000 0.856110 0.068695
0.068848 0.856018 0.068848
0.164551 0.855743 0.068848
0.274994 0.855377 0.068726
0.412048 0.854828 0.068420
0.574921 0.854126 0.067963
0.692871 0.853699 0.067810
0.781311 0.853485 0.067841
0.853394 0.853394 0.067993
0.000488 0.000488 0.164825
0.069672 0.000275 0.165009
0.165039 0.000000 0.165039
0.274292 0.000000 0.164948
0.410614 0.000000 0.164673
0.571899 0.000000 0.164246
0.693420 0.000000 0.164093
0.782593 0.000000 0.164154
0.855835 0.000000 0.164337
0.000275 0.069672 0.165009
0.069824 0.069824 0.165192
0.165222 0.069794 0.165222
0.274658 0.069672 0.165131
0.411072 0.069336 0.164886
0.572601 0.068878 0.164429
0.693604 0.068665 0.164276
0.782684 0.068695 0.164368
0.855743 0.068848 0.164551
0.000000 0.165039 0.165039
0.069794 0.165222 0.165222
0.165222 0.165222 0.165222
0.274841 0.165161 0.165161
0.411346 0.164886 0.164886
0.573151 0.164459 0.164459
0.693634 0.164307 0.164307
0.782593 0.164398 0.164398
0.855499 0.164581 0.164581
0.000000 0.274292 0.164948
0.069672 0.274658 0.165131
0.165161 0.274841 0.165161
0.274933 0.274933 0.165070
0.411530 0.274841 0.164825
0.573578 0.274567 0.164368
0.693542 0.274597 0.164246
0.782379 0.274841 0.164307
0.855133 0.275208 0.164490
0.000000 0.410614 0.164673
0.069336 0.411072 0.164886
0.164886 0.411346 0.164886
0.274841 0.411530 0.164825
0.411560 0.411560 0.164551
0.573792 0.411407 0.164124
0.693268 0.411530 0.163971
0.782013 0.411896 0.164062
0.854584 0.412354 0.164246
0.000000 0.571899 0.164246
0.068878 0.572601 0.164429
0.164459 0.573151 0.164459
0.274567 0.573578 0.164368
0.411407 0.573792 0.164124
0.573853 0.573853 0.163696
0.692810 0.574219 0.163544
0.781464 0.574768 0.163635
0.853851 0.575409 0.163818
0.000000 0.693420 0.164093
0.068665 0.693604 0.164276
0.164307 0.693634 0.164307
0.274597 0.693542 0.164246
0.411530 0.693268 0.163971
0.574219 0.692810 0.163544
0.692657 0.692657 0.163422
0.781219 0.692719 0.163513
0.853424 0.692902 0.163696
0.000000 0.782593 0.164154
0.068695 0.782684 0.164368
0.164398 0.782593 0.164398
0.274841 0.782379 0.164307
0.411896 0.782013 0.164062
0.574768 0.781464 0.163635
0.692719 0.781219 0.163513
0.781158 0.781158 0.163605
0.853210 0.781219 0.163788
0.000000 0.855835 0.164337
0.068848 0.855743 0.164551
0.164581 0.855499 0.164581
0.275208 0.855133 0.164490
0.412354 0.854584 0.164246
0.575409 0.853851 0.163818
0.692902 0.853424 0.163696
0.781219 0.853210 0.163788
0.853119 0.853119 0.164001
0.000031 0.000031 0.273743
0.069550 0.000000 0.274109
0.164948 0.000000 0.274292
0.274384 0.000000 0.274384
0.410797 0.000000 0.274292
0.572357 0.000000 0.274048
0.693359 0.000000 0.274048
0.782410 0.000000 0.274292
0.855499 0.000000 0.274658
0.000000 0.069550 0.274109
0.069702 0.069702 0.274475
0.165131 0.069672 0.274658
0.274750 0.069519 0.274750
0.411255 0.069214 0.274658
0.573059 0.068756 0.274384
0.693542 0.068542 0.274414
0.782471 0.068573 0.274658
0.855377 0.068726 0.274994
0.000000 0.164948 0.274292
0.069672 0.165131 0.274658
0.165161 0.165161 0.274841
0.274933 0.165070 0.274933
0.411530 0.164825 0.274841
0.573578 0.164368 0.274567
0.693542 0.164246 0.274597
0.782379 0.164307 0.274841
0.855133 0.164490 0.275208
0.000000 0.274384 0.274384
0.069519 0.274750 0.274750
0.165070 0.274933 0.274933
0.275024 0.275024 0.275024
0.411743 0.274933 0.274933
0.573975 0.274658 0.274658
0.693451 0.274689 0.274689
0.782196 0.274933 0.274933
0.854767 0.275299 0.275299
0.000000 0.410797 0.274292
0.069214 0.411255 0.274658
0.164825 0.411530 0.274841
0.274933 0.411743 0.274933
0.411743 0.411743 0.274841
0.574219 0.411591 0.274567
0.693176 0.411743 0.274597
0.781799 0.412109 0.274841
0.854218 0.412598 0.275208
0.000000 0.572357 0.274048
0.068756 0.573059 0.274384
0.164368 0.573578 0.274567
0.274658 0.573975 0.274658
0.411591 0.574219 0.274567
0.574249 0.574249 0.274292
0.692719 0.574585 0.274353
0.781250 0.575134 0.274597
0.853485 0.575775 0.274963
0.000000 0.693359 0.274048
0.068542 0.693542 0.274414
0.164246 0.693542 0.274597
0.274689 0.693451 0.274689
0.411743 0.693176 0.274597
0.574585 0.692719 0.274353
0.692566 0.692566 0.274384
0.781006 0.692627 0.274628
0.853058 0.692780 0.275024
0.000000 0.782410 0.274292
0.068573 0.782471 0.274658
0.164307 0.782379 0.274841
0.274933 0.782196 0.274933
0.412109 0.781799 0.274841
0.575134 0.781250 0.274597
0.692627 0.781006 0.274628
0.780975 0.780975 0.274902
0.852844 0.781036 0.275269
0.000000 0.855499 0.274658
0.068726 0.855377 0.274994
0.164490 0.855133 0.275208
0.275299 0.854767 0.275299
0.412598 0.854218 0.275208
0.575775 0.853485 0.274963
0.692780 0.853058 0.275024
0.781036 0.852844 0.275269
0.852753 0.852753 0.275635
0.000000 0.000000 0.409851
0.069244 0.000000 0.410309
0.164673 0.000000 0.410614
0.274292 0.000000 0.410797
0.410797 0.000000 0.410797
0.572601 0.000000 0.410645
0.693085 0.000000 0.410767
0.782043 0.000000 0.411133
0.854950 0.000000 0.411591
0.000000 0.069244 0.410309
0.069366 0.069366 0.410767
0.164886 0.069336 0.411072
0.274658 0.069214 0.411255
0.411255 0.068909 0.411255
0.573273 0.068451 0.411102
0.693268 0.068268 0.411224
0.782104 0.068298 0.411591
0.854828 0.068420 0.412048
0.000000 0.164673 0.410614
0.069336 0.164886 0.411072
0.164886 0.164886 0.411346
0.274841 0.164825 0.411530
0.411560 0.164551 0.411560
0.573792 0.164124 0.411407
0.693268 0.163971 0.411530
0.782013 0.164062 0.411896
0.854584 0.164246 0.412354
0.000000 0.274292 0.410797
0.069214 0.274658 0.411255
0.164825 0.274841 0.411530
0.274933 0.274933 0.411743
0.411743 0.274841 0.411743
0.574219 0.274567 0.411591
0.693176 0.274597 0.411743
0.781799 0.274841 0.412109
0.854218 0.275208 0.412598
0.000000 0.410797 0.410797
0.068909 0.411255 0.411255
0.164551 0.411560 0.411560
0.274841 0.411743 0.411743
0.411774 0.411774 0.411774
0.574432 0.411621 0.411621
0.692902 0.411774 0.411774
0.781433 0.412140 0.412140
0.853638 0.412628 0.412628
0.000000 0.572601 0.410645
0.068451 0.573273 0.411102
0.164124 0.573792 0.411407
0.274567 0.574219 0.411591
0.411621 0.574432 0.411621
0.574463 0.574463 0.411469
0.692444 0.574799 0.411621
0.780853 0.575348 0.411987
0.852905 0.575958 0.412476
0.000000 0.693085 0.410767
0.068268 0.693268 0.411224
0.163971 0.693268 0.411530
0.274597 0.693176 0.411743
0.411774 0.692902 0.411774
0.574799 0.692444 0.411621
0.692291 0.692291 0.411804
0.780609 0.692322 0.412170
0.852509 0.692505 0.412689
0.000000 0.782043 0.411133
0.068298 0.782104 0.411591
0.164062 0.782013 0.411896
0.274841 0.781799 0.412109
0.412140 0.781433 0.412140
0.575348 0.780853 0.411987
0.692322 0.780609 0.412170
0.780579 0.780579 0.412567
0.852295 0.780640 0.413086
0.000000 0.854950 0.411591
0.068420 0.854828 0.412048
0.164246 0.854584 0.412354
0.275208 0.854218 0.412598
0.412628 0.853638 0.412628
0.575958 0.852905 0.412476
0.692505 0.852509 0.412689
0.780640 0.852295 0.413086
0.852203 0.852203 0.413605
0.000000 0.000000 0.570648
0.068756 0.000000 0.571350
0.164246 0.000000 0.571899
0.274048 0.000000 0.572357
0.410645 0.000000 0.572601
0.572662 0.000000 0.572662
0.692627 0.000000 0.573029
0.781494 0.000000 0.573578
0.854218 0.000000 0.574249
0.000000 0.068756 0.571350
0.068909 0.068909 0.572083
0.164429 0.068878 0.572601
0.274384 0.068756 0.573059
0.411102 0.068451 0.573273
0.573334 0.067963 0.573334
0.692810 0.067780 0.573700
0.781555 0.067810 0.574249
0.854126 0.067963 0.574921
0.000000 0.164246 0.571899
0.068878 0.164429 0.572601
0.164459 0.164459 0.573151
0.274567 0.164368 0.573578
0.411407 0.164124 0.573792
0.573853 0.163696 0.573853
0.692810 0.163544 0.574219
0.781464 0.163635 0.574768
0.853851 0.163818 0.575409
0.000000 0.274048 0.572357
0.068756 0.274384 0.573059
0.164368 0.274567 0.573578
0.274658 0.274658 0.573975
0.411591 0.274567 0.574219
0.574249 0.274292 0.574249
0.692719 0.274353 0.574585
0.781250 0.274597 0.575134
0.853485 0.274963 0.575775
0.000000 0.410645 0.572601
0.068451 0.411102 0.573273
0.164124 0.411407 0.573792
0.274567 0.411591 0.574219
0.411621 0.411621 0.574432
0.574463 0.411469 0.574463
0.692444 0.411621 0.574799
0.780853 0.411987 0.575348
0.852905 0.412476 0.575958
0.000000 0.572662 0.572662
0.067963 0.573334 0.573334
0.163696 0.573853 0.573853
0.274292 0.574249 0.574249
0.411469 0.574463 0.574463
0.574493 0.574493 0.574493
0.691956 0.574829 0.574829
0.780304 0.575348 0.575348
0.852173 0.575958 0.575958
0.000000 0.692627 0.573029
0.067780 0.692810 0.573700
0.163544 0.692810 0.574219
0.274353 0.692719 0.574585
0.411621 0.692444 0.574799
0.574829 0.691956 0.574829
0.691833 0.691833 0.575134
0.780060 0.691864 0.575653
0.851776 0.692047 0.576263
0.000000 0.781494 0.573578
0.067810 0.781555 0.574249
0.163635 0.781464 0.574768
0.274597 0.781250 0.575134
0.411987 0.780853 0.575348
0.575348 0.780304 0.575348
0.691864 0.780060 0.575653
0.780029 0.780029 0.576172
0.851562 0.780090 0.576752
0.000000 0.854218 0.574249
0.067963 0.854126 0.574921
0.163818 0.853851 0.575409
0.274963 0.853485 0.575775
0.412476 0.852905 0.575958
0.575958 0.852173 0.575958
0.692047 0.851776 0.576263
0.780090 0.851562 0.576752
0.851471 0.851471 0.577362
0.000000 0.000000 0.693207
0.068542 0.000000 0.693420
0.164093 0.000000 0.693420
0.274048 0.000000 0.693359
0.410767 0.000000 0.693085
0.573029 0.000000 0.692627
0.692505 0.000000 0.692505
0.781250 0.000000 0.692566
0.853790 0.000000 0.692719
0.000000 0.068542 0.693420
0.068695 0.068695 0.693604
0.164276 0.068665 0.693604
0.274414 0.068542 0.693542
0.411224 0.068268 0.693268
0.573700 0.067780 0.692810
0.692657 0.067596 0.692657
0.781311 0.067657 0.692719
0.853699 0.067810 0.692871
0.000000 0.164093 0.693420
0.068665 0.164276 0.693604
0.164307 0.164307 0.693634
0.274597 0.164246 0.693542
0.411530 0.163971 0.693268
0.574219 0.163544 0.692810
0.692657 0.163422 0.692657
0.781219 0.163513 0.692719
0.853424 0.163696 0.692902
0.000000 0.274048 0.693359
0.068542 0.274414 0.693542
0.164246 0.274597 0.693542
0.274689 0.274689 0.693451
0.411743 0.274597 0.693176
0.574585 0.274353 0.692719
0.692566 0.274384 0.692566
0.781006 0.274628 0.692627
0.853058 0.275024 0.692780
0.000000 0.410767 0.693085
0.068268 0.411224 0.693268
0.163971 0.411530 0.693268
0.274597 0.411743 0.693176
0.411774 0.411774 0.692902
0.574799 0.411621 0.692444
0.692291 0.411804 0.692291
0.780609 0.412170 0.692322
0.852509 0.412689 0.692505
0.000000 0.573029 0.692627
0.067780 0.573700 0.692810
0.163544 0.574219 0.692810
0.274353 0.574585 0.692719
0.411621 0.574799 0.692444
0.574829 0.574829 0.691956
0.691833 0.575134 0.691833
0.780060 0.575653 0.691864
0.851776 0.576263 0.692047
0.000000 0.692505 0.692505
0.067596 0.692657 0.692657
0.163422 0.692657 0.692657
0.274384 0.692566 0.692566
0.411804 0.692291 0.692291
0.575134 0.691833 0.691833
0.691681 0.691681 0.691681
0.779816 0.691742 0.691742
0.851379 0.691895 0.691895
0.000000 0.781250 0.692566
0.067657 0.781311 0.692719
0.163513 0.781219 0.692719
0.274628 0.781006 0.692627
0.412170 0.780609 0.692322
0.575653 0.780060 0.691864
0.691742 0.779816 0.691742
0.779785 0.779785 0.691772
0.851166 0.779846 0.691956
0.000000 0.853790 0.692719
0.067810 0.853699 0.692871
0.163696 0.853424 0.692902
0.275024 0.853058 0.692780
0.412689 0.852509 0.692505
0.576263 0.851776 0.692047
0.691895 0.851379 0.691895
0.779846 0.851166 0.691956
0.851074 0.851074 0.692108
0.000000 0.000000 0.782593
0.068573 0.000000 0.782684
0.164154 0.000000 0.782593
0.274292 0.000000 0.782410
0.411133 0.000000 0.782043
0.573578 0.000000 0.781494
0.692566 0.000000 0.781250
0.781189 0.000000 0.781189
0.853607 0.000000 0.781281
0.000000 0.068573 0.782684
0.068726 0.068726 0.782776
0.164368 0.068695 0.782684
0.274658 0.068573 0.782471
0.411591 0.068298 0.782104
0.574249 0.067810 0.781555
0.692719 0.067657 0.781311
0.781250 0.067688 0.781250
0.853485 0.067841 0.781311
0.000000 0.164154 0.782593
0.068695 0.164368 0.782684
0.164398 0.164398 0.782593
0.274841 0.164307 0.782379
0.411896 0.164062 0.782013
0.574768 0.163635 0.781464
0.692719 0.163513 0.781219
0.781158 0.163605 0.781158
0.853210 0.163788 0.781219
0.000000 0.274292 0.782410
0.068573 0.274658 0.782471
0.164307 0.274841 0.782379
0.274933 0.274933 0.782196
0.412109 0.274841 0.781799
0.575134 0.274597 0.781250
0.692627 0.274628 0.781006
0.780975 0.274902 0.780975
0.852844 0.275269 0.781036
0.000000 0.411133 0.782043
0.068298 0.411591 0.782104
0.164062 0.411896 0.782013
0.274841 0.412109 0.781799
0.412140 0.412140 0.781433
0.575348 0.411987 0.780853
0.692322 0.412170 0.780609
0.780579 0.412567 0.780579
0.852295 0.413086 0.780640
0.000000 0.573578 0.781494
0.067810 0.574249 0.781555
0.163635 0.574768 0.781464
0.274597 0.575134 0.781250
0.411987 0.575348 0.780853
0.575348 0.575348 0.780304
0.691864 0.575653 0.780060
0.780029 0.576172 0.780029
0.851562 0.576752 0.780090
0.000000 0.692566 0.781250
0.067657 0.692719 0.781311
0.163513 0.692719 0.781219
0.274628 0.692627 0.781006
0.412170 0.692322 0.780609
0.575653 0.691864 0.780060
0.691742 0.691742 0.779816
0.779785 0.691772 0.779785
0.851166 0.691956 0.779846
0.000000 0.781189 0.781189
0.067688 0.781250 0.781250
0.163605 0.781158 0.781158
0.274902 0.780975 0.780975
0.412567 0.780579 0.780579
0.576172 0.780029 0.780029
0.691772 0.779785 0.779785
0.779755 0.779755 0.779755
0.850983 0.779816 0.779816
0.000000 0.853607 0.781281
0.067841 0.853485 0.781311
0.163788 0.853210 0.781219
0.275269 0.852844 0.781036
0.413086 0.852295 0.780640
0.576752 0.851562 0.780090
0.691956 0.851166 0.779846
0.779816 0.850983 0.779816
0.850891 0.850891 0.779907
0.000000 0.000000 0.856171
0.068695 0.000000 0.856110
0.164337 0.000000 0.855835
0.274658 0.000000 0.855499
0.411591 0.000000 0.854950
0.574249 0.000000 0.854218
0.692719 0.000000 0.853790
0.781281 0.000000 0.853607
0.853485 0.000000 0.853485
0.000000 0.068695 0.856110
0.068848 0.068848 0.856018
0.164551 0.068848 0.855743
0.274994 0.068726 0.855377
0.412048 0.068420 0.854828
0.574921 0.067963 0.854126
0.692871 0.067810 0.853699
0.781311 0.067841 0.853485
0.853394 0.067993 0.853394
0.000000 0.164337 0.855835
0.068848 0.164551 0.855743
0.164581 0.164581 0.855499
0.275208 0.164490 0.855133
0.412354 0.164246 0.854584
0.575409 0.163818 0.853851
0.692902 0.163696 0.853424
0.781219 0.163788 0.853210
0.853119 0.164001 0.853119
0.000000 0.274658 0.855499
0.068726 0.274994 0.855377
0.164490 0.275208 0.855133
0.275299 0.275299 0.854767
0.412598 0.275208 0.854218
0.575775 0.274963 0.853485
0.692780 0.275024 0.853058
0.781036 0.275269 0.852844
0.852753 0.275635 0.852753
0.000000 0.411591 0.854950
0.068420 0.412048 0.854828
0.164246 0.412354 0.854584
0.275208 0.412598 0.854218
0.412628 0.412628 0.853638
0.575958 0.412476 0.852905
0.692505 0.412689 0.852509
0.780640 0.413086 0.852295
0.852203 0.413605 0.852203
0.000000 0.574249 0.854218
0.067963 0.574921 0.854126
0.163818 0.575409 0.853851
0.274963 0.575775 0.853485
0.412476 0.575958 0.852905
0.575958 0.575958 0.852173
0.692047 0.576263 0.851776
0.780090 0.576752 0.851562
0.851471 0.577362 0.851471
0.000000 0.692719 0.853790
0.067810 0.692871 0.853699
0.163696 0.692902 0.853424
0.275024 0.692780 0.853058
0.412689 0.692505 0.852509
0.576263 0.692047 0.851776
0.691895 0.691895 0.851379
0.779846 0.691956 0.851166
0.851074 0.692108 0.851074
0.000000 0.781281 0.853607
0.067841 0.781311 0.853485
0.163788 0.781219 0.853210
0.275269 0.781036 0.852844
0.413086 0.780640 0.852295
0.576752 0.780090 0.851562
0.691956 0.779846 0.851166
0.779816 0.779816 0.850983
0.850891 0.779907 0.850891
0.000000 0.853485 0.853485
0.067993 0.853394 0.853394
0.164001 0.853119 0.853119
0.275635 0.852753 0.852753
0.413605 0.852203 0.852203
0.577362 0.851471 0.851471
0.692108 0.851074 0.851074
0.779907 0.850891 0.850891
0.850800 0.850800 0.850800
