Kodak 8mm - Only contrast.cube
# Created by Benjamin (IWLTBAP) : http://luts.iwltbap.com
# Copyright: (C) Copyright 2010-2017 Triune Films and IWLTBAP SAS
# Cannot be resold, shared or otherwise redistributed
TITLE "Film Print Emulation LUTs Pack (Rec.709, sRGB, DCI-P3)"
LUT_3D_SIZE 9
0.000397 0.000397 0.000397
0.082153 0.000366 0.000366
0.219391 0.000000 0.000000
0.379486 0.000000 0.000000
0.537231 0.000000 0.000000
0.682312 0.000000 0.000000
0.814880 0.000000 0.000000
0.934937 0.000000 0.000000
1.000000 0.000000 0.000000
0.000366 0.082153 0.000366
0.082336 0.082336 0.000366
0.219879 0.082153 0.000000
0.380066 0.081848 0.000000
0.537720 0.081543 0.000000
0.682770 0.081360 0.000000
0.815155 0.081238 0.000000
0.935120 0.081238 0.000000
1.000000 0.081543 0.000000
0.000000 0.219391 0.000000
0.082153 0.219879 0.000000
0.220032 0.220032 0.000000
0.380249 0.220001 0.000000
0.537842 0.220001 0.000000
0.682831 0.220093 0.000000
0.815063 0.220245 0.000000
0.934937 0.220520 0.000000
1.000000 0.221130 0.000000
0.000000 0.379486 0.000000
0.081848 0.380066 0.000000
0.220001 0.380249 0.000000
0.380249 0.380249 0.000000
0.537781 0.380310 0.000000
0.682739 0.380432 0.000000
0.814819 0.380646 0.000000
0.934570 0.380951 0.000000
1.000000 0.381561 0.000000
0.000000 0.537231 0.000000
0.081543 0.537720 0.000000
0.220001 0.537842 0.000000
0.380310 0.537781 0.000000
0.537750 0.537750 0.000000
0.682678 0.537811 0.000000
0.814606 0.537964 0.000000
0.934235 0.538208 0.000000
1.000000 0.538757 0.000000
0.000000 0.682312 0.000000
0.081360 0.682770 0.000000
0.220093 0.682831 0.000000
0.380432 0.682739 0.000000
0.537811 0.682678 0.000000
0.682709 0.682709 0.000000
0.814484 0.682831 0.000000
0.933960 0.683014 0.000000
1.000000 0.683563 0.000000
0.000000 0.814880 0.000000
0.081238 0.815155 0.000000
0.220245 0.815063 0.000000
0.380646 0.814819 0.000000
0.537964 0.814606 0.000000
0.682831 0.814484 0.000000
0.814453 0.814453 0.000000
0.933807 0.814514 0.000000
1.000000 0.814880 0.000000
0.000000 0.934937 0.000000
0.081238 0.935120 0.000000
0.220520 0.934937 0.000000
0.380951 0.934570 0.000000
0.538208 0.934235 0.000000
0.683014 0.933960 0.000000
0.814514 0.933807 0.000000
0.933716 0.933716 0.000000
1.000000 0.933929 0.000000
0.000000 1.000000 0.000000
0.081543 1.000000 0.000000
0.221130 1.000000 0.000000
0.381561 1.000000 0.000000
0.538757 1.000000 0.000000
0.683563 1.000000 0.000000
0.814880 1.000000 0.000000
0.933929 1.000000 0.000000
1.000000 1.000000 0.009277
0.000366 0.000366 0.082153
0.082336 0.000366 0.082336
0.219879 0.000000 0.082153
0.380066 0.000000 0.081848
0.537720 0.000000 0.081543
0.682770 0.000000 0.081360
0.815155 0.000000 0.081238
0.935120 0.000000 0.081238
1.000000 0.000000 0.081543
0.000366 0.082336 0.082336
0.082550 0.082550 0.082550
0.220398 0.082367 0.082367
0.380615 0.082062 0.082062
0.538208 0.081787 0.081787
0.683228 0.081573 0.081573
0.815460 0.081482 0.081482
0.935303 0.081482 0.081482
1.000000 0.081787 0.081787
0.000000 0.219879 0.082153
0.082367 0.220398 0.082367
0.220520 0.220520 0.082214
0.380798 0.220520 0.081909
0.538330 0.220490 0.081635
0.683289 0.220581 0.081421
0.815369 0.220764 0.081329
0.935089 0.221039 0.081329
1.000000 0.221649 0.081665
0.000000 0.380066 0.081848
0.082062 0.380615 0.082062
0.220520 0.380798 0.081909
0.380798 0.380798 0.081604
0.538269 0.380859 0.081329
0.683197 0.380981 0.081146
0.815125 0.381195 0.081055
0.934723 0.381470 0.081055
1.000000 0.382080 0.081390
0.000000 0.537720 0.081543
0.081787 0.538208 0.081787
0.220490 0.538330 0.081635
0.380859 0.538269 0.081329
0.538239 0.538239 0.081055
0.683136 0.538300 0.080902
0.814911 0.538422 0.080811
0.934387 0.538666 0.080811
1.000000 0.539215 0.081177
0.000000 0.682770 0.081360
0.081573 0.683228 0.081573
0.220581 0.683289 0.081421
0.380981 0.683197 0.081146
0.538300 0.683136 0.080902
0.683136 0.683136 0.080719
0.814789 0.683258 0.080658
0.934113 0.683472 0.080658
1.000000 0.683990 0.081024
0.000000 0.815155 0.081238
0.081482 0.815460 0.081482
0.220764 0.815369 0.081329
0.381195 0.815125 0.081055
0.538422 0.814911 0.080811
0.683258 0.814789 0.080658
0.814758 0.814758 0.080597
0.933929 0.814789 0.080597
1.000000 0.815186 0.080963
0.000000 0.935120 0.081238
0.081482 0.935303 0.081482
0.221039 0.935089 0.081329
0.381470 0.934723 0.081055
0.538666 0.934387 0.080811
0.683472 0.934113 0.080658
0.814789 0.933929 0.080597
0.933838 0.933838 0.080627
1.000000 0.934052 0.080994
0.000000 1.000000 0.081543
0.081787 1.000000 0.081787
0.221649 1.000000 0.081665
0.382080 1.000000 0.081390
0.539215 1.000000 0.081177
0.683990 1.000000 0.081024
0.815186 1.000000 0.080963
0.934052 1.000000 0.080994
1.000000 1.000000 0.081390
0.000000 0.000000 0.219391
0.082153 0.000000 0.219879
0.220032 0.000000 0.220032
0.380249 0.000000 0.220001
0.537842 0.000000 0.220001
0.682831 0.000000 0.220093
0.815063 0.000000 0.220245
0.934937 0.000000 0.220520
1.000000 0.000000 0.221130
0.000000 0.082153 0.219879
0.082367 0.082367 0.220398
0.220520 0.082214 0.220520
0.380798 0.081909 0.220520
0.538330 0.081635 0.220490
0.683289 0.081421 0.220581
0.815369 0.081329 0.220764
0.935089 0.081329 0.221039
1.000000 0.081665 0.221649
0.000000 0.220032 0.220032
0.082214 0.220520 0.220520
0.220642 0.220642 0.220642
0.380951 0.220642 0.220642
0.538422 0.220642 0.220642
0.683350 0.220734 0.220734
0.815277 0.220917 0.220917
0.934875 0.221191 0.221191
1.000000 0.221802 0.221802
0.000000 0.380249 0.220001
0.081909 0.380798 0.220520
0.220642 0.380951 0.220642
0.380981 0.380981 0.220612
0.538361 0.381012 0.220612
0.683258 0.381134 0.220703
0.815033 0.381348 0.220917
0.934509 0.381622 0.221191
1.000000 0.382233 0.221802
0.000000 0.537842 0.220001
0.081635 0.538330 0.220490
0.220642 0.538422 0.220642
0.381012 0.538361 0.220612
0.538330 0.538330 0.220642
0.683197 0.538391 0.220734
0.814819 0.538513 0.220917
0.934143 0.538727 0.221222
1.000000 0.539276 0.221832
0.000000 0.682831 0.220093
0.081421 0.683289 0.220581
0.220734 0.683350 0.220734
0.381134 0.683258 0.220703
0.538391 0.683197 0.220734
0.683197 0.683197 0.220825
0.814697 0.683319 0.221039
0.933868 0.683502 0.221313
1.000000 0.684052 0.221954
0.000000 0.815063 0.220245
0.081329 0.815369 0.220764
0.220917 0.815277 0.220917
0.381348 0.815033 0.220917
0.538513 0.814819 0.220917
0.683319 0.814697 0.221039
0.814636 0.814636 0.221252
0.933685 0.814697 0.221527
1.000000 0.815094 0.222168
0.000000 0.934937 0.220520
0.081329 0.935089 0.221039
0.221191 0.934875 0.221191
0.381622 0.934509 0.221191
0.538727 0.934143 0.221222
0.683502 0.933868 0.221313
0.814697 0.933685 0.221527
0.933563 0.933563 0.221832
1.000000 0.933777 0.222473
0.000000 1.000000 0.221130
0.081665 1.000000 0.221649
0.221802 1.000000 0.221802
0.382233 1.000000 0.221802
0.539276 1.000000 0.221832
0.684052 1.000000 0.221954
0.815094 1.000000 0.222168
0.933777 1.000000 0.222473
1.000000 1.000000 0.223114
0.000000 0.000000 0.379486
0.081848 0.000000 0.380066
0.220001 0.000000 0.380249
0.380249 0.000000 0.380249
0.537781 0.000000 0.380310
0.682739 0.000000 0.380432
0.814819 0.000000 0.380646
0.934570 0.000000 0.380951
1.000000 0.000000 0.381561
0.000000 0.081848 0.380066
0.082062 0.082062 0.380615
0.220520 0.081909 0.380798
0.380798 0.081604 0.380798
0.538269 0.081329 0.380859
0.683197 0.081146 0.380981
0.815125 0.081055 0.381195
0.934723 0.081055 0.381470
1.000000 0.081390 0.382080
0.000000 0.220001 0.380249
0.081909 0.220520 0.380798
0.220642 0.220642 0.380951
0.380981 0.220612 0.380981
0.538361 0.220612 0.381012
0.683258 0.220703 0.381134
0.815033 0.220917 0.381348
0.934509 0.221191 0.381622
1.000000 0.221802 0.382233
0.000000 0.380249 0.380249
0.081604 0.380798 0.380798
0.220612 0.380981 0.380981
0.380981 0.380981 0.380981
0.538300 0.381012 0.381012
0.683167 0.381134 0.381134
0.814789 0.381348 0.381348
0.934113 0.381622 0.381622
1.000000 0.382233 0.382233
0.000000 0.537781 0.380310
0.081329 0.538269 0.380859
0.220612 0.538361 0.381012
0.381012 0.538300 0.381012
0.538269 0.538269 0.381042
0.683105 0.538330 0.381165
0.814575 0.538452 0.381378
0.933777 0.538666 0.381653
1.000000 0.539215 0.382263
0.000000 0.682739 0.380432
0.081146 0.683197 0.380981
0.220703 0.683258 0.381134
0.381134 0.683167 0.381134
0.538330 0.683105 0.381165
0.683105 0.683105 0.381287
0.814453 0.683228 0.381470
0.933472 0.683441 0.381744
1.000000 0.683960 0.382355
0.000000 0.814819 0.380646
0.081055 0.815125 0.381195
0.220917 0.815033 0.381348
0.381348 0.814789 0.381348
0.538452 0.814575 0.381378
0.683228 0.814453 0.381470
0.814423 0.814423 0.381653
0.933289 0.814484 0.381958
1.000000 0.814880 0.382568
0.000000 0.934570 0.380951
0.081055 0.934723 0.381470
0.221191 0.934509 0.381622
0.381622 0.934113 0.381622
0.538666 0.933777 0.381653
0.683441 0.933472 0.381744
0.814484 0.933289 0.381958
0.933167 0.933167 0.382233
1.000000 0.933380 0.382843
0.000000 1.000000 0.381561
0.081390 1.000000 0.382080
0.221802 1.000000 0.382233
0.382233 1.000000 0.382233
0.539215 1.000000 0.382263
0.683960 1.000000 0.382355
0.814880 1.000000 0.382568
0.933380 1.000000 0.382843
1.000000 1.000000 0.383453
0.000000 0.000000 0.537231
0.081543 0.000000 0.537720
0.220001 0.000000 0.537842
0.380310 0.000000 0.537781
0.537750 0.000000 0.537750
0.682678 0.000000 0.537811
0.814606 0.000000 0.537964
0.934235 0.000000 0.538208
1.000000 0.000000 0.538757
0.000000 0.081543 0.537720
0.081787 0.081787 0.538208
0.220490 0.081635 0.538330
0.380859 0.081329 0.538269
0.538239 0.081055 0.538239
0.683136 0.080902 0.538300
0.814911 0.080811 0.538422
0.934387 0.080811 0.538666
1.000000 0.081177 0.539215
0.000000 0.220001 0.537842
0.081635 0.220490 0.538330
0.220642 0.220642 0.538422
0.381012 0.220612 0.538361
0.538330 0.220642 0.538330
0.683197 0.220734 0.538391
0.814819 0.220917 0.538513
0.934143 0.221222 0.538727
1.000000 0.221832 0.539276
0.000000 0.380310 0.537781
0.081329 0.380859 0.538269
0.220612 0.381012 0.538361
0.381012 0.381012 0.538300
0.538269 0.381042 0.538269
0.683105 0.381165 0.538330
0.814575 0.381378 0.538452
0.933777 0.381653 0.538666
1.000000 0.382263 0.539215
0.000000 0.537750 0.537750
0.081055 0.538239 0.538239
0.220642 0.538330 0.538330
0.381042 0.538269 0.538269
0.538239 0.538239 0.538239
0.683044 0.538269 0.538269
0.814362 0.538422 0.538422
0.933411 0.538635 0.538635
1.000000 0.539185 0.539185
0.000000 0.682678 0.537811
0.080902 0.683136 0.538300
0.220734 0.683197 0.538391
0.381165 0.683105 0.538330
0.538269 0.683044 0.538269
0.683044 0.683044 0.538330
0.814240 0.683167 0.538452
0.933105 0.683350 0.538666
1.000000 0.683868 0.539215
0.000000 0.814606 0.537964
0.080811 0.814911 0.538422
0.220917 0.814819 0.538513
0.381378 0.814575 0.538452
0.538422 0.814362 0.538422
0.683167 0.814240 0.538452
0.814209 0.814209 0.538574
0.932892 0.814270 0.538788
1.000000 0.814667 0.539337
0.000000 0.934235 0.538208
0.080811 0.934387 0.538666
0.221222 0.934143 0.538727
0.381653 0.933777 0.538666
0.538635 0.933411 0.538635
0.683350 0.933105 0.538666
0.814270 0.932892 0.538788
0.932770 0.932770 0.539001
1.000000 0.932983 0.539551
0.000000 1.000000 0.538757
0.081177 1.000000 0.539215
0.221832 1.000000 0.539276
0.382263 1.000000 0.539215
0.539185 1.000000 0.539185
0.683868 1.000000 0.539215
0.814667 1.000000 0.539337
0.932983 1.000000 0.539551
1.000000 1.000000 0.540100
0.000000 0.000000 0.682312
0.081360 0.000000 0.682770
0.220093 0.000000 0.682831
0.380432 0.000000 0.682739
0.537811 0.000000 0.682678
0.682709 0.000000 0.682709
0.814484 0.000000 0.682831
0.933960 0.000000 0.683014
1.000000 0.000000 0.683563
0.000000 0.081360 0.682770
0.081573 0.081573 0.683228
0.220581 0.081421 0.683289
0.380981 0.081146 0.683197
0.538300 0.080902 0.683136
0.683136 0.080719 0.683136
0.814789 0.080658 0.683258
0.934113 0.080658 0.683472
1.000000 0.081024 0.683990
0.000000 0.220093 0.682831
0.081421 0.220581 0.683289
0.220734 0.220734 0.683350
0.381134 0.220703 0.683258
0.538391 0.220734 0.683197
0.683197 0.220825 0.683197
0.814697 0.221039 0.683319
0.933868 0.221313 0.683502
1.000000 0.221954 0.684052
0.000000 0.380432 0.682739
0.081146 0.380981 0.683197
0.220703 0.381134 0.683258
0.381134 0.381134 0.683167
0.538330 0.381165 0.683105
0.683105 0.381287 0.683105
0.814453 0.381470 0.683228
0.933472 0.381744 0.683441
1.000000 0.382355 0.683960
0.000000 0.537811 0.682678
0.080902 0.538300 0.683136
0.220734 0.538391 0.683197
0.381165 0.538330 0.683105
0.538269 0.538269 0.683044
0.683044 0.538330 0.683044
0.814240 0.538452 0.683167
0.933105 0.538666 0.683350
1.000000 0.539215 0.683868
0.000000 0.682709 0.682709
0.080719 0.683136 0.683136
0.220825 0.683197 0.683197
0.381287 0.683105 0.683105
0.538330 0.683044 0.683044
0.683075 0.683075 0.683075
0.814117 0.683197 0.683197
0.932800 0.683350 0.683350
1.000000 0.683868 0.683868
0.000000 0.814484 0.682831
0.080658 0.814789 0.683258
0.221039 0.814697 0.683319
0.381470 0.814453 0.683228
0.538452 0.814240 0.683167
0.683197 0.814117 0.683197
0.814087 0.814087 0.683289
0.932587 0.814178 0.683441
1.000000 0.814575 0.683960
0.000000 0.933960 0.683014
0.080658 0.934113 0.683472
0.221313 0.933868 0.683502
0.381744 0.933472 0.683441
0.538666 0.933105 0.683350
0.683350 0.932800 0.683350
0.814178 0.932587 0.683441
0.932465 0.932465 0.683624
1.000000 0.932648 0.684113
0.000000 1.000000 0.683563
0.081024 1.000000 0.683990
0.221954 1.000000 0.684052
0.382355 1.000000 0.683960
0.539215 1.000000 0.683868
0.683868 1.000000 0.683868
0.814575 1.000000 0.683960
0.932648 1.000000 0.684113
1.000000 1.000000 0.684601
0.000000 0.000000 0.814880
0.081238 0.000000 0.815155
0.220245 0.000000 0.815063
0.380646 0.000000 0.814819
0.537964 0.000000 0.814606
0.682831 0.000000 0.814484
0.814453 0.000000 0.814453
0.933807 0.000000 0.814514
1.000000 0.000000 0.814880
0.000000 0.081238 0.815155
0.081482 0.081482 0.815460
0.220764 0.081329 0.815369
0.381195 0.081055 0.815125
0.538422 0.080811 0.814911
0.683258 0.080658 0.814789
0.814758 0.080597 0.814758
0.933929 0.080597 0.814789
1.000000 0.080963 0.815186
0.000000 0.220245 0.815063
0.081329 0.220764 0.815369
0.220917 0.220917 0.815277
0.381348 0.220917 0.815033
0.538513 0.220917 0.814819
0.683319 0.221039 0.814697
0.814636 0.221252 0.814636
0.933685 0.221527 0.814697
1.000000 0.222168 0.815094
0.000000 0.380646 0.814819
0.081055 0.381195 0.815125
0.220917 0.381348 0.815033
0.381348 0.381348 0.814789
0.538452 0.381378 0.814575
0.683228 0.381470 0.814453
0.814423 0.381653 0.814423
0.933289 0.381958 0.814484
1.000000 0.382568 0.814880
0.000000 0.537964 0.814606
0.080811 0.538422 0.814911
0.220917 0.538513 0.814819
0.381378 0.538452 0.814575
0.538422 0.538422 0.814362
0.683167 0.538452 0.814240
0.814209 0.538574 0.814209
0.932892 0.538788 0.814270
1.000000 0.539337 0.814667
0.000000 0.682831 0.814484
0.080658 0.683258 0.814789
0.221039 0.683319 0.814697
0.381470 0.683228 0.814453
0.538452 0.683167 0.814240
0.683197 0.683197 0.814117
0.814087 0.683289 0.814087
0.932587 0.683441 0.814178
1.000000 0.683960 0.814575
0.000000 0.814453 0.814453
0.080597 0.814758 0.814758
0.221252 0.814636 0.814636
0.381653 0.814423 0.814423
0.538574 0.814209 0.814209
0.683289 0.814087 0.814087
0.814087 0.814087 0.814087
0.932373 0.814148 0.814148
1.000000 0.814575 0.814575
0.000000 0.933807 0.814514
0.080597 0.933929 0.814789
0.221527 0.933685 0.814697
0.381958 0.933289 0.814484
0.538788 0.932892 0.814270
0.683441 0.932587 0.814178
0.814148 0.932373 0.814148
0.932220 0.932220 0.814240
1.000000 0.932434 0.814636
0.000000 1.000000 0.814880
0.080963 1.000000 0.815186
0.222168 1.000000 0.815094
0.382568 1.000000 0.814880
0.539337 1.000000 0.814667
0.683960 1.000000 0.814575
0.814575 1.000000 0.814575
0.932434 1.000000 0.814636
1.000000 1.000000 0.815063
0.000000 0.000000 0.934937
0.081238 0.000000 0.935120
0.220520 0.000000 0.934937
0.380951 0.000000 0.934570
0.538208 0.000000 0.934235
0.683014 0.000000 0.933960
0.814514 0.000000 0.933807
0.933716 0.000000 0.933716
1.000000 0.000000 0.933929
0.000000 0.081238 0.935120
0.081482 0.081482 0.935303
0.221039 0.081329 0.935089
0.381470 0.081055 0.934723
0.538666 0.080811 0.934387
0.683472 0.080658 0.934113
0.814789 0.080597 0.933929
0.933838 0.080627 0.933838
1.000000 0.080994 0.934052
0.000000 0.220520 0.934937
0.081329 0.221039 0.935089
0.221191 0.221191 0.934875
0.381622 0.221191 0.934509
0.538727 0.221222 0.934143
0.683502 0.221313 0.933868
0.814697 0.221527 0.933685
0.933563 0.221832 0.933563
1.000000 0.222473 0.933777
0.000000 0.380951 0.934570
0.081055 0.381470 0.934723
0.221191 0.381622 0.934509
0.381622 0.381622 0.934113
0.538666 0.381653 0.933777
0.683441 0.381744 0.933472
0.814484 0.381958 0.933289
0.933167 0.382233 0.933167
1.000000 0.382843 0.933380
0.000000 0.538208 0.934235
0.080811 0.538666 0.934387
0.221222 0.538727 0.934143
0.381653 0.538666 0.933777
0.538635 0.538635 0.933411
0.683350 0.538666 0.933105
0.814270 0.538788 0.932892
0.932770 0.539001 0.932770
1.000000 0.539551 0.932983
0.000000 0.683014 0.933960
0.080658 0.683472 0.934113
0.221313 0.683502 0.933868
0.381744 0.683441 0.933472
0.538666 0.683350 0.933105
0.683350 0.683350 0.932800
0.814178 0.683441 0.932587
0.932465 0.683624 0.932465
1.000000 0.684113 0.932648
0.000000 0.814514 0.933807
0.080597 0.814789 0.933929
0.221527 0.814697 0.933685
0.381958 0.814484 0.933289
0.538788 0.814270 0.932892
0.683441 0.814178 0.932587
0.814148 0.814148 0.932373
0.932220 0.814240 0.932220
1.000000 0.814636 0.932434
0.000000 0.933716 0.933716
0.080627 0.933838 0.933838
0.221832 0.933563 0.933563
0.382233 0.933167 0.933167
0.539001 0.932770 0.932770
0.683624 0.932465 0.932465
0.814240 0.932220 0.932220
0.932098 0.932098 0.932098
1.000000 0.932281 0.932281
0.000000 1.000000 0.933929
0.080994 1.000000 0.934052
0.222473 1.000000 0.933777
0.382843 1.000000 0.933380
0.539551 1.000000 0.932983
0.684113 1.000000 0.932648
0.814636 1.000000 0.932434
0.932281 1.000000 0.932281
1.000000 1.000000 0.932465
0.000000 0.000000 1.000000
0.081543 0.000000 1.000000
0.221130 0.000000 1.000000
0.381561 0.000000 1.000000
0.538757 0.000000 1.000000
0.683563 0.000000 1.000000
0.814880 0.000000 1.000000
0.933929 0.000000 1.000000
1.000000 0.000000 1.000000
0.000000 0.081543 1.000000
0.081787 0.081787 1.000000
0.221649 0.081665 1.000000
0.382080 0.081390 1.000000
0.539215 0.081177 1.000000
0.683990 0.081024 1.000000
0.815186 0.080963 1.000000
0.934052 0.080994 1.000000
1.000000 0.081390 1.000000
0.000000 0.221130 1.000000
0.081665 0.221649 1.000000
0.221802 0.221802 1.000000
0.382233 0.221802 1.000000
0.539276 0.221832 1.000000
0.684052 0.221954 1.000000
0.815094 0.222168 1.000000
0.933777 0.222473 1.000000
1.000000 0.223114 1.000000
0.000000 0.381561 1.000000
0.081390 0.382080 1.000000
0.221802 0.382233 1.000000
0.382233 0.382233 1.000000
0.539215 0.382263 1.000000
0.683960 0.382355 1.000000
0.814880 0.382568 1.000000
0.933380 0.382843 1.000000
1.000000 0.383453 1.000000
0.000000 0.538757 1.000000
0.081177 0.539215 1.000000
0.221832 0.539276 1.000000
0.382263 0.539215 1.000000
0.539185 0.539185 1.000000
0.683868 0.539215 1.000000
0.814667 0.539337 1.000000
0.932983 0.539551 1.000000
1.000000 0.540100 1.000000
0.000000 0.683563 1.000000
0.081024 0.683990 1.000000
0.221954 0.684052 1.000000
0.382355 0.683960 1.000000
0.539215 0.683868 1.000000
0.683868 0.683868 1.000000
0.814575 0.683960 1.000000
0.932648 0.684113 1.000000
1.000000 0.684601 1.000000
0.000000 0.814880 1.000000
0.080963 0.815186 1.000000
0.222168 0.815094 1.000000
0.382568 0.814880 1.000000
0.539337 0.814667 1.000000
0.683960 0.814575 1.000000
0.814575 0.814575 1.000000
0.932434 0.814636 1.000000
1.000000 0.815063 1.000000
0.000000 0.933929 1.000000
0.080994 0.934052 1.000000
0.222473 0.933777 1.000000
0.382843 0.933380 1.000000
0.539551 0.932983 1.000000
0.684113 0.932648 1.000000
0.814636 0.932434 1.000000
0.932281 0.932281 1.000000
1.000000 0.932465 1.000000
0.000000 1.000000 1.000000
0.081390 1.000000 1.000000
0.223114 1.000000 1.000000
0.383453 1.000000 1.000000
0.540100 1.000000 1.000000
0.684601 1.000000 1.000000
0.815063 1.000000 1.000000
0.932465 1.000000 1.000000
0.999969 0.999969 0.999969
