Kodak Eastman EXR 100T (5248) - Look.cube
# Created by Benjamin (IWLTBAP) : http://luts.iwltbap.com
# Copyright: (C) Copyright 2010-2017 Triune Films and IWLTBAP SAS
# Cannot be resold, shared or otherwise redistributed
TITLE "Film Print Emulation LUTs Pack (Rec.709, sRGB, DCI-P3)"
LUT_3D_SIZE 33
0.004700 0.002960 0.021515
0.023224 0.003937 0.019714
0.043121 0.006104 0.017273
0.057922 0.009125 0.017181
0.075531 0.012512 0.015045
0.095337 0.016205 0.011688
0.115509 0.020782 0.013733
0.136993 0.025024 0.016937
0.159363 0.028961 0.019165
0.182098 0.032593 0.021515
0.205505 0.037018 0.024811
0.229370 0.040649 0.027802
0.253998 0.043518 0.030121
0.279419 0.047180 0.031036
0.305756 0.052521 0.031647
0.332703 0.058472 0.032623
0.359772 0.062836 0.034393
0.386932 0.065796 0.036499
0.414734 0.068604 0.039185
0.443054 0.072571 0.042450
0.471497 0.079132 0.045837
0.499725 0.088440 0.048553
0.527802 0.099243 0.050812
0.555817 0.109589 0.053528
0.583801 0.119751 0.057312
0.611786 0.129822 0.061157
0.638977 0.138641 0.065094
0.665802 0.147552 0.070221
0.692047 0.157806 0.077667
0.717804 0.169220 0.085876
0.743347 0.181427 0.094391
0.767975 0.193848 0.103424
0.792023 0.206818 0.112305
0.011993 0.018951 0.028656
0.023376 0.022949 0.028778
0.043793 0.025421 0.029449
0.061523 0.028809 0.026642
0.080658 0.031860 0.022644
0.102478 0.035248 0.021027
0.124634 0.038849 0.020477
0.147949 0.042511 0.023224
0.171753 0.045502 0.025970
0.195648 0.048401 0.029205
0.220428 0.051086 0.031799
0.244934 0.053833 0.034058
0.271057 0.056702 0.036011
0.298340 0.060852 0.038666
0.326294 0.065613 0.041382
0.354858 0.069916 0.044220
0.382263 0.073151 0.046906
0.409546 0.075989 0.049286
0.437592 0.079895 0.052124
0.465912 0.085876 0.055298
0.493774 0.095276 0.057922
0.521515 0.105042 0.059998
0.549316 0.114807 0.063049
0.577301 0.124573 0.067993
0.605011 0.134064 0.073639
0.632294 0.143311 0.079132
0.658844 0.151978 0.085083
0.685059 0.161499 0.092102
0.710907 0.172760 0.100250
0.736328 0.184509 0.108704
0.761108 0.196747 0.117218
0.784943 0.209045 0.125549
0.807526 0.221527 0.134247
0.014160 0.040741 0.035858
0.029114 0.043640 0.037811
0.045746 0.046844 0.041199
0.064606 0.049713 0.041016
0.086151 0.052429 0.034576
0.109192 0.055298 0.030853
0.133087 0.057922 0.028168
0.157501 0.060364 0.027313
0.181061 0.063080 0.028961
0.204987 0.065857 0.030945
0.229919 0.068420 0.033295
0.255005 0.071075 0.034882
0.280945 0.074036 0.037140
0.307739 0.078003 0.039368
0.335999 0.081940 0.042969
0.364136 0.085541 0.046326
0.392578 0.088165 0.049561
0.422119 0.091003 0.053955
0.451843 0.096405 0.058929
0.481598 0.103668 0.064117
0.511993 0.112610 0.069397
0.542053 0.121735 0.074890
0.571198 0.130920 0.080902
0.599152 0.140289 0.086243
0.626556 0.149292 0.092926
0.652710 0.158020 0.099945
0.678497 0.167419 0.107422
0.704132 0.178040 0.115448
0.729675 0.189423 0.123779
0.754669 0.201172 0.131866
0.778839 0.213135 0.139832
0.801819 0.225189 0.148285
0.822998 0.237244 0.157654
0.019287 0.060089 0.045074
0.033386 0.062775 0.046875
0.050171 0.065735 0.050049
0.068970 0.069000 0.053070
0.089996 0.072662 0.053986
0.115448 0.075500 0.044678
0.140808 0.078247 0.037598
0.166046 0.080963 0.034424
0.190735 0.083557 0.032166
0.215149 0.086426 0.031952
0.239624 0.089752 0.033142
0.264648 0.092651 0.034332
0.290222 0.095703 0.036102
0.316772 0.099426 0.038879
0.343994 0.103394 0.041901
0.372070 0.106934 0.045410
0.399872 0.110107 0.048218
0.428314 0.114044 0.051697
0.456970 0.119720 0.055634
0.486145 0.126465 0.061035
0.515015 0.134247 0.065735
0.544678 0.141144 0.071136
0.575012 0.148224 0.078552
0.604828 0.156433 0.087097
0.635040 0.165131 0.098297
0.663483 0.173767 0.109985
0.692322 0.183563 0.124084
0.721039 0.195038 0.137146
0.748535 0.206635 0.147430
0.772919 0.218201 0.154999
0.796265 0.229736 0.163300
0.817657 0.241364 0.173096
0.835114 0.252625 0.184387
0.022827 0.080322 0.053864
0.036499 0.083099 0.055847
0.054657 0.086090 0.057800
0.075714 0.089325 0.060089
0.097107 0.093933 0.063660
0.119324 0.098419 0.064697
0.148560 0.101288 0.052734
0.175354 0.104095 0.043518
0.201080 0.107086 0.039307
0.226349 0.109711 0.035492
0.251434 0.112518 0.033569
0.276245 0.115997 0.034210
0.301880 0.119385 0.035919
0.328369 0.123016 0.038696
0.355347 0.127289 0.042206
0.382812 0.131653 0.045593
0.410126 0.135559 0.048462
0.437500 0.140137 0.050873
0.465332 0.145905 0.054260
0.493195 0.152283 0.058411
0.521118 0.158051 0.062714
0.549591 0.162933 0.067902
0.577972 0.169067 0.073944
0.606628 0.176666 0.080933
0.634766 0.184875 0.089142
0.662628 0.192993 0.099884
0.690186 0.201904 0.111359
0.717560 0.211487 0.123505
0.745270 0.221466 0.135345
0.772400 0.231995 0.147522
0.798767 0.243134 0.161346
0.823303 0.255005 0.178284
0.839233 0.265991 0.198273
0.025726 0.101776 0.060822
0.041138 0.104309 0.062561
0.060669 0.107574 0.064392
0.082672 0.111328 0.066528
0.105286 0.116089 0.069611
0.128021 0.121399 0.073608
0.153198 0.126343 0.072662
0.184235 0.129395 0.059509
0.211945 0.132111 0.046997
0.237549 0.134949 0.042664
0.263397 0.137787 0.038361
0.289307 0.140717 0.035492
0.315308 0.144531 0.036774
0.341461 0.148560 0.039703
0.368317 0.152802 0.043457
0.395172 0.157379 0.046722
0.422028 0.161896 0.049713
0.448853 0.166748 0.051453
0.476074 0.171783 0.054413
0.503265 0.177429 0.057617
0.530457 0.182373 0.061646
0.557831 0.187012 0.066895
0.585175 0.192749 0.072296
0.612671 0.199921 0.079285
0.640076 0.207611 0.087341
0.667114 0.215271 0.096527
0.693848 0.223145 0.107452
0.720184 0.231415 0.117462
0.746185 0.239929 0.128357
0.771759 0.248779 0.138641
0.796631 0.258606 0.149597
0.820343 0.269012 0.161743
0.841797 0.279846 0.176819
0.032684 0.123260 0.066864
0.048370 0.126526 0.068573
0.067596 0.130096 0.070801
0.089722 0.134064 0.073120
0.113159 0.139313 0.076019
0.137695 0.145111 0.078918
0.163818 0.150970 0.080872
0.191315 0.155823 0.078918
0.220673 0.159454 0.067169
0.248444 0.161377 0.051636
0.274902 0.164276 0.046204
0.301453 0.167542 0.042206
0.328308 0.170715 0.039642
0.354919 0.174774 0.041901
0.381226 0.178894 0.045715
0.407776 0.183014 0.049042
0.434174 0.187469 0.050842
0.460815 0.192078 0.052582
0.487579 0.197235 0.054932
0.514679 0.202515 0.057526
0.541229 0.207306 0.061981
0.567871 0.211884 0.067902
0.594452 0.217529 0.073975
0.621124 0.224152 0.080627
0.647736 0.231293 0.088409
0.674194 0.238464 0.097961
0.700287 0.245575 0.107605
0.725830 0.252899 0.117249
0.751099 0.260498 0.126465
0.776062 0.268585 0.136505
0.800385 0.277466 0.146698
0.823669 0.287201 0.158295
0.844543 0.297272 0.171051
0.042999 0.144958 0.072998
0.057373 0.148438 0.075165
0.074890 0.152771 0.077362
0.096680 0.157837 0.079620
0.121613 0.163696 0.081940
0.147949 0.169830 0.084015
0.174866 0.175964 0.085724
0.201965 0.181641 0.087769
0.228790 0.186676 0.087128
0.257019 0.190002 0.077179
0.285950 0.192139 0.060303
0.313354 0.195099 0.051544
0.340576 0.198456 0.048492
0.367676 0.201660 0.046722
0.394470 0.205170 0.048096
0.420563 0.209351 0.050415
0.446838 0.213531 0.052460
0.473328 0.218079 0.054291
0.499817 0.223145 0.056458
0.526398 0.228363 0.059357
0.552551 0.233063 0.064392
0.578583 0.237701 0.070801
0.604584 0.242950 0.077545
0.630890 0.248840 0.084717
0.656799 0.255157 0.092377
0.682587 0.261780 0.101410
0.708191 0.268646 0.110199
0.733276 0.275665 0.118805
0.758179 0.282745 0.128571
0.782837 0.290314 0.137726
0.806488 0.298798 0.148010
0.829224 0.307892 0.159180
0.849823 0.317566 0.171082
0.051605 0.167511 0.080475
0.064972 0.171509 0.082367
0.080688 0.176544 0.084564
0.104523 0.182037 0.086395
0.131714 0.188293 0.088379
0.158600 0.194550 0.090332
0.185944 0.200897 0.091827
0.213043 0.206909 0.094086
0.239716 0.212555 0.096619
0.266144 0.217560 0.097321
0.293518 0.221436 0.089935
0.323761 0.223206 0.068237
0.351715 0.226135 0.057709
0.379028 0.229279 0.054260
0.406342 0.232483 0.051544
0.433228 0.235718 0.051056
0.459625 0.239807 0.053680
0.485748 0.244141 0.056152
0.511932 0.248993 0.059021
0.537811 0.254059 0.063080
0.563690 0.258728 0.069305
0.589630 0.263306 0.076324
0.615448 0.268280 0.083221
0.641083 0.273590 0.090607
0.666565 0.279388 0.098297
0.691895 0.285614 0.106415
0.716888 0.292419 0.114899
0.741760 0.299316 0.123047
0.766479 0.306183 0.132477
0.790680 0.313568 0.141296
0.814026 0.321716 0.151276
0.836304 0.330292 0.162354
0.856232 0.339294 0.174347
0.057678 0.190125 0.088135
0.070801 0.195007 0.090179
0.089264 0.200348 0.092438
0.113800 0.206360 0.094696
0.141907 0.212524 0.096649
0.169037 0.219086 0.098297
0.195984 0.225677 0.100006
0.223022 0.231934 0.102142
0.250244 0.237762 0.104156
0.277008 0.243561 0.106293
0.302887 0.248718 0.107971
0.330048 0.252777 0.100311
0.361176 0.254364 0.075378
0.389526 0.256897 0.062195
0.417206 0.260010 0.058228
0.444366 0.263092 0.056458
0.471497 0.266052 0.055359
0.497833 0.270172 0.058624
0.523926 0.274811 0.062592
0.549438 0.279572 0.068237
0.575226 0.284241 0.075806
0.601044 0.289062 0.082825
0.626465 0.293976 0.090424
0.651947 0.298950 0.097382
0.676880 0.304504 0.105347
0.701721 0.310486 0.113098
0.726471 0.317108 0.120636
0.750977 0.323792 0.129242
0.775574 0.330505 0.138062
0.799469 0.337585 0.147217
0.822388 0.345306 0.156738
0.843994 0.353546 0.166779
0.863464 0.362122 0.178589
0.062622 0.213531 0.096710
0.078949 0.218506 0.098663
0.099579 0.224609 0.101593
0.125061 0.230743 0.103851
0.152649 0.237122 0.105865
0.179199 0.243713 0.106873
0.206024 0.250488 0.108521
0.233246 0.256897 0.110138
0.260376 0.262970 0.111603
0.287811 0.269012 0.113129
0.314301 0.274567 0.116119
0.339996 0.280060 0.119659
0.367584 0.284332 0.114014
0.398804 0.285828 0.087982
0.427612 0.287750 0.069458
0.455139 0.290863 0.067261
0.482422 0.293701 0.065796
0.509460 0.296875 0.064972
0.535461 0.301147 0.069122
0.561188 0.305664 0.075684
0.586945 0.310364 0.083099
0.612579 0.315277 0.090942
0.637939 0.320312 0.098969
0.663055 0.325256 0.105927
0.687714 0.330444 0.113770
0.712128 0.336182 0.120972
0.736450 0.342316 0.128448
0.760681 0.348602 0.136841
0.785034 0.355255 0.144928
0.808624 0.362335 0.153809
0.831299 0.369873 0.162750
0.852295 0.377625 0.172241
0.871216 0.385742 0.183533
0.074127 0.237244 0.105774
0.092987 0.242645 0.107910
0.114258 0.249237 0.110535
0.139282 0.255432 0.112427
0.164093 0.261963 0.113953
0.189697 0.268677 0.115387
0.216705 0.275543 0.116821
0.244049 0.282074 0.118408
0.270935 0.288208 0.120422
0.297821 0.294373 0.123077
0.325165 0.300354 0.125916
0.351807 0.306000 0.130157
0.378632 0.311584 0.134521
0.407013 0.315765 0.129974
0.436951 0.317566 0.108398
0.465973 0.318970 0.086700
0.493713 0.322174 0.084106
0.520569 0.325348 0.082855
0.546936 0.328400 0.081665
0.572754 0.332336 0.085724
0.598541 0.336975 0.092682
0.624359 0.341858 0.100098
0.649567 0.346741 0.107452
0.674347 0.351746 0.114868
0.698608 0.356934 0.121887
0.722748 0.362305 0.128967
0.746704 0.368134 0.136444
0.770782 0.374420 0.143463
0.794891 0.381042 0.151489
0.818176 0.388092 0.160004
0.840271 0.395325 0.169250
0.860901 0.402618 0.179382
0.879272 0.410126 0.191223
0.089508 0.261383 0.114929
0.109283 0.267273 0.117035
0.129181 0.274139 0.119598
0.151337 0.280731 0.121704
0.175446 0.287384 0.123260
0.201141 0.294220 0.124847
0.228027 0.301086 0.127075
0.254730 0.307587 0.128967
0.281311 0.313721 0.130890
0.308197 0.320038 0.134399
0.335815 0.326385 0.137604
0.363281 0.332428 0.141907
0.390778 0.338043 0.145996
0.417664 0.343353 0.150970
0.445343 0.347748 0.149017
0.475128 0.350220 0.132233
0.504517 0.351624 0.109833
0.531647 0.354309 0.102814
0.557465 0.357391 0.102234
0.583679 0.360565 0.100983
0.610260 0.364532 0.103516
0.636017 0.369354 0.109894
0.661224 0.374176 0.115753
0.685822 0.379120 0.121857
0.709869 0.384186 0.128418
0.733551 0.389435 0.135315
0.757172 0.395020 0.142395
0.781128 0.401093 0.149353
0.804962 0.407623 0.157684
0.827820 0.414398 0.166473
0.849487 0.421082 0.176971
0.869537 0.427917 0.187714
0.887451 0.435089 0.200043
0.107330 0.286865 0.124207
0.125214 0.293152 0.126617
0.142120 0.300385 0.130127
0.163910 0.307190 0.132599
0.188019 0.314117 0.134949
0.213806 0.320923 0.136902
0.240540 0.327667 0.138977
0.266541 0.334320 0.140594
0.292786 0.340637 0.142883
0.319550 0.347046 0.146545
0.346710 0.353394 0.150116
0.374115 0.359497 0.153870
0.402069 0.365265 0.157440
0.429626 0.370880 0.161957
0.456909 0.376312 0.165527
0.484283 0.380829 0.164032
0.512817 0.383759 0.151306
0.541595 0.385010 0.130402
0.567749 0.387085 0.120789
0.594177 0.390503 0.119720
0.621033 0.393890 0.118988
0.647491 0.397491 0.118622
0.672943 0.402222 0.122772
0.697449 0.407135 0.128387
0.721252 0.412018 0.134277
0.744507 0.416901 0.141998
0.767883 0.422333 0.149963
0.791656 0.428284 0.157349
0.815186 0.434509 0.165619
0.837524 0.440887 0.175537
0.858856 0.447296 0.185822
0.878632 0.453857 0.196411
0.896118 0.460785 0.208038
0.122894 0.313446 0.134644
0.138519 0.320160 0.138275
0.155518 0.327606 0.142090
0.177673 0.334656 0.145142
0.202393 0.341644 0.147369
0.228027 0.348419 0.149658
0.253906 0.355194 0.151764
0.279266 0.361877 0.153625
0.304962 0.368317 0.155609
0.331299 0.374512 0.158539
0.357758 0.380615 0.162048
0.385132 0.386841 0.165924
0.413483 0.392914 0.169250
0.441589 0.398773 0.172211
0.469116 0.404175 0.175568
0.495605 0.409119 0.178955
0.522064 0.413635 0.180573
0.548950 0.416962 0.172882
0.577209 0.418091 0.151642
0.604401 0.419952 0.137970
0.631500 0.423340 0.136780
0.657990 0.426849 0.135468
0.684296 0.430542 0.132690
0.708923 0.435211 0.136719
0.732452 0.439850 0.143250
0.755585 0.444641 0.150818
0.778992 0.449982 0.159332
0.802429 0.455688 0.167938
0.825470 0.461639 0.176636
0.847443 0.467743 0.185242
0.868652 0.473877 0.193817
0.888123 0.480347 0.203400
0.905243 0.487061 0.214447
0.137238 0.340332 0.146057
0.153168 0.347198 0.149719
0.169891 0.355072 0.154388
0.192688 0.362213 0.157562
0.216522 0.369263 0.160126
0.241577 0.375824 0.162628
0.266388 0.382477 0.164642
0.291168 0.388977 0.166870
0.317200 0.395386 0.168640
0.342773 0.401733 0.171478
0.369293 0.407715 0.173645
0.396515 0.413818 0.177246
0.424774 0.419922 0.180634
0.452667 0.425781 0.184174
0.480286 0.431335 0.187286
0.507263 0.436615 0.191010
0.533417 0.441528 0.195587
0.558563 0.446198 0.200775
0.583923 0.449554 0.196960
0.613556 0.450470 0.174133
0.641602 0.452454 0.157776
0.668182 0.455963 0.155396
0.694305 0.459747 0.152496
0.719818 0.463593 0.150665
0.743683 0.467926 0.154541
0.766998 0.472595 0.161743
0.790161 0.477753 0.170349
0.813293 0.483246 0.178253
0.835785 0.488922 0.186554
0.857361 0.494843 0.194855
0.878418 0.500763 0.202026
0.897491 0.507050 0.210938
0.914093 0.513336 0.222076
0.151550 0.367371 0.158112
0.168243 0.374664 0.162506
0.186584 0.382080 0.166595
0.208740 0.389313 0.170258
0.231140 0.396271 0.172943
0.254425 0.402588 0.174957
0.278198 0.409241 0.177216
0.302612 0.415680 0.179474
0.328400 0.422241 0.181580
0.354614 0.428558 0.183838
0.381256 0.434662 0.186279
0.408081 0.440643 0.188873
0.435760 0.446442 0.192139
0.463593 0.452423 0.195862
0.491364 0.458313 0.199493
0.518555 0.463837 0.203339
0.545013 0.468903 0.207977
0.570557 0.473511 0.213409
0.594940 0.477936 0.219543
0.621429 0.481415 0.214386
0.650482 0.483002 0.194885
0.677948 0.485352 0.178986
0.704010 0.488861 0.174042
0.729401 0.492645 0.172119
0.754089 0.496521 0.171387
0.777832 0.500702 0.175201
0.800995 0.505585 0.181763
0.823822 0.510773 0.189667
0.845764 0.516052 0.198029
0.867126 0.521851 0.205566
0.887756 0.527649 0.213043
0.906250 0.533569 0.221863
0.922424 0.539429 0.232880
0.169006 0.394012 0.170319
0.186890 0.401184 0.174316
0.204071 0.409119 0.179291
0.224640 0.416351 0.182983
0.245483 0.423187 0.185913
0.267029 0.429535 0.188263
0.290222 0.435913 0.190247
0.314362 0.442474 0.192657
0.340271 0.449005 0.194611
0.366608 0.455505 0.196930
0.393158 0.461639 0.199677
0.419800 0.467499 0.202515
0.446808 0.473206 0.205811
0.474365 0.479004 0.208862
0.502014 0.485016 0.212769
0.529266 0.490692 0.217194
0.555939 0.496002 0.221344
0.581665 0.500793 0.226593
0.607147 0.505402 0.232117
0.632172 0.510071 0.237335
0.658447 0.513519 0.233032
0.685760 0.515686 0.217743
0.712494 0.517761 0.201569
0.738068 0.521271 0.196014
0.763123 0.525146 0.194214
0.787567 0.529083 0.194061
0.811249 0.533325 0.196106
0.833862 0.537994 0.202545
0.855530 0.542999 0.210205
0.876678 0.548584 0.217712
0.896790 0.554199 0.225159
0.914612 0.559875 0.234802
0.930420 0.565521 0.245880
0.188751 0.420959 0.182617
0.205170 0.428375 0.187103
0.221863 0.436310 0.192200
0.240173 0.443512 0.196045
0.259674 0.450287 0.199219
0.280334 0.456848 0.202240
0.303101 0.463257 0.204559
0.327240 0.469635 0.206573
0.352539 0.476257 0.208801
0.378693 0.482635 0.211456
0.405060 0.488770 0.214111
0.431335 0.494476 0.217407
0.458008 0.500183 0.220428
0.484833 0.505920 0.223969
0.512268 0.511536 0.227081
0.539490 0.517395 0.231079
0.566315 0.522949 0.235443
0.592529 0.528046 0.240295
0.618317 0.532898 0.245026
0.643707 0.537262 0.249359
0.668274 0.541626 0.254089
0.693512 0.545074 0.251343
0.719543 0.547363 0.239380
0.745972 0.549805 0.224091
0.771545 0.553528 0.217712
0.796387 0.557587 0.215912
0.820526 0.561676 0.216248
0.843536 0.565582 0.217499
0.865204 0.570312 0.223450
0.886139 0.575500 0.230133
0.905945 0.580902 0.237274
0.923248 0.586456 0.247070
0.938629 0.592010 0.257996
0.207825 0.448364 0.195007
0.223511 0.455688 0.200104
0.238525 0.463684 0.205383
0.255432 0.471008 0.209686
0.273865 0.477783 0.212982
0.294434 0.484406 0.216217
0.316925 0.490967 0.218750
0.340759 0.497223 0.221069
0.365570 0.503571 0.223541
0.391052 0.509918 0.226410
0.417053 0.515869 0.229065
0.442841 0.521606 0.232513
0.469360 0.527313 0.235443
0.495972 0.532898 0.238403
0.522644 0.538391 0.241302
0.549530 0.543884 0.244324
0.576324 0.549591 0.248627
0.602875 0.555023 0.252930
0.629059 0.560028 0.257019
0.654602 0.564392 0.260559
0.679565 0.568695 0.264587
0.703583 0.572937 0.269012
0.727448 0.576385 0.268951
0.752563 0.579681 0.262634
0.779449 0.582306 0.245514
0.804962 0.585999 0.236572
0.829285 0.590424 0.236664
0.852692 0.594391 0.236694
0.874786 0.598419 0.237427
0.895660 0.603210 0.242371
0.915161 0.608246 0.249115
0.932098 0.613647 0.258514
0.947235 0.619202 0.269043
0.226807 0.475464 0.207306
0.239960 0.483215 0.212738
0.253998 0.491028 0.218079
0.269897 0.498413 0.222748
0.287933 0.505310 0.226349
0.308716 0.512085 0.229675
0.331085 0.518616 0.232391
0.354553 0.524994 0.235107
0.378784 0.531372 0.238037
0.404022 0.537445 0.240448
0.429260 0.543213 0.243622
0.454651 0.548767 0.246399
0.480621 0.554413 0.249390
0.507172 0.559967 0.251495
0.533691 0.565338 0.253723
0.559937 0.570831 0.256897
0.586517 0.576324 0.260498
0.612976 0.581757 0.264496
0.639313 0.586853 0.267731
0.665344 0.591644 0.270660
0.690948 0.596283 0.274017
0.714813 0.600494 0.278412
0.737793 0.604401 0.282990
0.761230 0.608521 0.285645
0.785645 0.612396 0.280884
0.812775 0.615082 0.263672
0.838074 0.618774 0.253479
0.861511 0.623291 0.255585
0.883850 0.627441 0.256134
0.904968 0.631500 0.257416
0.924194 0.636047 0.262787
0.940857 0.641266 0.271179
0.955719 0.646637 0.280762
0.243011 0.502594 0.219604
0.255524 0.510468 0.225189
0.268799 0.518463 0.230743
0.284851 0.525848 0.235535
0.302887 0.532776 0.239349
0.323425 0.539581 0.242645
0.345367 0.546173 0.245728
0.368622 0.552612 0.248352
0.392517 0.558868 0.251160
0.417053 0.565002 0.253906
0.441528 0.570526 0.256989
0.466400 0.575958 0.259705
0.492310 0.581543 0.262054
0.518738 0.587250 0.263580
0.545135 0.592712 0.265686
0.570923 0.597961 0.268585
0.596619 0.603088 0.272003
0.622742 0.608307 0.275726
0.649170 0.613678 0.278503
0.676025 0.618896 0.281433
0.701752 0.623962 0.284454
0.725586 0.627960 0.288635
0.748688 0.631866 0.293274
0.771851 0.636078 0.297974
0.794312 0.640778 0.303497
0.818481 0.644745 0.300568
0.845551 0.647766 0.284607
0.870209 0.651337 0.274048
0.892334 0.655762 0.276184
0.913239 0.659668 0.278778
0.932434 0.663757 0.281006
0.948975 0.668518 0.286560
0.963440 0.673492 0.295105
0.257385 0.529755 0.232361
0.270599 0.537811 0.238281
0.284210 0.545898 0.244171
0.300446 0.553497 0.249146
0.318634 0.560303 0.252899
0.338715 0.567078 0.256409
0.360077 0.573639 0.259399
0.382599 0.580078 0.261993
0.406311 0.586212 0.264557
0.430115 0.592072 0.267609
0.454254 0.597748 0.270355
0.479065 0.603241 0.273102
0.504883 0.609009 0.274658
0.530975 0.614716 0.276337
0.556793 0.620087 0.278503
0.582092 0.625092 0.281281
0.607117 0.629822 0.284698
0.632782 0.634766 0.287567
0.659363 0.640167 0.290405
0.685822 0.645508 0.293396
0.711334 0.650452 0.297302
0.735352 0.654663 0.301025
0.759094 0.658752 0.304993
0.782349 0.663116 0.310089
0.805267 0.667389 0.315125
0.827850 0.672089 0.320526
0.852173 0.676575 0.319580
0.877045 0.679993 0.309998
0.900208 0.683044 0.298859
0.920990 0.687073 0.299347
0.939667 0.691193 0.303040
0.956116 0.695557 0.306061
0.970398 0.699860 0.311096
0.274567 0.556976 0.245758
0.287720 0.565338 0.252106
0.301453 0.573425 0.258240
0.317291 0.580933 0.263153
0.334930 0.587738 0.266907
0.354065 0.594482 0.270355
0.374908 0.600983 0.273102
0.396912 0.607300 0.276001
0.419952 0.613342 0.278656
0.443451 0.619171 0.281372
0.467560 0.624969 0.284241
0.492493 0.630707 0.286163
0.518036 0.636566 0.287537
0.543488 0.642242 0.289185
0.568604 0.647400 0.291626
0.593079 0.651978 0.294647
0.617615 0.656464 0.297913
0.643005 0.661194 0.300659
0.669128 0.666351 0.303101
0.695404 0.671509 0.306000
0.720581 0.676483 0.310211
0.745178 0.681122 0.314636
0.769104 0.685455 0.318542
0.792328 0.689667 0.322510
0.815186 0.693848 0.327515
0.838074 0.698486 0.332550
0.861023 0.703613 0.338104
0.883942 0.708038 0.338959
0.906799 0.711578 0.332458
0.928375 0.714691 0.323517
0.946930 0.718445 0.322296
0.962463 0.722626 0.326324
0.975769 0.726654 0.331055
0.292389 0.584045 0.259491
0.305237 0.592255 0.265808
0.319153 0.600464 0.271881
0.334167 0.608063 0.277008
0.351349 0.615021 0.280762
0.369904 0.621735 0.284119
0.390076 0.628296 0.286926
0.411438 0.634583 0.289825
0.433746 0.640503 0.292786
0.457031 0.646362 0.295258
0.481079 0.652191 0.297516
0.505676 0.658142 0.299316
0.530792 0.664001 0.300446
0.555908 0.669586 0.301727
0.580383 0.674561 0.304626
0.604553 0.679169 0.307922
0.629181 0.683685 0.311340
0.654388 0.688416 0.314331
0.680115 0.693420 0.316956
0.705627 0.698364 0.319794
0.730438 0.703156 0.323334
0.754730 0.707825 0.327698
0.778625 0.712097 0.331970
0.802063 0.716461 0.336182
0.825317 0.720917 0.339966
0.848206 0.725464 0.344971
0.870880 0.730164 0.350098
0.892548 0.734955 0.355743
0.913940 0.739410 0.357635
0.934784 0.743103 0.353760
0.953278 0.746277 0.347290
0.968048 0.749542 0.344879
0.980164 0.753387 0.349396
0.310608 0.611145 0.272705
0.323059 0.619385 0.278961
0.336517 0.627655 0.284790
0.351288 0.635284 0.289734
0.367737 0.642487 0.293915
0.385651 0.649200 0.297485
0.405060 0.655518 0.300476
0.425964 0.661652 0.303467
0.447754 0.667542 0.306458
0.470337 0.673370 0.309113
0.494080 0.679291 0.311249
0.518555 0.685150 0.313019
0.543182 0.690979 0.314270
0.567841 0.696533 0.315918
0.592102 0.701599 0.318909
0.616394 0.706512 0.322205
0.641022 0.711273 0.325531
0.666199 0.715942 0.328583
0.691315 0.720764 0.331818
0.716064 0.725403 0.334656
0.740265 0.729858 0.337799
0.764130 0.734283 0.341278
0.787964 0.738800 0.345154
0.812012 0.743561 0.349579
0.835419 0.748322 0.353912
0.858185 0.752594 0.358093
0.880463 0.756897 0.362610
0.902008 0.761475 0.368164
0.922485 0.766296 0.374023
0.941589 0.770660 0.376831
0.958252 0.774200 0.375214
0.972107 0.777161 0.369965
0.983307 0.780365 0.368195
0.328918 0.638458 0.285706
0.341003 0.646606 0.291748
0.353607 0.655060 0.297821
0.368042 0.662720 0.302765
0.383911 0.669891 0.306885
0.401428 0.676636 0.310760
0.420288 0.682800 0.314331
0.440338 0.688812 0.317719
0.461700 0.694550 0.320770
0.484070 0.700409 0.323395
0.507294 0.706329 0.325439
0.531158 0.712219 0.327423
0.555267 0.718079 0.329315
0.579681 0.723572 0.331512
0.603790 0.728851 0.334503
0.627960 0.733795 0.337433
0.652740 0.738739 0.340424
0.677734 0.743530 0.343231
0.702515 0.748169 0.346344
0.726654 0.752716 0.349976
0.750366 0.757019 0.353119
