Kodachrome 25 (K-14) - Only contrast.cube
# Copyright: (C) Copyright 2017 by IWLTBAP
# Cannot be resold, shared or otherwise redistributed
# Website: https://luts.iwltbap.com
TITLE "Kodak Kodachrome 25 (K-14) - Contrast (Rec.709 sRGB)"
LUT_3D_SIZE 5
0.000000 0.000000 0.000000
0.288014 0.000000 0.000000
0.558423 0.000000 0.000000
0.724561 0.000000 0.000000
0.984932 0.000000 0.000000
0.000000 0.288014 0.000000
0.288660 0.288660 0.000000
0.557849 0.289818 0.000000
0.723741 0.291099 0.000000
0.984576 0.292118 0.000000
0.000000 0.558308 0.000000
0.289561 0.557677 0.000000
0.557217 0.557217 0.000000
0.723330 0.557562 0.000000
0.984302 0.557102 0.000000
0.000000 0.724520 0.000000
0.291354 0.723823 0.000000
0.557562 0.723330 0.000000
0.723494 0.723494 0.000000
0.984850 0.723001 0.000000
0.000000 0.985042 0.000000
0.292246 0.984631 0.000000
0.557102 0.984302 0.000000
0.723001 0.984850 0.000000
0.984686 0.984686 0.000000
0.000000 0.000000 0.286587
0.288660 0.000000 0.288660
0.557677 0.000000 0.289690
0.723700 0.000000 0.291099
0.984521 0.000000 0.291991
0.000000 0.288660 0.288660
0.289561 0.289561 0.289561
0.557045 0.290459 0.290459
0.723125 0.291864 0.291864
0.984138 0.292881 0.292881
0.000000 0.557619 0.289561
0.290203 0.556987 0.290203
0.556642 0.556642 0.291354
0.722549 0.556815 0.292627
0.983891 0.556412 0.293893
0.000000 0.723782 0.291354
0.292118 0.723166 0.292118
0.556815 0.722631 0.292881
0.722837 0.722837 0.294398
0.984384 0.722385 0.295153
0.000000 0.984604 0.292246
0.292500 0.984138 0.292500
0.556469 0.983891 0.294145
0.722343 0.984384 0.295027
0.984138 0.984138 0.295278
0.000000 0.000000 0.558480
0.289433 0.000000 0.557447
0.557447 0.000000 0.557447
0.723248 0.000000 0.557504
0.984247 0.000000 0.557045
0.000000 0.289561 0.557677
0.290459 0.290459 0.557102
0.556642 0.291354 0.556642
0.722590 0.292627 0.556815
0.983891 0.293767 0.556412
0.000000 0.557160 0.557160
0.291354 0.556642 0.556642
0.556239 0.556239 0.556239
0.722138 0.556412 0.556412
0.983699 0.555951 0.555951
0.000000 0.723330 0.557562
0.292881 0.722631 0.556815
0.556412 0.722179 0.556412
0.722385 0.722385 0.556642
0.984193 0.721850 0.556124
0.000000 0.984384 0.557102
0.293387 0.983891 0.556354
0.556008 0.983699 0.556008
0.721850 0.984193 0.556124
0.983946 0.983946 0.555432
0.000000 0.000000 0.724397
0.291099 0.000000 0.723823
0.557562 0.000000 0.723330
0.723494 0.000000 0.723494
0.984850 0.000000 0.723001
0.000000 0.291099 0.723700
0.291737 0.291737 0.723001
0.556872 0.292881 0.722714
0.722755 0.294272 0.722755
0.984384 0.295404 0.722385
0.000000 0.557562 0.723248
0.292627 0.556872 0.722631
0.556354 0.556354 0.722138
0.722343 0.556642 0.722343
0.984193 0.556181 0.721891
0.000000 0.723535 0.723535
0.294398 0.722878 0.722878
0.556642 0.722302 0.722302
0.722549 0.722549 0.722549
0.984686 0.722055 0.722055
0.000000 0.984877 0.723042
0.295153 0.984384 0.722385
0.556181 0.984193 0.721850
0.721973 0.984686 0.721973
0.984439 0.984439 0.721396
0.000000 0.000000 0.985014
0.291991 0.000000 0.984439
0.557045 0.000000 0.984275
0.723042 0.000000 0.984905
0.984658 0.000000 0.984658
0.000000 0.292246 0.984549
0.292754 0.292754 0.984138
0.556354 0.293767 0.983891
0.722343 0.295153 0.984384
0.984138 0.296031 0.984138
0.000000 0.557102 0.984357
0.293514 0.556412 0.983891
0.555951 0.555951 0.983699
0.721891 0.556239 0.984193
0.983946 0.555720 0.983946
0.000000 0.723001 0.984823
0.295404 0.722343 0.984384
0.556124 0.721850 0.984193
0.722055 0.722055 0.984686
0.984439 0.721561 0.984439
0.000000 0.984686 0.984686
0.296406 0.984138 0.984138
0.555547 0.983946 0.983946
0.721685 0.984439 0.984439
0.984247 0.984247 0.984247
