Kodak Vision2 500T (5218) - Only contrast.cube
# Created by Benjamin (IWLTBAP) : http://luts.iwltbap.com
# Copyright: (C) Copyright 2010-2017 Triune Films and IWLTBAP SAS
# Cannot be resold, shared or otherwise redistributed
TITLE "Film Print Emulation LUTs Pack (Rec.709, sRGB, DCI-P3)"
LUT_3D_SIZE 33
0.001831 0.001831 0.001831
0.022491 0.001831 0.001831
0.040649 0.001862 0.001862
0.059387 0.001862 0.001862
0.078705 0.001862 0.001862
0.100128 0.001862 0.001862
0.123871 0.001862 0.001862
0.149689 0.001801 0.001801
0.177338 0.001770 0.001770
0.206177 0.001709 0.001709
0.236176 0.001648 0.001648
0.267090 0.001587 0.001587
0.298798 0.001495 0.001495
0.331360 0.001434 0.001434
0.364349 0.001343 0.001343
0.397308 0.001251 0.001251
0.430420 0.001160 0.001160
0.463837 0.001068 0.001068
0.498047 0.000977 0.000977
0.533600 0.000885 0.000885
0.570435 0.000793 0.000793
0.608246 0.000671 0.000671
0.646332 0.000549 0.000549
0.684204 0.000427 0.000427
0.721313 0.000305 0.000305
0.757416 0.000214 0.000214
0.792847 0.000122 0.000122
0.827942 0.000031 0.000031
0.862579 0.000000 0.000000
0.896240 0.000000 0.000000
0.927795 0.000000 0.000000
0.956421 0.000000 0.000000
0.981628 0.000000 0.000000
0.001831 0.022491 0.001831
0.022491 0.022491 0.001831
0.040649 0.022491 0.001862
0.059387 0.022491 0.001862
0.078705 0.022491 0.001892
0.100128 0.022461 0.001862
0.123932 0.022430 0.001862
0.149719 0.022369 0.001831
0.177399 0.022308 0.001770
0.206238 0.022247 0.001709
0.236267 0.022156 0.001648
0.267151 0.022064 0.001587
0.298889 0.021973 0.001495
0.331451 0.021881 0.001434
0.364441 0.021790 0.001343
0.397400 0.021698 0.001251
0.430511 0.021576 0.001160
0.463928 0.021484 0.001099
0.498138 0.021362 0.001007
0.533722 0.021271 0.000885
0.570557 0.021118 0.000793
0.608368 0.020996 0.000671
0.646484 0.020874 0.000549
0.684326 0.020721 0.000427
0.721436 0.020599 0.000336
0.757507 0.020477 0.000214
0.792969 0.020355 0.000122
0.828033 0.020233 0.000031
0.862671 0.020142 0.000000
0.896332 0.020020 0.000000
0.927856 0.019928 0.000000
0.956482 0.019867 0.000000
0.981659 0.019836 0.000000
0.001862 0.040649 0.001862
0.022491 0.040649 0.001862
0.040649 0.040649 0.001862
0.059387 0.040649 0.001892
0.078735 0.040649 0.001892
0.100159 0.040619 0.001892
0.123962 0.040588 0.001862
0.149780 0.040527 0.001831
0.177460 0.040466 0.001770
0.206329 0.040405 0.001740
0.236328 0.040314 0.001678
0.267242 0.040222 0.001587
0.298981 0.040131 0.001526
0.331543 0.040039 0.001434
0.364532 0.039948 0.001343
0.397491 0.039856 0.001282
0.430634 0.039734 0.001190
0.464020 0.039642 0.001099
0.498260 0.039520 0.001007
0.533844 0.039398 0.000916
0.570679 0.039276 0.000793
0.608490 0.039154 0.000671
0.646606 0.039001 0.000580
0.684448 0.038879 0.000458
0.721558 0.038757 0.000336
0.757629 0.038635 0.000244
0.793091 0.038513 0.000122
0.828156 0.038391 0.000031
0.862762 0.038300 0.000000
0.896423 0.038177 0.000000
0.927948 0.038086 0.000000
0.956512 0.038025 0.000000
0.981689 0.037994 0.000000
0.001862 0.059387 0.001862
0.022491 0.059387 0.001862
0.040649 0.059387 0.001892
0.059387 0.059387 0.001892
0.078735 0.059387 0.001923
0.100189 0.059357 0.001892
0.123993 0.059326 0.001892
0.149841 0.059265 0.001862
0.177521 0.059204 0.001801
0.206390 0.059143 0.001740
0.236420 0.059052 0.001678
0.267334 0.058990 0.001617
0.299072 0.058899 0.001526
0.331635 0.058777 0.001465
0.364655 0.058685 0.001373
0.397583 0.058594 0.001282
0.430725 0.058502 0.001190
0.464142 0.058380 0.001129
0.498352 0.058289 0.001038
0.533966 0.058167 0.000916
0.570831 0.058044 0.000824
0.608643 0.057922 0.000702
0.646759 0.057770 0.000580
0.684601 0.057648 0.000458
0.721680 0.057526 0.000366
0.757751 0.057404 0.000244
0.793182 0.057281 0.000153
0.828278 0.057159 0.000061
0.862885 0.057068 0.000000
0.896515 0.056976 0.000000
0.928009 0.056885 0.000000
0.956573 0.056824 0.000000
0.981720 0.056763 0.000000
0.001862 0.078705 0.001862
0.022491 0.078705 0.001892
0.040649 0.078735 0.001892
0.059387 0.078735 0.001923
0.078735 0.078735 0.001923
0.100220 0.078735 0.001923
0.124054 0.078705 0.001892
0.149902 0.078674 0.001862
0.177612 0.078613 0.001801
0.206482 0.078552 0.001740
0.236511 0.078491 0.001678
0.267426 0.078400 0.001617
0.299164 0.078339 0.001556
0.331726 0.078247 0.001465
0.364746 0.078156 0.001373
0.397675 0.078064 0.001312
0.430817 0.077972 0.001221
0.464233 0.077881 0.001129
0.498474 0.077789 0.001038
0.534088 0.077698 0.000946
0.570953 0.077576 0.000824
0.608765 0.077454 0.000702
0.646881 0.077332 0.000580
0.684723 0.077209 0.000488
0.721802 0.077087 0.000366
0.757874 0.076996 0.000275
0.793304 0.076874 0.000153
0.828369 0.076782 0.000061
0.862976 0.076691 0.000000
0.896606 0.076599 0.000000
0.928070 0.076508 0.000000
0.956635 0.076477 0.000000
0.981750 0.076447 0.000000
0.001862 0.100128 0.001862
0.022461 0.100128 0.001862
0.040619 0.100159 0.001892
0.059357 0.100189 0.001892
0.078735 0.100220 0.001923
0.100220 0.100220 0.001892
0.124054 0.100220 0.001892
0.149933 0.100189 0.001862
0.177643 0.100159 0.001801
0.206512 0.100098 0.001740
0.236572 0.100067 0.001678
0.267487 0.100006 0.001617
0.299255 0.099945 0.001526
0.331818 0.099884 0.001465
0.364807 0.099792 0.001373
0.397766 0.099731 0.001282
0.430908 0.099670 0.001221
0.464325 0.099579 0.001129
0.498566 0.099518 0.001038
0.534180 0.099426 0.000916
0.571045 0.099335 0.000824
0.608887 0.099213 0.000702
0.646973 0.099121 0.000580
0.684814 0.098999 0.000458
0.721893 0.098907 0.000366
0.757965 0.098816 0.000244
0.793396 0.098724 0.000153
0.828461 0.098663 0.000061
0.863068 0.098572 0.000000
0.896698 0.098511 0.000000
0.928131 0.098450 0.000000
0.956665 0.098389 0.000000
0.981781 0.098389 0.000000
0.001862 0.123871 0.001862
0.022430 0.123932 0.001862
0.040588 0.123962 0.001862
0.059326 0.123993 0.001892
0.078705 0.124054 0.001892
0.100220 0.124054 0.001892
0.124084 0.124084 0.001862
0.149963 0.124084 0.001831
0.177673 0.124054 0.001770
0.206573 0.124023 0.001740
0.236603 0.123993 0.001678
0.267548 0.123962 0.001587
0.299316 0.123901 0.001526
0.331879 0.123840 0.001434
0.364868 0.123810 0.001343
0.397827 0.123749 0.001282
0.430969 0.123688 0.001190
0.464386 0.123627 0.001099
0.498627 0.123566 0.001007
0.534271 0.123505 0.000916
0.571136 0.123413 0.000793
0.608978 0.123322 0.000671
0.647095 0.123230 0.000549
0.684906 0.123169 0.000458
0.721985 0.123077 0.000336
0.758057 0.122986 0.000244
0.793457 0.122925 0.000122
0.828522 0.122864 0.000031
0.863129 0.122803 0.000000
0.896759 0.122742 0.000000
0.928192 0.122711 0.000000
0.956696 0.122681 0.000000
0.981781 0.122681 0.000000
0.001801 0.149689 0.001801
0.022369 0.149719 0.001831
0.040527 0.149780 0.001831
0.059265 0.149841 0.001862
0.078674 0.149902 0.001862
0.100189 0.149933 0.001862
0.124084 0.149963 0.001831
0.149963 0.149963 0.001801
0.177704 0.149963 0.001740
0.206604 0.149933 0.001678
0.236633 0.149933 0.001617
0.267578 0.149902 0.001556
0.299347 0.149872 0.001495
0.331909 0.149841 0.001404
0.364929 0.149780 0.001312
0.397888 0.149750 0.001221
0.431000 0.149719 0.001160
0.464447 0.149658 0.001068
0.498688 0.149628 0.000977
0.534332 0.149567 0.000885
0.571228 0.149475 0.000763
0.609070 0.149414 0.000641
0.647156 0.149353 0.000519
0.684998 0.149261 0.000397
0.722046 0.149200 0.000305
0.758118 0.149139 0.000183
0.793549 0.149078 0.000092
0.828583 0.149017 0.000000
0.863190 0.148987 0.000000
0.896790 0.148926 0.000000
0.928192 0.148895 0.000000
0.956696 0.148895 0.000000
0.981750 0.148895 0.000000
0.001770 0.177338 0.001770
0.022308 0.177399 0.001770
0.040466 0.177460 0.001770
0.059204 0.177521 0.001801
0.078613 0.177612 0.001801
0.100159 0.177643 0.001801
0.124054 0.177673 0.001770
0.149963 0.177704 0.001740
0.177704 0.177704 0.001709
0.206604 0.177704 0.001648
0.236664 0.177673 0.001587
0.267609 0.177673 0.001526
0.299377 0.177643 0.001434
0.331940 0.177612 0.001343
0.364960 0.177582 0.001282
0.397919 0.177551 0.001190
0.431061 0.177521 0.001099
0.464478 0.177490 0.001007
0.498749 0.177460 0.000916
0.534393 0.177399 0.000824
0.571289 0.177368 0.000702
0.609131 0.177277 0.000610
0.647247 0.177216 0.000488
0.685059 0.177155 0.000366
0.722107 0.177094 0.000244
0.758179 0.177063 0.000153
0.793579 0.177002 0.000061
0.828644 0.176971 0.000000
0.863251 0.176910 0.000000
0.896820 0.176880 0.000000
0.928223 0.176880 0.000000
0.956696 0.176880 0.000000
0.981720 0.176910 0.000000
0.001709 0.206177 0.001709
0.022247 0.206238 0.001709
0.040405 0.206329 0.001740
0.059143 0.206390 0.001740
0.078552 0.206482 0.001740
0.100098 0.206512 0.001740
0.124023 0.206573 0.001740
0.149933 0.206604 0.001678
0.177704 0.206604 0.001648
0.206604 0.206604 0.001587
0.236664 0.206604 0.001526
0.267609 0.206604 0.001465
0.299408 0.206573 0.001373
0.331970 0.206573 0.001312
0.364990 0.206543 0.001221
0.397949 0.206512 0.001129
0.431091 0.206482 0.001038
0.464508 0.206451 0.000977
0.498810 0.206421 0.000854
0.534454 0.206390 0.000763
0.571350 0.206329 0.000671
0.609192 0.206299 0.000549
0.647308 0.206238 0.000427
0.685120 0.206177 0.000305
0.722168 0.206116 0.000183
0.758209 0.206085 0.000092
0.793640 0.206055 0.000000
0.828674 0.205994 0.000000
0.863281 0.205963 0.000000
0.896851 0.205933 0.000000
0.928223 0.205933 0.000000
0.956665 0.205933 0.000000
0.981689 0.205963 0.000000
0.001648 0.236176 0.001648
0.022156 0.236267 0.001648
0.040314 0.236328 0.001678
0.059052 0.236420 0.001678
0.078491 0.236511 0.001678
0.100067 0.236572 0.001678
0.123993 0.236603 0.001678
0.149933 0.236633 0.001617
0.177673 0.236664 0.001587
0.206604 0.236664 0.001526
0.236664 0.236664 0.001465
0.267639 0.236664 0.001404
0.299408 0.236664 0.001312
0.332001 0.236664 0.001221
0.365021 0.236633 0.001160
0.397949 0.236603 0.001068
0.431091 0.236603 0.000977
0.464539 0.236572 0.000885
0.498840 0.236542 0.000793
0.534485 0.236511 0.000702
0.571411 0.236481 0.000580
0.609253 0.236420 0.000488
0.647369 0.236389 0.000366
0.685181 0.236328 0.000244
0.722198 0.236298 0.000122
0.758240 0.236237 0.000031
0.793671 0.236206 0.000000
0.828705 0.236176 0.000000
0.863312 0.236145 0.000000
0.896881 0.236145 0.000000
0.928223 0.236145 0.000000
0.956635 0.236145 0.000000
0.981659 0.236176 0.000000
0.001587 0.267090 0.001587
0.022064 0.267151 0.001587
0.040222 0.267242 0.001587
0.058990 0.267334 0.001617
0.078400 0.267426 0.001617
0.100006 0.267487 0.001617
0.123962 0.267548 0.001587
0.149902 0.267578 0.001556
0.177673 0.267609 0.001526
0.206604 0.267609 0.001465
0.236664 0.267639 0.001404
0.267639 0.267639 0.001312
0.299438 0.267639 0.001251
0.332001 0.267609 0.001160
0.365021 0.267609 0.001068
0.397980 0.267609 0.001007
0.431122 0.267578 0.000916
0.464569 0.267578 0.000824
0.498871 0.267548 0.000732
0.534546 0.267517 0.000641
0.571442 0.267487 0.000519
0.609283 0.267456 0.000397
0.647400 0.267395 0.000305
0.685211 0.267365 0.000183
0.722229 0.267334 0.000061
0.758270 0.267303 0.000000
0.793701 0.267273 0.000000
0.828735 0.267242 0.000000
0.863312 0.267212 0.000000
0.896881 0.267212 0.000000
0.928223 0.267212 0.000000
0.956604 0.267242 0.000000
0.981598 0.267273 0.000000
0.001495 0.298798 0.001495
0.021973 0.298889 0.001495
0.040131 0.298981 0.001526
0.058899 0.299072 0.001526
0.078339 0.299164 0.001556
0.099945 0.299255 0.001526
0.123901 0.299316 0.001526
0.149872 0.299347 0.001495
0.177643 0.299377 0.001434
0.206573 0.299408 0.001373
0.236664 0.299408 0.001312
0.267639 0.299438 0.001251
0.299438 0.299438 0.001160
0.332031 0.299438 0.001099
0.365021 0.299438 0.001007
0.397980 0.299438 0.000916
0.431122 0.299408 0.000854
0.464569 0.299408 0.000763
0.498871 0.299408 0.000671
0.534576 0.299377 0.000549
0.571503 0.299347 0.000458
0.609344 0.299316 0.000336
0.647461 0.299286 0.000214
0.685272 0.299225 0.000092
0.722290 0.299194 0.000000
0.758301 0.299194 0.000000
0.793732 0.299164 0.000000
0.828766 0.299133 0.000000
0.863342 0.299133 0.000000
0.896881 0.299133 0.000000
0.928192 0.299133 0.000000
0.956573 0.299164 0.000000
0.981537 0.299225 0.000000
0.001434 0.331360 0.001434
0.021881 0.331451 0.001434
0.040039 0.331543 0.001434
0.058777 0.331635 0.001465
0.078247 0.331726 0.001465
0.099884 0.331818 0.001465
0.123840 0.331879 0.001434
0.149841 0.331909 0.001404
0.177612 0.331940 0.001343
0.206573 0.331970 0.001312
0.236664 0.332001 0.001221
0.267609 0.332001 0.001160
0.299438 0.332031 0.001099
0.332031 0.332031 0.001007
0.365051 0.332031 0.000916
0.397980 0.332031 0.000854
0.431122 0.332031 0.000763
0.464569 0.332031 0.000671
0.498901 0.332001 0.000580
0.534607 0.332001 0.000488
0.571533 0.331970 0.000366
0.609375 0.331940 0.000244
0.647491 0.331909 0.000122
0.685303 0.331848 0.000031
0.722290 0.331848 0.000000
0.758331 0.331818 0.000000
0.793732 0.331787 0.000000
0.828796 0.331787 0.000000
0.863342 0.331787 0.000000
0.896881 0.331757 0.000000
0.928192 0.331787 0.000000
0.956543 0.331818 0.000000
0.981476 0.331879 0.000000
0.001343 0.364349 0.001343
0.021790 0.364441 0.001343
0.039948 0.364532 0.001343
0.058685 0.364655 0.001373
0.078156 0.364746 0.001373
0.099792 0.364807 0.001373
0.123810 0.364868 0.001343
0.149780 0.364929 0.001312
0.177582 0.364960 0.001282
0.206543 0.364990 0.001221
0.236633 0.365021 0.001160
0.267609 0.365021 0.001068
0.299438 0.365021 0.001007
0.332031 0.365051 0.000916
0.365051 0.365051 0.000854
0.397980 0.365051 0.000763
0.431122 0.365051 0.000671
0.464569 0.365051 0.000580
0.498901 0.365021 0.000488
0.534607 0.365021 0.000397
0.571564 0.364990 0.000275
0.609406 0.364960 0.000183
0.647522 0.364929 0.000061
0.685333 0.364868 0.000000
0.722321 0.364868 0.000000
0.758362 0.364838 0.000000
0.793762 0.364807 0.000000
0.828796 0.364807 0.000000
0.863373 0.364807 0.000000
0.896881 0.364807 0.000000
0.928162 0.364807 0.000000
0.956512 0.364838 0.000000
0.981415 0.364899 0.000000
0.001251 0.397308 0.001251
0.021698 0.397400 0.001251
0.039856 0.397491 0.001282
0.058594 0.397583 0.001282
0.078064 0.397675 0.001312
0.099731 0.397766 0.001282
0.123749 0.397827 0.001282
0.149750 0.397888 0.001221
0.177551 0.397919 0.001190
0.206512 0.397949 0.001129
0.236603 0.397949 0.001068
0.267609 0.397980 0.001007
0.299438 0.397980 0.000916
0.332031 0.397980 0.000854
0.365051 0.397980 0.000763
0.397980 0.397980 0.000671
0.431122 0.397980 0.000580
0.464600 0.397980 0.000519
0.498932 0.397980 0.000427
0.534637 0.397949 0.000305
0.571594 0.397919 0.000214
0.609436 0.397888 0.000092
0.647552 0.397858 0.000000
0.685364 0.397827 0.000000
0.722351 0.397797 0.000000
0.758362 0.397797 0.000000
0.793762 0.397766 0.000000
0.828827 0.397766 0.000000
0.863373 0.397736 0.000000
0.896881 0.397736 0.000000
0.928131 0.397766 0.000000
0.956451 0.397797 0.000000
0.981354 0.397858 0.000000
0.001160 0.430420 0.001160
0.021576 0.430511 0.001160
0.039734 0.430634 0.001190
0.058502 0.430725 0.001190
0.077972 0.430817 0.001221
0.099670 0.430908 0.001221
0.123688 0.430969 0.001190
0.149719 0.431000 0.001160
0.177521 0.431061 0.001099
0.206482 0.431091 0.001038
0.236603 0.431091 0.000977
0.267578 0.431122 0.000916
0.299408 0.431122 0.000854
0.332031 0.431122 0.000763
0.365051 0.431122 0.000671
0.397980 0.431122 0.000580
0.431122 0.431122 0.000519
0.464600 0.431122 0.000427
0.498932 0.431122 0.000336
0.534668 0.431122 0.000244
0.571625 0.431091 0.000122
0.609497 0.431061 0.000000
0.647583 0.431030 0.000000
0.685394 0.431000 0.000000
0.722382 0.430969 0.000000
0.758392 0.430939 0.000000
0.793793 0.430939 0.000000
0.828827 0.430908 0.000000
0.863373 0.430908 0.000000
0.896881 0.430908 0.000000
0.928101 0.430908 0.000000
0.956421 0.430939 0.000000
0.981293 0.431000 0.000000
0.001068 0.463837 0.001068
0.021484 0.463928 0.001099
0.039642 0.464020 0.001099
0.058380 0.464142 0.001129
0.077881 0.464233 0.001129
0.099579 0.464325 0.001129
0.123627 0.464386 0.001099
0.149658 0.464447 0.001068
0.177490 0.464478 0.001007
0.206451 0.464508 0.000977
0.236572 0.464539 0.000885
0.267578 0.464569 0.000824
0.299408 0.464569 0.000763
0.332031 0.464569 0.000671
0.365051 0.464569 0.000580
0.397980 0.464600 0.000519
0.431122 0.464600 0.000427
0.464600 0.464600 0.000336
0.498962 0.464600 0.000244
0.534698 0.464569 0.000153
0.571655 0.464569 0.000031
0.609528 0.464539 0.000000
0.647614 0.464508 0.000000
0.685425 0.464478 0.000000
0.722382 0.464447 0.000000
0.758392 0.464447 0.000000
0.793793 0.464417 0.000000
0.828827 0.464417 0.000000
0.863373 0.464417 0.000000
0.896881 0.464417 0.000000
0.928101 0.464417 0.000000
0.956360 0.464478 0.000000
0.981232 0.464539 0.000000
0.000977 0.498047 0.000977
0.021362 0.498138 0.001007
0.039520 0.498260 0.001007
0.058289 0.498352 0.001038
0.077789 0.498474 0.001038
0.099518 0.498566 0.001038
0.123566 0.498627 0.001007
0.149628 0.498688 0.000977
0.177460 0.498749 0.000916
0.206421 0.498810 0.000854
0.236542 0.498840 0.000793
0.267548 0.498871 0.000732
0.299408 0.498871 0.000671
0.332001 0.498901 0.000580
0.365021 0.498901 0.000488
0.397980 0.498932 0.000427
0.431122 0.498932 0.000336
0.464600 0.498962 0.000244
0.498962 0.498962 0.000153
0.534698 0.498962 0.000061
0.571655 0.498932 0.000000
0.609528 0.498932 0.000000
0.647644 0.498901 0.000000
0.685425 0.498901 0.000000
0.722412 0.498871 0.000000
0.758423 0.498871 0.000000
0.793793 0.498871 0.000000
0.828827 0.498871 0.000000
0.863373 0.498871 0.000000
0.896851 0.498901 0.000000
0.928040 0.498901 0.000000
0.956299 0.498962 0.000000
0.981140 0.499023 0.000000
0.000885 0.533600 0.000885
0.021271 0.533722 0.000885
0.039398 0.533844 0.000916
0.058167 0.533966 0.000916
0.077698 0.534088 0.000946
0.099426 0.534180 0.000916
0.123505 0.534271 0.000916
0.149567 0.534332 0.000885
0.177399 0.534393 0.000824
0.206390 0.534454 0.000763
0.236511 0.534485 0.000702
0.267517 0.534546 0.000641
0.299377 0.534576 0.000549
0.332001 0.534607 0.000488
0.365021 0.534607 0.000397
0.397949 0.534637 0.000305
0.431122 0.534668 0.000244
0.464569 0.534698 0.000153
0.498962 0.534698 0.000061
0.534698 0.534698 0.000000
0.571686 0.534698 0.000000
0.609558 0.534698 0.000000
0.647675 0.534698 0.000000
0.685455 0.534668 0.000000
0.722412 0.534668 0.000000
0.758423 0.534668 0.000000
0.793793 0.534698 0.000000
0.828827 0.534698 0.000000
0.863373 0.534729 0.000000
0.896820 0.534729 0.000000
0.928009 0.534790 0.000000
0.956238 0.534821 0.000000
0.981079 0.534912 0.000000
0.000793 0.570435 0.000793
0.021118 0.570557 0.000793
0.039276 0.570679 0.000793
0.058044 0.570831 0.000824
0.077576 0.570953 0.000824
0.099335 0.571045 0.000824
0.123413 0.571136 0.000793
0.149475 0.571228 0.000763
0.177368 0.571289 0.000702
0.206329 0.571350 0.000671
0.236481 0.571411 0.000580
0.267487 0.571442 0.000519
0.299347 0.571503 0.000458
0.331970 0.571533 0.000366
0.364990 0.571564 0.000275
0.397919 0.571594 0.000214
0.431091 0.571625 0.000122
0.464569 0.571655 0.000031
0.498932 0.571655 0.000000
0.534698 0.571686 0.000000
0.571686 0.571686 0.000000
0.609558 0.571686 0.000000
0.647675 0.571686 0.000000
0.685455 0.571686 0.000000
0.722412 0.571686 0.000000
0.758392 0.571686 0.000000
0.793793 0.571716 0.000000
0.828827 0.571747 0.000000
0.863342 0.571747 0.000000
0.896790 0.571777 0.000000
0.927948 0.571838 0.000000
0.956177 0.571899 0.000000
0.980988 0.571991 0.000000
0.000671 0.608246 0.000671
0.020996 0.608368 0.000671
0.039154 0.608490 0.000671
0.057922 0.608643 0.000702
0.077454 0.608765 0.000702
0.099213 0.608887 0.000702
0.123322 0.608978 0.000671
0.149414 0.609070 0.000641
0.177277 0.609131 0.000610
0.206299 0.609192 0.000549
0.236420 0.609253 0.000488
0.267456 0.609283 0.000397
0.299316 0.609344 0.000336
0.331940 0.609375 0.000244
0.364960 0.609406 0.000183
0.397888 0.609436 0.000092
0.431061 0.609497 0.000000
0.464539 0.609528 0.000000
0.498932 0.609528 0.000000
0.534698 0.609558 0.000000
0.571686 0.609558 0.000000
0.609558 0.609558 0.000000
0.647675 0.609558 0.000000
0.685455 0.609558 0.000000
0.722412 0.609589 0.000000
0.758392 0.609589 0.000000
0.793762 0.609619 0.000000
0.828796 0.609619 0.000000
0.863342 0.609650 0.000000
0.896759 0.609680 0.000000
0.927917 0.609741 0.000000
0.956085 0.609802 0.000000
0.980896 0.609894 0.000000
0.000549 0.646332 0.000549
0.020874 0.646484 0.000549
0.039001 0.646606 0.000580
0.057770 0.646759 0.000580
0.077332 0.646881 0.000580
0.099121 0.646973 0.000580
0.123230 0.647095 0.000549
0.149353 0.647156 0.000519
0.177216 0.647247 0.000488
0.206238 0.647308 0.000427
0.236389 0.647369 0.000366
0.267395 0.647400 0.000305
0.299286 0.647461 0.000214
0.331909 0.647491 0.000122
0.364929 0.647522 0.000061
0.397858 0.647552 0.000000
0.431030 0.647583 0.000000
0.464508 0.647614 0.000000
0.498901 0.647644 0.000000
0.534698 0.647675 0.000000
0.571686 0.647675 0.000000
0.609558 0.647675 0.000000
0.647675 0.647675 0.000000
0.685455 0.647675 0.000000
0.722382 0.647705 0.000000
0.758362 0.647705 0.000000
0.793762 0.647736 0.000000
0.828766 0.647736 0.000000
0.863312 0.647766 0.000000
0.896729 0.647797 0.000000
0.927856 0.647858 0.000000
0.956024 0.647919 0.000000
0.980774 0.648010 0.000000
0.000427 0.684204 0.000427
0.020721 0.684326 0.000427
0.038879 0.684448 0.000458
0.057648 0.684601 0.000458
0.077209 0.684723 0.000488
0.098999 0.684814 0.000458
0.123169 0.684906 0.000458
0.149261 0.684998 0.000397
0.177155 0.685059 0.000366
0.206177 0.685120 0.000305
0.236328 0.685181 0.000244
0.267365 0.685211 0.000183
0.299225 0.685272 0.000092
0.331848 0.685303 0.000031
0.364868 0.685333 0.000000
0.397827 0.685364 0.000000
0.431000 0.685394 0.000000
0.464478 0.685425 0.000000
0.498901 0.685425 0.000000
0.534668 0.685455 0.000000
0.571686 0.685455 0.000000
0.609558 0.685455 0.000000
0.647675 0.685455 0.000000
0.685455 0.685455 0.000000
0.722382 0.685455 0.000000
0.758362 0.685455 0.000000
0.793732 0.685486 0.000000
0.828766 0.685486 0.000000
0.863281 0.685516 0.000000
0.896698 0.685547 0.000000
0.927795 0.685577 0.000000
0.955933 0.685669 0.000000
0.980682 0.685730 0.000000
0.000305 0.721313 0.000305
0.020599 0.721436 0.000336
0.038757 0.721558 0.000336
0.057526 0.721680 0.000366
0.077087 0.721802 0.000366
0.098907 0.721893 0.000366
0.123077 0.721985 0.000336
0.149200 0.722046 0.000305
0.177094 0.722107 0.000244
0.206116 0.722168 0.000183
0.236298 0.722198 0.000122
0.267334 0.722229 0.000061
0.299194 0.722290 0.000000
0.331848 0.722290 0.000000
0.364868 0.722321 0.000000
0.397797 0.722351 0.000000
0.430969 0.722382 0.000000
0.464447 0.722382 0.000000
0.498871 0.722412 0.000000
0.534668 0.722412 0.000000
0.571686 0.722412 0.000000
0.609589 0.722412 0.000000
0.647705 0.722382 0.000000
0.685455 0.722382 0.000000
0.722382 0.722382 0.000000
0.758362 0.722382 0.000000
0.793732 0.722382 0.000000
0.828735 0.722412 0.000000
0.863251 0.722412 0.000000
0.896667 0.722443 0.000000
0.927734 0.722473 0.000000
0.955872 0.722534 0.000000
0.980591 0.722595 0.000000
0.000214 0.757416 0.000214
0.020477 0.757507 0.000214
0.038635 0.757629 0.000244
0.057404 0.757751 0.000244
0.076996 0.757874 0.000275
0.098816 0.757965 0.000244
0.122986 0.758057 0.000244
0.149139 0.758118 0.000183
0.177063 0.758179 0.000153
0.206085 0.758209 0.000092
0.236237 0.758240 0.000031
0.267303 0.758270 0.000000
0.299194 0.758301 0.000000
0.331818 0.758331 0.000000
0.364838 0.758362 0.000000
0.397797 0.758362 0.000000
0.430939 0.758392 0.000000
0.464447 0.758392 0.000000
0.498871 0.758423 0.000000
0.534668 0.758423 0.000000
0.571686 0.758392 0.000000
0.609589 0.758392 0.000000
0.647705 0.758362 0.000000
0.685455 0.758362 0.000000
0.722382 0.758362 0.000000
0.758362 0.758362 0.000000
0.793701 0.758362 0.000000
0.828735 0.758362 0.000000
0.863251 0.758362 0.000000
0.896637 0.758392 0.000000
0.927704 0.758423 0.000000
0.955811 0.758453 0.000000
0.980530 0.758545 0.000000
0.000122 0.792847 0.000122
0.020355 0.792969 0.000122
0.038513 0.793091 0.000122
0.057281 0.793182 0.000153
0.076874 0.793304 0.000153
0.098724 0.793396 0.000153
0.122925 0.793457 0.000122
0.149078 0.793549 0.000092
0.177002 0.793579 0.000061
0.206055 0.793640 0.000000
0.236206 0.793671 0.000000
0.267273 0.793701 0.000000
0.299164 0.793732 0.000000
0.331787 0.793732 0.000000
0.364807 0.793762 0.000000
0.397766 0.793762 0.000000
0.430939 0.793793 0.000000
0.464417 0.793793 0.000000
0.498871 0.793793 0.000000
0.534698 0.793793 0.000000
0.571716 0.793793 0.000000
