Kodak Vision 320T (5277) - Look.cube
# Created by Benjamin (IWLTBAP) : http://luts.iwltbap.com
# Copyright: (C) Copyright 2010-2017 Triune Films and IWLTBAP SAS
# Cannot be resold, shared or otherwise redistributed
TITLE "Film Print Emulation LUTs Pack (Rec.709, sRGB, DCI-P3)"
LUT_3D_SIZE 9
0.000641 0.002625 0.000885
0.128479 0.010223 0.006348
0.272522 0.032440 0.021240
0.413605 0.055237 0.030121
0.549622 0.075836 0.035614
0.666504 0.100250 0.045166
0.761505 0.123505 0.055359
0.842590 0.142548 0.062805
0.915527 0.160889 0.069702
0.000916 0.107330 0.006195
0.131805 0.110260 0.004089
0.275726 0.121674 0.028809
0.423370 0.135284 0.033020
0.560059 0.150879 0.039520
0.676849 0.170013 0.050354
0.769989 0.187927 0.059326
0.849731 0.204559 0.066589
0.922241 0.220703 0.073456
0.001190 0.217102 0.011902
0.128906 0.222351 0.003204
0.281799 0.225220 0.016418
0.435028 0.238495 0.041962
0.575378 0.251526 0.050385
0.690094 0.265930 0.059235
0.781738 0.279144 0.067230
0.860229 0.292297 0.074310
0.932037 0.305267 0.081146
0.004059 0.334167 0.020172
0.126678 0.341248 0.011230
0.277344 0.351746 0.004364
0.451080 0.351837 0.047394
0.594086 0.367035 0.067383
0.705566 0.378265 0.074158
0.795746 0.387207 0.080322
0.872620 0.396332 0.086639
0.944580 0.406891 0.093323
0.045746 0.456787 0.051727
0.159241 0.466309 0.045197
0.298126 0.476746 0.034058
0.466461 0.485901 0.007751
0.609222 0.481171 0.077606
0.721680 0.493164 0.093536
0.812500 0.505157 0.098907
0.888306 0.514252 0.103546
0.958832 0.520569 0.108978
0.103302 0.577332 0.081024
0.200989 0.585815 0.075317
0.328766 0.596039 0.068726
0.462494 0.603607 0.054382
0.628540 0.609619 0.050690
0.735809 0.607086 0.096954
0.827362 0.617981 0.115784
0.902985 0.628815 0.119019
0.972351 0.635254 0.122437
0.169312 0.703339 0.111206
0.253906 0.709991 0.107819
0.367035 0.719391 0.102478
0.481323 0.725494 0.093292
0.647522 0.735809 0.068115
0.753418 0.736481 0.080841
0.839874 0.733459 0.107880
0.914520 0.741791 0.141205
0.982056 0.748749 0.145935
0.235992 0.825134 0.142609
0.306549 0.830261 0.139465
0.407166 0.837952 0.130951
0.513458 0.843658 0.121307
0.655060 0.852631 0.107300
0.767059 0.857391 0.090973
0.853333 0.859009 0.104462
0.921082 0.854889 0.120941
0.989044 0.859467 0.150421
0.298004 0.933105 0.185211
0.358398 0.936829 0.183411
0.446716 0.942413 0.178650
0.544922 0.947449 0.170288
0.660706 0.954376 0.156250
0.774719 0.961700 0.136169
0.861053 0.964935 0.122803
0.929108 0.962128 0.133148
0.994537 0.960876 0.152161
0.000763 0.004852 0.090515
0.127594 0.012970 0.079895
0.270264 0.032196 0.086884
0.414276 0.055847 0.093658
0.551453 0.077271 0.100067
0.667633 0.101257 0.106934
0.761993 0.125153 0.114014
0.842773 0.144714 0.120209
0.915405 0.163422 0.126862
0.000793 0.109680 0.087830
0.129272 0.113190 0.083710
0.282074 0.124847 0.094330
0.425354 0.137970 0.098724
0.561798 0.153870 0.103027
0.678131 0.172882 0.109863
0.770691 0.190582 0.116486
0.850220 0.207397 0.123047
0.922455 0.223633 0.129608
0.001190 0.219025 0.092865
0.104462 0.225677 0.068604
0.284637 0.229462 0.094910
0.436432 0.241364 0.106354
0.576111 0.254181 0.108978
0.690796 0.268372 0.115295
0.782227 0.281525 0.122620
0.860504 0.294769 0.129089
0.932159 0.307648 0.135590
0.002136 0.337524 0.101227
0.110840 0.344086 0.088593
0.271667 0.355438 0.069763
0.453003 0.356476 0.106506
0.593506 0.369751 0.123566
0.705475 0.378662 0.127930
0.795898 0.388000 0.132782
0.872986 0.398132 0.137787
0.944794 0.408905 0.143585
0.021484 0.458496 0.121704
0.141968 0.468964 0.113983
0.293091 0.480774 0.100189
0.462982 0.489960 0.070709
0.608795 0.485107 0.131500
0.721313 0.496582 0.143860
0.812286 0.506927 0.146149
0.888306 0.514160 0.149536
0.959229 0.521057 0.155884
0.085968 0.578766 0.143829
0.184784 0.588318 0.137085
0.321533 0.599304 0.127533
0.450409 0.606415 0.114532
0.627838 0.614136 0.101562
0.735077 0.610626 0.145355
0.826904 0.620850 0.166443
0.902924 0.630646 0.167236
0.972839 0.636719 0.170563
0.150360 0.705109 0.171143
0.240967 0.712341 0.165924
0.359467 0.721954 0.158600
0.477631 0.728790 0.143707
0.644470 0.739014 0.117218
0.752777 0.740448 0.125214
0.839600 0.736572 0.153778
0.914429 0.744507 0.192749
0.982086 0.751404 0.197479
0.223480 0.826965 0.196899
0.296783 0.832153 0.193604
0.400452 0.840118 0.186096
0.509430 0.846344 0.173828
0.647125 0.854828 0.155945
0.764771 0.860229 0.134766
0.852844 0.862427 0.147614
0.921143 0.857819 0.168274
0.989044 0.862335 0.202393
0.289368 0.934509 0.235413
0.351074 0.938202 0.233978
0.440948 0.943909 0.230652
0.541077 0.949249 0.223907
0.651611 0.955353 0.210938
0.771362 0.963226 0.186951
0.859802 0.967102 0.171326
0.928833 0.964539 0.181519
0.994354 0.963257 0.202637
0.000885 0.010101 0.169586
0.126678 0.017029 0.159973
0.273651 0.032959 0.169159
0.415863 0.058350 0.174255
0.552368 0.079803 0.183319
0.668274 0.103058 0.192078
0.762268 0.127930 0.199493
0.842834 0.148804 0.205139
0.915009 0.167664 0.210449
0.001007 0.114685 0.179871
0.108185 0.115326 0.205658
0.278687 0.124176 0.174866
0.423859 0.140564 0.181427
0.562469 0.158417 0.189270
0.679413 0.177643 0.196747
0.771637 0.195801 0.202698
0.850647 0.212891 0.207520
0.922272 0.228607 0.212585
0.001129 0.223663 0.184113
0.039093 0.231323 0.176392
0.282440 0.235382 0.186249
0.436951 0.246490 0.191895
0.575684 0.259735 0.196259
0.691223 0.273773 0.201385
0.782898 0.286865 0.206146
0.860718 0.299561 0.211029
0.931885 0.312134 0.216339
0.002106 0.340973 0.189819
0.072266 0.346771 0.176147
0.259583 0.359985 0.162659
0.451965 0.363464 0.207703
0.590057 0.375366 0.210266
0.704681 0.382385 0.209564
0.795776 0.391602 0.212799
0.872711 0.401642 0.217316
0.944214 0.412292 0.223114
0.003723 0.462372 0.202454
0.111450 0.471161 0.198456
0.278625 0.485474 0.189972
0.439240 0.494019 0.163452
0.609039 0.491547 0.216797
0.719696 0.502838 0.230438
0.810883 0.509796 0.226807
0.887390 0.515289 0.227417
0.958344 0.522644 0.233765
0.052856 0.578583 0.222229
0.152649 0.590576 0.220245
0.305481 0.603302 0.212463
0.442108 0.611481 0.199036
0.626434 0.620819 0.171021
0.733765 0.616150 0.231110
0.825531 0.625488 0.248749
0.901733 0.633118 0.247131
0.972198 0.638641 0.249695
0.121735 0.705780 0.247345
0.213379 0.714447 0.244568
0.344025 0.725220 0.239349
0.468323 0.732971 0.226929
0.637085 0.743103 0.188141
0.750793 0.746033 0.192657
0.838409 0.741241 0.232086
0.913727 0.748413 0.267609
0.981781 0.755157 0.271240
0.198608 0.828491 0.269836
0.276886 0.834045 0.267883
0.386902 0.842865 0.264526
0.500854 0.849823 0.255432
0.630951 0.857605 0.240082
0.760681 0.864502 0.207428
0.851501 0.867310 0.220367
0.920654 0.862000 0.243622
0.988678 0.866455 0.276642
0.272766 0.936066 0.299805
0.337036 0.940002 0.298889
0.430267 0.945892 0.297577
0.533722 0.951599 0.293396
0.637115 0.956848 0.285217
0.765564 0.965668 0.262848
0.857391 0.970337 0.249603
0.927979 0.968414 0.255096
0.993958 0.966858 0.274170
0.001648 0.019836 0.260223
0.124847 0.022614 0.249512
0.268158 0.036011 0.256470
0.421204 0.056519 0.266632
0.556793 0.083954 0.267426
0.670258 0.107910 0.277893
0.762817 0.131348 0.285706
0.842621 0.152039 0.291901
0.914490 0.171356 0.297638
0.001404 0.124023 0.279175
0.094299 0.122711 0.296295
0.266235 0.127625 0.266602
0.429749 0.138550 0.272003
0.565247 0.159607 0.274109
0.679199 0.179352 0.283112
0.771057 0.197723 0.290131
0.849854 0.215698 0.296051
0.921295 0.232483 0.301849
0.001526 0.231689 0.284393
0.025879 0.235504 0.311340
0.270844 0.241425 0.300507
0.437683 0.249573 0.278625
0.576874 0.265320 0.286072
0.690826 0.279724 0.292786
0.782928 0.293182 0.298798
0.860535 0.305939 0.303772
0.931183 0.318329 0.308777
0.001984 0.348175 0.287628
0.024323 0.353790 0.284821
0.211395 0.368073 0.277832
0.444977 0.373352 0.300995
0.587616 0.379242 0.301056
0.702332 0.389404 0.304382
0.794952 0.398651 0.306671
0.872375 0.407867 0.309998
0.943481 0.418243 0.315186
0.003845 0.466949 0.296021
0.043152 0.471100 0.286896
0.245728 0.489807 0.284760
0.416779 0.498718 0.268219
0.607513 0.499695 0.319733
0.717010 0.509338 0.324249
0.808746 0.513885 0.321411
0.885986 0.518311 0.320404
0.956879 0.525726 0.325287
0.004578 0.578888 0.300446
0.114716 0.590149 0.301849
0.279022 0.606354 0.298889
0.428802 0.615845 0.290833
0.620941 0.627075 0.267151
0.732697 0.623108 0.327454
0.823090 0.631714 0.342255
0.899536 0.636047 0.338226
0.970520 0.640717 0.338562
0.087860 0.702942 0.321198
0.175751 0.714508 0.321289
0.321167 0.727448 0.320190
0.454987 0.736298 0.314636
0.620270 0.747070 0.291290
0.747498 0.752655 0.285950
0.837006 0.746948 0.325378
0.912109 0.753113 0.355652
0.980682 0.759369 0.358154
0.163757 0.828400 0.343292
0.245300 0.834900 0.342621
0.367096 0.844757 0.342377
0.488129 0.852814 0.339203
0.611816 0.859955 0.331146
0.754028 0.868988 0.302307
0.848907 0.872681 0.307434
0.919861 0.866852 0.330566
0.988068 0.871124 0.364380
0.243500 0.937103 0.369965
0.314392 0.941345 0.369812
0.413879 0.947754 0.370239
0.522369 0.953949 0.368683
0.625732 0.959076 0.364471
0.756561 0.968048 0.347229
0.853638 0.973785 0.337494
0.926666 0.972656 0.338257
0.993042 0.970642 0.355408
0.002808 0.032013 0.343964
0.120667 0.030182 0.339935
0.261719 0.040558 0.341064
0.420624 0.060272 0.355774
0.560669 0.079102 0.363953
0.675751 0.098724 0.367340
0.764618 0.137207 0.373566
0.843109 0.156891 0.379578
0.913940 0.175049 0.385010
0.001709 0.132599 0.372284
0.092590 0.131500 0.380859
0.261414 0.134796 0.360077
0.427429 0.141479 0.363403
0.570923 0.156342 0.368835
0.683319 0.177917 0.370178
0.771545 0.200592 0.377075
0.848877 0.217133 0.382721
0.919556 0.233673 0.388611
0.001892 0.240021 0.381622
0.024017 0.240814 0.421631
0.249573 0.247437 0.414917
0.434601 0.251160 0.374725
0.585114 0.261719 0.374512
0.691956 0.280121 0.377350
0.782104 0.293732 0.384888
0.859039 0.307098 0.390900
0.929291 0.320190 0.396729
0.001923 0.351776 0.389160
0.024170 0.356873 0.402374
0.181641 0.370728 0.427429
0.438873 0.379333 0.396698
0.587830 0.385162 0.388031
0.701080 0.395477 0.393829
0.793640 0.406097 0.398529
0.871338 0.415009 0.402618
0.942474 0.424835 0.407928
0.003418 0.470581 0.391388
0.025726 0.475555 0.390717
0.166656 0.494049 0.392792
0.404877 0.506165 0.382782
0.603760 0.508392 0.414276
0.714294 0.512726 0.412445
0.806030 0.518311 0.412842
0.884491 0.524170 0.413910
0.955719 0.531281 0.417938
0.004791 0.583313 0.401886
0.032959 0.587158 0.395905
0.223145 0.610748 0.398590
0.405853 0.622040 0.392120
0.602722 0.632080 0.369812
0.730347 0.629669 0.431976
0.820496 0.637360 0.434387
0.897491 0.639618 0.429291
0.968842 0.643799 0.428741
0.005432 0.697418 0.409821
0.122589 0.713318 0.414337
0.278778 0.730957 0.414185
0.433502 0.740448 0.407166
0.598724 0.751007 0.390594
0.743805 0.757629 0.379028
0.835815 0.752655 0.423431
0.910095 0.758209 0.447632
0.979340 0.763092 0.447998
0.119934 0.826508 0.428925
0.197388 0.835663 0.429474
0.335724 0.846527 0.426788
0.470703 0.855194 0.420013
0.600983 0.863129 0.415649
0.745117 0.872620 0.397064
0.845917 0.877197 0.395966
0.919128 0.871521 0.421112
0.987427 0.875488 0.457764
0.203125 0.937653 0.447968
0.277313 0.942261 0.447693
0.391602 0.949219 0.445587
0.508118 0.956085 0.444458
0.615845 0.961639 0.443451
0.746185 0.970306 0.431244
0.848785 0.976929 0.423981
0.925110 0.976410 0.419708
0.992126 0.974152 0.438141
0.009613 0.046997 0.438324
0.123291 0.044373 0.436768
0.260010 0.049561 0.433655
0.419800 0.065308 0.449860
0.559753 0.083374 0.462616
0.676086 0.103271 0.472778
0.769501 0.123596 0.477417
0.848907 0.142578 0.477539
0.914856 0.181061 0.478577
0.002136 0.142548 0.477051
0.098755 0.143341 0.474731
0.256439 0.145752 0.466248
0.422211 0.144470 0.458984
0.569336 0.160950 0.469910
0.685608 0.177185 0.477539
0.777893 0.191650 0.480255
0.854797 0.209167 0.477173
0.919586 0.237640 0.482117
0.002289 0.248840 0.494843
0.024414 0.248901 0.533600
0.235229 0.257111 0.521240
0.421783 0.255280 0.474884
0.582733 0.265503 0.479645
0.697632 0.277283 0.483490
0.789276 0.287354 0.483032
0.860077 0.306366 0.481750
0.927643 0.320496 0.488922
0.002411 0.359772 0.500427
0.024719 0.363800 0.525299
0.122711 0.372559 0.578094
0.423462 0.384613 0.538727
0.587585 0.389008 0.498199
0.709534 0.394196 0.491058
0.794403 0.409454 0.490631
0.870300 0.419067 0.497833
0.940369 0.428741 0.504639
0.002533 0.472626 0.509827
0.025024 0.477386 0.519897
0.163696 0.496765 0.542236
0.373657 0.510986 0.562378
0.599884 0.514130 0.518280
0.712585 0.517303 0.508759
0.804535 0.524597 0.512756
0.882965 0.532410 0.516754
0.953705 0.538940 0.520447
0.003876 0.585907 0.507660
0.026245 0.590363 0.506927
0.124451 0.606506 0.511139
0.356689 0.630371 0.513947
0.584717 0.638733 0.493652
0.727295 0.638397 0.539642
0.817871 0.641510 0.535034
0.894867 0.644257 0.531830
0.966705 0.648895 0.531891
0.005219 0.701477 0.520050
0.030518 0.705017 0.516479
0.202728 0.732300 0.524170
0.392303 0.747253 0.520538
0.571960 0.756805 0.508636
0.733063 0.762665 0.482361
0.834534 0.759766 0.538666
0.907318 0.764008 0.554749
0.977539 0.766724 0.552185
0.028992 0.814789 0.526550
0.136536 0.832397 0.531982
0.272980 0.849030 0.533325
0.433136 0.858856 0.530579
0.583008 0.867584 0.522308
0.728119 0.876465 0.505341
0.841827 0.881592 0.489655
0.919037 0.877075 0.521118
0.985901 0.881012 0.577301
0.148987 0.937073 0.550629
0.221375 0.943634 0.551544
0.349976 0.951843 0.550873
0.477448 0.958740 0.548401
0.602112 0.965118 0.540955
0.732635 0.972900 0.527466
0.840363 0.979095 0.519592
0.923126 0.980469 0.509918
0.991486 0.978119 0.531006
0.040588 0.064148 0.552795
0.133698 0.061737 0.552673
0.261078 0.061798 0.548767
0.416046 0.073761 0.556671
0.560608 0.091034 0.577423
0.676392 0.109924 0.593628
0.769348 0.128479 0.603088
0.848938 0.145996 0.607819
0.921143 0.163177 0.609924
0.003876 0.154999 0.584778
0.113983 0.157318 0.587646
0.258118 0.159210 0.585175
0.406189 0.151825 0.565826
0.566925 0.166382 0.586792
0.684723 0.183228 0.600067
0.777435 0.197052 0.608063
0.856201 0.210968 0.610657
0.927277 0.224976 0.612000
0.002655 0.259644 0.627136
0.033569 0.259857 0.638763
0.238190 0.269806 0.636047
0.405243 0.269989 0.613983
0.577942 0.269012 0.600464
0.695984 0.281921 0.609070
0.788666 0.292725 0.614410
0.866180 0.302460 0.615326
0.936371 0.312653 0.615692
0.002808 0.370239 0.632172
0.025116 0.372620 0.664490
0.146484 0.380768 0.712128
0.404358 0.392761 0.684448
0.582977 0.392487 0.624054
0.708099 0.398926 0.623077
0.801086 0.406097 0.622375
0.878235 0.412720 0.619843
0.948364 0.420410 0.618347
0.002960 0.479156 0.647766
0.025421 0.482880 0.665863
0.122833 0.496155 0.702881
0.318420 0.513550 0.754547
0.590271 0.520447 0.678070
0.716431 0.522980 0.646606
0.813751 0.525726 0.637756
0.887146 0.535339 0.629303
0.952362 0.544434 0.634125
0.003265 0.588806 0.656708
0.025665 0.592682 0.665375
0.155457 0.613647 0.688477
0.349731 0.633423 0.705841
0.547333 0.644012 0.733063
0.727203 0.643982 0.663666
0.817444 0.647552 0.652222
0.893768 0.651093 0.651489
0.964050 0.656586 0.654663
0.004303 0.705139 0.651581
0.026672 0.708923 0.653534
0.141876 0.728943 0.662109
0.333771 0.753784 0.664093
0.525604 0.766541 0.658325
0.712860 0.770020 0.624451
0.829651 0.767792 0.679596
0.905396 0.768860 0.675049
0.975739 0.771240 0.674927
0.005615 0.816589 0.655487
0.030273 0.819366 0.653473
0.198273 0.848022 0.663727
0.384857 0.864410 0.664307
0.554016 0.874817 0.656891
0.706512 0.882202 0.640503
0.829132 0.886597 0.616302
0.919495 0.883972 0.648590
0.985138 0.886719 0.700043
0.076752 0.927765 0.668915
0.159882 0.941406 0.673523
0.284912 0.954041 0.675232
0.433777 0.962738 0.673187
0.583923 0.970337 0.669128
0.715607 0.976837 0.658661
0.826294 0.981873 0.644348
0.919647 0.985413 0.630127
0.991608 0.982971 0.642670
0.077240 0.079956 0.683594
0.151581 0.078339 0.683868
0.270416 0.078217 0.681488
0.407928 0.083984 0.682098
0.564514 0.105011 0.704193
0.678345 0.124756 0.724335
0.769806 0.138977 0.740814
0.848846 0.152802 0.752686
0.921295 0.169342 0.757721
0.049591 0.168091 0.710907
0.137604 0.171051 0.715942
0.267151 0.172729 0.716309
0.403320 0.169403 0.706665
0.568329 0.177307 0.713959
0.684875 0.193512 0.733093
0.776978 0.205170 0.748199
0.855835 0.218079 0.757477
0.927856 0.231598 0.761292
0.002930 0.268982 0.754089
0.093445 0.273193 0.757812
0.249756 0.282135 0.761688
0.406830 0.283783 0.751923
0.574646 0.275757 0.730255
0.694244 0.288269 0.746979
0.787140 0.298584 0.759125
0.865570 0.308746 0.764221
0.937042 0.319000 0.767090
0.003021 0.378601 0.790039
0.025360 0.379822 0.818542
0.187103 0.393433 0.824463
0.402405 0.402924 0.811310
0.565125 0.401428 0.780273
0.703857 0.402679 0.766785
0.798645 0.410583 0.769989
0.877258 0.418427 0.772430
0.948181 0.426453 0.774719
0.003265 0.487701 0.789459
0.025696 0.490356 0.811371
0.069855 0.495453 0.853333
0.339020 0.517426 0.885834
0.572021 0.526123 0.850220
0.710754 0.525665 0.793732
0.810883 0.530487 0.790405
0.889343 0.535370 0.786957
0.959106 0.540314 0.782745
0.003632 0.595032 0.811249
0.026001 0.598450 0.825317
0.099457 0.609375 0.852966
0.304382 0.635742 0.885651
0.519745 0.643341 0.923645
0.720306 0.648529 0.837555
0.821289 0.650482 0.806061
0.899384 0.652069 0.794800
0.969452 0.656555 0.791412
0.003998 0.707733 0.817993
0.026337 0.710846 0.824890
0.160645 0.734009 0.845642
0.348663 0.755432 0.860596
0.526794 0.766846 0.873688
0.682007 0.772217 0.901459
0.828735 0.773041 0.820801
0.908447 0.773254 0.807495
0.975555 0.777435 0.806152
0.004974 0.820404 0.808990
0.029419 0.823486 0.811218
0.182251 0.850342 0.824890
0.353424 0.869232 0.830261
0.512512 0.881714 0.829102
0.659302 0.892365 0.817413
0.803741 0.895264 0.782196
0.917114 0.889526 0.830231
0.985504 0.891846 0.830566
0.005890 0.919434 0.803131
0.043030 0.923859 0.803986
0.195618 0.950500 0.816742
0.381775 0.966187 0.820862
0.551453 0.975342 0.820068
0.690430 0.982086 0.813080
0.809174 0.986359 0.798157
0.912537 0.989716 0.781799
0.992371 0.987488 0.773865
0.113800 0.098938 0.822540
0.181244 0.097992 0.822876
0.287415 0.097626 0.820709
0.415009 0.101868 0.820953
0.571777 0.122253 0.838196
0.682068 0.143433 0.856232
0.772156 0.159790 0.871063
0.850067 0.173523 0.883728
0.921753 0.187439 0.894714
0.101349 0.185059 0.845764
0.170898 0.187317 0.849304
0.284698 0.188965 0.851685
0.412628 0.187439 0.847595
0.570740 0.189972 0.846710
0.686829 0.207733 0.863953
0.777771 0.221741 0.877930
0.855835 0.234192 0.889740
0.927795 0.246246 0.900360
0.056519 0.283325 0.875916
0.143463 0.289703 0.883087
0.268829 0.295959 0.887054
0.414490 0.298004 0.885101
0.560272 0.284363 0.866943
0.694183 0.298828 0.877014
0.786499 0.310181 0.890015
0.864410 0.320068 0.900513
0.936493 0.329834 0.910400
0.003357 0.387848 0.916199
0.053802 0.390137 0.916962
0.230072 0.406921 0.929413
0.409302 0.413971 0.927734
0.560638 0.415710 0.917145
0.698730 0.409943 0.897675
0.795990 0.418152 0.906799
0.875244 0.425964 0.916138
0.947479 0.434479 0.923004
0.003571 0.495087 0.932892
0.026123 0.495972 0.941956
0.151276 0.508331 0.958771
0.377014 0.524780 0.968353
0.565796 0.533569 0.961884
0.698364 0.534119 0.941925
0.805389 0.534760 0.931763
0.886383 0.540710 0.930115
0.957764 0.547668 0.928009
0.004028 0.602295 0.935455
0.026489 0.604553 0.944305
0.131134 0.619080 0.961243
0.364960 0.639771 0.976318
0.564758 0.647797 0.981476
0.708282 0.654663 0.978058
0.814575 0.653351 0.944275
0.896881 0.656616 0.935547
0.967438 0.661163 0.932648
0.004395 0.711548 0.947388
0.035309 0.714233 0.951233
0.185486 0.737793 0.968933
0.380676 0.755920 0.980072
0.553375 0.765839 0.984863
0.708160 0.770020 0.987091
0.821686 0.775024 0.977966
0.906891 0.775970 0.945496
0.977020 0.778534 0.942474
0.004913 0.821136 0.945557
0.030426 0.823700 0.949799
0.191650 0.851654 0.967896
0.362122 0.868988 0.977539
0.535950 0.879578 0.983093
0.683014 0.886749 0.987183
0.806732 0.890808 0.989685
0.916138 0.892914 0.967834
0.988098 0.895447 0.954651
0.005402 0.920990 0.938873
0.077454 0.930817 0.945221
0.218109 0.954651 0.958221
0.379700 0.967834 0.964539
0.544098 0.977203 0.967773
0.676544 0.984344 0.968445
0.784607 0.990417 0.963715
0.895142 0.994141 0.948700
0.994446 0.991425 0.919006
