Kodak Vision2 50D (5201) - Look.cube
# Created by Benjamin (IWLTBAP) : http://luts.iwltbap.com
# Copyright: (C) Copyright 2010-2017 Triune Films and IWLTBAP SAS
# Cannot be resold, shared or otherwise redistributed
TITLE "Film Print Emulation LUTs Pack (Rec.709, sRGB, DCI-P3)"
LUT_3D_SIZE 9
0.001190 0.003326 0.007111
0.056427 0.003845 0.002563
0.154510 0.004181 0.000000
0.241028 0.004120 0.000000
0.312195 0.006226 0.000000
0.369720 0.005829 0.000000
0.424683 0.006866 0.000000
0.483063 0.008881 0.000000
0.534027 0.015137 0.000000
0.025146 0.063965 0.061188
0.078918 0.074310 0.022125
0.185974 0.070038 0.001709
0.303589 0.062317 0.000000
0.393951 0.050598 0.000000
0.467804 0.036865 0.000000
0.525757 0.033142 0.000000
0.569702 0.039978 0.000000
0.614410 0.051514 0.000000
0.074036 0.173004 0.075623
0.124390 0.197754 0.070129
0.232300 0.200226 0.039795
0.340637 0.181458 0.014587
0.451965 0.165314 0.001038
0.548981 0.147369 0.000000
0.610657 0.139374 0.000061
0.658081 0.143433 0.002045
0.691467 0.143921 0.013000
0.163055 0.299255 0.106781
0.232727 0.323639 0.100037
0.305878 0.315796 0.074036
0.405487 0.319855 0.056641
0.490936 0.294708 0.029999
0.592102 0.276031 0.017609
0.663666 0.262939 0.016998
0.713104 0.255310 0.026978
0.755920 0.258881 0.047668
0.284393 0.409149 0.130157
0.324127 0.445221 0.160034
0.395721 0.424438 0.115448
0.472351 0.425110 0.093170
0.560455 0.414917 0.069305
0.623260 0.395874 0.052765
0.697815 0.380432 0.050293
0.752899 0.371429 0.061951
0.805756 0.381714 0.094727
0.373993 0.493896 0.163025
0.403381 0.521942 0.195709
0.464081 0.507355 0.161377
0.529602 0.501465 0.135040
0.608673 0.506317 0.119141
0.675751 0.499329 0.103210
0.725555 0.484100 0.089508
0.786621 0.473602 0.095490
0.834045 0.475098 0.123016
0.452759 0.563934 0.197906
0.474731 0.584503 0.229645
0.521881 0.583374 0.214233
0.579163 0.567566 0.183441
0.649109 0.569061 0.163544
0.715820 0.570038 0.155914
0.764038 0.565125 0.151093
0.802948 0.558655 0.157104
0.853394 0.569092 0.212708
0.497498 0.616669 0.231659
0.466309 0.636353 0.295013
0.457123 0.650177 0.333954
0.587891 0.648621 0.300751
0.645477 0.641602 0.287659
0.704102 0.647095 0.288483
0.765930 0.651794 0.283417
0.827545 0.644226 0.261322
0.880096 0.626862 0.231689
0.492065 0.672699 0.327850
0.518524 0.683136 0.312469
0.521362 0.690826 0.364075
0.631073 0.698090 0.331085
0.694366 0.687653 0.294495
0.759033 0.686676 0.271240
0.822266 0.688873 0.263153
0.871033 0.696503 0.279999
0.907654 0.696991 0.301971
0.001526 0.007965 0.038086
0.016113 0.016510 0.082062
0.112183 0.007690 0.041107
0.211670 0.006714 0.009125
0.292664 0.005920 0.002167
0.366486 0.007080 0.000275
0.443024 0.007477 0.000000
0.502167 0.009796 0.000427
0.550110 0.012299 0.000000
0.025482 0.072998 0.107391
0.067749 0.098145 0.117981
0.184204 0.089661 0.068451
0.293091 0.076843 0.033417
0.385040 0.074707 0.020996
0.471527 0.065186 0.011169
0.532471 0.062866 0.008057
0.585938 0.065979 0.009338
0.626312 0.066437 0.014801
0.058289 0.187714 0.151520
0.110168 0.212738 0.158569
0.240356 0.213318 0.104187
0.336792 0.203278 0.072388
0.450684 0.189850 0.043793
0.547791 0.178772 0.036102
0.617828 0.176636 0.036713
0.668976 0.178131 0.046112
0.704590 0.174622 0.056519
0.145081 0.306213 0.171234
0.219360 0.335724 0.181061
0.316467 0.340027 0.151886
0.406158 0.338287 0.121674
0.487274 0.320251 0.089294
0.592041 0.304626 0.071960
0.664642 0.290466 0.069519
0.719055 0.289703 0.079681
0.766663 0.298859 0.103119
0.255280 0.416107 0.196472
0.294708 0.452026 0.236938
0.395111 0.449860 0.197815
0.466797 0.443878 0.168091
0.545837 0.436768 0.137238
0.620331 0.425446 0.111267
0.688416 0.404785 0.102417
0.750671 0.400757 0.112335
0.811279 0.413452 0.145264
0.345245 0.505127 0.217560
0.373810 0.531494 0.255005
0.457672 0.528534 0.233429
0.524811 0.524872 0.206451
0.600891 0.524506 0.186432
0.668365 0.517059 0.159851
0.718872 0.503082 0.141144
0.783783 0.497742 0.149994
0.839691 0.500793 0.172272
0.433838 0.570190 0.232483
0.461456 0.592102 0.263550
0.516754 0.594818 0.266602
0.576141 0.581055 0.231079
0.642303 0.583282 0.209167
0.712189 0.582886 0.195343
0.761749 0.579407 0.189697
0.804291 0.576111 0.193329
0.858368 0.582428 0.240662
0.480133 0.623199 0.258453
0.456482 0.643707 0.321014
0.448700 0.655426 0.360321
0.587738 0.662506 0.332123
0.647400 0.653473 0.316864
0.707947 0.657867 0.310730
0.776428 0.657623 0.286804
0.838715 0.647400 0.259827
0.892517 0.630615 0.229889
0.509705 0.678680 0.315338
0.507507 0.682587 0.327637
0.538757 0.699707 0.387695
0.638062 0.704407 0.354187
0.698364 0.694672 0.323608
0.761566 0.695007 0.308563
0.818207 0.701965 0.313965
0.859314 0.708862 0.345215
0.894958 0.715546 0.384094
0.005463 0.023346 0.100891
0.012573 0.038818 0.154694
0.060547 0.031342 0.146057
0.139099 0.015503 0.113312
0.263550 0.013550 0.055756
0.339447 0.014526 0.038086
0.415649 0.015839 0.027618
0.489990 0.024597 0.028259
0.541046 0.024628 0.028870
0.037292 0.097351 0.171570
0.050598 0.123810 0.219086
0.123474 0.127106 0.213348
0.236450 0.093903 0.153564
0.348450 0.088989 0.104919
0.440155 0.090424 0.092377
0.522705 0.101624 0.092926
0.591370 0.110931 0.098785
0.637634 0.109283 0.102753
0.049774 0.203522 0.238251
0.081177 0.233459 0.254913
0.197174 0.245300 0.246277
0.321259 0.231598 0.197571
0.429382 0.222687 0.163757
0.533081 0.223419 0.151886
0.607117 0.223602 0.154480
0.660370 0.223999 0.157227
0.710632 0.216309 0.161041
0.100952 0.326080 0.289856
0.118622 0.345245 0.303223
0.276123 0.362823 0.289215
0.385986 0.359863 0.248657
0.461914 0.351318 0.212524
0.560822 0.336151 0.189728
0.648163 0.336548 0.191040
0.708984 0.338684 0.200928
0.768005 0.337524 0.204529
0.208527 0.426392 0.303772
0.221832 0.453674 0.336273
0.356537 0.466400 0.316040
0.443939 0.464233 0.298767
0.522125 0.466309 0.273926
0.588226 0.453369 0.239990
0.662201 0.444061 0.233612
0.735626 0.449463 0.244507
0.802063 0.457703 0.262512
0.296387 0.515289 0.327332
0.325592 0.541931 0.364838
0.412506 0.543182 0.348480
0.500305 0.551300 0.339417
0.564178 0.547882 0.321686
0.631287 0.543488 0.300262
0.681976 0.528046 0.277252
0.751373 0.531433 0.277527
0.819244 0.533997 0.293030
0.363586 0.574615 0.345856
0.391998 0.596527 0.376099
0.460999 0.609344 0.379608
0.545593 0.612885 0.368561
0.604187 0.608704 0.353821
0.668884 0.612244 0.341156
0.725311 0.610138 0.328827
0.768646 0.606384 0.329651
0.833893 0.611420 0.351562
0.412018 0.631500 0.368500
0.396698 0.645233 0.422272
0.390015 0.657715 0.451416
0.537659 0.669952 0.426300
0.609131 0.674866 0.426147
0.672241 0.677277 0.421112
0.735870 0.677032 0.410828
0.801270 0.677460 0.383575
0.862183 0.663269 0.351562
0.452728 0.676392 0.399536
0.448029 0.682953 0.420959
0.463470 0.694702 0.479675
0.591644 0.715424 0.448700
0.667847 0.718292 0.431671
0.727875 0.718231 0.429047
0.780151 0.721924 0.427917
0.837921 0.732483 0.444061
0.881134 0.740662 0.476196
0.016602 0.050232 0.169525
0.024078 0.067017 0.224854
0.052246 0.058655 0.220642
0.126587 0.047394 0.199036
0.204376 0.031433 0.165558
0.302429 0.024872 0.119141
0.392303 0.030609 0.100372
0.463776 0.039673 0.096344
0.535309 0.051880 0.103516
0.047119 0.130707 0.247833
0.051636 0.154205 0.296051
0.108398 0.167358 0.307678
0.190521 0.142578 0.275726
0.287445 0.119598 0.236786
0.401245 0.109802 0.189026
0.490753 0.118896 0.170197
0.558258 0.130463 0.171600
0.619659 0.134888 0.175568
0.050446 0.236389 0.323883
0.054596 0.256653 0.351868
0.168640 0.284943 0.362366
0.270844 0.281311 0.345917
0.378967 0.247589 0.294922
0.496552 0.240906 0.249268
0.573456 0.242218 0.241119
0.634399 0.247070 0.243622
0.687775 0.245819 0.248840
0.091980 0.343658 0.371857
0.124603 0.366791 0.391052
0.241821 0.385193 0.387115
0.336792 0.390747 0.378723
0.451111 0.381561 0.344910
0.538666 0.366241 0.314819
0.620239 0.367798 0.309753
0.687225 0.374115 0.311707
0.745087 0.371582 0.314728
0.163177 0.446350 0.413330
0.179657 0.475861 0.439819
0.279388 0.478485 0.420013
0.398041 0.485138 0.413879
0.495544 0.482635 0.387756
0.559509 0.478699 0.360321
0.633911 0.471619 0.350861
0.711334 0.475952 0.353760
0.781769 0.482635 0.365051
0.245575 0.526642 0.428040
0.254913 0.549957 0.458466
0.363037 0.554565 0.444916
0.468384 0.565765 0.443939
0.540619 0.564026 0.431030
0.597900 0.565643 0.422821
0.654999 0.561920 0.402069
0.724640 0.557831 0.398834
0.801208 0.563110 0.399872
0.317810 0.591583 0.439972
0.344513 0.610718 0.473053
0.418610 0.619385 0.473389
0.503326 0.622772 0.469971
0.582825 0.635132 0.469421
0.638580 0.632172 0.458313
0.691650 0.635132 0.449097
0.741241 0.628906 0.442017
0.812042 0.632843 0.447784
0.360168 0.636078 0.456787
0.349091 0.654388 0.505798
0.342743 0.667694 0.533173
0.485840 0.670654 0.507660
0.572418 0.687378 0.513031
0.646057 0.697632 0.515259
0.708954 0.701233 0.506958
0.779724 0.699188 0.483246
0.843292 0.690155 0.456329
0.397614 0.683197 0.477875
0.384918 0.689606 0.500427
0.408173 0.700592 0.540009
0.537109 0.716553 0.521820
0.635529 0.736847 0.517700
0.705536 0.740448 0.511444
0.764435 0.745117 0.517731
0.823608 0.755737 0.531036
0.871521 0.761902 0.553802
0.030701 0.083527 0.247162
0.033783 0.093231 0.292175
0.052002 0.090393 0.294830
0.108826 0.078979 0.273834
0.191650 0.066376 0.244598
0.258881 0.047821 0.210846
0.336334 0.043854 0.190430
0.445618 0.062378 0.173981
0.511505 0.064697 0.165375
0.052246 0.162445 0.319702
0.052521 0.178925 0.359772
0.095154 0.199432 0.379211
0.167419 0.175873 0.347870
0.263580 0.161194 0.321350
0.337402 0.147278 0.290985
0.431824 0.140656 0.271240
0.530029 0.151306 0.248962
0.595215 0.153381 0.240845
0.057007 0.266266 0.390472
0.064453 0.282471 0.419220
0.149506 0.304932 0.436035
0.241943 0.316589 0.437744
0.324097 0.296539 0.402649
0.419220 0.272461 0.375610
0.522949 0.267090 0.343201
0.600494 0.263824 0.319885
0.660492 0.259613 0.316437
0.103180 0.363434 0.447266
0.110138 0.378967 0.468414
0.207001 0.404694 0.479736
0.305878 0.418060 0.472900
0.398407 0.421631 0.470215
0.491394 0.392609 0.429810
0.585236 0.388245 0.392273
0.653503 0.393097 0.394928
0.713013 0.385590 0.392090
0.150299 0.459076 0.492371
0.165527 0.484497 0.517365
0.271088 0.498749 0.511505
0.367706 0.504730 0.503296
0.449890 0.508392 0.497192
0.542755 0.505524 0.476044
0.613983 0.495819 0.452545
0.688232 0.499573 0.452423
0.758423 0.500916 0.452332
0.217194 0.544983 0.525024
0.229645 0.566376 0.555573
0.288177 0.569122 0.537292
0.407715 0.573517 0.524719
0.504211 0.580383 0.523529
0.576630 0.580231 0.511108
0.633514 0.576752 0.495056
0.705231 0.576294 0.483398
0.785553 0.582581 0.482971
0.276703 0.606567 0.527710
0.284851 0.624725 0.553040
0.354645 0.627869 0.549774
0.459808 0.629608 0.539734
0.546234 0.635590 0.543823
0.616241 0.647430 0.540253
0.669891 0.653839 0.544403
0.729401 0.654602 0.532043
0.798645 0.656921 0.530579
0.315338 0.651031 0.544250
0.313599 0.670044 0.581787
0.314819 0.678436 0.598846
0.424622 0.677032 0.570648
0.519836 0.692993 0.580505
0.610046 0.708405 0.589172
0.691132 0.716095 0.579254
0.764435 0.719391 0.565430
0.835358 0.711914 0.533417
0.346985 0.694366 0.556824
0.342072 0.700867 0.570251
0.384674 0.710541 0.600464
0.489563 0.718079 0.573120
0.590302 0.737823 0.578796
0.684570 0.756866 0.580963
0.745270 0.763367 0.586700
0.810425 0.773987 0.599945
0.862213 0.781464 0.624390
0.039551 0.112244 0.320831
0.042755 0.123993 0.353546
0.054657 0.127045 0.368164
0.103424 0.108215 0.341675
0.180084 0.098053 0.314972
0.252075 0.083313 0.287964
0.310608 0.069458 0.259430
0.379669 0.068665 0.247650
0.472412 0.086182 0.240845
0.052917 0.185272 0.381714
0.051697 0.195618 0.410858
0.081390 0.220367 0.435028
0.151428 0.202850 0.413208
0.239716 0.191528 0.387939
0.320129 0.184235 0.367493
0.389771 0.172791 0.346832
0.468231 0.172791 0.335724
0.555969 0.178253 0.320770
0.066040 0.289398 0.452484
0.072052 0.298218 0.475616
0.135193 0.327637 0.498688
0.225769 0.338440 0.502747
0.298126 0.317719 0.473969
0.389374 0.309509 0.450684
0.467865 0.294525 0.423615
0.545319 0.292206 0.420441
0.628845 0.281189 0.393433
0.108459 0.383270 0.510590
0.113556 0.396027 0.531464
0.193359 0.424866 0.549500
0.280670 0.433685 0.544189
0.373993 0.442291 0.535370
0.446625 0.425385 0.512115
0.526764 0.410736 0.484833
0.616821 0.409271 0.470703
0.689484 0.403107 0.454376
0.158539 0.479065 0.557129
0.166504 0.497375 0.575592
0.254425 0.513519 0.579041
0.342957 0.519012 0.571014
0.431366 0.530914 0.567932
0.509003 0.527252 0.554504
0.580688 0.511597 0.530548
0.661896 0.512329 0.519043
0.734192 0.513062 0.511749
0.210480 0.559174 0.591003
0.226715 0.581299 0.616089
0.317200 0.583038 0.593506
0.401123 0.589233 0.587372
0.479614 0.591156 0.581573
0.547607 0.594696 0.577606
0.620636 0.593536 0.570618
0.694275 0.589996 0.554413
0.770630 0.595276 0.546906
0.257294 0.616547 0.604584
0.269501 0.635132 0.623779
0.319885 0.636047 0.616638
0.419495 0.641785 0.604431
0.508728 0.647980 0.598785
0.591125 0.661224 0.607056
0.658600 0.665100 0.602570
0.712158 0.665710 0.595581
0.786011 0.672607 0.597076
0.293854 0.662048 0.614716
0.297913 0.678131 0.640228
0.300751 0.684692 0.645569
0.402802 0.690979 0.632294
0.485138 0.697266 0.630615
0.573853 0.712097 0.636353
0.661560 0.727142 0.640747
0.747437 0.733032 0.632690
0.822876 0.729523 0.607758
0.319672 0.700928 0.621887
0.318451 0.707275 0.634003
0.380859 0.724121 0.652283
0.464447 0.728424 0.631866
0.552673 0.740448 0.627960
0.640411 0.758545 0.638916
0.726746 0.778870 0.650299
0.793610 0.787231 0.666046
0.850372 0.795746 0.689178
0.046082 0.143188 0.385071
0.045654 0.150757 0.410828
0.048553 0.151093 0.419769
0.098663 0.133026 0.396057
0.166504 0.126129 0.379913
0.243164 0.118195 0.356110
0.311615 0.108307 0.332062
0.356659 0.087830 0.306763
0.423218 0.092041 0.297058
0.049652 0.201141 0.435547
0.046570 0.214935 0.467560
0.067963 0.235535 0.485382
0.139923 0.226440 0.472687
0.220978 0.217896 0.456604
0.303162 0.211395 0.426910
0.377136 0.205933 0.413452
0.435730 0.192047 0.385681
0.507538 0.195435 0.386200
0.073883 0.300507 0.503967
0.076141 0.313324 0.528564
0.125061 0.338348 0.548889
0.220215 0.362457 0.559509
0.281738 0.337128 0.524872
0.364471 0.323914 0.505066
0.443512 0.313873 0.479675
0.503906 0.301758 0.462646
0.580200 0.301666 0.461151
0.114044 0.396454 0.559845
0.117279 0.408234 0.575623
0.186676 0.434662 0.592194
0.278503 0.459686 0.598877
0.367188 0.471161 0.591187
0.422150 0.439148 0.558624
0.501709 0.431641 0.539032
0.566711 0.420227 0.522522
0.648682 0.420898 0.523132
0.156860 0.484375 0.606354
0.163696 0.498566 0.619263
0.236084 0.524506 0.626862
0.329102 0.538605 0.623718
0.408752 0.538696 0.617126
0.492920 0.543427 0.604248
0.549866 0.530060 0.586670
0.623108 0.521545 0.573578
0.702026 0.516449 0.566406
0.203613 0.560852 0.628052
0.216949 0.583008 0.649933
0.295868 0.593964 0.649780
0.383667 0.603485 0.637970
0.461761 0.605652 0.633728
0.538696 0.611938 0.634216
0.606232 0.614197 0.633728
0.670715 0.602417 0.611267
0.749512 0.601227 0.601685
0.258881 0.617310 0.645416
0.271606 0.635498 0.660675
0.344482 0.650330 0.669342
0.422546 0.649384 0.653015
0.499207 0.664246 0.653137
0.569214 0.671478 0.657288
0.635651 0.675964 0.657562
0.706329 0.685822 0.656158
0.773956 0.685364 0.658966
0.289459 0.666962 0.660797
0.297882 0.683228 0.679718
0.300690 0.689606 0.684967
0.403656 0.697266 0.673676
0.481354 0.705597 0.672333
0.561340 0.716034 0.674805
0.644989 0.728943 0.681183
0.733887 0.742157 0.683472
0.813873 0.744202 0.671875
0.307098 0.707336 0.664886
0.308624 0.713623 0.677856
0.366089 0.724762 0.692535
0.443634 0.736267 0.680359
0.522705 0.749207 0.676605
0.605621 0.762024 0.688538
0.692108 0.778778 0.699341
0.777802 0.797119 0.712708
0.841339 0.808960 0.741302
0.046997 0.164764 0.444397
0.048218 0.169861 0.464752
0.050171 0.171387 0.472809
0.092316 0.155518 0.448425
0.159149 0.152161 0.437775
0.234894 0.144012 0.412750
0.303375 0.141083 0.400360
0.354645 0.125336 0.376160
0.398041 0.109619 0.350342
0.045227 0.220581 0.495026
0.043579 0.232178 0.517334
0.065674 0.252136 0.530212
0.132629 0.248505 0.521881
0.207703 0.239288 0.508148
0.288940 0.233398 0.489685
0.361267 0.229980 0.466156
0.422638 0.219696 0.449188
0.476196 0.205658 0.421661
0.074524 0.313446 0.556366
0.079803 0.324188 0.572144
0.120361 0.346954 0.587128
0.212769 0.377197 0.594849
0.268250 0.356659 0.573730
0.341980 0.335327 0.548126
0.418304 0.329315 0.527283
0.486115 0.318390 0.508331
0.545776 0.311829 0.494232
0.119507 0.416840 0.609558
0.124451 0.424561 0.621094
0.175079 0.447479 0.629608
0.269379 0.471710 0.636444
0.355499 0.479797 0.633942
0.407898 0.464813 0.610138
0.478882 0.442291 0.577820
0.544800 0.432281 0.563232
0.608368 0.424622 0.552795
0.158569 0.498444 0.647156
0.162445 0.507568 0.656708
0.223969 0.530090 0.662292
0.308929 0.546295 0.665009
0.399841 0.558075 0.662964
0.483917 0.567841 0.656738
0.532379 0.545959 0.637848
0.599762 0.535278 0.614319
0.662872 0.523773 0.604004
0.199982 0.565491 0.669434
0.212738 0.584503 0.684784
0.276642 0.594788 0.681671
0.356415 0.607605 0.683990
0.441406 0.621002 0.683044
0.516388 0.621704 0.677612
0.596313 0.631409 0.675751
0.646271 0.617401 0.658325
0.716248 0.605194 0.645569
0.247986 0.627228 0.682678
0.257324 0.642548 0.701385
0.321320 0.649780 0.696350
0.399139 0.660278 0.697906
0.477051 0.675781 0.701111
0.555725 0.682159 0.699799
0.621796 0.683502 0.700104
0.697632 0.695312 0.704865
0.760620 0.688507 0.694794
0.286835 0.674652 0.703461
0.288300 0.681824 0.718048
0.337158 0.697998 0.725128
0.420563 0.705597 0.711609
0.492950 0.715485 0.716064
0.570343 0.723419 0.708984
0.639435 0.738251 0.719055
0.722626 0.746460 0.726410
0.809479 0.757111 0.725494
0.302124 0.712280 0.707550
0.309937 0.717468 0.716339
0.367798 0.725891 0.722748
0.433960 0.743958 0.720490
0.508453 0.754425 0.724274
0.589600 0.767822 0.728607
0.672302 0.784973 0.741302
0.761932 0.805023 0.755524
0.842163 0.818817 0.786804
0.050110 0.180511 0.491974
0.051666 0.185333 0.509155
0.052521 0.187531 0.516052
0.082855 0.176849 0.497162
0.145844 0.169098 0.485626
0.220551 0.168610 0.473297
0.289001 0.161987 0.449463
0.350861 0.152802 0.434570
0.396484 0.137451 0.405487
0.046661 0.228851 0.537231
0.049133 0.242310 0.551666
0.064178 0.259064 0.565857
0.133484 0.272308 0.570801
0.193512 0.257111 0.555695
0.272034 0.251343 0.533844
0.344574 0.246796 0.517456
0.410370 0.237427 0.494720
0.461060 0.218933 0.477783
0.081024 0.315826 0.591705
0.087891 0.332764 0.606781
0.117798 0.354614 0.622162
0.205078 0.388214 0.632599
0.251831 0.368317 0.616119
0.322479 0.354065 0.592163
0.397522 0.343262 0.568909
0.461975 0.330200 0.555908
0.524048 0.310791 0.521149
0.126740 0.416626 0.639618
0.130524 0.425385 0.648773
0.171021 0.451630 0.661407
0.249054 0.482452 0.677734
0.337463 0.495483 0.676422
0.391998 0.474579 0.648682
0.459473 0.457977 0.624786
0.527161 0.442719 0.604980
0.583832 0.423981 0.585663
0.159851 0.502533 0.679718
0.160980 0.505035 0.684174
0.213593 0.531921 0.696075
0.289551 0.553528 0.700470
0.383240 0.569519 0.696136
0.466919 0.576752 0.696228
0.522797 0.563354 0.675629
0.582031 0.542969 0.653259
0.638855 0.524841 0.634827
0.197937 0.572418 0.693939
0.202057 0.581879 0.703369
0.256683 0.594666 0.714874
0.332642 0.612091 0.719604
0.415466 0.627045 0.718048
0.499207 0.634918 0.720734
0.587372 0.645996 0.712738
0.638245 0.630035 0.695831
0.687714 0.611420 0.680695
0.237457 0.625671 0.721313
0.238403 0.639069 0.733002
0.298798 0.652069 0.737030
0.366974 0.665283 0.735504
0.445190 0.680084 0.737549
0.521820 0.687866 0.737549
0.605469 0.702423 0.746216
0.687836 0.707916 0.745636
0.737061 0.694122 0.730896
0.264587 0.670105 0.733521
0.253601 0.676910 0.746704
0.287689 0.690216 0.751984
0.371460 0.706146 0.753510
0.451080 0.720306 0.752136
0.536407 0.734497 0.760590
0.627411 0.747864 0.759766
0.718353 0.761749 0.769928
0.800140 0.763062 0.770477
0.290222 0.711456 0.740265
0.315063 0.722717 0.749207
0.354462 0.729767 0.754791
0.414276 0.741669 0.752899
0.493744 0.755280 0.753510
0.580627 0.776825 0.768341
0.672211 0.793854 0.777893
0.763123 0.810883 0.790924
0.859924 0.825226 0.817139
