Kodak 16mm - Look.cube
# Created by Benjamin (IWLTBAP) : http://luts.iwltbap.com
# Copyright: (C) Copyright 2010-2017 Triune Films and IWLTBAP SAS
# Cannot be resold, shared or otherwise redistributed
TITLE "Film Print Emulation LUTs Pack (Rec.709, sRGB, DCI-P3)"
LUT_3D_SIZE 9
0.031006 0.031006 0.019897
0.064484 0.030731 0.020477
0.103912 0.029114 0.022095
0.156616 0.026825 0.029816
0.221802 0.026459 0.032227
0.305298 0.024994 0.031982
0.384277 0.026459 0.036469
0.466278 0.026459 0.048492
0.530731 0.024597 0.053619
0.030853 0.063538 0.021454
0.066223 0.062103 0.022400
0.114899 0.060181 0.025543
0.181824 0.058105 0.031219
0.269012 0.056000 0.032471
0.355286 0.057831 0.037170
0.442688 0.057617 0.049866
0.526733 0.055969 0.055878
0.586304 0.055298 0.065186
0.033295 0.100159 0.021729
0.070862 0.102783 0.021149
0.137390 0.108002 0.022766
0.222931 0.113556 0.030975
0.318359 0.111877 0.039978
0.411835 0.106506 0.051514
0.498230 0.105103 0.060974
0.578522 0.101501 0.070648
0.635254 0.100952 0.073273
0.037201 0.143127 0.023773
0.080444 0.159760 0.021729
0.157440 0.175720 0.019836
0.259827 0.197174 0.035309
0.365417 0.203369 0.042969
0.457947 0.207794 0.045044
0.551819 0.206207 0.058563
0.630585 0.200378 0.080414
0.689728 0.202698 0.090210
0.048492 0.198853 0.020721
0.105103 0.225159 0.019684
0.187714 0.252869 0.021820
0.297638 0.289978 0.034332
0.406219 0.309326 0.046143
0.510773 0.316010 0.057770
0.597931 0.316284 0.070129
0.674316 0.319305 0.077057
0.744537 0.319763 0.087769
0.074036 0.265778 0.020081
0.124969 0.304230 0.023102
0.218719 0.345612 0.022919
0.343018 0.392365 0.038177
0.450165 0.412109 0.049438
0.563202 0.425964 0.069397
0.646637 0.424133 0.084747
0.733643 0.423035 0.092102
0.782288 0.430542 0.090302
0.094086 0.341370 0.023804
0.156097 0.387543 0.024902
0.253937 0.441101 0.029266
0.379822 0.488647 0.040985
0.494629 0.511810 0.062653
0.601288 0.525238 0.072662
0.688293 0.524750 0.085480
0.766998 0.523865 0.093842
0.804352 0.532562 0.094482
0.120056 0.416809 0.027618
0.182861 0.473267 0.028473
0.291290 0.530609 0.036591
0.425598 0.578308 0.048401
0.537292 0.607147 0.069275
0.638489 0.628967 0.079376
0.733215 0.627869 0.091431
0.802094 0.629517 0.097412
0.837585 0.637543 0.098206
0.142670 0.480316 0.027771
0.206146 0.549072 0.036926
0.322174 0.603638 0.038391
0.457825 0.653442 0.054443
0.565765 0.685150 0.070038
0.665131 0.705780 0.082458
0.764130 0.699829 0.095276
0.815277 0.706146 0.100861
0.847351 0.712799 0.100861
0.032471 0.035095 0.061371
0.068787 0.032501 0.063385
0.113129 0.031006 0.069122
0.173523 0.031036 0.075317
0.244385 0.029022 0.081787
0.327087 0.028809 0.079956
0.408234 0.030365 0.082886
0.488281 0.028809 0.094086
0.558563 0.026459 0.096649
0.032471 0.067902 0.067932
0.073486 0.066864 0.066681
0.132111 0.067749 0.077057
0.207336 0.063660 0.082367
0.295502 0.062103 0.085724
0.383209 0.062103 0.086761
0.469391 0.060181 0.097229
0.553741 0.057892 0.101990
0.617981 0.057831 0.113037
0.036438 0.106598 0.067169
0.078857 0.118744 0.072327
0.153381 0.130737 0.075226
0.245544 0.133545 0.078857
0.344238 0.133759 0.085144
0.434875 0.128296 0.093872
0.522034 0.124268 0.101013
0.604462 0.120178 0.109192
0.664398 0.121796 0.115906
0.048889 0.162842 0.072296
0.092926 0.184113 0.072845
0.176544 0.203552 0.070679
0.285431 0.222565 0.078766
0.387634 0.230560 0.083344
0.480713 0.233337 0.085602
0.572266 0.229218 0.100830
0.651001 0.226929 0.116760
0.715393 0.229584 0.126404
0.067627 0.227173 0.072235
0.118744 0.260498 0.069763
0.208618 0.291931 0.068451
0.323853 0.326477 0.076202
0.432983 0.339478 0.087097
0.531464 0.343567 0.099274
0.619720 0.343384 0.107300
0.695312 0.342560 0.117218
0.768463 0.345001 0.131866
0.090790 0.299866 0.072662
0.145721 0.344818 0.072510
0.242371 0.387878 0.070618
0.359192 0.431488 0.077789
0.471283 0.444763 0.088531
0.585419 0.459839 0.105988
0.664337 0.454102 0.115204
0.748810 0.450439 0.121399
0.791382 0.458038 0.124054
0.115997 0.379486 0.076843
0.181641 0.433228 0.072937
0.273895 0.487061 0.074249
0.403381 0.523163 0.081055
0.514801 0.546448 0.099976
0.616638 0.559540 0.107544
0.704224 0.559326 0.118896
0.782318 0.557587 0.127869
0.821228 0.568481 0.128784
0.148163 0.462738 0.079590
0.211212 0.524200 0.082611
0.311066 0.577576 0.078156
0.446442 0.625580 0.087616
0.557220 0.649261 0.101349
0.653259 0.670563 0.113373
0.746887 0.666138 0.122589
0.814972 0.665375 0.132233
0.848480 0.673401 0.132233
0.171570 0.541016 0.102875
0.239807 0.607758 0.106537
0.351776 0.668182 0.091644
0.484741 0.718506 0.101349
0.598083 0.742340 0.115234
0.695099 0.755035 0.121307
0.780548 0.745941 0.129059
0.822754 0.748627 0.136536
0.856506 0.757690 0.137787
0.033081 0.041473 0.118011
0.070190 0.043579 0.130280
0.126556 0.045807 0.146576
0.192047 0.045288 0.157898
0.273529 0.044678 0.172394
0.361053 0.044098 0.172821
0.448883 0.043854 0.183044
0.534058 0.042480 0.191925
0.597290 0.043213 0.196777
0.039398 0.082336 0.143463
0.075043 0.087006 0.153809
0.144958 0.087738 0.176910
0.228729 0.090118 0.194092
0.326263 0.084412 0.202881
0.422363 0.083435 0.207825
0.515076 0.078522 0.217651
0.600159 0.078400 0.221924
0.668121 0.077087 0.236328
0.049042 0.132996 0.156311
0.089600 0.144928 0.165497
0.179657 0.163422 0.178375
0.266907 0.179626 0.208069
0.378326 0.175537 0.218353
0.484253 0.169739 0.223145
0.576355 0.168549 0.220978
0.662384 0.166443 0.233185
0.727753 0.167267 0.246918
0.063995 0.194885 0.164368
0.114105 0.224487 0.179565
0.200592 0.244873 0.198608
0.309875 0.273499 0.223083
0.425323 0.282532 0.216675
0.531982 0.280792 0.215881
0.627747 0.280975 0.221252
0.714569 0.280060 0.229919
0.784912 0.285095 0.237030
0.087677 0.269073 0.173187
0.141632 0.308807 0.185822
0.232849 0.347839 0.203217
0.361359 0.383331 0.216644
0.474945 0.391632 0.214447
0.583282 0.396423 0.217072
0.683777 0.399536 0.223816
0.768433 0.398193 0.225677
0.838226 0.397034 0.230255
0.111725 0.346222 0.183716
0.175507 0.395996 0.188324
0.271301 0.451782 0.205994
0.402100 0.489624 0.206970
0.517273 0.501923 0.209137
0.635345 0.514954 0.213409
0.726868 0.511169 0.212738
0.813934 0.506287 0.211548
0.851715 0.514313 0.216522
0.142303 0.428101 0.189209
0.212219 0.492401 0.205170
0.310028 0.551331 0.214081
0.447815 0.594818 0.212799
0.570984 0.613525 0.212311
0.681610 0.629486 0.210785
0.770660 0.631134 0.213867
0.831879 0.623077 0.210785
0.867889 0.632996 0.217255
0.172943 0.516052 0.211487
0.248657 0.581940 0.231567
0.349884 0.646088 0.220184
0.496674 0.707977 0.223907
0.620575 0.726837 0.216614
0.729980 0.749908 0.223480
0.798553 0.746765 0.219360
0.847717 0.738098 0.221924
0.882385 0.749084 0.225983
0.200958 0.588043 0.253601
0.277161 0.656891 0.261658
0.384338 0.724487 0.246643
0.530396 0.790192 0.253052
0.658325 0.812958 0.250122
0.758484 0.835602 0.251587
0.816284 0.829468 0.248779
0.862579 0.828613 0.248383
0.896179 0.835846 0.251923
0.040588 0.052429 0.187866
0.075317 0.056824 0.206726
0.126923 0.059265 0.234863
0.198395 0.061981 0.260925
0.284424 0.062866 0.282745
0.377350 0.059631 0.281342
0.465302 0.058746 0.290497
0.548553 0.054108 0.303223
0.620514 0.055695 0.310181
0.044769 0.097595 0.231415
0.080139 0.104492 0.258423
0.144562 0.106018 0.286743
0.231049 0.107910 0.311768
0.334778 0.104156 0.328339
0.434845 0.103790 0.334076
0.527496 0.097015 0.342224
0.621582 0.098480 0.351196
0.689697 0.098633 0.364838
0.057343 0.149872 0.256012
0.102081 0.168823 0.279327
0.183960 0.190582 0.294952
0.279877 0.206360 0.323090
0.385284 0.205139 0.350006
0.490265 0.200592 0.352722
0.591522 0.200348 0.354065
0.679382 0.199463 0.367737
0.747040 0.201874 0.381500
0.079346 0.218781 0.277039
0.123779 0.251770 0.292999
0.210907 0.276215 0.312225
0.329254 0.308746 0.338867
0.428650 0.324310 0.363922
0.541351 0.317780 0.365967
0.645325 0.316345 0.362213
0.733002 0.317200 0.368500
0.806519 0.323456 0.372559
0.098419 0.295380 0.278870
0.155212 0.339661 0.305634
0.240540 0.376587 0.327911
0.364960 0.404327 0.362030
0.471802 0.426941 0.379059
0.590057 0.435730 0.368774
0.700562 0.437561 0.372894
0.790161 0.434387 0.371124
0.854523 0.433990 0.371796
0.128723 0.379486 0.295410
0.190430 0.429321 0.312561
0.278198 0.475739 0.341309
0.407684 0.515808 0.358826
0.528290 0.533447 0.368408
0.647919 0.545105 0.371307
0.748596 0.543640 0.365021
0.826782 0.543884 0.364960
0.867798 0.551178 0.368744
0.159271 0.459961 0.305542
0.230682 0.521393 0.338196
0.312164 0.571625 0.346832
0.453094 0.624725 0.359680
0.584198 0.649353 0.367737
0.699951 0.665863 0.366913
0.788940 0.670258 0.365936
0.849823 0.660980 0.363831
0.885071 0.672607 0.368683
0.192871 0.544525 0.334595
0.264313 0.609863 0.362030
0.346863 0.666016 0.354340
0.497192 0.735138 0.372131
0.632629 0.767334 0.375122
0.749512 0.784210 0.375763
0.810059 0.784149 0.371124
0.865356 0.778412 0.364990
0.900208 0.785370 0.369263
0.214020 0.613678 0.377625
0.288727 0.683899 0.388245
0.375092 0.743408 0.374847
0.521942 0.815430 0.398560
0.659027 0.848114 0.406616
0.760651 0.854126 0.403229
0.821808 0.853516 0.401764
0.875854 0.852661 0.399170
0.908630 0.855408 0.407043
0.044037 0.065491 0.265320
0.078278 0.068634 0.289307
0.126831 0.069733 0.319916
0.195068 0.074615 0.348236
0.281433 0.074371 0.376129
0.378204 0.073425 0.386383
0.468964 0.075592 0.396576
0.558929 0.070404 0.403595
0.628723 0.073578 0.416870
0.047333 0.108856 0.317993
0.080902 0.119049 0.347076
0.142578 0.122406 0.385773
0.223755 0.126770 0.416016
0.330048 0.126038 0.439667
0.437439 0.123840 0.449493
0.535736 0.119843 0.457245
0.626129 0.118439 0.462982
0.690918 0.121552 0.474976
0.066315 0.168976 0.350250
0.106506 0.188629 0.387421
0.172333 0.207916 0.416931
0.274139 0.223938 0.443298
0.383514 0.230896 0.469269
0.492310 0.225037 0.478180
0.590424 0.224304 0.475006
0.675873 0.223358 0.482391
0.742981 0.224182 0.495117
0.083832 0.241882 0.376373
0.125183 0.278778 0.403137
0.202515 0.303375 0.431702
0.330688 0.337708 0.451813
0.435913 0.356018 0.475555
0.538696 0.349548 0.490540
0.639709 0.341217 0.489227
0.729126 0.343628 0.484253
0.801117 0.347137 0.486725
0.105774 0.322998 0.390289
0.162109 0.365784 0.422302
0.235535 0.400909 0.442413
0.371338 0.432556 0.471771
0.480408 0.460968 0.494751
0.579590 0.470154 0.504486
0.689453 0.462646 0.500732
0.782867 0.457245 0.495667
0.853943 0.454590 0.492737
0.136475 0.403473 0.408234
0.196259 0.457520 0.430725
0.273224 0.493500 0.460327
0.402679 0.536835 0.483063
0.524261 0.555267 0.506317
0.625977 0.566833 0.519409
0.731598 0.566864 0.498352
0.823853 0.564941 0.490479
0.866638 0.571625 0.491272
0.166168 0.488983 0.418427
0.236877 0.547058 0.459686
0.306854 0.589325 0.467804
0.440704 0.645752 0.488708
0.572754 0.673035 0.497955
0.683868 0.681641 0.500397
0.780914 0.683685 0.490601
0.846375 0.677917 0.488007
0.880737 0.687531 0.490387
0.199280 0.564667 0.449402
0.270264 0.630127 0.477264
0.343567 0.690063 0.469360
0.479218 0.750732 0.497284
0.618164 0.783508 0.505951
0.731140 0.798126 0.499786
0.802338 0.793915 0.493530
0.856293 0.784576 0.488403
0.890564 0.791229 0.491119
0.216339 0.625641 0.485016
0.291443 0.698120 0.496735
0.370941 0.764404 0.483276
0.496826 0.823517 0.520813
0.635590 0.852051 0.528656
0.751434 0.857697 0.525360
0.808929 0.855774 0.515594
0.863220 0.853180 0.510681
0.896515 0.856110 0.515991
0.044037 0.072388 0.343506
0.077606 0.080536 0.369446
0.123352 0.083771 0.405640
0.193542 0.087311 0.441040
0.278046 0.091309 0.470154
0.378296 0.088104 0.485870
0.470856 0.089905 0.493591
0.561127 0.088989 0.506348
0.631531 0.092255 0.519318
0.048218 0.123901 0.403229
0.081604 0.134521 0.439331
0.136932 0.137787 0.481873
0.221283 0.144806 0.518860
0.325104 0.144958 0.543091
0.433685 0.145905 0.558716
0.529999 0.143280 0.566071
0.622437 0.140411 0.571045
0.682373 0.140442 0.580505
0.069122 0.187469 0.447754
0.109802 0.206573 0.489807
0.163879 0.226471 0.522766
0.259583 0.247955 0.559052
0.371155 0.252136 0.579590
0.481689 0.251678 0.592163
0.581818 0.250549 0.586365
0.664642 0.247833 0.584869
0.729462 0.248962 0.597656
0.084747 0.264282 0.472656
0.124512 0.303314 0.500366
0.194580 0.324585 0.543793
0.310059 0.355682 0.575867
0.424042 0.364960 0.589020
0.529816 0.371033 0.602875
0.629120 0.364594 0.600098
0.715393 0.361603 0.595093
0.785553 0.362854 0.597656
0.105713 0.343475 0.491455
0.162292 0.388153 0.523224
0.225128 0.422272 0.552826
0.355804 0.455261 0.588623
0.481140 0.478546 0.592499
0.581787 0.494598 0.608459
0.673157 0.483154 0.609833
0.761078 0.470184 0.605103
0.838196 0.469269 0.598816
0.134979 0.427673 0.501190
0.201599 0.481628 0.546356
0.269714 0.518707 0.576233
0.392914 0.558502 0.597656
0.521423 0.575928 0.609436
0.618591 0.594208 0.632812
0.712616 0.591919 0.621033
0.813782 0.579620 0.600708
0.856232 0.583893 0.601379
0.171265 0.512085 0.528259
0.241943 0.564331 0.568604
0.308777 0.610962 0.584045
0.429596 0.662354 0.608002
0.557007 0.683563 0.609650
0.667053 0.692657 0.624756
0.756775 0.695953 0.623322
0.835327 0.689240 0.597015
0.869537 0.694916 0.600616
0.204407 0.584381 0.556091
0.276520 0.648254 0.582916
0.343903 0.709045 0.575684
0.467438 0.766205 0.607208
0.595764 0.790710 0.613678
0.714508 0.808746 0.616882
0.791931 0.804138 0.606354
0.848236 0.791168 0.593811
0.881470 0.801453 0.598633
0.215759 0.636444 0.583527
0.289856 0.706055 0.595093
0.361328 0.778717 0.579956
0.478241 0.834656 0.624237
0.612488 0.854431 0.638062
0.734802 0.862976 0.644470
0.799164 0.860260 0.631134
0.854645 0.856323 0.621246
0.888397 0.859161 0.625122
0.044037 0.086853 0.423584
0.076111 0.094788 0.454590
0.119110 0.098419 0.490997
0.193420 0.103424 0.531372
0.274658 0.107056 0.566559
0.378510 0.106079 0.580627
0.468292 0.107330 0.595673
0.556549 0.106720 0.606689
0.632690 0.109344 0.614014
0.049469 0.138794 0.489563
0.079437 0.153748 0.530457
0.130402 0.158752 0.577118
0.219849 0.167664 0.616302
0.324005 0.168945 0.641998
0.425140 0.170227 0.659119
0.523254 0.171692 0.672424
0.613098 0.168030 0.678497
0.677612 0.168213 0.680206
0.070465 0.205292 0.547607
0.110443 0.226105 0.593964
0.160339 0.249573 0.623535
0.255981 0.271729 0.665741
0.366241 0.276733 0.681763
0.475952 0.276642 0.694122
0.576172 0.277100 0.694977
0.661011 0.273804 0.695862
0.723358 0.277313 0.702698
0.084442 0.290253 0.566589
0.128418 0.323883 0.607330
0.193817 0.346466 0.642670
0.304138 0.376801 0.684204
0.410522 0.382111 0.697845
0.520660 0.390503 0.710571
0.621033 0.390106 0.714264
0.704407 0.384888 0.707977
0.771729 0.386414 0.706696
0.110870 0.366791 0.595764
0.163483 0.411621 0.620453
0.223267 0.445831 0.648132
0.343384 0.476562 0.697479
0.464081 0.493225 0.711731
0.571136 0.502960 0.723816
0.663818 0.503845 0.728485
0.743988 0.494293 0.718719
0.818542 0.488159 0.705597
0.136292 0.448395 0.603455
0.205505 0.497253 0.639587
0.269958 0.533142 0.674530
0.379578 0.575592 0.710602
0.501556 0.594818 0.720184
0.616943 0.610535 0.727264
0.703583 0.610748 0.724243
0.792358 0.595764 0.709167
0.847229 0.597076 0.701141
0.174469 0.526550 0.625793
0.245270 0.578217 0.669220
0.307465 0.625824 0.686615
0.420013 0.679016 0.722015
0.547638 0.698853 0.725006
0.660034 0.710754 0.730835
0.738892 0.714844 0.739990
0.823425 0.700500 0.707825
0.860504 0.702026 0.702576
0.204987 0.598175 0.646667
0.273529 0.659729 0.679413
0.336212 0.720490 0.674072
0.450470 0.774078 0.711182
0.580902 0.803528 0.721558
0.698029 0.816315 0.729431
0.783569 0.810883 0.720703
0.838562 0.796509 0.700775
0.872711 0.804626 0.698669
0.215363 0.643921 0.668854
0.280121 0.712799 0.689209
0.349121 0.786285 0.666992
0.452179 0.833588 0.710999
0.585266 0.857239 0.731903
0.708618 0.866638 0.743225
0.791656 0.864624 0.731262
0.845978 0.858124 0.710876
0.879181 0.860962 0.712646
0.044037 0.101562 0.507904
0.073669 0.107666 0.542847
0.111755 0.113922 0.586029
0.188721 0.122955 0.634094
0.273987 0.127380 0.666779
0.375397 0.127838 0.680969
0.466614 0.132660 0.698730
0.554047 0.133789 0.711823
0.623199 0.136047 0.720093
0.040344 0.156097 0.580658
0.080994 0.169769 0.628601
0.129059 0.181061 0.675781
0.215698 0.191162 0.717560
0.320648 0.194275 0.742615
0.419464 0.194672 0.757416
0.515076 0.201965 0.778870
0.607941 0.197876 0.787292
0.671570 0.197845 0.788849
0.076447 0.221313 0.648071
0.109955 0.251312 0.685699
0.147919 0.281128 0.712830
0.246277 0.300629 0.769409
0.361603 0.307892 0.791901
0.471649 0.307251 0.805542
0.571594 0.307526 0.807068
0.653809 0.305328 0.803497
0.712158 0.307434 0.805267
0.079742 0.317139 0.659546
0.131042 0.345001 0.705353
0.184967 0.368958 0.742828
0.294708 0.402222 0.783722
0.404755 0.411346 0.808044
0.514313 0.415558 0.819397
0.613068 0.417114 0.823029
0.695099 0.414948 0.815399
0.758484 0.410614 0.808105
0.115845 0.389374 0.690063
0.161224 0.435760 0.715027
0.222992 0.461761 0.748444
0.333679 0.493378 0.792206
0.450775 0.514252 0.814758
0.557739 0.523834 0.830414
0.647217 0.522156 0.830872
0.727509 0.514221 0.819489
0.798981 0.507874 0.805817
0.140472 0.469849 0.692810
0.204437 0.511658 0.742218
0.265106 0.541443 0.769501
0.363098 0.585114 0.803955
0.484375 0.612030 0.821442
0.594269 0.627563 0.836884
0.684845 0.621674 0.833527
0.770203 0.612305 0.821777
0.825531 0.612518 0.809662
0.174194 0.538574 0.724701
0.241302 0.585876 0.758270
0.298645 0.630371 0.771881
0.391937 0.682831 0.801056
0.522491 0.714172 0.830750
0.629791 0.729828 0.840729
0.723907 0.725586 0.834900
0.804382 0.712372 0.816071
0.845581 0.708435 0.810486
0.202850 0.604218 0.744232
0.266510 0.663757 0.758270
0.323486 0.725342 0.746399
0.415070 0.769257 0.791901
0.548889 0.807465 0.827637
0.661530 0.818878 0.841431
0.751282 0.816467 0.837677
0.812286 0.799530 0.837433
0.855652 0.802277 0.812073
0.210632 0.648224 0.749908
0.273132 0.711487 0.756134
0.330383 0.782562 0.742157
0.410736 0.815613 0.784729
0.540894 0.853302 0.827515
0.664032 0.864319 0.846832
0.757416 0.866180 0.844025
0.826447 0.856781 0.823456
0.858612 0.858704 0.825928
0.039337 0.110107 0.581757
0.064484 0.123596 0.619171
0.111176 0.129730 0.671387
0.183563 0.139038 0.719971
0.268768 0.146515 0.754761
0.372223 0.147400 0.763184
0.462769 0.151459 0.783478
0.554352 0.155151 0.804962
0.624359 0.155975 0.810150
0.049530 0.171234 0.666718
0.083038 0.186188 0.711700
0.124634 0.200012 0.756622
0.212860 0.214844 0.809845
0.316559 0.220337 0.831085
0.419373 0.221802 0.846344
0.514679 0.227570 0.860229
0.605103 0.225159 0.863617
0.670441 0.225952 0.865021
0.078735 0.243591 0.729004
0.104553 0.279175 0.758026
0.143433 0.306824 0.781311
0.240509 0.322021 0.837097
0.354523 0.330872 0.870697
0.468445 0.335663 0.881195
0.559692 0.336060 0.884064
0.642548 0.334137 0.883759
0.699036 0.336029 0.884094
0.083710 0.335327 0.738922
0.135529 0.360077 0.783020
0.177948 0.390228 0.797424
0.277893 0.415131 0.852936
0.391327 0.430420 0.882568
0.498535 0.439117 0.889587
0.590485 0.444794 0.891327
0.668457 0.438995 0.889435
0.731445 0.437469 0.885223
0.115631 0.402374 0.765503
0.156769 0.446777 0.771667
0.216766 0.470367 0.819397
0.307861 0.494568 0.871277
0.422089 0.525055 0.884094
0.525787 0.540558 0.893677
0.612579 0.538757 0.896027
0.693970 0.532928 0.893738
0.762451 0.526733 0.885864
0.136108 0.482330 0.759216
0.200104 0.517426 0.808777
0.254333 0.544495 0.844208
0.329926 0.582001 0.870728
0.441528 0.612885 0.886780
0.552063 0.637939 0.896301
0.647308 0.636688 0.897034
0.735046 0.628845 0.889404
0.795135 0.627136 0.883514
0.168793 0.543121 0.784637
0.232239 0.580627 0.825958
0.280731 0.625031 0.841248
0.343781 0.664062 0.848755
0.463928 0.700409 0.887299
0.583313 0.727753 0.893677
0.685211 0.730896 0.893280
0.773438 0.713470 0.882843
0.819244 0.713989 0.879700
0.191772 0.599182 0.798035
0.249817 0.645782 0.829285
0.297668 0.713959 0.815399
0.353790 0.738098 0.824768
0.479919 0.790894 0.877625
0.610321 0.815125 0.892853
0.714874 0.818756 0.890076
0.807251 0.803009 0.876740
0.845764 0.805481 0.875854
0.196259 0.634460 0.795746
0.252808 0.679596 0.822998
0.302795 0.752686 0.809052
0.353394 0.790894 0.812103
0.473267 0.836121 0.872620
0.615631 0.859589 0.891388
0.730682 0.866882 0.888702
0.818665 0.858063 0.875854
0.853180 0.859070 0.873657
