Kodak Eastman Color Negative 50T (5251) - Only contrast.cube
# Created by Benjamin (IWLTBAP) : http://luts.iwltbap.com
# Copyright: (C) Copyright 2010-2017 Triune Films and IWLTBAP SAS
# Cannot be resold, shared or otherwise redistributed
TITLE "Film Print Emulation LUTs Pack (Rec.709, sRGB, DCI-P3)"
LUT_3D_SIZE 33
0.000000 0.000000 0.000000
0.014801 0.000000 0.000000
0.033234 0.000000 0.000000
0.051941 0.000000 0.000000
0.070770 0.000000 0.000000
0.089355 0.000000 0.000000
0.107086 0.000000 0.000000
0.124695 0.000000 0.000000
0.142059 0.000000 0.000000
0.159424 0.000000 0.000000
0.176483 0.000000 0.000000
0.193146 0.000000 0.000000
0.209381 0.000000 0.000000
0.225311 0.000000 0.000000
0.240906 0.000000 0.000000
0.255981 0.000000 0.000000
0.270935 0.000000 0.000000
0.285370 0.000000 0.000000
0.300018 0.000092 0.000000
0.314514 0.000061 0.000000
0.329132 0.000000 0.000000
0.343750 0.000000 0.000000
0.358917 0.000000 0.000000
0.374084 0.000000 0.000000
0.389557 0.000000 0.000000
0.405426 0.000000 0.000000
0.421661 0.000000 0.000000
0.438019 0.000000 0.000000
0.454803 0.000000 0.000000
0.472137 0.000000 0.000000
0.489807 0.000000 0.000000
0.507568 0.000000 0.000000
0.524902 0.000000 0.000000
0.000000 0.014801 0.000000
0.015320 0.014832 0.000000
0.034515 0.014832 0.000000
0.053223 0.014801 0.000000
0.072388 0.014771 0.000000
0.090973 0.014771 0.000000
0.109924 0.014740 0.000000
0.128174 0.014709 0.000000
0.145966 0.014191 0.000000
0.163727 0.013672 0.000000
0.181122 0.013153 0.000000
0.198090 0.012177 0.000000
0.214508 0.012146 0.000000
0.230499 0.012543 0.000000
0.246063 0.011139 0.000000
0.261353 0.011993 0.000000
0.276337 0.011047 0.000000
0.291016 0.010559 0.000000
0.305664 0.010956 0.000000
0.320374 0.010010 0.000000
0.335022 0.009979 0.000000
0.350006 0.009491 0.000000
0.365082 0.009430 0.000000
0.380371 0.009369 0.000000
0.395935 0.009308 0.000000
0.411865 0.009247 0.000000
0.428162 0.009644 0.000000
0.444672 0.009155 0.000000
0.461487 0.009521 0.000000
0.478821 0.009460 0.000000
0.496307 0.009399 0.000000
0.513733 0.009338 0.000000
0.530945 0.009277 0.000000
0.000000 0.033630 0.000000
0.016296 0.034088 0.000000
0.036530 0.034515 0.000244
0.055389 0.034515 0.000214
0.074463 0.034515 0.000153
0.094086 0.034912 0.000458
0.114227 0.035706 0.000031
0.133667 0.035675 0.000000
0.151917 0.035248 0.000000
0.170197 0.034393 0.000000
0.187958 0.033539 0.000000
0.205109 0.031830 0.000000
0.221863 0.030487 0.000000
0.238098 0.028687 0.000000
0.253967 0.026337 0.000000
0.269348 0.025848 0.000000
0.284363 0.023407 0.000000
0.299164 0.022369 0.000000
0.313904 0.021332 0.000000
0.328644 0.020264 0.000000
0.343384 0.020233 0.000000
0.358398 0.019684 0.000000
0.373474 0.019623 0.000000
0.388824 0.019592 0.000000
0.404633 0.019531 0.000000
0.420593 0.019501 0.000000
0.436707 0.019440 0.000000
0.453247 0.019928 0.000000
0.470215 0.019867 0.000000
0.487549 0.019806 0.000000
0.504486 0.020294 0.000000
0.521606 0.020233 0.000000
0.538269 0.020691 0.000000
0.000000 0.052887 0.000244
0.016785 0.053558 0.000244
0.037720 0.054474 0.000549
0.057800 0.054779 0.000488
0.077698 0.055084 0.000793
0.097961 0.055695 0.000732
0.118591 0.056580 0.000671
0.138184 0.056854 0.000610
0.157715 0.056519 0.000000
0.176544 0.055908 0.000000
0.194763 0.054962 0.000000
0.212128 0.053375 0.000000
0.229248 0.051788 0.000000
0.245728 0.049805 0.000000
0.261627 0.047821 0.000000
0.277191 0.045746 0.000000
0.292267 0.043610 0.000000
0.307526 0.041809 0.000000
0.322205 0.040283 0.000000
0.337097 0.038757 0.000000
0.352112 0.037964 0.000000
0.367065 0.037140 0.000000
0.382294 0.036316 0.000000
0.397705 0.035889 0.000000
0.413574 0.035034 0.000000
0.429413 0.035004 0.000000
0.445557 0.034943 0.000000
0.462036 0.034088 0.000000
0.478943 0.034058 0.000000
0.495667 0.033600 0.000000
0.512482 0.033966 0.000000
0.529266 0.033508 0.000000
0.545624 0.033478 0.000000
0.000000 0.072357 0.001251
0.017242 0.073425 0.001251
0.038879 0.074707 0.001526
0.060455 0.075989 0.001831
0.081818 0.076965 0.001770
0.102600 0.077972 0.001709
0.123230 0.078674 0.001617
0.143433 0.078918 0.001221
0.163879 0.078888 0.000458
0.183319 0.078369 0.000031
0.201843 0.077850 0.000000
0.219421 0.076599 0.000000
0.236877 0.075317 0.000000
0.253510 0.073761 0.000000
0.269745 0.072174 0.000000
0.285583 0.070312 0.000000
0.300873 0.068420 0.000000
0.316315 0.066498 0.000000
0.331299 0.064819 0.000000
0.346558 0.063110 0.000000
0.361633 0.061676 0.000000
0.376801 0.060181 0.000000
0.392151 0.058685 0.000000
0.407745 0.057770 0.000000
0.423431 0.055939 0.000000
0.439117 0.055298 0.000000
0.455109 0.053711 0.000000
0.471588 0.052124 0.000000
0.488159 0.051758 0.000000
0.504608 0.050110 0.000000
0.521301 0.050079 0.000000
0.537445 0.049072 0.000000
0.553711 0.048706 0.000000
0.000000 0.092468 0.002258
0.017731 0.093872 0.002563
0.040375 0.096039 0.002502
0.063293 0.097565 0.002441
0.085358 0.099274 0.002716
0.107452 0.100525 0.002289
0.128479 0.101562 0.002228
0.149750 0.102173 0.001801
0.170654 0.102356 0.001068
0.190765 0.102539 0.000000
0.209564 0.102081 0.000000
0.228210 0.101440 0.000000
0.245758 0.100159 0.000000
0.263092 0.099091 0.000000
0.279419 0.097565 0.000000
0.295624 0.096039 0.000000
0.311432 0.094299 0.000000
0.326874 0.092499 0.000000
0.342407 0.090698 0.000000
0.357605 0.088867 0.000000
0.372955 0.087006 0.000000
0.388123 0.085114 0.000000
0.403442 0.083191 0.000000
0.418976 0.081024 0.000000
0.434448 0.079071 0.000000
0.450043 0.076813 0.000000
0.466064 0.074799 0.000000
0.482178 0.072968 0.000000
0.498199 0.071136 0.000000
0.514526 0.069244 0.000000
0.530304 0.067871 0.000000
0.546417 0.066772 0.000000
0.562134 0.065643 0.000000
0.000000 0.112976 0.002869
0.018738 0.114960 0.003204
0.042175 0.117645 0.003479
0.066315 0.119904 0.003754
0.089020 0.121765 0.003693
0.112152 0.123444 0.003601
0.134277 0.124878 0.003174
0.156555 0.126312 0.002747
0.177979 0.127014 0.001984
0.198639 0.127533 0.000519
0.218445 0.127502 0.000000
0.237732 0.127319 0.000000
0.255829 0.126556 0.000000
0.273590 0.125458 0.000000
0.290405 0.124329 0.000000
0.307159 0.122864 0.000000
0.323303 0.121155 0.000000
0.339172 0.119293 0.000000
0.355011 0.117371 0.000000
0.370331 0.115082 0.000000
0.385712 0.112946 0.000000
0.400970 0.110779 0.000000
0.416351 0.108368 0.000000
0.431702 0.106140 0.000000
0.446930 0.103699 0.000000
0.462585 0.101624 0.000000
0.478485 0.099274 0.000000
0.493927 0.097351 0.000000
0.509796 0.095184 0.000000
0.525299 0.093628 0.000000
0.540771 0.092041 0.000000
0.556580 0.090668 0.000000
0.571564 0.089752 0.000000
0.000000 0.133728 0.004181
0.019714 0.136261 0.004517
0.043610 0.139374 0.004791
0.069000 0.142120 0.004730
0.093262 0.144653 0.004303
0.117126 0.146820 0.004211
0.140472 0.149139 0.004120
0.163483 0.151093 0.003693
0.186005 0.152710 0.002563
0.207245 0.153656 0.001801
0.228424 0.154266 0.000000
0.248322 0.154236 0.000000
0.267578 0.154083 0.000000
0.285767 0.153229 0.000000
0.303680 0.152069 0.000000
0.320557 0.150604 0.000000
0.337555 0.148773 0.000000
0.353546 0.146759 0.000000
0.369568 0.144409 0.000000
0.385071 0.142181 0.000000
0.400452 0.139801 0.000000
0.415710 0.137207 0.000000
0.430908 0.134766 0.000000
0.445862 0.132111 0.000000
0.461090 0.129608 0.000000
0.476562 0.127258 0.000000
0.491760 0.125061 0.000000
0.506958 0.122864 0.000000
0.522003 0.120819 0.000000
0.537048 0.119110 0.000000
0.552216 0.117584 0.000000
0.567139 0.116211 0.000000
0.581970 0.115051 0.000000
0.000000 0.154388 0.005188
0.020203 0.157379 0.005524
0.045319 0.161377 0.005798
0.071869 0.164978 0.006104
0.097565 0.168396 0.006012
0.122345 0.171600 0.006287
0.146820 0.174469 0.005463
0.171173 0.176849 0.005005
0.194366 0.179047 0.003845
0.216949 0.180511 0.002350
0.239075 0.181793 0.001556
0.260254 0.182343 0.000000
0.280487 0.182343 0.000000
0.299713 0.181885 0.000000
0.318268 0.180695 0.000000
0.335968 0.179047 0.000000
0.353302 0.177124 0.000000
0.369812 0.174713 0.000000
0.385956 0.172302 0.000000
0.401367 0.169556 0.000000
0.416901 0.166779 0.000000
0.431915 0.163818 0.000000
0.446594 0.160980 0.000000
0.461670 0.158112 0.000000
0.476685 0.155548 0.000000
0.491486 0.153107 0.000000
0.506378 0.150635 0.000000
0.520813 0.148315 0.000000
0.535461 0.146149 0.000000
0.550140 0.144287 0.000000
0.564606 0.142578 0.000000
0.579163 0.140869 0.000000
0.593292 0.139465 0.000000
0.000000 0.175812 0.006561
0.020691 0.179321 0.006897
0.046997 0.184021 0.007599
0.074677 0.188232 0.007507
0.101746 0.192810 0.007446
0.127930 0.197021 0.007751
0.153534 0.200500 0.007660
0.179077 0.204041 0.007568
0.203369 0.207031 0.007477
0.227509 0.209442 0.006592
0.250885 0.211029 0.005737
0.273071 0.212219 0.004517
0.294769 0.212433 0.001923
0.315155 0.212006 0.000092
0.334503 0.210907 0.000000
0.352875 0.209290 0.000000
0.370422 0.207123 0.000000
0.387146 0.204529 0.000000
0.403381 0.201660 0.000000
0.419250 0.198608 0.000000
0.434235 0.195404 0.000000
0.448914 0.192017 0.000000
0.463898 0.188751 0.000000
0.478424 0.185730 0.000000
0.493011 0.182678 0.000000
0.507416 0.179718 0.000000
0.521515 0.176910 0.000000
0.535767 0.174500 0.000000
0.549744 0.171936 0.000000
0.563812 0.169800 0.000000
0.577911 0.167480 0.000000
0.591644 0.165466 0.000000
0.605408 0.163879 0.000000
0.000000 0.197388 0.007996
0.022156 0.201630 0.008362
0.049286 0.207916 0.009094
0.078125 0.213074 0.009430
0.106201 0.218109 0.010223
0.133209 0.223083 0.010590
0.160248 0.227753 0.011414
0.186920 0.232086 0.011322
0.213196 0.235779 0.011719
0.238922 0.238922 0.012146
0.263367 0.241150 0.012054
0.287323 0.242767 0.011017
0.309753 0.243378 0.009094
0.331329 0.243347 0.005707
0.351379 0.242432 0.002625
0.370483 0.240662 0.000000
0.388428 0.238373 0.000000
0.405518 0.235840 0.000000
0.422028 0.232544 0.000000
0.437469 0.229218 0.000000
0.452637 0.225769 0.000000
0.467560 0.221985 0.000000
0.482086 0.218475 0.000000
0.496521 0.214752 0.000000
0.510498 0.211426 0.000000
0.524475 0.208069 0.000000
0.538177 0.205078 0.000000
0.551697 0.201782 0.000000
0.565216 0.198883 0.000000
0.578674 0.196228 0.000000
0.591888 0.193420 0.000000
0.605164 0.191010 0.000000
0.618469 0.188995 0.000000
0.000763 0.220001 0.009949
0.021606 0.225037 0.010345
0.051178 0.231995 0.011597
0.081482 0.237976 0.011536
0.110352 0.243652 0.012909
0.138733 0.249634 0.014801
0.167206 0.255432 0.016754
0.195129 0.260651 0.018219
0.222931 0.265198 0.019684
0.250488 0.268860 0.020660
0.276428 0.271790 0.021088
0.301331 0.273895 0.020508
0.325134 0.275024 0.018860
0.347687 0.275360 0.016205
0.368744 0.274536 0.012634
0.388458 0.273224 0.007416
0.406860 0.270935 0.001923
0.424286 0.268097 0.000000
0.440582 0.264771 0.000000
0.456390 0.261200 0.000000
0.471832 0.257324 0.000000
0.486816 0.253326 0.000000
0.500854 0.249390 0.000000
0.514801 0.245300 0.000000
0.528473 0.241547 0.000000
0.541748 0.237640 0.000000
0.555176 0.233978 0.000000
0.568268 0.230408 0.000000
0.581055 0.226807 0.000000
0.593964 0.223694 0.000000
0.606659 0.220581 0.000000
0.619293 0.217407 0.000000
0.632233 0.215179 0.000000
0.002747 0.243286 0.012054
0.022552 0.248688 0.012512
0.053009 0.256470 0.013916
0.084503 0.263306 0.015839
0.114380 0.270111 0.017303
0.144135 0.276917 0.019836
0.173889 0.283020 0.022797
0.203552 0.288696 0.025635
0.232788 0.293945 0.028320
0.261322 0.298462 0.030457
0.289215 0.302155 0.031677
0.315308 0.304840 0.031616
0.340515 0.306885 0.031097
0.364044 0.307617 0.028412
0.385620 0.307251 0.024170
0.406128 0.306183 0.019073
0.424927 0.304199 0.012360
0.442657 0.301544 0.005035
0.459290 0.298248 0.000000
0.475586 0.294281 0.000000
0.490814 0.290192 0.000000
0.505463 0.285828 0.000000
0.519531 0.281403 0.000000
0.532959 0.277039 0.000000
0.546448 0.272736 0.000000
0.559540 0.268280 0.000000
0.572327 0.264008 0.000000
0.584961 0.260040 0.000000
0.597504 0.256073 0.000000
0.609650 0.252258 0.000000
0.621948 0.248566 0.000000
0.634094 0.244965 0.000000
0.646759 0.242218 0.000000
0.002319 0.267212 0.014862
0.020966 0.273041 0.015869
0.054810 0.281586 0.017853
0.087250 0.289032 0.019348
0.118500 0.296173 0.022858
0.149261 0.303192 0.026154
0.180115 0.309784 0.030182
0.211365 0.316315 0.033936
0.242218 0.321960 0.037445
0.272339 0.327118 0.040009
0.301208 0.331238 0.041748
0.329193 0.334625 0.042358
0.355133 0.337158 0.041565
0.379120 0.338257 0.039673
0.401794 0.338654 0.036591
0.422668 0.337830 0.031219
0.442017 0.336060 0.024872
0.460297 0.333588 0.015717
0.477661 0.330353 0.006897
0.493988 0.326569 0.000000
0.509399 0.322479 0.000000
0.523895 0.318054 0.000000
0.537872 0.313477 0.000000
0.551453 0.308990 0.000000
0.564575 0.304474 0.000000
0.577240 0.299713 0.000000
0.589783 0.295135 0.000000
0.601990 0.290497 0.000000
0.614136 0.285889 0.000000
0.626099 0.281830 0.000000
0.638031 0.277679 0.000000
0.649933 0.273376 0.000000
0.662598 0.270355 0.000000
0.002869 0.291443 0.017822
0.021423 0.297699 0.019348
0.055969 0.306458 0.021881
0.089935 0.314240 0.024780
0.121826 0.321838 0.028442
0.153961 0.328796 0.032745
0.186340 0.335632 0.037903
0.218628 0.342133 0.042267
0.251038 0.348694 0.046356
0.282501 0.354370 0.048920
0.312927 0.359192 0.050781
0.341827 0.363403 0.051636
0.368744 0.366211 0.050934
0.393677 0.368011 0.049255
0.416962 0.368744 0.046204
0.438538 0.368164 0.041260
0.458832 0.366638 0.034760
0.477631 0.364227 0.026123
0.495483 0.361267 0.016571
0.511902 0.357666 0.005005
0.527557 0.353760 0.000000
0.542389 0.349640 0.000000
0.556488 0.345306 0.000000
0.570099 0.340729 0.000000
0.583160 0.336304 0.000000
0.595673 0.331512 0.000000
0.607910 0.326538 0.000000
0.619873 0.321625 0.000000
0.631805 0.316895 0.000000
0.643494 0.312286 0.000000
0.655487 0.307892 0.000000
0.667206 0.303162 0.000000
0.679504 0.299469 0.000000
0.002106 0.315399 0.021332
0.023834 0.321991 0.023346
0.058289 0.331268 0.026642
0.092316 0.338715 0.030212
0.125244 0.346008 0.034821
0.158417 0.353333 0.039795
0.191864 0.360626 0.045074
0.225525 0.367401 0.049683
0.259094 0.373932 0.053406
0.292053 0.380280 0.056671
0.323639 0.386292 0.058960
0.353180 0.390900 0.059448
0.380920 0.394409 0.059082
0.407074 0.396820 0.058105
0.431244 0.397766 0.054749
0.453705 0.397491 0.050323
0.474640 0.396362 0.044281
0.494263 0.394318 0.035797
0.512695 0.391663 0.027313
0.529694 0.388519 0.015869
0.545868 0.385010 0.006012
0.560944 0.380859 0.004700
0.575470 0.376709 0.000000
0.588928 0.372284 0.000000
0.601959 0.367615 0.000000
0.614563 0.362823 0.000000
0.626923 0.357849 0.000000
0.638611 0.353119 0.000000
0.650757 0.348358 0.000000
0.662598 0.343719 0.000000
0.674408 0.339020 0.000000
0.685822 0.333649 0.000000
0.698334 0.329651 0.000000
0.002655 0.339966 0.025665
0.025665 0.346283 0.027985
0.060577 0.354858 0.031921
0.095123 0.362457 0.036011
0.128448 0.369812 0.040894
0.162476 0.376923 0.046112
0.197052 0.384216 0.051300
0.231537 0.391479 0.056183
0.266266 0.398468 0.059937
0.300415 0.405212 0.062988
0.332764 0.411530 0.065125
0.363373 0.416962 0.066406
0.392242 0.421204 0.066589
0.419250 0.423859 0.065155
0.444000 0.425201 0.062561
0.467712 0.425598 0.059357
0.489532 0.424713 0.053619
0.510193 0.423309 0.047821
0.529480 0.421173 0.039795
0.547577 0.418610 0.030670
0.564636 0.415558 0.020905
0.580353 0.412109 0.012054
0.595245 0.408234 0.002472
0.609009 0.403931 0.000000
0.622467 0.399414 0.000000
0.635101 0.394684 0.000000
0.647705 0.389862 0.000000
0.659851 0.384918 0.000000
0.671844 0.379974 0.000000
0.683746 0.375214 0.000000
0.695648 0.370422 0.000000
0.707214 0.364716 0.000000
0.719757 0.360352 0.000000
0.003265 0.363617 0.030151
0.028839 0.370056 0.033142
0.062805 0.378235 0.037140
0.098083 0.385223 0.041626
0.131805 0.392517 0.046448
0.166656 0.399872 0.051941
0.201447 0.406921 0.056793
0.236877 0.414124 0.061676
0.272736 0.421753 0.065491
0.307556 0.428894 0.068390
0.341003 0.435547 0.070923
0.372467 0.441345 0.072418
0.402039 0.445953 0.072845
0.429779 0.449310 0.072510
0.455811 0.451477 0.070892
0.480225 0.452209 0.068176
0.503632 0.452209 0.064880
0.525787 0.451447 0.060608
0.546295 0.449982 0.054932
0.566010 0.448151 0.049896
0.583862 0.445618 0.041748
0.600830 0.442657 0.034576
0.616455 0.439240 0.025055
0.631165 0.435455 0.015961
0.645264 0.431335 0.008789
0.658752 0.426788 0.004608
0.671783 0.422180 0.001343
0.684357 0.417419 0.000000
0.696381 0.412415 0.000000
0.708344 0.407227 0.000000
0.720612 0.402100 0.000000
0.732330 0.396179 0.000000
0.744568 0.391663 0.000000
0.004944 0.387024 0.035126
0.030090 0.392731 0.037903
0.065247 0.400665 0.042297
0.100586 0.407745 0.046783
0.135101 0.414612 0.051636
0.170471 0.421539 0.056793
0.205811 0.428741 0.061981
0.241882 0.436127 0.066345
0.278320 0.443726 0.070007
0.313873 0.451324 0.073547
0.348175 0.458405 0.076233
0.380188 0.464752 0.078125
0.410736 0.470093 0.079254
0.439056 0.473938 0.079437
0.466095 0.476624 0.078888
0.492249 0.478455 0.077820
0.517029 0.479218 0.076050
0.540863 0.479340 0.073730
0.563782 0.478851 0.071350
0.584717 0.477509 0.067871
0.604736 0.475769 0.064575
0.622955 0.473419 0.059998
0.640076 0.470551 0.054626
0.656464 0.466980 0.046661
0.671722 0.463165 0.037048
0.686371 0.459015 0.027557
0.699646 0.454407 0.018341
0.713165 0.449554 0.007568
0.725403 0.444580 0.000000
0.738312 0.439514 0.000000
0.750397 0.434235 0.000000
0.761902 0.428070 0.000000
0.774414 0.423279 0.000000
0.009674 0.409637 0.040466
0.031342 0.415131 0.043335
0.067932 0.422546 0.047424
0.103424 0.429138 0.051636
0.138000 0.435944 0.056519
0.174072 0.442688 0.061157
0.209717 0.449738 0.065826
0.246246 0.457428 0.070312
0.283142 0.465027 0.074341
0.319214 0.472656 0.078247
0.353943 0.480164 0.081543
0.386749 0.487183 0.084045
0.418182 0.493164 0.085846
0.447144 0.497925 0.086700
0.475861 0.501709 0.087311
0.503479 0.504303 0.087494
0.530243 0.506165 0.087433
0.556427 0.507355 0.087128
0.581451 0.507751 0.086609
0.605377 0.507477 0.085632
0.627502 0.506409 0.083954
0.647919 0.504730 0.081787
0.667480 0.502258 0.077850
0.685699 0.499207 0.073059
0.702301 0.495453 0.067017
0.718201 0.491364 0.060883
0.732849 0.486847 0.053772
0.746490 0.482025 0.044708
0.759796 0.476959 0.035645
0.773132 0.471802 0.026855
0.785736 0.466461 0.019135
0.796814 0.460144 0.008270
0.809967 0.455200 0.000000
0.011444 0.431549 0.045715
0.034607 0.436920 0.048401
0.071320 0.443939 0.052246
0.106812 0.450134 0.055908
0.141571 0.456512 0.060303
0.177338 0.463226 0.065033
0.213318 0.470398 0.069550
0.250458 0.477753 0.074127
0.287323 0.485504 0.078766
0.323761 0.493378 0.082764
0.358978 0.501373 0.086639
0.392242 0.508789 0.089539
0.424103 0.515594 0.092133
0.454315 0.521606 0.094238
0.484650 0.526245 0.095703
0.513947 0.530029 0.097137
0.543335 0.533234 0.098755
0.572479 0.535522 0.100372
0.600433 0.536987 0.101135
0.627075 0.537598 0.101685
0.652435 0.537384 0.101440
0.676086 0.536285 0.100159
0.698303 0.534424 0.098419
0.718292 0.531555 0.095184
0.737274 0.528229 0.091888
0.754059 0.524170 0.087128
0.770233 0.519836 0.082214
0.784790 0.514954 0.076355
0.799255 0.509857 0.067841
0.812683 0.504425 0.056854
0.825836 0.498962 0.047150
0.836914 0.492584 0.033844
0.849915 0.487671 0.022919
0.013824 0.453278 0.050629
0.039246 0.458099 0.052826
0.075867 0.464630 0.056488
0.110748 0.470612 0.059998
0.145081 0.476868 0.063934
0.180573 0.483337 0.068237
0.216492 0.490234 0.073151
0.253906 0.497559 0.077820
0.291229 0.505310 0.082825
0.327728 0.513397 0.087372
0.363007 0.521729 0.091583
0.397064 0.530151 0.095215
0.429565 0.537811 0.098572
0.460632 0.544708 0.101410
0.492432 0.550873 0.104401
0.524261 0.556061 0.107758
0.556305 0.560333 0.110657
0.588501 0.563629 0.113708
0.620483 0.566223 0.116516
0.650452 0.567719 0.118164
0.678986 0.568207 0.118866
0.705841 0.567810 0.118988
0.730255 0.566406 0.117645
0.752716 0.564117 0.115509
0.773315 0.561157 0.112610
0.791992 0.557404 0.108856
0.809784 0.553253 0.104401
0.825806 0.548523 0.099213
0.840393 0.543396 0.093201
0.853973 0.537903 0.086700
0.866730 0.532318 0.079590
0.877686 0.525848 0.071594
0.890381 0.520844 0.063568
0.014771 0.474426 0.055267
0.044556 0.479095 0.057343
0.081207 0.485168 0.060272
0.115356 0.490784 0.063354
0.149200 0.496796 0.067169
0.184052 0.503204 0.071625
0.220032 0.509888 0.076385
0.257660 0.517059 0.081665
0.294556 0.524963 0.086731
0.331360 0.533234 0.091858
0.367065 0.542114 0.096771
0.401276 0.550964 0.101105
0.434235 0.559662 0.105133
0.466827 0.567902 0.109253
0.499939 0.575256 0.113281
0.533539 0.581543 0.117798
0.569061 0.587158 0.122925
0.604919 0.591736 0.127594
0.639465 0.595154 0.131470
0.673370 0.597626 0.134583
0.704987 0.598999 0.136627
0.734253 0.599060 0.137115
0.761017 0.598267 0.136749
0.785583 0.596466 0.135315
0.807892 0.593842 0.132812
0.828430 0.590393 0.129608
0.846588 0.586365 0.125427
0.862793 0.581879 0.120789
0.877777 0.576935 0.115509
0.891357 0.571655 0.109863
0.903992 0.566132 0.103638
0.915100 0.559784 0.096527
0.927063 0.554779 0.089722
0.020325 0.495270 0.059082
0.051453 0.499512 0.061096
0.087250 0.505432 0.063629
0.120575 0.510956 0.066895
0.153900 0.516693 0.070587
0.188080 0.522827 0.074890
0.223541 0.529510 0.080017
0.261169 0.536743 0.085388
0.298065 0.544617 0.091003
0.334534 0.553101 0.096588
0.370453 0.562256 0.101776
0.405273 0.571686 0.106750
0.438599 0.581268 0.111420
0.472076 0.590576 0.116547
0.506897 0.599365 0.122284
0.543427 0.607178 0.128754
0.581512 0.613739 0.135071
0.620056 0.619293 0.141052
0.658264 0.623840 0.146545
0.695099 0.627106 0.150970
0.729218 0.629120 0.153870
0.760498 0.630066 0.155640
0.789520 0.629822 0.156097
0.815521 0.628296 0.155243
0.838898 0.626099 0.153442
0.859802 0.622803 0.150330
0.878632 0.619202 0.146820
0.894501 0.614868 0.142242
0.909088 0.610168 0.137238
0.923035 0.605164 0.131622
0.935089 0.599792 0.126007
0.948547 0.593536 0.118988
0.962402 0.588684 0.113220
0.028870 0.516083 0.062775
0.059326 0.520203 0.064423
0.094360 0.525848 0.067139
0.126404 0.531281 0.070312
0.159027 0.536835 0.074158
0.192749 0.542847 0.078583
0.227814 0.549438 0.083557
0.264771 0.556610 0.089233
0.301575 0.564301 0.095123
0.338196 0.572815 0.101196
0.374054 0.582306 0.106995
0.408997 0.592377 0.112427
0.443085 0.602997 0.118103
0.477478 0.613342 0.124329
0.513428 0.622986 0.131287
0.552246 0.632111 0.139252
0.593658 0.640137 0.147461
0.635406 0.646790 0.155273
0.675964 0.652100 0.161926
0.714966 0.656158 0.167328
0.751251 0.658936 0.171600
0.784302 0.660461 0.174164
0.814545 0.660767 0.175476
0.842346 0.659882 0.175323
0.864502 0.658051 0.173950
0.884766 0.655273 0.171509
0.898804 0.651794 0.168121
0.913605 0.647583 0.163940
0.929016 0.642975 0.159180
0.942413 0.637909 0.153839
0.958710 0.632690 0.148376
0.971405 0.626770 0.141449
0.984436 0.622101 0.136261
0.038269 0.537201 0.066315
0.068451 0.541260 0.067932
0.101746 0.546600 0.070557
0.132782 0.551727 0.073883
0.164642 0.557159 0.077850
0.197906 0.563080 0.082153
0.232513 0.569397 0.087219
0.268768 0.576263 0.092987
0.305359 0.584015 0.099335
0.341705 0.592621 0.105652
0.377930 0.602264 0.111908
0.413239 0.612915 0.118134
0.447205 0.624146 0.124542
0.482605 0.635620 0.131836
0.520325 0.646942 0.140656
0.561279 0.657013 0.150146
0.604736 0.665649 0.159637
0.648926 0.673309 0.168610
0.691895 0.679626 0.176453
0.732788 0.684601 0.183380
0.770660 0.688110 0.188416
0.805756 0.690369 0.192139
0.835297 0.691223 0.194244
0.857971 0.690857 0.194794
0.876129 0.689484 0.194092
0.891449 0.687042 0.192230
0.905334 0.683777 0.189209
0.919830 0.679932 0.185455
0.932953 0.675446 0.181213
0.946503 0.670624 0.176300
0.959564 0.665680 0.170837
0.972717 0.659912 0.164490
0.988983 0.655365 0.159424
0.049042 0.558502 0.070007
0.078125 0.562347 0.071838
0.109985 0.567352 0.074615
0.139526 0.572388 0.077576
0.171082 0.577515 0.081421
0.203674 0.583282 0.086090
0.237823 0.589478 0.091248
0.273254 0.596252 0.097046
0.309784 0.603790 0.103455
0.346191 0.612305 0.110168
0.382202 0.622131 0.117035
0.417542 0.633240 0.123840
0.451996 0.645508 0.131348
0.488190 0.658051 0.140015
0.526978 0.670044 0.150177
0.570129 0.681183 0.161072
0.616089 0.691010 0.171844
0.662323 0.699432 0.181946
0.707031 0.706543 0.191010
0.749298 0.712646 0.198914
0.788391 0.717072 0.205109
