Kodak Vision 500T (5263) - Only color.cube
# Created by Benjamin (IWLTBAP) : http://luts.iwltbap.com
# Copyright: (C) Copyright 2010-2017 Triune Films and IWLTBAP SAS
# Cannot be resold, shared or otherwise redistributed
TITLE "Film Print Emulation LUTs Pack (Rec.709, sRGB, DCI-P3)"
LUT_3D_SIZE 5
0.000000 0.000000 0.000000
0.234467 0.025787 0.003540
0.446991 0.090179 0.006622
0.669464 0.163361 0.027344
0.998352 0.267792 0.105865
0.036652 0.203766 0.003235
0.210236 0.213104 0.028809
0.457214 0.244812 0.032104
0.681305 0.281799 0.086945
0.998474 0.348267 0.138458
0.154266 0.427887 0.110413
0.249908 0.410034 0.125092
0.419312 0.414276 0.153229
0.703796 0.477112 0.172455
0.998688 0.514648 0.205750
0.324615 0.704895 0.219788
0.380249 0.695801 0.223297
0.497253 0.656586 0.246216
0.666595 0.648193 0.281403
0.998993 0.722656 0.299652
0.473938 0.998901 0.334106
0.504333 0.998932 0.334503
0.596558 0.999023 0.341187
0.734558 0.964417 0.363800
0.977020 0.921448 0.395203
0.011810 0.000000 0.200806
0.233154 0.000000 0.253937
0.463715 0.061432 0.208435
0.668915 0.166412 0.229919
0.998444 0.256500 0.259003
0.027924 0.226746 0.252655
0.227936 0.235718 0.286499
0.457306 0.253479 0.225067
0.683380 0.290070 0.252716
0.998535 0.344299 0.274933
0.134064 0.428375 0.244476
0.239044 0.415741 0.247162
0.424622 0.433044 0.279602
0.705200 0.484039 0.293304
0.998779 0.510864 0.322906
0.299164 0.686310 0.319122
0.357574 0.673004 0.322571
0.479187 0.642822 0.339813
0.652405 0.643463 0.367401
0.999023 0.710815 0.382141
0.448883 0.998901 0.394043
0.485779 0.998932 0.399048
0.582550 0.999023 0.404572
0.716644 0.931396 0.429657
0.945190 0.898224 0.455505
0.043976 0.015961 0.436981
0.229706 0.036255 0.450378
0.450470 0.074982 0.466492
0.687256 0.136383 0.474487
0.998596 0.267365 0.461151
0.000000 0.240692 0.471252
0.209534 0.237122 0.499359
0.462036 0.240723 0.497772
0.707642 0.268341 0.492126
0.998688 0.348816 0.475037
0.174408 0.442657 0.469391
0.282135 0.452576 0.490875
0.475220 0.479828 0.545044
0.711456 0.497650 0.485382
0.998901 0.521942 0.506531
0.276733 0.677368 0.491608
0.342712 0.669586 0.492645
0.470398 0.647095 0.495636
0.662598 0.673828 0.530518
0.999146 0.724304 0.536041
0.419403 0.998962 0.536530
0.456726 0.998993 0.538269
0.557281 0.968536 0.546967
0.693146 0.906708 0.564453
0.909393 0.893311 0.581726
0.171478 0.063232 0.614868
0.273895 0.076813 0.626801
0.455780 0.113129 0.654663
0.681671 0.173096 0.682709
0.998749 0.248199 0.703583
0.126068 0.241852 0.666809
0.262268 0.244232 0.674042
0.461304 0.258179 0.690826
0.695007 0.291534 0.709869
0.998840 0.337219 0.715118
0.098724 0.478333 0.717316
0.202972 0.486450 0.744843
0.465576 0.482544 0.775635
0.719818 0.488495 0.766022
0.999054 0.507721 0.748444
0.326721 0.693878 0.713409
0.385101 0.688568 0.715149
0.525055 0.696869 0.743958
0.721985 0.725189 0.803131
0.999298 0.735474 0.721893
0.405853 0.999054 0.714050
0.444885 0.989838 0.714355
0.547302 0.953796 0.714508
0.686035 0.914093 0.719910
0.916656 0.937347 0.747101
0.283325 0.106140 0.804901
0.346313 0.119415 0.818420
0.487793 0.154510 0.857178
0.695679 0.213562 0.899933
0.999115 0.282471 0.924011
0.268005 0.257355 0.853485
0.339325 0.263062 0.863983
0.493805 0.282654 0.889801
0.703613 0.316132 0.921295
0.999268 0.360138 0.938995
0.187683 0.486053 0.959900
0.301331 0.486450 0.965607
0.496704 0.489624 0.973083
0.716370 0.501709 0.981293
0.999634 0.522461 0.981171
0.318970 0.716339 0.958679
0.372986 0.714783 0.964264
0.492126 0.729126 1.000000
0.711548 0.725769 1.000000
0.999908 0.722290 1.000000
0.445068 0.999451 0.935791
0.484344 0.999481 0.934296
0.585632 0.981720 0.934662
0.739166 0.989075 0.963226
0.999969 0.999969 0.999969
