Kodak 16mm (Variant) - Look.cube
# Created by Benjamin (IWLTBAP) : http://luts.iwltbap.com
# Copyright: (C) Copyright 2010-2017 Triune Films and IWLTBAP SAS
# Cannot be resold, shared or otherwise redistributed
TITLE "Film Print Emulation LUTs Pack (Rec.709, sRGB, DCI-P3)"
LUT_3D_SIZE 33
0.000000 0.000000 0.000031
0.021515 0.001190 0.003540
0.046570 0.002502 0.007172
0.070679 0.004242 0.009949
0.093964 0.006866 0.013245
0.123474 0.008728 0.014435
0.158569 0.008484 0.015778
0.197418 0.007141 0.018707
0.237427 0.004272 0.019745
0.276398 0.002716 0.021637
0.314575 0.000397 0.025208
0.353699 0.000427 0.029877
0.388824 0.000702 0.035065
0.419891 0.000366 0.037933
0.451965 0.000183 0.040283
0.484924 0.000214 0.042511
0.515533 0.000214 0.044464
0.546661 0.000061 0.048401
0.573242 0.000000 0.052002
0.601410 0.000000 0.056976
0.627319 0.000000 0.061951
0.651825 0.000000 0.066406
0.676025 0.000000 0.070892
0.700012 0.000000 0.074799
0.723114 0.000000 0.078857
0.746765 0.000000 0.083557
0.772888 0.000000 0.089478
0.794434 0.000000 0.094788
0.811646 0.000000 0.099396
0.825958 0.000000 0.103363
0.834229 0.000000 0.105347
0.837097 0.000000 0.105621
0.839447 0.000000 0.105927
0.004272 0.017731 0.008545
0.023132 0.015472 0.008484
0.046387 0.014557 0.009796
0.070343 0.013794 0.011261
0.092041 0.014832 0.013763
0.119965 0.015717 0.015289
0.152954 0.014740 0.015503
0.190857 0.013123 0.017944
0.230377 0.009186 0.018524
0.268707 0.007568 0.020630
0.307098 0.004089 0.024078
0.346161 0.003418 0.028473
0.382202 0.003143 0.033630
0.412964 0.002197 0.036652
0.445007 0.001312 0.039398
0.478333 0.001312 0.042206
0.509583 0.001038 0.044189
0.541595 0.000519 0.047607
0.568909 0.000397 0.050995
0.597717 0.000244 0.055420
0.623688 0.000092 0.059845
0.647949 0.000000 0.063843
0.671844 0.000000 0.067902
0.695587 0.000000 0.071564
0.718628 0.000000 0.075500
0.742065 0.000000 0.080109
0.768524 0.000000 0.085999
0.790955 0.000000 0.091492
0.809479 0.000000 0.096344
0.825134 0.000000 0.100586
0.834442 0.000000 0.102814
0.837616 0.000000 0.103302
0.840149 0.000000 0.103668
0.010773 0.038116 0.018311
0.027405 0.034760 0.016876
0.047180 0.031677 0.016357
0.069244 0.029358 0.016144
0.090790 0.027771 0.016754
0.118073 0.027130 0.017639
0.149475 0.025269 0.017700
0.185852 0.023010 0.019104
0.224579 0.017914 0.019104
0.262695 0.015137 0.019501
0.300415 0.011719 0.023041
0.339294 0.009369 0.027222
0.376068 0.008118 0.032440
0.406586 0.005920 0.035400
0.438446 0.004456 0.038666
0.471924 0.003632 0.041901
0.503387 0.002686 0.043976
0.536194 0.001801 0.047089
0.564209 0.001465 0.050110
0.593719 0.000854 0.054047
0.619965 0.000610 0.057861
0.644165 0.000336 0.061310
0.667877 0.000275 0.064850
0.691376 0.000092 0.068176
0.714294 0.000000 0.071838
0.737549 0.000000 0.076263
0.764252 0.000000 0.082123
0.787628 0.000000 0.087799
0.807404 0.000000 0.092926
0.824402 0.000000 0.097412
0.834534 0.000000 0.099915
0.838074 0.000000 0.100525
0.840820 0.000000 0.100952
0.019623 0.059906 0.027802
0.034698 0.057037 0.026733
0.052002 0.053406 0.025391
0.069611 0.049622 0.023987
0.090424 0.045898 0.022461
0.115936 0.044189 0.022705
0.146149 0.041260 0.021820
0.182007 0.038025 0.021423
0.220367 0.032349 0.019745
0.258209 0.027649 0.018097
0.294525 0.024200 0.022064
0.333099 0.019440 0.026276
0.370728 0.016754 0.031097
0.400574 0.012939 0.034271
0.432617 0.010071 0.037872
0.465851 0.008209 0.041504
0.497162 0.005737 0.043915
0.530396 0.004639 0.046906
0.558990 0.003662 0.049408
0.589233 0.001801 0.052826
0.615997 0.001160 0.056061
0.640350 0.000732 0.058868
0.664062 0.000580 0.061798
0.687622 0.000397 0.064728
0.710510 0.000122 0.068085
0.733521 0.000122 0.072144
0.760223 0.000000 0.077789
0.784363 0.000000 0.083496
0.805481 0.000000 0.088989
0.823669 0.000000 0.093597
0.834595 0.000000 0.096375
0.838501 0.000000 0.097107
0.841339 0.000000 0.097626
0.031403 0.079407 0.032379
0.042999 0.076111 0.031036
0.057800 0.072968 0.029907
0.074554 0.070068 0.029297
0.091644 0.065735 0.028107
0.117706 0.063324 0.027924
0.144531 0.060974 0.026825
0.179688 0.057556 0.024078
0.215881 0.053436 0.021912
0.253845 0.047028 0.018616
0.290405 0.041473 0.020508
0.328247 0.035370 0.025421
0.365387 0.030273 0.030304
0.395508 0.024292 0.033478
0.427399 0.018768 0.036804
0.460175 0.014709 0.040863
0.493347 0.011719 0.044281
0.524445 0.009857 0.046875
0.554962 0.006561 0.049194
0.584412 0.003906 0.052124
0.611816 0.002594 0.054474
0.636597 0.001801 0.056854
0.660919 0.001251 0.059143
0.684692 0.000977 0.061554
0.708282 0.000519 0.064545
0.731812 0.000427 0.068390
0.756287 0.000305 0.073181
0.780273 0.000000 0.078766
0.803314 0.000000 0.084320
0.821808 0.000000 0.089050
0.834656 0.000000 0.092224
0.839142 0.000000 0.093323
0.841431 0.000000 0.093658
0.046539 0.097961 0.036346
0.054230 0.094879 0.035492
0.064728 0.091858 0.034393
0.078583 0.088989 0.033539
0.097168 0.086182 0.032776
0.119049 0.083801 0.032501
0.146057 0.081604 0.031189
0.177429 0.079254 0.030396
0.213623 0.075104 0.027832
0.251007 0.069275 0.025360
0.286133 0.064270 0.022491
0.324341 0.058167 0.024719
0.361267 0.051361 0.028595
0.394348 0.042725 0.032379
0.425690 0.034760 0.035736
0.456360 0.029541 0.039398
0.489594 0.024933 0.043213
0.520996 0.020599 0.046112
0.550507 0.014832 0.048279
0.580627 0.011444 0.050720
0.609222 0.007416 0.053162
0.634552 0.005615 0.055420
0.658783 0.003967 0.057220
0.683624 0.003143 0.059723
0.706665 0.002258 0.062195
0.729797 0.001709 0.065491
0.753113 0.001068 0.069397
0.777649 0.000671 0.074219
0.801392 0.000397 0.079163
0.821350 0.000275 0.083679
0.834900 0.000092 0.086639
0.839813 0.000092 0.087585
0.842255 0.000092 0.087921
0.061340 0.118011 0.041290
0.066742 0.115387 0.040649
0.075409 0.112152 0.039490
0.085999 0.108734 0.038269
0.102325 0.106262 0.037445
0.121765 0.103699 0.037018
0.148254 0.102814 0.036407
0.177673 0.101807 0.036469
0.213226 0.099457 0.035614
0.249359 0.095062 0.034088
0.283691 0.089935 0.031677
0.321198 0.083710 0.030426
0.356567 0.074554 0.028076
0.390228 0.066010 0.030365
0.423004 0.057617 0.033569
0.455078 0.050751 0.037506
0.487518 0.043304 0.041351
0.519348 0.036865 0.044342
0.548706 0.030304 0.046387
0.579193 0.024963 0.048584
0.606964 0.016388 0.051147
0.632782 0.013092 0.053436
0.657501 0.010193 0.055664
0.683899 0.007477 0.058411
0.705963 0.005829 0.060638
0.728546 0.004486 0.063232
0.751434 0.003326 0.066132
0.775238 0.002289 0.069794
0.799347 0.001587 0.073792
0.820374 0.001190 0.077393
0.834137 0.000763 0.079926
0.839386 0.000671 0.080750
0.843292 0.000519 0.081207
0.074554 0.136353 0.045563
0.078278 0.132172 0.044464
0.084717 0.129425 0.043823
0.093445 0.127045 0.043060
0.106262 0.125031 0.042328
0.126129 0.123505 0.041901
0.147522 0.123260 0.041290
0.178070 0.123962 0.041565
0.212952 0.124451 0.042053
0.248840 0.122406 0.041504
0.281830 0.118622 0.040314
0.320312 0.112488 0.037903
0.353943 0.105011 0.033051
0.388550 0.093445 0.029205
0.421021 0.083923 0.030304
0.452820 0.076508 0.034088
0.484619 0.069061 0.037537
0.515198 0.061218 0.040558
0.545990 0.052185 0.042786
0.577637 0.042786 0.045441
0.605499 0.032379 0.048157
0.633209 0.025299 0.050934
0.658264 0.020447 0.054138
0.683807 0.017029 0.057343
0.707764 0.013763 0.060059
0.730286 0.011322 0.062622
0.753571 0.008698 0.064545
0.775909 0.006836 0.066467
0.797211 0.005127 0.068665
0.819611 0.003815 0.070892
0.834473 0.002777 0.072968
0.839691 0.002625 0.073608
0.842896 0.002167 0.073761
0.083405 0.154358 0.050018
0.086853 0.151550 0.049286
0.091583 0.148346 0.048431
0.099731 0.145142 0.047516
0.110992 0.143280 0.046844
0.125610 0.141632 0.046112
0.148621 0.142761 0.046631
0.176849 0.145172 0.047028
0.209778 0.147644 0.047699
0.247498 0.148865 0.047760
0.283813 0.147949 0.047577
0.319244 0.143646 0.045288
0.354309 0.136597 0.041473
0.387695 0.126465 0.035706
0.420837 0.117249 0.031586
0.450348 0.108765 0.030731
0.482483 0.100830 0.032562
0.512695 0.093140 0.035370
0.541962 0.085938 0.037994
0.573914 0.073029 0.040741
0.602112 0.062317 0.043945
0.631348 0.052002 0.047302
0.658539 0.042358 0.051392
0.684052 0.032928 0.055481
0.709991 0.027832 0.059631
0.732025 0.024017 0.062378
0.755951 0.018951 0.064209
0.778809 0.015778 0.065155
0.799561 0.012665 0.065308
0.818573 0.010529 0.065308
0.833710 0.008301 0.065918
0.839905 0.007385 0.066040
0.843353 0.006897 0.065979
0.089294 0.174225 0.054993
0.092163 0.170502 0.054016
0.096130 0.167114 0.053101
0.102753 0.163757 0.052185
0.113220 0.161133 0.051422
0.127350 0.159485 0.050781
0.146759 0.160950 0.050995
0.174500 0.163025 0.051483
0.207611 0.167419 0.052490
0.244659 0.173096 0.053528
0.282837 0.176086 0.053772
0.321228 0.175232 0.052704
0.356842 0.170837 0.049530
0.389526 0.163239 0.045105
0.421234 0.154205 0.039795
0.450775 0.145050 0.034210
0.481750 0.136292 0.030426
0.510193 0.126007 0.030090
0.539886 0.117218 0.032349
0.571594 0.107513 0.035339
0.600128 0.097778 0.038788
0.629883 0.083649 0.043030
0.657532 0.072418 0.047882
0.683258 0.062531 0.052460
0.709198 0.053619 0.057434
0.732300 0.045563 0.061157
0.757202 0.039307 0.063873
0.782166 0.032440 0.064362
0.802795 0.025787 0.063538
0.820526 0.022858 0.061920
0.833801 0.019806 0.060699
0.840454 0.018158 0.060272
0.845032 0.017395 0.060028
0.094757 0.192657 0.059601
0.098419 0.189667 0.058807
0.102203 0.186279 0.057922
0.107819 0.181335 0.056610
0.116302 0.178802 0.055878
0.128967 0.176239 0.055084
0.145966 0.177185 0.054993
0.170593 0.180542 0.055511
0.201294 0.185730 0.056885
0.238586 0.192902 0.058136
0.277832 0.199005 0.059021
0.319641 0.203156 0.059326
0.359009 0.202423 0.057404
0.393036 0.200195 0.054810
0.425903 0.191895 0.050232
0.453674 0.180237 0.043915
0.483978 0.170410 0.037537
0.512909 0.160858 0.031281
0.541077 0.151825 0.027466
0.572327 0.141205 0.030426
0.598785 0.131805 0.033813
0.628784 0.120117 0.038422
0.656677 0.109344 0.043610
0.682159 0.098480 0.048462
0.707550 0.087311 0.053741
0.731598 0.077972 0.058472
0.755920 0.063995 0.062103
0.780182 0.055481 0.063538
0.803040 0.048126 0.062592
0.822510 0.041077 0.060394
0.836029 0.038055 0.058441
0.843964 0.035889 0.057373
0.848541 0.034332 0.056915
0.100342 0.209778 0.063873
0.103333 0.207275 0.063232
0.107849 0.204254 0.062439
0.113708 0.200287 0.061371
0.121735 0.197327 0.060516
0.131622 0.194366 0.059662
0.146393 0.192902 0.059021
0.167847 0.196716 0.059662
0.195251 0.201630 0.060394
0.231232 0.208984 0.061798
0.270111 0.217743 0.063446
0.312836 0.225769 0.064636
0.355743 0.231842 0.064728
0.395264 0.231720 0.062653
0.427643 0.226746 0.059113
0.458618 0.218292 0.054993
0.487457 0.208618 0.050018
0.515564 0.198151 0.042572
0.544098 0.187775 0.034851
0.571503 0.178070 0.029083
0.599274 0.167725 0.030121
0.626648 0.157440 0.033966
0.655426 0.146454 0.039154
0.681091 0.133942 0.044128
0.706024 0.125458 0.049316
0.729248 0.114075 0.054596
0.754639 0.102600 0.059357
0.777893 0.088867 0.061798
0.801514 0.077637 0.062042
0.823669 0.065186 0.060394
0.839661 0.057251 0.058472
0.848114 0.056091 0.057526
0.852692 0.054474 0.056885
0.107056 0.230072 0.069000
0.109833 0.228058 0.068451
0.113525 0.224182 0.067444
0.119080 0.221313 0.066650
0.127228 0.217529 0.065613
0.136505 0.213776 0.064514
0.148285 0.212524 0.063995
0.166199 0.213043 0.063843
0.191650 0.216919 0.064392
0.222870 0.223389 0.065399
0.257050 0.232574 0.067383
0.302429 0.243835 0.069000
0.346313 0.252747 0.070251
0.390869 0.259155 0.070038
0.429260 0.259033 0.067841
0.462677 0.253662 0.064178
0.492188 0.244873 0.059937
0.518585 0.236053 0.055634
0.546326 0.225464 0.048492
0.574188 0.215454 0.041382
0.600525 0.205627 0.033752
0.628052 0.195007 0.031403
0.654297 0.183655 0.035095
0.680664 0.173889 0.039642
0.704041 0.162445 0.044403
0.728119 0.152039 0.049805
0.752533 0.140167 0.055115
0.777374 0.131042 0.058716
0.801392 0.116974 0.060547
0.825439 0.102234 0.060303
0.845123 0.090057 0.059509
0.853149 0.084900 0.058960
0.857697 0.081329 0.058380
0.112183 0.250549 0.074188
0.114685 0.248627 0.073669
0.118683 0.246307 0.073029
0.123962 0.242981 0.072144
0.131409 0.239716 0.071228
0.140869 0.236084 0.070190
0.153687 0.232544 0.069122
0.168579 0.232941 0.069000
0.187378 0.233887 0.068909
0.214233 0.238007 0.069458
0.245453 0.245605 0.070679
0.286987 0.256073 0.072662
0.330902 0.268280 0.075104
0.379669 0.278900 0.076019
0.423401 0.286530 0.076202
0.462738 0.286774 0.073639
0.494324 0.282227 0.070404
0.522430 0.275116 0.067383
0.548767 0.264191 0.062469
0.575806 0.254364 0.056976
0.603180 0.244812 0.051117
0.629913 0.233521 0.043915
0.656464 0.222992 0.036072
0.680237 0.211548 0.037292
0.705444 0.201447 0.039551
0.727844 0.189331 0.044189
0.752777 0.178223 0.049103
0.775696 0.167236 0.053284
0.800964 0.156769 0.056244
0.827484 0.141815 0.058380
0.848602 0.127258 0.059021
0.857391 0.121429 0.059296
0.862701 0.116730 0.059357
0.116669 0.274902 0.080811
0.119415 0.270844 0.079681
0.123627 0.268402 0.078979
0.129242 0.265900 0.078247
0.136017 0.263245 0.077454
0.145294 0.258209 0.075958
0.157837 0.256195 0.075256
0.173004 0.254211 0.074554
0.188843 0.254852 0.074493
0.210510 0.256256 0.074493
0.237732 0.260437 0.075226
0.271423 0.268707 0.076813
0.313385 0.279388 0.078857
0.359894 0.292694 0.081055
0.408783 0.304474 0.082367
0.454620 0.311676 0.082123
0.492645 0.312439 0.079224
0.525452 0.308624 0.075623
0.552338 0.300354 0.071899
0.580627 0.291992 0.068298
0.605560 0.281281 0.063690
0.633240 0.270905 0.057434
0.659241 0.260803 0.050385
0.682648 0.249847 0.041351
0.706787 0.239563 0.036530
0.729980 0.227814 0.038177
0.751617 0.216125 0.041962
0.775238 0.206543 0.045563
0.800720 0.195221 0.049194
0.828552 0.180389 0.052795
0.850891 0.168274 0.055115
0.859741 0.161865 0.056244
0.866150 0.156982 0.056946
0.119690 0.298950 0.087555
0.123383 0.295593 0.086548
0.128418 0.292755 0.085663
0.135101 0.290344 0.084900
0.142944 0.288116 0.084229
0.152832 0.283997 0.083008
0.163574 0.282227 0.082428
0.177673 0.280548 0.081848
0.195007 0.279236 0.081360
0.213257 0.280060 0.081360
0.235260 0.281097 0.081268
0.264465 0.285645 0.082123
0.298798 0.292267 0.083160
0.345581 0.304504 0.085205
0.394073 0.317810 0.087189
0.440704 0.329346 0.088287
0.487854 0.336609 0.086578
0.524017 0.337555 0.083252
0.555634 0.333984 0.079742
0.583740 0.326294 0.076385
0.610626 0.317993 0.072632
0.638428 0.308350 0.068481
0.662903 0.298615 0.063446
0.688599 0.287872 0.056885
0.710266 0.276825 0.048492
0.730988 0.265381 0.041870
0.752167 0.255585 0.038086
0.774841 0.246307 0.037781
0.798676 0.233856 0.041321
0.825653 0.221558 0.045044
0.851746 0.208069 0.048645
0.862152 0.201477 0.050598
0.868958 0.197083 0.051758
0.121063 0.325714 0.095428
0.125183 0.322937 0.094574
0.130371 0.319977 0.093658
0.137543 0.316772 0.092682
0.146790 0.314911 0.092041
0.157776 0.311096 0.090820
0.171387 0.309448 0.090210
0.186859 0.310181 0.090302
0.203918 0.308685 0.089752
0.221863 0.307953 0.089417
0.242767 0.308350 0.089294
0.267029 0.309143 0.089142
0.296967 0.312317 0.089417
0.332245 0.318604 0.090118
0.375854 0.330231 0.091705
0.422791 0.343201 0.093506
0.472931 0.354401 0.093018
0.517303 0.362030 0.091034
0.551819 0.363190 0.087402
0.585724 0.360840 0.083527
0.615204 0.352966 0.079742
0.643066 0.344574 0.076508
0.669891 0.335236 0.072906
0.694122 0.323120 0.067841
0.717255 0.312622 0.061890
0.738434 0.302307 0.055664
0.759491 0.290558 0.046082
0.780090 0.281921 0.039368
0.802551 0.271851 0.037109
0.830292 0.258484 0.041016
0.855133 0.247131 0.044678
0.865906 0.238190 0.047119
0.873535 0.233185 0.048767
0.135010 0.356384 0.104156
0.137787 0.353546 0.103302
0.141571 0.350769 0.102448
0.147095 0.347809 0.101532
0.156372 0.346222 0.101013
0.167938 0.343872 0.100220
0.181610 0.342651 0.099762
0.199371 0.341522 0.099243
0.217255 0.341248 0.098999
0.237122 0.341736 0.099030
0.255707 0.339203 0.098206
0.279785 0.337280 0.097321
0.305664 0.338257 0.097076
0.334320 0.341461 0.097168
0.368469 0.346588 0.097198
0.411499 0.356659 0.098145
0.457306 0.369049 0.098816
0.501617 0.380402 0.098572
0.546356 0.387878 0.096130
0.585388 0.390900 0.092590
0.617157 0.388977 0.089111
0.648254 0.383179 0.085693
0.676605 0.372131 0.081848
0.702667 0.361603 0.078339
0.726379 0.349670 0.073914
0.747803 0.340118 0.069885
0.768921 0.328186 0.065521
0.790802 0.316956 0.057678
0.814087 0.306458 0.050659
0.839294 0.293793 0.045074
0.862488 0.281219 0.045593
0.873291 0.274658 0.047974
0.881409 0.269562 0.049866
0.146881 0.388397 0.113373
0.152100 0.385742 0.112518
0.158081 0.383301 0.111694
0.163879 0.379425 0.110504
0.172546 0.377716 0.109863
0.182587 0.374176 0.108704
0.196106 0.373291 0.108276
0.212891 0.373077 0.108002
0.234283 0.373810 0.107941
0.256653 0.374176 0.107788
0.275452 0.371613 0.106873
0.300049 0.369568 0.106018
0.323059 0.368256 0.105255
0.346985 0.367035 0.104431
0.376678 0.370178 0.104309
0.412689 0.375732 0.104309
0.453644 0.385651 0.104584
0.496704 0.396332 0.104950
0.539612 0.407623 0.104462
0.581024 0.415588 0.102600
0.619873 0.418549 0.099426
0.655060 0.416595 0.095917
0.685730 0.407928 0.092041
0.712433 0.398987 0.088715
0.736023 0.388672 0.085663
0.756561 0.377350 0.081940
0.778351 0.366089 0.078552
0.798370 0.356750 0.075775
0.820343 0.345795 0.070770
0.845581 0.332001 0.061127
0.866119 0.320221 0.052246
0.878540 0.311310 0.049194
0.886810 0.306061 0.051361
0.156464 0.419739 0.122345
0.163971 0.415588 0.121124
0.172943 0.413513 0.120422
0.182404 0.411835 0.119781
0.192078 0.408905 0.118805
0.202667 0.406219 0.117859
0.216248 0.405762 0.117554
0.233124 0.405273 0.117157
0.252930 0.406738 0.117218
0.276031 0.406372 0.116699
0.298401 0.404907 0.115967
0.322418 0.403778 0.115265
0.346375 0.402222 0.114410
0.367340 0.398499 0.112885
0.392578 0.396729 0.111694
0.421783 0.399780 0.111267
0.457855 0.405853 0.111420
0.497284 0.415283 0.111603
0.536652 0.426331 0.112122
0.578461 0.437317 0.112213
0.621002 0.444397 0.109436
0.660431 0.446411 0.105927
0.694672 0.442902 0.102173
0.722443 0.433777 0.097778
0.744476 0.423981 0.094666
0.764893 0.414459 0.092224
0.786194 0.403259 0.089325
0.806244 0.394623 0.087006
0.827667 0.384277 0.084198
0.850830 0.369354 0.078522
0.869080 0.357239 0.070221
0.881958 0.349182 0.063293
0.891907 0.343140 0.056793
0.175354 0.450073 0.130524
0.178009 0.446014 0.129303
0.187683 0.444397 0.128723
0.198425 0.442902 0.128174
0.210022 0.441254 0.127594
0.221832 0.438416 0.126678
0.238312 0.438568 0.126526
0.256439 0.438690 0.126343
0.275879 0.438599 0.125977
0.299774 0.440521 0.126068
0.324829 0.439911 0.125427
0.349457 0.439484 0.124878
0.371216 0.437683 0.123962
0.391998 0.432922 0.122131
0.412811 0.429840 0.120667
0.438354 0.429291 0.119659
0.468445 0.430756 0.118835
0.502045 0.437225 0.119049
0.537598 0.446442 0.119873
0.579163 0.457764 0.120483
0.619415 0.466827 0.119720
0.662018 0.472321 0.116180
0.700195 0.473175 0.112335
0.728943 0.467377 0.107727
0.752411 0.458618 0.103546
0.773315 0.450867 0.100555
0.793579 0.439240 0.097382
0.813171 0.428497 0.094482
0.833588 0.418182 0.091309
0.855225 0.405457 0.086914
0.872986 0.392303 0.080872
0.884857 0.383514 0.075165
0.895081 0.377167 0.070465
0.203888 0.479980 0.138733
0.211304 0.477295 0.137878
0.220428 0.476074 0.137390
0.230286 0.473694 0.136597
0.241486 0.472778 0.136200
0.251862 0.469879 0.135254
0.267609 0.470581 0.135254
0.283508 0.471436 0.135284
0.304047 0.474030 0.135712
0.326630 0.475647 0.135742
0.348328 0.476624 0.135712
0.372345 0.476501 0.135376
0.393433 0.473572 0.134094
0.414520 0.469177 0.132507
0.433533 0.464691 0.130646
0.456726 0.463348 0.129547
0.481384 0.460388 0.127716
0.509369 0.462219 0.127258
0.540344 0.468140 0.127472
0.578278 0.476837 0.127960
0.616730 0.486298 0.127808
0.659271 0.494293 0.125793
0.698212 0.498688 0.122162
0.731506 0.497589 0.117096
0.756378 0.493683 0.113464
0.778320 0.485291 0.109100
0.799927 0.473785 0.104523
0.819641 0.462830 0.100311
0.839020 0.452454 0.096283
0.858643 0.437592 0.091278
0.874969 0.426819 0.086884
0.887909 0.418549 0.082520
0.898956 0.411407 0.078125
0.232208 0.511505 0.147827
0.243378 0.509552 0.147095
0.254761 0.508881 0.146790
0.266205 0.507294 0.146210
0.275879 0.507202 0.146027
0.284698 0.503876 0.144836
0.296936 0.505066 0.145050
0.312103 0.507660 0.145660
0.330292 0.511688 0.146667
0.348907 0.513000 0.146790
0.368805 0.514496 0.147034
0.390808 0.513000 0.146301
0.412994 0.512238 0.145813
0.434174 0.509766 0.144836
0.455170 0.504791 0.143066
0.475616 0.500214 0.141083
0.497070 0.496033 0.139130
0.520020 0.494049 0.137543
0.546692 0.495178 0.136719
0.579956 0.498932 0.135864
0.614899 0.506195 0.135681
0.655365 0.515411 0.135101
0.694489 0.522217 0.132263
0.727966 0.525543 0.128510
0.756287 0.523651 0.124207
0.780090 0.518463 0.119781
0.803101 0.509369 0.114105
0.824432 0.499146 0.108521
0.842621 0.485748 0.103027
0.861206 0.473419 0.096954
0.878540 0.458313 0.090668
0.890503 0.450531 0.086884
0.901886 0.443024 0.082825
0.264252 0.542206 0.156982
0.274200 0.542053 0.156860
0.283112 0.540588 0.156342
0.294678 0.541687 0.156555
0.304474 0.541595 0.156433
0.312500 0.540009 0.155853
0.322937 0.541656 0.156189
0.335938 0.544373 0.156799
0.351105 0.547272 0.157410
0.368591 0.549927 0.157928
0.388092 0.551880 0.158295
0.411285 0.553802 0.158600
0.432495 0.552856 0.158081
0.453888 0.550110 0.157043
0.473816 0.545013 0.155273
0.493500 0.540009 0.153534
0.513489 0.534454 0.151367
0.534760 0.530182 0.149506
0.557312 0.526581 0.147217
0.586456 0.527344 0.145844
0.616394 0.531158 0.144897
0.651825 0.537781 0.144135
0.688965 0.545807 0.142944
0.722992 0.551697 0.140594
0.754944 0.553375 0.136475
0.781677 0.550995 0.131805
0.806458 0.545410 0.126404
0.826660 0.535919 0.120789
0.847198 0.523102 0.113159
0.865356 0.507050 0.104950
0.882385 0.494934 0.098694
0.895569 0.483948 0.093109
0.906311 0.476562 0.089203
0.300781 0.572235 0.165375
0.307434 0.571472 0.165100
0.316437 0.572906 0.165405
0.325592 0.575623 0.166107
0.334137 0.575897 0.166077
0.341827 0.575348 0.165833
0.352264 0.577271 0.166290
0.363586 0.580109 0.166962
0.376984 0.583252 0.167755
0.393585 0.586731 0.168579
0.412140 0.590271 0.169403
0.434937 0.593323 0.170074
0.454865 0.593597 0.169983
0.476410 0.593079 0.169617
0.495178 0.588501 0.168060
0.513306 0.583252 0.166351
0.533020 0.577484 0.164459
0.552094 0.571808 0.162323
0.572998 0.566742 0.160339
0.597473 0.561798 0.157288
0.624084 0.561554 0.155487
0.655029 0.565125 0.154205
0.689026 0.571503 0.153229
0.721313 0.577972 0.151917
0.751923 0.582733 0.149689
0.780914 0.583527 0.145630
0.807739 0.579529 0.140411
0.829803 0.572632 0.134369
0.851685 0.563568 0.127472
0.869965 0.547302 0.117950
0.888092 0.531433 0.108704
0.901489 0.521576 0.102264
0.912689 0.513702 0.098145
0.340515 0.604218 0.174469
0.346039 0.605286 0.174713
0.352722 0.607117 0.175171
0.358246 0.607635 0.175262
0.364075 0.608643 0.175507
0.371002 0.610168 0.175873
0.378937 0.612396 0.176453
0.389862 0.614197 0.176849
0.405457 0.620209 0.178436
0.422577 0.625275 0.179779
0.438232 0.627136 0.180176
0.460876 0.633026 0.181702
0.482117 0.634888 0.181976
0.501801 0.635223 0.181885
0.520020 0.631073 0.180420
0.537994 0.626007 0.178711
0.555023 0.620911 0.176941
0.573334 0.615265 0.175018
0.591217 0.607574 0.172363
0.612976 0.602570 0.170380
0.638184 0.599640 0.167847
0.666321 0.600128 0.166260
0.693542 0.602783 0.164764
0.725006 0.607697 0.163361
0.754211 0.612762 0.161957
0.782379 0.615173 0.159271
0.810059 0.614502 0.154877
0.833679 0.611603 0.149780
0.856110 0.602295 0.142365
0.876434 0.586456 0.131012
0.894684 0.570587 0.121094
0.908661 0.557861 0.112732
0.920593 0.548706 0.106659
0.374756 0.638672 0.184509
0.378876 0.639221 0.184631
0.384644 0.641510 0.185272
0.390411 0.644257 0.186035
0.395050 0.645020 0.186188
0.398956 0.644165 0.185852
0.407410 0.647125 0.186646
0.418640 0.651642 0.187866
0.434265 0.658203 0.189636
0.452209 0.662811 0.190765
0.470154 0.666626 0.191620
0.490967 0.670959 0.192596
0.512665 0.673859 0.193176
0.530945 0.676025 0.193695
0.547821 0.672821 0.192535
0.566681 0.671234 0.191895
0.583008 0.666412 0.190308
0.597046 0.658905 0.187866
0.615601 0.654175 0.186188
0.635376 0.649506 0.184357
0.657593 0.642517 0.181732
