Kodak Vision2 200T (5217) - Look.cube
# Created by Benjamin (IWLTBAP) : http://luts.iwltbap.com
# Copyright: (C) Copyright 2010-2017 Triune Films and IWLTBAP SAS
# Cannot be resold, shared or otherwise redistributed
TITLE "Film Print Emulation LUTs Pack (Rec.709, sRGB, DCI-P3)"
LUT_3D_SIZE 33
0.000000 0.000000 0.001160
0.025574 0.003418 0.005829
0.051880 0.007233 0.009827
0.077881 0.011200 0.013824
0.103333 0.015015 0.017609
0.129059 0.018402 0.021118
0.155273 0.021515 0.024384
0.185425 0.024475 0.027313
0.211761 0.027283 0.030029
0.238220 0.029755 0.032440
0.264191 0.031647 0.034363
0.290619 0.033203 0.035797
0.317261 0.034698 0.036987
0.343414 0.036285 0.038300
0.369080 0.037506 0.039490
0.394623 0.038513 0.040497
0.420074 0.039673 0.041626
0.445557 0.040985 0.043121
0.471039 0.042480 0.044739
0.498901 0.044098 0.046326
0.526459 0.046112 0.048340
0.553589 0.048737 0.050812
0.581177 0.051910 0.053894
0.609131 0.055817 0.057739
0.636536 0.060516 0.062103
0.664001 0.065979 0.067108
0.691315 0.071777 0.072571
0.719238 0.078552 0.079529
0.748535 0.087280 0.088318
0.778046 0.098816 0.099792
0.804169 0.116455 0.116974
0.824554 0.129974 0.130066
0.848846 0.131653 0.131836
0.000000 0.014954 0.000000
0.025085 0.023804 0.006805
0.052277 0.027557 0.010132
0.079041 0.031281 0.014679
0.105469 0.034576 0.018890
0.132111 0.037933 0.022827
0.158386 0.041229 0.026215
0.188416 0.043976 0.029114
0.214813 0.046692 0.031799
0.241211 0.049011 0.034149
0.267609 0.050995 0.036194
0.294373 0.052826 0.037994
0.320770 0.054443 0.039490
0.346649 0.055817 0.040588
0.372345 0.056946 0.041351
0.397858 0.058014 0.042236
0.423584 0.059235 0.043518
0.449280 0.060455 0.045105
0.474823 0.061768 0.046814
0.504517 0.063354 0.048462
0.530731 0.065399 0.050385
0.557831 0.068176 0.053009
0.585602 0.071625 0.056213
0.613861 0.075745 0.060211
0.641693 0.080627 0.064758
0.669037 0.086182 0.070374
0.697021 0.092743 0.076813
0.725830 0.100586 0.084473
0.755096 0.109711 0.093079
0.783447 0.122772 0.106140
0.807922 0.139954 0.122803
0.829681 0.152252 0.134918
0.853088 0.151215 0.134186
0.000000 0.030426 0.000000
0.016052 0.036987 0.001984
0.051239 0.048370 0.011963
0.078766 0.052124 0.015747
0.106262 0.055511 0.019745
0.133209 0.058167 0.023865
0.160492 0.061035 0.027802
0.190826 0.063904 0.030945
0.217468 0.066284 0.033691
0.243805 0.068390 0.036072
0.270355 0.070404 0.038147
0.297058 0.072083 0.039886
0.323456 0.073578 0.041412
0.349548 0.074982 0.042725
0.375183 0.076141 0.043518
0.400787 0.077271 0.044189
0.426575 0.078552 0.045197
0.452545 0.079926 0.046844
0.478363 0.081299 0.048645
0.508545 0.082947 0.050476
0.535522 0.085327 0.052734
0.562805 0.088196 0.055389
0.590454 0.091309 0.058319
0.618225 0.095062 0.061859
0.646027 0.100037 0.066742
0.674103 0.106262 0.073486
0.703156 0.114014 0.081482
0.732544 0.122498 0.089264
0.761749 0.132172 0.098236
0.787933 0.146484 0.112701
0.811768 0.165070 0.128723
0.837372 0.175476 0.136780
0.858185 0.175079 0.136932
0.000000 0.040100 0.000000
0.007355 0.047821 0.000000
0.041046 0.060913 0.003052
0.076599 0.072998 0.017456
0.104919 0.077484 0.021149
0.132599 0.080688 0.024628
0.160034 0.082977 0.028259
0.191986 0.084717 0.032288
0.218903 0.086151 0.035095
0.245758 0.087921 0.037659
0.272461 0.089600 0.039673
0.299225 0.091217 0.041443
0.325592 0.092743 0.042969
0.351837 0.094177 0.044495
0.377655 0.095428 0.045410
0.403320 0.096588 0.046112
0.429230 0.097839 0.047028
0.455322 0.099274 0.048401
0.481812 0.100952 0.050293
0.512573 0.102814 0.052277
0.539368 0.105011 0.054413
0.566559 0.107697 0.057037
0.594391 0.110748 0.060028
0.622192 0.114563 0.063782
0.650421 0.119995 0.069183
0.679138 0.126862 0.076324
0.708801 0.135040 0.084808
0.738159 0.143829 0.093323
0.767181 0.153870 0.102875
0.792542 0.174591 0.119843
0.815887 0.188904 0.133820
0.841797 0.194885 0.139221
0.862549 0.195923 0.140350
0.000000 0.054871 0.000000
0.000000 0.058838 0.000000
0.026733 0.071930 0.000000
0.067169 0.086884 0.005676
0.102173 0.097839 0.023041
0.131073 0.102509 0.025940
0.158905 0.105774 0.029449
0.190979 0.108368 0.032928
0.218719 0.109406 0.036224
0.246429 0.109680 0.038849
0.273560 0.110046 0.040802
0.300659 0.110718 0.042572
0.327179 0.111664 0.044159
0.353271 0.113007 0.045624
0.379395 0.114502 0.046997
0.405365 0.115845 0.047974
0.431519 0.117157 0.048920
0.457886 0.118561 0.050049
0.484558 0.120148 0.051636
0.515533 0.121979 0.053589
0.542542 0.124237 0.055847
0.569916 0.127167 0.058685
0.598297 0.130859 0.062317
0.626251 0.134979 0.066345
0.654510 0.140289 0.071503
0.683624 0.147278 0.078522
0.713287 0.155548 0.087036
0.742493 0.167999 0.096130
0.771515 0.178772 0.106781
0.796326 0.197693 0.125580
0.819275 0.209991 0.138062
0.845520 0.214172 0.141724
0.865875 0.216583 0.143890
0.000000 0.068848 0.000000
0.000000 0.071198 0.000000
0.012085 0.080505 0.000000
0.054474 0.097198 0.002319
0.094208 0.112244 0.020050
0.128418 0.122467 0.029053
0.157959 0.127930 0.032166
0.190125 0.131378 0.034698
0.217743 0.133484 0.036865
0.245636 0.134460 0.039490
0.273376 0.133606 0.041626
0.300964 0.133026 0.043488
0.328247 0.132538 0.045227
0.354797 0.132904 0.046936
0.381165 0.134125 0.048462
0.407501 0.135254 0.049744
0.434021 0.136505 0.050812
0.460297 0.137817 0.051819
0.486816 0.139191 0.053040
0.517822 0.140930 0.054871
0.545227 0.143372 0.057312
0.572784 0.146362 0.060211
0.601624 0.150574 0.064301
0.629822 0.155212 0.068909
0.658203 0.160583 0.074005
0.687683 0.171570 0.081024
0.717499 0.180145 0.090118
0.746704 0.189514 0.099823
0.776245 0.200378 0.110443
0.800262 0.221375 0.131531
0.822662 0.230896 0.141724
0.848663 0.233337 0.144043
0.868866 0.236877 0.147308
0.000000 0.083374 0.000000
0.000000 0.084564 0.000000
0.000000 0.090546 0.000000
0.037537 0.105042 0.000000
0.082458 0.123230 0.013092
0.121185 0.137787 0.027435
0.155029 0.147949 0.034515
0.189148 0.153839 0.037659
0.217072 0.156830 0.039093
0.244751 0.158478 0.040375
0.272278 0.158966 0.042267
0.300079 0.157867 0.044189
0.328064 0.157104 0.046204
0.356049 0.155884 0.048157
0.382874 0.155640 0.049744
0.409637 0.156067 0.051239
0.436188 0.156647 0.052460
0.462708 0.157349 0.053650
0.489746 0.158661 0.055023
0.521057 0.160583 0.056793
0.548615 0.165375 0.059357
0.576385 0.170074 0.062744
0.605072 0.174255 0.066895
0.633362 0.179260 0.071442
0.662415 0.185272 0.077026
0.692078 0.192719 0.084656
0.722046 0.201569 0.094330
0.751434 0.211243 0.104156
0.780243 0.223145 0.115448
0.804108 0.245270 0.137238
0.825928 0.251801 0.144318
0.851166 0.252228 0.145386
0.871887 0.256866 0.150085
0.000000 0.098358 0.000000
0.000000 0.098236 0.000000
0.000000 0.102692 0.000000
0.014252 0.113647 0.000000
0.066132 0.131714 0.000397
0.109375 0.149445 0.018433
0.147430 0.166840 0.032684
0.185455 0.177856 0.039276
0.215790 0.183014 0.042053
0.244293 0.186005 0.043121
0.271820 0.187531 0.043884
0.299194 0.188110 0.044922
0.327118 0.188324 0.047028
0.355865 0.186401 0.049011
0.383759 0.184265 0.050446
0.411224 0.182892 0.052002
0.438416 0.182861 0.053864
0.466003 0.183289 0.055511
0.493622 0.183990 0.057098
0.525024 0.185211 0.059174
0.552826 0.187408 0.062347
0.580841 0.190826 0.066589
0.609802 0.195068 0.070618
0.637970 0.200012 0.074615
0.666779 0.206207 0.080444
0.696503 0.213989 0.088745
0.726868 0.223328 0.098785
0.756531 0.233307 0.108337
0.784393 0.247253 0.121338
0.807587 0.266724 0.140106
0.831879 0.272705 0.146454
0.854767 0.272064 0.146912
0.875763 0.278046 0.153961
0.000000 0.113556 0.000000
0.000000 0.113403 0.000000
0.000000 0.116150 0.000000
0.006866 0.124512 0.000000
0.045319 0.138092 0.000000
0.095184 0.159668 0.001465
0.137146 0.180847 0.021362
0.178558 0.194122 0.037842
0.212341 0.203064 0.043427
0.242615 0.207916 0.045624
0.271515 0.211151 0.046844
0.299438 0.213043 0.047333
0.326599 0.213806 0.047577
0.354156 0.214050 0.049377
0.382812 0.212189 0.050964
0.411438 0.209564 0.052582
0.440277 0.207550 0.054596
0.468445 0.207489 0.056702
0.499573 0.207733 0.058807
0.528748 0.208405 0.061676
0.556854 0.209991 0.065582
0.585571 0.212708 0.070038
0.614655 0.217133 0.074371
0.643250 0.222076 0.078522
0.671875 0.227905 0.084564
0.701416 0.235718 0.092957
0.731598 0.244965 0.102509
0.761810 0.255402 0.112183
0.788635 0.271606 0.127441
0.811920 0.288605 0.143738
0.838104 0.293701 0.149231
0.859100 0.294220 0.151184
0.879700 0.300537 0.159149
0.000000 0.128815 0.000000
0.000000 0.128754 0.000000
0.000000 0.129761 0.000000
0.000000 0.136475 0.000000
0.023499 0.148132 0.000000
0.077148 0.170166 0.000336
0.124481 0.191925 0.012390
0.169189 0.208435 0.032715
0.205627 0.220337 0.042999
0.238983 0.228516 0.047607
0.269714 0.233398 0.049805
0.298981 0.236542 0.050690
0.326752 0.238220 0.050690
0.353699 0.239380 0.050415
0.381714 0.239777 0.051697
0.410767 0.238007 0.053223
0.440582 0.235840 0.055359
0.470459 0.234161 0.057892
0.503357 0.234375 0.060699
0.532288 0.235107 0.064178
0.561127 0.236389 0.068817
0.590576 0.238983 0.073730
0.619843 0.242340 0.078369
0.648834 0.246643 0.083313
0.677460 0.251709 0.089478
0.707306 0.258972 0.097626
0.738068 0.268158 0.106903
0.768585 0.279053 0.117218
0.794220 0.298584 0.136047
0.817139 0.311798 0.148895
0.843079 0.315430 0.153198
0.864227 0.318054 0.157501
0.884003 0.325226 0.166412
0.000000 0.144409 0.000000
0.000000 0.144592 0.000000
0.000000 0.145142 0.000000
0.000000 0.149780 0.000000
0.007782 0.159943 0.000000
0.052917 0.178314 0.000000
0.107574 0.199615 0.004517
0.153015 0.220398 0.024261
0.196686 0.235657 0.040283
0.232391 0.246490 0.047821
0.265808 0.254303 0.051605
0.296875 0.258972 0.053406
0.326721 0.262390 0.054321
0.354828 0.264618 0.054169
0.383087 0.266327 0.054413
0.410645 0.266846 0.054962
0.440247 0.265778 0.056732
0.471069 0.264648 0.059662
0.505768 0.263550 0.063232
0.535431 0.264313 0.067383
0.565063 0.265259 0.071655
0.594940 0.267212 0.076447
0.624481 0.270386 0.081451
0.653717 0.274017 0.087189
0.682983 0.278198 0.093933
0.713379 0.284760 0.102142
0.744965 0.294006 0.112030
0.775696 0.304626 0.123047
0.800201 0.326385 0.144867
0.822540 0.335785 0.154327
0.848083 0.337524 0.157440
0.869110 0.341400 0.163391
0.888458 0.349792 0.173462
0.000000 0.160004 0.000000
0.000000 0.160461 0.000000
0.000000 0.160767 0.000000
0.000000 0.168182 0.000000
0.002228 0.177338 0.000000
0.032715 0.188293 0.000000
0.085388 0.207062 0.001434
0.137604 0.229614 0.007080
0.185242 0.248810 0.031250
0.223907 0.262695 0.045258
0.260071 0.273071 0.051819
0.294006 0.280914 0.055450
0.325653 0.285889 0.057281
0.355560 0.289459 0.057922
0.385162 0.292236 0.058624
0.413330 0.294128 0.058807
0.440704 0.295410 0.059021
0.471008 0.295837 0.061523
0.506042 0.295471 0.065277
0.537476 0.294922 0.069885
0.567902 0.295685 0.074463
0.598755 0.297089 0.078918
0.628632 0.299774 0.084167
0.658386 0.302826 0.090302
0.688202 0.306915 0.097443
0.719086 0.313324 0.106110
0.751068 0.322815 0.117126
0.781708 0.335083 0.131073
0.806274 0.354980 0.152313
0.828644 0.361664 0.159515
0.853790 0.361755 0.162048
0.874542 0.366608 0.170227
0.893494 0.376282 0.181885
0.000000 0.179993 0.000000
0.000000 0.180481 0.000000
0.000000 0.180939 0.000000
0.000000 0.184174 0.000000
0.000000 0.191040 0.000000
0.012878 0.201599 0.000000
0.063293 0.216553 0.000732
0.118530 0.236816 0.003784
0.171692 0.259949 0.009399
0.213989 0.277527 0.036591
0.253052 0.290588 0.050018
0.289337 0.300873 0.055908
0.323212 0.308472 0.059418
0.355194 0.313629 0.061035
0.385956 0.317352 0.062042
0.415955 0.320709 0.063080
0.444550 0.323273 0.063599
0.472229 0.325653 0.064362
0.506378 0.327209 0.067535
0.537231 0.327148 0.071533
0.569641 0.327026 0.076538
0.601624 0.328125 0.081207
0.632507 0.330536 0.086761
0.663116 0.333527 0.093353
0.693665 0.337860 0.101013
0.725189 0.344635 0.110321
0.757477 0.354065 0.122803
0.787750 0.367310 0.139740
0.812134 0.382355 0.157410
0.837982 0.388245 0.164703
0.859741 0.389008 0.167908
0.880768 0.395691 0.178101
0.898834 0.405151 0.190247
0.000000 0.195465 0.000000
0.000000 0.196167 0.000000
0.000000 0.196930 0.000000
0.000000 0.198334 0.000000
0.000000 0.204163 0.000000
0.008575 0.214691 0.000000
0.038971 0.225250 0.000122
0.095245 0.244690 0.003296
0.150208 0.267639 0.006256
0.201843 0.290405 0.012146
0.244232 0.306671 0.043488
0.282349 0.319244 0.055176
0.318634 0.329224 0.060638
0.352936 0.336670 0.063446
0.385803 0.341980 0.065308
0.417145 0.346161 0.066742
0.447449 0.349792 0.067963
0.476044 0.353241 0.069275
0.507904 0.356995 0.071045
0.537872 0.358978 0.073883
0.569885 0.359039 0.077728
0.603546 0.359741 0.083130
0.635864 0.361908 0.089264
0.667145 0.364929 0.096375
0.698700 0.369751 0.104767
0.730865 0.376770 0.115326
0.763611 0.386047 0.128967
0.793549 0.398529 0.146637
0.817657 0.410706 0.163116
0.843933 0.415375 0.169495
0.865540 0.417725 0.174347
0.885742 0.425232 0.185486
0.903687 0.432373 0.195709
0.000000 0.211029 0.000000
0.000000 0.212006 0.000000
0.000000 0.213135 0.000000
0.000000 0.213501 0.000000
0.000000 0.218079 0.000000
0.003571 0.227539 0.000000
0.019745 0.238098 0.000000
0.069000 0.252258 0.002319
0.126678 0.274170 0.005463
0.183136 0.298584 0.012360
0.231537 0.320770 0.035522
0.272034 0.335724 0.051270
0.310822 0.348328 0.060120
0.347992 0.358490 0.065063
0.383240 0.365753 0.067505
0.416351 0.370941 0.069427
0.448212 0.375488 0.071320
0.478333 0.379730 0.073486
0.510956 0.384552 0.075806
0.539490 0.389191 0.077667
0.570831 0.390686 0.079956
0.604797 0.391510 0.085144
0.638519 0.393585 0.092316
0.671387 0.397430 0.100494
0.703888 0.402466 0.109619
0.736115 0.408936 0.120941
0.768829 0.417603 0.134827
0.799408 0.428223 0.150879
0.823242 0.439728 0.168060
0.849701 0.442963 0.173126
0.870819 0.446808 0.180298
0.890076 0.454315 0.192139
0.908478 0.459778 0.200623
0.000000 0.227203 0.000000
0.000000 0.228424 0.000000
0.000000 0.229523 0.000000
0.000000 0.229980 0.000000
0.000000 0.232300 0.000000
0.000000 0.240082 0.000000
0.012146 0.250946 0.000000
0.031647 0.261475 0.001099
0.097717 0.280975 0.004608
0.159088 0.305786 0.007385
0.214508 0.330902 0.015808
0.260223 0.350983 0.044098
0.301331 0.366089 0.057373
0.340759 0.378479 0.064941
0.378540 0.388123 0.069183
0.413361 0.394745 0.071228
0.447021 0.400696 0.073792
0.478821 0.405914 0.076752
0.513367 0.411102 0.079529
0.543488 0.416748 0.081635
0.573181 0.421967 0.083771
0.607361 0.423523 0.088928
0.641449 0.425781 0.096375
0.674591 0.429993 0.104675
0.707977 0.435608 0.114899
0.740509 0.441620 0.126801
0.772888 0.449097 0.139984
0.804504 0.458588 0.155273
0.830475 0.469574 0.173248
0.855011 0.471161 0.175903
0.875458 0.476166 0.185822
0.894257 0.483337 0.198517
0.913086 0.487885 0.206024
0.000000 0.243317 0.000000
0.000000 0.244751 0.000000
0.000000 0.245728 0.000000
0.000000 0.246246 0.000000
0.000000 0.246918 0.000000
0.000000 0.252594 0.000000
0.006622 0.263916 0.000000
0.023010 0.274658 0.000000
0.070343 0.288116 0.003387
0.136536 0.312683 0.006592
0.196075 0.339417 0.010010
0.245026 0.363525 0.018005
0.290680 0.383087 0.049530
0.332733 0.397980 0.062775
0.372101 0.409241 0.069183
0.409485 0.418060 0.072876
0.444733 0.425568 0.075653
0.478668 0.432251 0.079407
0.515594 0.437988 0.082367
0.547150 0.443451 0.085083
0.578033 0.449860 0.087830
0.609894 0.455811 0.092957
0.645355 0.457825 0.101257
0.677917 0.462158 0.109283
0.710449 0.467682 0.119354
0.743225 0.473480 0.131287
0.776489 0.480927 0.144745
0.808350 0.489410 0.159515
0.838196 0.501343 0.174164
0.859528 0.504852 0.180115
0.879761 0.509796 0.191528
0.898163 0.515900 0.204285
0.917053 0.520203 0.211456
0.000000 0.258942 0.000000
0.000000 0.260162 0.000000
0.000000 0.261292 0.000000
0.000000 0.261963 0.000000
0.000000 0.262299 0.000000
0.000000 0.265381 0.000000
0.001648 0.276611 0.000000
0.016083 0.287964 0.000000
0.035004 0.298828 0.003448
0.109009 0.319794 0.006134
0.176880 0.347321 0.009399
0.228851 0.373901 0.013214
0.278076 0.397858 0.020325
0.323730 0.415985 0.054901
0.365662 0.429749 0.067566
0.404480 0.440369 0.073242
0.441650 0.449615 0.077393
0.477661 0.458282 0.081421
0.516266 0.464966 0.085297
0.550903 0.470886 0.088501
0.582336 0.477295 0.092163
0.614044 0.484711 0.097382
0.647766 0.490112 0.104858
0.682404 0.493591 0.114685
0.713898 0.502869 0.124481
0.746002 0.508545 0.135254
0.779327 0.515808 0.148285
0.811340 0.523895 0.163666
0.842651 0.531006 0.176361
0.863739 0.535309 0.185760
0.883423 0.539368 0.197266
0.901917 0.543884 0.208984
0.920776 0.548615 0.217377
0.000000 0.274200 0.000000
0.000000 0.275391 0.000000
0.000000 0.276337 0.000000
0.000000 0.277039 0.000000
0.000000 0.277405 0.000000
0.000000 0.279236 0.000000
0.000000 0.288910 0.000000
0.011383 0.301025 0.000000
0.028229 0.312714 0.001984
0.076263 0.326569 0.005493
0.150177 0.354462 0.008728
0.212006 0.383392 0.012634
0.265076 0.410339 0.019104
0.313446 0.432281 0.045868
0.357178 0.448608 0.063354
0.397888 0.461578 0.072083
0.436829 0.472656 0.078156
0.474884 0.482605 0.083191
0.515991 0.491699 0.087952
0.551727 0.502228 0.092133
0.585480 0.508728 0.096588
0.617981 0.516754 0.102142
0.650421 0.523956 0.108643
0.684174 0.529785 0.118500
0.717926 0.533844 0.130096
0.750122 0.539368 0.140503
0.782257 0.546143 0.152496
0.813507 0.553864 0.167236
0.846100 0.561584 0.181641
0.867462 0.565216 0.191528
0.886810 0.568024 0.202728
0.905701 0.572174 0.214233
0.924530 0.576447 0.222656
0.000000 0.289215 0.000000
0.000000 0.290161 0.000000
0.000000 0.291229 0.000000
0.000000 0.292114 0.000000
0.000000 0.292694 0.000000
0.000000 0.294556 0.000000
0.000000 0.301300 0.000000
0.007385 0.313873 0.000000
0.023529 0.326630 0.001648
0.052185 0.339844 0.005066
0.125214 0.360687 0.008209
0.194580 0.392487 0.012268
0.251526 0.422363 0.016479
0.301575 0.446808 0.030029
0.346680 0.466003 0.055084
0.389404 0.481689 0.068878
0.430420 0.494446 0.077301
0.470612 0.509705 0.083923
0.513824 0.519836 0.089600
0.551086 0.528900 0.095032
0.586456 0.536133 0.100250
0.620819 0.543243 0.106293
0.653839 0.552582 0.113647
0.685974 0.559723 0.122742
0.720825 0.564606 0.135406
0.754364 0.569946 0.147125
0.786102 0.576538 0.159424
0.816254 0.583771 0.172821
0.849701 0.592041 0.188110
0.870056 0.595062 0.197510
0.890137 0.596649 0.208557
0.909302 0.600861 0.220581
0.927673 0.603790 0.227600
0.000000 0.303802 0.000000
0.000000 0.304993 0.000000
0.000000 0.306458 0.000000
0.000000 0.307617 0.000000
0.000000 0.308472 0.000000
0.000000 0.309662 0.000000
0.000000 0.313965 0.000000
0.003815 0.326843 0.000000
0.019012 0.340424 0.002380
0.036987 0.353271 0.006042
0.096741 0.370270 0.008148
0.177948 0.400787 0.012024
0.237244 0.432709 0.016327
0.288696 0.459595 0.020721
0.336060 0.481995 0.037140
0.380493 0.504150 0.062805
0.423157 0.519684 0.074982
0.465576 0.532135 0.083435
0.510803 0.543365 0.090698
0.549377 0.553101 0.096985
0.586121 0.562378 0.103607
0.621490 0.570587 0.110199
0.656738 0.578979 0.118622
0.689423 0.588806 0.128326
0.723114 0.595306 0.140472
0.757202 0.600098 0.153717
0.789368 0.606934 0.166931
0.819672 0.614014 0.180481
0.853058 0.621582 0.195770
0.873505 0.625183 0.206177
0.892731 0.625427 0.213989
0.912140 0.628296 0.225037
0.930389 0.630463 0.231140
0.000000 0.318573 0.000000
0.000000 0.320221 0.000000
0.000000 0.321960 0.000000
0.000000 0.323181 0.000000
0.000000 0.324249 0.000000
0.000000 0.325195 0.000000
0.000000 0.329529 0.000000
0.000549 0.340027 0.001831
0.014923 0.353699 0.004852
0.032196 0.366913 0.008453
0.073639 0.381012 0.009216
0.156921 0.409454 0.011536
0.222870 0.441895 0.015961
0.275635 0.471375 0.020660
0.324890 0.498962 0.025177
0.371643 0.521912 0.044678
0.415436 0.539215 0.070007
0.459412 0.554535 0.082031
0.506409 0.566711 0.091125
0.545959 0.576874 0.098450
0.584351 0.587402 0.106354
0.621277 0.597961 0.114899
0.657288 0.607117 0.123688
0.693329 0.616791 0.134583
0.726166 0.624268 0.145844
0.759521 0.630249 0.159546
0.791931 0.636871 0.173981
0.822174 0.643982 0.187897
0.855225 0.650848 0.203339
0.877594 0.655090 0.215759
0.896179 0.654541 0.223206
0.914337 0.655426 0.230072
0.932861 0.657135 0.235321
0.000000 0.333496 0.001495
0.000000 0.335266 0.001770
0.000000 0.336853 0.002136
0.000000 0.338135 0.002686
0.000000 0.339325 0.002777
0.000000 0.340240 0.002899
0.000000 0.343414 0.003296
0.000000 0.352295 0.005066
0.011475 0.366150 0.008514
0.028259 0.379974 0.011963
0.053284 0.393066 0.009796
0.139313 0.417572 0.010956
0.208313 0.450836 0.015747
0.262573 0.482727 0.020721
0.313690 0.514618 0.025482
0.361389 0.537964 0.030365
0.407471 0.558075 0.053528
0.452057 0.574951 0.078766
0.497742 0.589569 0.090607
0.541718 0.601379 0.100037
0.581482 0.612366 0.109009
0.619415 0.623322 0.118347
0.657562 0.634216 0.128967
0.693420 0.643555 0.139282
0.727600 0.652649 0.150543
0.760956 0.658752 0.164459
0.792816 0.665070 0.179016
0.823700 0.672394 0.194275
0.856934 0.679077 0.210388
0.881165 0.683594 0.225067
0.899750 0.683472 0.234070
0.917023 0.683350 0.239655
0.935120 0.683807 0.242401
0.000000 0.348633 0.006378
0.000000 0.350342 0.006775
0.000000 0.351746 0.007050
0.000000 0.352936 0.007721
0.000000 0.354095 0.007782
0.000000 0.355164 0.007996
0.000000 0.356079 0.008118
0.000000 0.364258 0.009949
0.008423 0.378326 0.013275
0.024689 0.392426 0.016266
0.043610 0.406250 0.015045
0.116333 0.427155 0.010864
0.193695 0.459961 0.015686
0.251282 0.493958 0.020874
0.302399 0.527893 0.025970
0.351105 0.553406 0.031128
0.399231 0.576202 0.041901
0.445648 0.595520 0.069580
0.489990 0.611542 0.088806
0.536438 0.625000 0.100220
0.578278 0.636597 0.110901
0.617767 0.648224 0.121704
0.655640 0.658966 0.132507
0.692657 0.669006 0.143799
0.725983 0.677826 0.153961
0.760803 0.686005 0.167084
0.793182 0.692383 0.183075
0.824707 0.699524 0.199738
0.858032 0.705811 0.216614
0.883942 0.710876 0.233795
0.903168 0.711609 0.244904
0.919617 0.710510 0.252533
0.937347 0.710327 0.255951
0.000000 0.362946 0.011810
0.000000 0.364563 0.012817
0.000000 0.366211 0.012970
0.000000 0.367279 0.013336
0.000000 0.368439 0.013397
0.000000 0.369720 0.013641
0.000000 0.370575 0.013916
0.000000 0.376770 0.015381
0.005188 0.389862 0.018097
0.021027 0.404510 0.021545
0.039673 0.419281 0.021027
0.086334 0.435852 0.010559
0.177948 0.468994 0.015625
0.238708 0.507660 0.020966
0.290375 0.539215 0.026520
0.339844 0.567322 0.032043
0.390839 0.593445 0.038879
0.438324 0.615143 0.059906
0.482880 0.632355 0.083099
0.529633 0.646667 0.098083
0.571442 0.659180 0.110199
0.613220 0.670715 0.122284
0.652557 0.681519 0.134460
0.690369 0.692383 0.146851
0.724731 0.702209 0.158112
0.759033 0.711487 0.170807
0.795349 0.718353 0.187988
0.826141 0.725281 0.204987
0.859619 0.731964 0.222839
0.885773 0.736877 0.240875
0.906677 0.738861 0.259613
0.922333 0.736938 0.263947
0.939484 0.735443 0.265778
0.000000 0.376678 0.017639
0.000000 0.378448 0.018799
0.000000 0.380249 0.019562
0.000000 0.381714 0.019653
0.000000 0.382812 0.019653
0.000000 0.384338 0.019958
0.000000 0.385406 0.020294
0.000000 0.389923 0.021332
0.002411 0.402252 0.023529
0.017639 0.417114 0.026733
0.035767 0.432800 0.030304
0.073364 0.448212 0.021393
0.156281 0.476959 0.015503
0.227997 0.518463 0.021271
0.280762 0.552032 0.027191
0.331818 0.582397 0.033142
0.382629 0.609497 0.038971
0.430176 0.632660 0.049622
0.474915 0.651581 0.073547
0.521942 0.667358 0.093231
0.563812 0.680267 0.107819
0.605927 0.692352 0.121063
0.647827 0.703827 0.134735
0.687561 0.715118 0.149475
0.723297 0.725372 0.162354
0.758575 0.735260 0.175995
0.796295 0.743011 0.193115
0.829742 0.750488 0.211212
0.861572 0.757843 0.229004
0.888184 0.763275 0.249969
0.909119 0.765106 0.267822
0.925201 0.763000 0.274628
0.941315 0.760040 0.275238
0.000000 0.391388 0.024170
0.000000 0.393250 0.025299
0.000000 0.394775 0.026031
0.000000 0.396393 0.026459
0.000000 0.398163 0.026642
0.000000 0.399475 0.026978
0.000000 0.400848 0.027466
0.000000 0.403381 0.028015
0.000214 0.415619 0.030273
0.014618 0.430359 0.032806
0.032318 0.446228 0.036743
0.052551 0.459381 0.027344
0.138641 0.487335 0.016998
0.217896 0.529633 0.021790
0.273682 0.565491 0.027954
0.324188 0.597809 0.034088
0.373566 0.625458 0.040161
0.420166 0.648926 0.045807
0.465546 0.669342 0.058533
0.513306 0.686615 0.084991
0.556488 0.701538 0.104248
