Kodak Vision 250D (5246) - Only color.cube
# Created by Benjamin (IWLTBAP) : http://luts.iwltbap.com
# Copyright: (C) Copyright 2010-2017 Triune Films and IWLTBAP SAS
# Cannot be resold, shared or otherwise redistributed
TITLE "Film Print Emulation LUTs Pack (Rec.709, sRGB, DCI-P3)"
LUT_3D_SIZE 5
0.000000 0.001617 0.001038
0.324768 0.000000 0.000000
0.572266 0.000000 0.000000
0.819427 0.000000 0.000000
1.000000 0.000000 0.000000
0.000000 0.196136 0.045746
0.318634 0.295868 0.018433
0.572266 0.305023 0.000000
0.819641 0.304993 0.000000
1.000000 0.304993 0.000000
0.049438 0.359375 0.102753
0.372040 0.448608 0.215698
0.573914 0.553070 0.089661
0.820129 0.568176 0.000000
1.000000 0.567932 0.000000
0.078613 0.487335 0.137756
0.321136 0.531464 0.202972
0.531952 0.619293 0.280914
0.809967 0.787201 0.116547
1.000000 0.824463 0.000000
0.088837 0.593628 0.160706
0.295593 0.629913 0.203522
0.522125 0.705109 0.300171
0.790283 0.876587 0.297089
1.000000 0.997894 0.125671
0.020966 0.017639 0.182648
0.172577 0.014374 0.192688
0.572083 0.000000 0.301636
0.819427 0.000000 0.301910
1.000000 0.000000 0.302002
0.009552 0.224579 0.264648
0.153107 0.285370 0.312439
0.572083 0.304840 0.301971
0.819611 0.304810 0.302002
0.999847 0.304810 0.301910
0.000000 0.399780 0.311462
0.117981 0.434357 0.314697
0.551636 0.547272 0.337402
0.820099 0.567566 0.302460
0.999817 0.567322 0.302551
0.000000 0.523132 0.332031
0.133240 0.547455 0.336365
0.487183 0.618774 0.396332
0.799286 0.792145 0.376251
0.999847 0.825348 0.310364
0.000000 0.648346 0.358795
0.138062 0.674713 0.370026
0.430267 0.724335 0.403198
0.768219 0.882904 0.461639
0.999573 0.999420 0.391968
0.039612 0.040314 0.312317
0.154297 0.037476 0.303467
0.368530 0.065491 0.354675
0.728485 0.011688 0.513672
1.000000 0.000000 0.563049
0.037964 0.242889 0.413696
0.137207 0.273956 0.443024
0.422882 0.321167 0.486938
0.766724 0.330414 0.539673
0.999878 0.305206 0.562378
0.034393 0.426453 0.481293
0.140594 0.456940 0.500519
0.413025 0.536896 0.551086
0.794250 0.575592 0.565948
0.999817 0.567261 0.562042
0.025970 0.587646 0.532410
0.128937 0.608154 0.533447
0.402374 0.679108 0.560516
0.791443 0.795837 0.581329
0.999664 0.826996 0.563782
0.016144 0.727325 0.552795
0.151764 0.739014 0.547913
0.319519 0.783081 0.571991
0.739258 0.892181 0.606567
0.999390 0.999176 0.605438
0.049622 0.054962 0.430847
0.156952 0.046906 0.420044
0.323273 0.080383 0.425171
0.525208 0.131622 0.516846
0.868042 0.068329 0.689880
0.053833 0.259033 0.522949
0.158905 0.276917 0.534668
0.328308 0.297211 0.548676
0.606720 0.370697 0.602661
0.904694 0.334778 0.721283
0.037079 0.437714 0.590820
0.150391 0.458466 0.603699
0.313446 0.520203 0.668640
0.683228 0.576111 0.717560
0.978394 0.566559 0.762177
0.046539 0.605011 0.666168
0.149475 0.635620 0.683411
0.396759 0.697388 0.726074
0.711090 0.766083 0.769135
0.999420 0.810822 0.798737
0.038208 0.762451 0.710297
0.166138 0.794952 0.725037
0.422119 0.837982 0.752136
0.698334 0.914734 0.792419
0.999023 0.998749 0.838470
0.056030 0.064301 0.523590
0.159637 0.051849 0.511841
0.321777 0.081146 0.516663
0.476654 0.153015 0.555084
0.683746 0.168274 0.660370
0.063385 0.265228 0.620575
0.169373 0.276550 0.632416
0.314819 0.281494 0.637085
0.528625 0.342346 0.637054
0.754242 0.376129 0.730347
0.032074 0.444244 0.710114
0.158813 0.462311 0.721741
0.316711 0.515106 0.774933
0.610870 0.555115 0.800140
0.862152 0.592285 0.833191
0.046906 0.600861 0.769501
0.161102 0.627838 0.784027
0.326996 0.692322 0.836273
0.645691 0.760712 0.890686
0.949036 0.806549 0.917908
0.048767 0.762421 0.816315
0.160950 0.805878 0.845154
0.428772 0.856995 0.883698
0.702881 0.913208 0.923126
0.998749 0.998474 0.997040
