Kodak Vision3 200T (5213) - Only contrast.cube
# Created by Benjamin (IWLTBAP) : http://luts.iwltbap.com
# Copyright: (C) Copyright 2010-2017 Triune Films and IWLTBAP SAS
# Cannot be resold, shared or otherwise redistributed
TITLE "Film Print Emulation LUTs Pack (Rec.709, sRGB, DCI-P3)"
LUT_3D_SIZE 9
0.000793 0.000793 0.000793
0.078705 0.000702 0.000702
0.182434 0.000427 0.000427
0.312927 0.000000 0.000000
0.490082 0.000000 0.000000
0.642059 0.000000 0.000000
0.764160 0.000000 0.000000
0.879852 0.000000 0.000000
0.974304 0.000000 0.000000
0.000702 0.078705 0.000702
0.078857 0.078857 0.000610
0.182648 0.078857 0.000336
0.313477 0.078674 0.000000
0.490692 0.078156 0.000000
0.642456 0.077820 0.000000
0.764374 0.077698 0.000000
0.880066 0.077606 0.000000
0.974365 0.077667 0.000000
0.000427 0.182434 0.000427
0.078857 0.182648 0.000336
0.182709 0.182709 0.000061
0.313873 0.182587 0.000000
0.491119 0.182159 0.000000
0.642670 0.181946 0.000000
0.764404 0.181885 0.000000
0.880157 0.181885 0.000000
0.974274 0.182037 0.000000
0.000000 0.312927 0.000000
0.078674 0.313477 0.000000
0.182587 0.313873 0.000000
0.314087 0.314087 0.000000
0.491333 0.313995 0.000000
0.642700 0.314087 0.000000
0.764252 0.314392 0.000000
0.880035 0.314728 0.000000
0.973969 0.315216 0.000000
0.000000 0.490082 0.000000
0.078156 0.490692 0.000000
0.182159 0.491119 0.000000
0.313995 0.491333 0.000000
0.491241 0.491241 0.000000
0.642395 0.491364 0.000000
0.763794 0.491669 0.000000
0.879578 0.492004 0.000000
0.973389 0.492493 0.000000
0.000000 0.642059 0.000000
0.077820 0.642456 0.000000
0.181946 0.642670 0.000000
0.314087 0.642700 0.000000
0.491364 0.642395 0.000000
0.642303 0.642303 0.000000
0.763519 0.642395 0.000000
0.879333 0.642517 0.000000
0.972961 0.642822 0.000000
0.000000 0.764160 0.000000
0.077698 0.764374 0.000000
0.181885 0.764404 0.000000
0.314392 0.764252 0.000000
0.491669 0.763794 0.000000
0.642395 0.763519 0.000000
0.763458 0.763458 0.000000
0.879303 0.763458 0.000000
0.972748 0.763580 0.000000
0.000000 0.879852 0.000000
0.077606 0.880066 0.000000
0.181885 0.880157 0.000000
0.314728 0.880035 0.000000
0.492004 0.879578 0.000000
0.642517 0.879333 0.000000
0.763458 0.879303 0.000000
0.879272 0.879272 0.000000
0.972565 0.879425 0.000000
0.000000 0.974304 0.000000
0.077667 0.974365 0.000000
0.182037 0.974274 0.000000
0.315216 0.973969 0.000000
0.492493 0.973389 0.000000
0.642822 0.972961 0.000000
0.763580 0.972748 0.000000
0.879425 0.972565 0.000000
0.972595 0.972473 0.006195
0.000702 0.000702 0.078705
0.078857 0.000610 0.078857
0.182648 0.000336 0.078857
0.313477 0.000000 0.078674
0.490692 0.000000 0.078156
0.642456 0.000000 0.077820
0.764374 0.000000 0.077698
0.880066 0.000000 0.077606
0.974365 0.000000 0.077667
0.000610 0.078857 0.078857
0.079041 0.079041 0.079041
0.182892 0.079010 0.079010
0.314056 0.078827 0.078827
0.491272 0.078308 0.078308
0.642822 0.077972 0.077972
0.764557 0.077850 0.077850
0.880310 0.077759 0.077759
0.974426 0.077820 0.077820
0.000336 0.182648 0.078857
0.079010 0.182892 0.079010
0.182953 0.182953 0.079010
0.314453 0.182831 0.078827
0.491699 0.182434 0.078308
0.643066 0.182190 0.077972
0.764618 0.182129 0.077820
0.880371 0.182129 0.077728
0.974335 0.182281 0.077789
0.000000 0.313477 0.078674
0.078827 0.314056 0.078827
0.182831 0.314453 0.078827
0.314667 0.314667 0.078613
0.491913 0.314575 0.078094
0.643066 0.314667 0.077759
0.764465 0.314972 0.077606
0.880249 0.315308 0.077515
0.974030 0.315796 0.077576
0.000000 0.490692 0.078156
0.078308 0.491272 0.078308
0.182434 0.491699 0.078308
0.314575 0.491913 0.078094
0.491821 0.491821 0.077576
0.642792 0.491943 0.077240
0.764008 0.492249 0.077087
0.879822 0.492584 0.076996
0.973450 0.493103 0.077057
0.000000 0.642456 0.077820
0.077972 0.642822 0.077972
0.182190 0.643066 0.077972
0.314667 0.643066 0.077759
0.491943 0.642792 0.077240
0.642670 0.642670 0.076904
0.763733 0.642761 0.076782
0.879547 0.642914 0.076691
0.973022 0.643188 0.076752
0.000000 0.764374 0.077698
0.077850 0.764557 0.077850
0.182129 0.764618 0.077820
0.314972 0.764465 0.077606
0.492249 0.764008 0.077087
0.642761 0.763733 0.076782
0.763672 0.763672 0.076630
0.879517 0.763672 0.076569
0.972809 0.763824 0.076630
0.000000 0.880066 0.077606
0.077759 0.880310 0.077759
0.182129 0.880371 0.077728
0.315308 0.880249 0.077515
0.492584 0.879822 0.076996
0.642914 0.879547 0.076691
0.763672 0.879517 0.076569
0.879517 0.879517 0.076477
0.972626 0.879639 0.076538
0.000000 0.974365 0.077667
0.077820 0.974426 0.077820
0.182281 0.974335 0.077789
0.315796 0.974030 0.077576
0.493103 0.973450 0.077057
0.643188 0.973022 0.076752
0.763824 0.972809 0.076630
0.879639 0.972626 0.076538
0.972626 0.972626 0.076599
0.000427 0.000427 0.182434
0.078857 0.000336 0.182648
0.182709 0.000061 0.182709
0.313873 0.000000 0.182587
0.491119 0.000000 0.182159
0.642670 0.000000 0.181946
0.764404 0.000000 0.181885
0.880157 0.000000 0.181885
0.974274 0.000000 0.182037
0.000336 0.078857 0.182648
0.079010 0.079010 0.182892
0.182953 0.079010 0.182953
0.314453 0.078827 0.182831
0.491699 0.078308 0.182434
0.643066 0.077972 0.182190
0.764618 0.077820 0.182129
0.880371 0.077728 0.182129
0.974335 0.077789 0.182281
0.000061 0.182709 0.182709
0.079010 0.182953 0.182953
0.183044 0.183044 0.183044
0.314850 0.182922 0.182922
0.492126 0.182495 0.182495
0.643280 0.182251 0.182251
0.764648 0.182220 0.182220
0.880463 0.182220 0.182220
0.974243 0.182373 0.182373
0.000000 0.313873 0.182587
0.078827 0.314453 0.182831
0.182922 0.314850 0.182922
0.315063 0.315063 0.182800
0.492340 0.314972 0.182373
0.643280 0.315063 0.182129
0.764496 0.315369 0.182098
0.880310 0.315704 0.182098
0.973938 0.316193 0.182251
0.000000 0.491119 0.182159
0.078308 0.491699 0.182434
0.182495 0.492126 0.182495
0.314972 0.492340 0.182373
0.492249 0.492249 0.181946
0.642975 0.492371 0.181732
0.764069 0.492676 0.181671
0.879883 0.493011 0.181671
0.973328 0.493530 0.181824
0.000000 0.642670 0.181946
0.077972 0.643066 0.182190
0.182251 0.643280 0.182251
0.315063 0.643280 0.182129
0.492371 0.642975 0.181732
0.642883 0.642883 0.181488
0.763794 0.642975 0.181458
0.879639 0.643097 0.181458
0.972931 0.643402 0.181610
0.000000 0.764404 0.181885
0.077820 0.764618 0.182129
0.182220 0.764648 0.182220
0.315369 0.764496 0.182098
0.492676 0.764069 0.181671
0.642975 0.763794 0.181458
0.763733 0.763733 0.181396
0.879578 0.763733 0.181396
0.972717 0.763885 0.181580
0.000000 0.880157 0.181885
0.077728 0.880371 0.182129
0.182220 0.880463 0.182220
0.315704 0.880310 0.182098
0.493011 0.879883 0.181671
0.643097 0.879639 0.181458
0.763733 0.879578 0.181396
0.879578 0.879578 0.181427
0.972534 0.879700 0.181580
0.000000 0.974274 0.182037
0.077789 0.974335 0.182281
0.182373 0.974243 0.182373
0.316193 0.973938 0.182251
0.493530 0.973328 0.181824
0.643402 0.972931 0.181610
0.763885 0.972717 0.181580
0.879700 0.972534 0.181580
0.972504 0.972504 0.181732
0.000000 0.000000 0.312927
0.078674 0.000000 0.313477
0.182587 0.000000 0.313873
0.314087 0.000000 0.314087
0.491333 0.000000 0.313995
0.642700 0.000000 0.314087
0.764252 0.000000 0.314392
0.880035 0.000000 0.314728
0.973969 0.000000 0.315216
0.000000 0.078674 0.313477
0.078827 0.078827 0.314056
0.182831 0.078827 0.314453
0.314667 0.078613 0.314667
0.491913 0.078094 0.314575
0.643066 0.077759 0.314667
0.764465 0.077606 0.314972
0.880249 0.077515 0.315308
0.974030 0.077576 0.315796
0.000000 0.182587 0.313873
0.078827 0.182831 0.314453
0.182922 0.182922 0.314850
0.315063 0.182800 0.315063
0.492340 0.182373 0.314972
0.643280 0.182129 0.315063
0.764496 0.182098 0.315369
0.880310 0.182098 0.315704
0.973938 0.182251 0.316193
0.000000 0.314087 0.314087
0.078613 0.314667 0.314667
0.182800 0.315063 0.315063
0.315277 0.315277 0.315277
0.492554 0.315186 0.315186
0.643280 0.315277 0.315277
0.764343 0.315582 0.315582
0.880157 0.315918 0.315918
0.973633 0.316406 0.316406
0.000000 0.491333 0.313995
0.078094 0.491913 0.314575
0.182373 0.492340 0.314972
0.315186 0.492554 0.315186
0.492493 0.492493 0.315094
0.643005 0.492584 0.315186
0.763916 0.492889 0.315491
0.879730 0.493256 0.315826
0.973022 0.493744 0.316345
0.000000 0.642700 0.314087
0.077759 0.643066 0.314667
0.182129 0.643280 0.315063
0.315277 0.643280 0.315277
0.492584 0.643005 0.315186
0.642883 0.642883 0.315308
0.763641 0.642975 0.315613
0.879486 0.643097 0.315948
0.972595 0.643402 0.316437
0.000000 0.764252 0.314392
0.077606 0.764465 0.314972
0.182098 0.764496 0.315369
0.315582 0.764343 0.315582
0.492889 0.763916 0.315491
0.642975 0.763641 0.315613
0.763611 0.763611 0.315918
0.879425 0.763580 0.316254
0.972412 0.763733 0.316772
0.000000 0.880035 0.314728
0.077515 0.880249 0.315308
0.182098 0.880310 0.315704
0.315918 0.880157 0.315918
0.493256 0.879730 0.315826
0.643097 0.879486 0.315948
0.763580 0.879425 0.316254
0.879425 0.879425 0.316589
0.972229 0.879547 0.317108
0.000000 0.973969 0.315216
0.077576 0.974030 0.315796
0.182251 0.973938 0.316193
0.316406 0.973633 0.316406
0.493744 0.973022 0.316345
0.643402 0.972595 0.316437
0.763733 0.972412 0.316772
0.879547 0.972229 0.317108
0.972198 0.972198 0.317627
0.000000 0.000000 0.490082
0.078156 0.000000 0.490692
0.182159 0.000000 0.491119
0.313995 0.000000 0.491333
0.491241 0.000000 0.491241
0.642395 0.000000 0.491364
0.763794 0.000000 0.491669
0.879578 0.000000 0.492004
0.973389 0.000000 0.492493
0.000000 0.078156 0.490692
0.078308 0.078308 0.491272
0.182434 0.078308 0.491699
0.314575 0.078094 0.491913
0.491821 0.077576 0.491821
0.642792 0.077240 0.491943
0.764008 0.077087 0.492249
0.879822 0.076996 0.492584
0.973450 0.077057 0.493103
0.000000 0.182159 0.491119
0.078308 0.182434 0.491699
0.182495 0.182495 0.492126
0.314972 0.182373 0.492340
0.492249 0.181946 0.492249
0.642975 0.181732 0.492371
0.764069 0.181671 0.492676
0.879883 0.181671 0.493011
0.973328 0.181824 0.493530
0.000000 0.313995 0.491333
0.078094 0.314575 0.491913
0.182373 0.314972 0.492340
0.315186 0.315186 0.492554
0.492493 0.315094 0.492493
0.643005 0.315186 0.492584
0.763916 0.315491 0.492889
0.879730 0.315826 0.493256
0.973022 0.316345 0.493744
0.000000 0.491241 0.491241
0.077576 0.491821 0.491821
0.181946 0.492249 0.492249
0.315094 0.492493 0.492493
0.492401 0.492401 0.492401
0.642700 0.492523 0.492523
0.763458 0.492828 0.492828
0.879303 0.493164 0.493164
0.972412 0.493683 0.493683
0.000000 0.642395 0.491364
0.077240 0.642792 0.491943
0.181732 0.642975 0.492371
0.315186 0.643005 0.492584
0.492523 0.642700 0.492523
0.642578 0.642578 0.492615
0.763214 0.642700 0.492950
0.879028 0.642822 0.493286
0.972015 0.643097 0.493805
0.000000 0.763794 0.491669
0.077087 0.764008 0.492249
0.181671 0.764069 0.492676
0.315491 0.763916 0.492889
0.492828 0.763458 0.492828
0.642700 0.763214 0.492950
0.763153 0.763153 0.493256
0.878998 0.763153 0.493622
0.971802 0.763336 0.494110
0.000000 0.879578 0.492004
0.076996 0.879822 0.492584
0.181671 0.879883 0.493011
0.315826 0.879730 0.493256
0.493164 0.879303 0.493164
0.642822 0.879028 0.493286
0.763153 0.878998 0.493622
0.878967 0.878967 0.493958
0.971619 0.879120 0.494476
0.000000 0.973389 0.492493
0.077057 0.973450 0.493103
0.181824 0.973328 0.493530
0.316345 0.973022 0.493744
0.493683 0.972412 0.493683
0.643097 0.972015 0.493805
0.763336 0.971802 0.494110
0.879120 0.971619 0.494476
0.971588 0.971588 0.494995
0.000000 0.000000 0.642059
0.077820 0.000000 0.642456
0.181946 0.000000 0.642670
0.314087 0.000000 0.642700
0.491364 0.000000 0.642395
0.642303 0.000000 0.642303
0.763519 0.000000 0.642395
0.879333 0.000000 0.642517
0.972961 0.000000 0.642822
0.000000 0.077820 0.642456
0.077972 0.077972 0.642822
0.182190 0.077972 0.643066
0.314667 0.077759 0.643066
0.491943 0.077240 0.642792
0.642670 0.076904 0.642670
0.763733 0.076782 0.642761
0.879547 0.076691 0.642914
0.973022 0.076752 0.643188
0.000000 0.181946 0.642670
0.077972 0.182190 0.643066
0.182251 0.182251 0.643280
0.315063 0.182129 0.643280
0.492371 0.181732 0.642975
0.642883 0.181488 0.642883
0.763794 0.181458 0.642975
0.879639 0.181458 0.643097
0.972931 0.181610 0.643402
0.000000 0.314087 0.642700
0.077759 0.314667 0.643066
0.182129 0.315063 0.643280
0.315277 0.315277 0.643280
0.492584 0.315186 0.643005
0.642883 0.315308 0.642883
0.763641 0.315613 0.642975
0.879486 0.315948 0.643097
0.972595 0.316437 0.643402
0.000000 0.491364 0.642395
0.077240 0.491943 0.642792
0.181732 0.492371 0.642975
0.315186 0.492584 0.643005
0.492523 0.492523 0.642700
0.642578 0.492615 0.642578
0.763214 0.492950 0.642700
0.879028 0.493286 0.642822
0.972015 0.493805 0.643097
0.000000 0.642303 0.642303
0.076904 0.642670 0.642670
0.181488 0.642883 0.642883
0.315308 0.642883 0.642883
0.492615 0.642578 0.642578
0.642487 0.642487 0.642487
0.762970 0.642578 0.642578
0.878784 0.642700 0.642700
0.971588 0.643005 0.643005
0.000000 0.763519 0.642395
0.076782 0.763733 0.642761
0.181458 0.763794 0.642975
0.315613 0.763641 0.642975
0.492950 0.763214 0.642700
0.642578 0.762970 0.642578
0.762939 0.762939 0.642670
0.878754 0.762939 0.642822
0.971375 0.763092 0.643097
0.000000 0.879333 0.642517
0.076691 0.879547 0.642914
0.181458 0.879639 0.643097
0.315948 0.879486 0.643097
0.493286 0.879028 0.642822
0.642700 0.878784 0.642700
0.762939 0.878754 0.642822
0.878723 0.878723 0.642944
0.971191 0.878876 0.643219
0.000000 0.972961 0.642822
0.076752 0.973022 0.643188
0.181610 0.972931 0.643402
0.316437 0.972595 0.643402
0.493805 0.972015 0.643097
0.643005 0.971588 0.643005
0.763092 0.971375 0.643097
0.878876 0.971191 0.643219
0.971191 0.971191 0.643524
0.000000 0.000000 0.764160
0.077698 0.000000 0.764374
0.181885 0.000000 0.764404
0.314392 0.000000 0.764252
0.491669 0.000000 0.763794
0.642395 0.000000 0.763519
0.763458 0.000000 0.763458
0.879303 0.000000 0.763458
0.972748 0.000000 0.763580
0.000000 0.077698 0.764374
0.077850 0.077850 0.764557
0.182129 0.077820 0.764618
0.314972 0.077606 0.764465
0.492249 0.077087 0.764008
0.642761 0.076782 0.763733
0.763672 0.076630 0.763672
0.879517 0.076569 0.763672
0.972809 0.076630 0.763824
0.000000 0.181885 0.764404
0.077820 0.182129 0.764618
0.182220 0.182220 0.764648
0.315369 0.182098 0.764496
0.492676 0.181671 0.764069
0.642975 0.181458 0.763794
0.763733 0.181396 0.763733
0.879578 0.181396 0.763733
0.972717 0.181580 0.763885
0.000000 0.314392 0.764252
0.077606 0.314972 0.764465
0.182098 0.315369 0.764496
0.315582 0.315582 0.764343
0.492889 0.315491 0.763916
0.642975 0.315613 0.763641
0.763611 0.315918 0.763611
0.879425 0.316254 0.763580
0.972412 0.316772 0.763733
0.000000 0.491669 0.763794
0.077087 0.492249 0.764008
0.181671 0.492676 0.764069
0.315491 0.492889 0.763916
0.492828 0.492828 0.763458
0.642700 0.492950 0.763214
0.763153 0.493256 0.763153
0.878998 0.493622 0.763153
0.971802 0.494110 0.763336
0.000000 0.642395 0.763519
0.076782 0.642761 0.763733
0.181458 0.642975 0.763794
0.315613 0.642975 0.763641
0.492950 0.642700 0.763214
0.642578 0.642578 0.762970
0.762939 0.642670 0.762939
0.878754 0.642822 0.762939
0.971375 0.643097 0.763092
0.000000 0.763458 0.763458
0.076630 0.763672 0.763672
0.181396 0.763733 0.763733
0.315918 0.763611 0.763611
0.493256 0.763153 0.763153
0.642670 0.762939 0.762939
0.762909 0.762909 0.762909
0.878693 0.762909 0.762909
0.971191 0.763092 0.763092
0.000000 0.879303 0.763458
0.076569 0.879517 0.763672
0.181396 0.879578 0.763733
0.316254 0.879425 0.763580
0.493622 0.878998 0.763153
0.642822 0.878754 0.762939
0.762909 0.878693 0.762909
0.878693 0.878693 0.762909
0.971008 0.878845 0.763092
0.000000 0.972748 0.763580
0.076630 0.972809 0.763824
0.181580 0.972717 0.763885
0.316772 0.972412 0.763733
0.494110 0.971802 0.763336
0.643097 0.971375 0.763092
0.763092 0.971191 0.763092
0.878845 0.971008 0.763092
0.970978 0.970978 0.763245
0.000000 0.000000 0.879852
0.077606 0.000000 0.880066
0.181885 0.000000 0.880157
0.314728 0.000000 0.880035
0.492004 0.000000 0.879578
0.642517 0.000000 0.879333
0.763458 0.000000 0.879303
0.879272 0.000000 0.879272
0.972565 0.000000 0.879425
0.000000 0.077606 0.880066
0.077759 0.077759 0.880310
0.182129 0.077728 0.880371
0.315308 0.077515 0.880249
0.492584 0.076996 0.879822
0.642914 0.076691 0.879547
0.763672 0.076569 0.879517
0.879517 0.076477 0.879517
0.972626 0.076538 0.879639
0.000000 0.181885 0.880157
0.077728 0.182129 0.880371
0.182220 0.182220 0.880463
0.315704 0.182098 0.880310
0.493011 0.181671 0.879883
0.643097 0.181458 0.879639
0.763733 0.181396 0.879578
0.879578 0.181427 0.879578
0.972534 0.181580 0.879700
0.000000 0.314728 0.880035
0.077515 0.315308 0.880249
0.182098 0.315704 0.880310
0.315918 0.315918 0.880157
0.493256 0.315826 0.879730
0.643097 0.315948 0.879486
0.763580 0.316254 0.879425
0.879425 0.316589 0.879425
0.972229 0.317108 0.879547
0.000000 0.492004 0.879578
0.076996 0.492584 0.879822
0.181671 0.493011 0.879883
0.315826 0.493256 0.879730
0.493164 0.493164 0.879303
0.642822 0.493286 0.879028
0.763153 0.493622 0.878998
0.878967 0.493958 0.878967
0.971619 0.494476 0.879120
0.000000 0.642517 0.879333
0.076691 0.642914 0.879547
0.181458 0.643097 0.879639
0.315948 0.643097 0.879486
0.493286 0.642822 0.879028
0.642700 0.642700 0.878784
0.762939 0.642822 0.878754
0.878723 0.642944 0.878723
0.971191 0.643219 0.878876
0.000000 0.763458 0.879303
0.076569 0.763672 0.879517
0.181396 0.763733 0.879578
0.316254 0.763580 0.879425
0.493622 0.763153 0.878998
0.642822 0.762939 0.878754
0.762909 0.762909 0.878693
0.878693 0.762909 0.878693
0.971008 0.763092 0.878845
0.000000 0.879272 0.879272
0.076477 0.879517 0.879517
0.181427 0.879578 0.879578
0.316589 0.879425 0.879425
0.493958 0.878967 0.878967
0.642944 0.878723 0.878723
0.762909 0.878693 0.878693
0.878693 0.878693 0.878693
0.970825 0.878815 0.878815
0.000000 0.972565 0.879425
0.076538 0.972626 0.879639
0.181580 0.972534 0.879700
0.317108 0.972229 0.879547
0.494476 0.971619 0.879120
0.643219 0.971191 0.878876
0.763092 0.971008 0.878845
0.878815 0.970825 0.878815
0.970795 0.970795 0.878967
0.000000 0.000000 0.974243
0.077667 0.000000 0.974365
0.182037 0.000000 0.974274
0.315216 0.000000 0.973969
0.492493 0.000000 0.973389
0.642822 0.000000 0.972961
0.763580 0.000000 0.972748
0.879425 0.000000 0.972565
0.972565 0.000000 0.972565
0.000000 0.077667 0.974365
0.077820 0.077820 0.974426
0.182281 0.077789 0.974335
0.315796 0.077576 0.974030
0.493103 0.077057 0.973450
0.643188 0.076752 0.973022
0.763824 0.076630 0.972809
0.879639 0.076538 0.972626
0.972626 0.076599 0.972626
0.000000 0.182037 0.974274
0.077789 0.182281 0.974335
0.182373 0.182373 0.974243
0.316193 0.182251 0.973938
0.493530 0.181824 0.973328
0.643402 0.181610 0.972931
0.763885 0.181580 0.972717
0.879700 0.181580 0.972534
0.972504 0.181732 0.972504
0.000000 0.315216 0.973969
0.077576 0.315796 0.974030
0.182251 0.316193 0.973938
0.316406 0.316406 0.973633
0.493744 0.316345 0.973022
0.643402 0.316437 0.972595
0.763733 0.316772 0.972412
0.879547 0.317108 0.972229
0.972198 0.317627 0.972198
0.000000 0.492493 0.973389
0.077057 0.493103 0.973450
0.181824 0.493530 0.973328
0.316345 0.493744 0.973022
0.493683 0.493683 0.972412
0.643097 0.493805 0.972015
0.763336 0.494110 0.971802
0.879120 0.494476 0.971619
0.971588 0.494995 0.971588
0.000000 0.642822 0.972961
0.076752 0.643188 0.973022
0.181610 0.643402 0.972931
0.316437 0.643402 0.972595
0.493805 0.643097 0.972015
0.643005 0.643005 0.971588
0.763092 0.643097 0.971375
0.878876 0.643219 0.971191
0.971191 0.643524 0.971191
0.000000 0.763580 0.972748
0.076630 0.763824 0.972809
0.181580 0.763885 0.972717
0.316772 0.763733 0.972412
0.494110 0.763336 0.971802
0.643097 0.763092 0.971375
0.763092 0.763092 0.971191
0.878845 0.763092 0.971008
0.970978 0.763245 0.970978
0.000000 0.879425 0.972565
0.076538 0.879639 0.972626
0.181580 0.879700 0.972534
0.317108 0.879547 0.972229
0.494476 0.879120 0.971619
0.643219 0.878876 0.971191
0.763092 0.878845 0.971008
0.878815 0.878815 0.970825
0.970795 0.878967 0.970795
0.000000 0.972565 0.972565
0.076599 0.972626 0.972626
0.181732 0.972504 0.972504
0.317627 0.972198 0.972198
0.494995 0.971588 0.971588
0.643524 0.971191 0.971191
0.763245 0.970978 0.970978
0.878967 0.970795 0.970795
0.970795 0.970795 0.970795
