Kodak Eastman EXR 100T (5248) - Only contrast.cube
# Created by Benjamin (IWLTBAP) : http://luts.iwltbap.com
# Copyright: (C) Copyright 2010-2017 Triune Films and IWLTBAP SAS
# Cannot be resold, shared or otherwise redistributed
TITLE "Film Print Emulation LUTs Pack (Rec.709, sRGB, DCI-P3)"
LUT_3D_SIZE 5
0.009705 0.009705 0.009705
0.190063 0.044159 0.009674
0.380493 0.074493 0.016785
0.596527 0.135162 0.031372
0.813080 0.227509 0.076721
0.071686 0.185455 0.051910
0.266571 0.233124 0.064545
0.475159 0.260132 0.029297
0.679565 0.300415 0.065247
0.877350 0.360992 0.129242
0.182922 0.389221 0.115051
0.351196 0.443909 0.135590
0.557037 0.490662 0.160522
0.772858 0.518585 0.126495
0.937012 0.561737 0.185425
0.317841 0.608673 0.211182
0.451111 0.668640 0.244690
0.642426 0.714539 0.263428
0.846741 0.755524 0.290985
0.985718 0.791565 0.300598
0.451172 0.836395 0.325592
0.560547 0.884857 0.372162
0.733307 0.919189 0.395386
0.914276 0.948059 0.419800
0.999146 0.966827 0.455322
0.012665 0.034271 0.125214
0.190704 0.055481 0.158539
0.392029 0.082153 0.196350
0.607788 0.165344 0.232758
0.819916 0.258118 0.278107
0.045380 0.214905 0.227509
0.264862 0.264862 0.264679
0.476501 0.298065 0.251190
0.688354 0.334747 0.279053
0.883179 0.394348 0.328033
0.136230 0.420349 0.279175
0.343781 0.466003 0.313660
0.538300 0.515076 0.355865
0.778412 0.546539 0.319641
0.939941 0.590454 0.362274
0.291107 0.638184 0.344208
0.442108 0.696198 0.381592
0.640228 0.741272 0.405640
0.845856 0.781921 0.430786
0.987305 0.815338 0.428284
0.440216 0.857727 0.427887
0.557770 0.903015 0.475098
0.733459 0.935364 0.499542
0.915497 0.962860 0.525208
0.998657 0.977570 0.595795
0.043915 0.055450 0.268280
0.187744 0.078003 0.315979
0.396271 0.116943 0.371368
0.612976 0.187775 0.420258
0.822937 0.282013 0.460846
0.030182 0.231140 0.387695
0.219940 0.284363 0.431915
0.474670 0.324036 0.447479
0.688141 0.359192 0.478821
0.884125 0.422211 0.513977
0.133667 0.460449 0.477417
0.316193 0.501404 0.509003
0.552429 0.552429 0.552521
0.765747 0.580933 0.528320
0.937897 0.618744 0.547607
0.236237 0.674164 0.523041
0.416107 0.723267 0.554108
0.630920 0.762909 0.585938
0.821594 0.805664 0.625031
0.986450 0.835327 0.595245
0.404114 0.879456 0.588593
0.530396 0.918610 0.632812
0.714996 0.950012 0.659851
0.904480 0.974121 0.684723
0.997040 0.985260 0.755798
0.096832 0.088715 0.428345
0.204468 0.121735 0.475769
0.407043 0.163940 0.528473
0.619995 0.236023 0.584473
0.828766 0.320740 0.633789
0.095795 0.278809 0.534973
0.236938 0.322601 0.577026
0.473694 0.354431 0.609314
0.687897 0.395264 0.648224
0.886444 0.454285 0.693726
0.078156 0.475311 0.630524
0.182648 0.529633 0.685577
0.531128 0.571991 0.719086
0.764893 0.607056 0.720062
0.934937 0.645630 0.745392
0.244232 0.720978 0.722656
0.401794 0.757233 0.750854
0.610168 0.793518 0.785217
0.828400 0.828400 0.828522
0.980316 0.856171 0.794189
0.384674 0.907349 0.772949
0.510101 0.935760 0.802612
0.693756 0.962921 0.824951
0.888000 0.982086 0.847534
0.994690 0.992218 0.899323
0.177490 0.152893 0.609985
0.232574 0.193848 0.651917
0.432434 0.231842 0.702209
0.637238 0.296021 0.756836
0.840912 0.376770 0.806061
0.174591 0.332001 0.706390
0.248596 0.382233 0.739044
0.484772 0.402985 0.769989
0.689758 0.445312 0.805786
0.877502 0.502319 0.839996
0.132721 0.527863 0.805725
0.238403 0.576172 0.832703
0.534637 0.609680 0.848389
0.753662 0.646454 0.865326
0.923004 0.692505 0.887817
0.232574 0.740570 0.862335
0.364563 0.781067 0.882538
0.557556 0.812836 0.912872
0.816437 0.848114 0.933319
0.966644 0.887878 0.940460
0.388245 0.917328 0.912140
0.537598 0.937988 0.926727
0.761292 0.963104 0.955383
0.939575 0.981079 0.995392
0.997894 0.997894 0.997711
