Kodak Vision 320T (5277) - Only color.cube
# Created by Benjamin (IWLTBAP) : http://luts.iwltbap.com
# Copyright: (C) Copyright 2010-2017 Triune Films and IWLTBAP SAS
# Cannot be resold, shared or otherwise redistributed
TITLE "Film Print Emulation LUTs Pack (Rec.709, sRGB, DCI-P3)"
LUT_3D_SIZE 9
0.000610 0.002594 0.000854
0.147797 0.003632 0.001038
0.290710 0.035980 0.022461
0.418488 0.063751 0.033386
0.540558 0.087250 0.039581
0.656860 0.115082 0.050934
0.753845 0.140228 0.062775
0.837860 0.160004 0.071411
0.915649 0.178650 0.079285
0.000000 0.123322 0.000763
0.151337 0.126190 0.000000
0.293823 0.138641 0.031769
0.427277 0.152740 0.036591
0.550568 0.168427 0.044342
0.667480 0.187286 0.056854
0.762726 0.204834 0.067139
0.845215 0.220795 0.075653
0.922699 0.236359 0.083160
0.000000 0.233368 0.008514
0.148438 0.238068 0.000000
0.299408 0.240509 0.016266
0.437561 0.252930 0.047272
0.565308 0.265045 0.056976
0.681061 0.278564 0.067108
0.774750 0.290894 0.076141
0.856049 0.303162 0.084137
0.933228 0.315063 0.091797
0.000000 0.340942 0.021454
0.146301 0.346954 0.007690
0.295532 0.355988 0.000000
0.451904 0.355988 0.053528
0.583710 0.369202 0.076599
0.697113 0.379059 0.083832
0.788879 0.387146 0.090637
0.869049 0.395447 0.097809
0.949005 0.404907 0.105042
0.050964 0.450653 0.059448
0.181610 0.459381 0.051514
0.314911 0.469147 0.037994
0.465454 0.477631 0.001465
0.598663 0.473206 0.087616
0.713135 0.484680 0.105377
0.806183 0.496338 0.111176
0.885559 0.505280 0.116455
0.969696 0.511627 0.122620
0.121155 0.567383 0.092529
0.224182 0.575592 0.085938
0.343079 0.585632 0.078308
0.462280 0.592926 0.061523
0.618256 0.598724 0.056702
0.727203 0.596436 0.109070
0.821442 0.607391 0.129944
0.901093 0.618256 0.133301
0.989319 0.624847 0.136932
0.192780 0.692993 0.125732
0.274750 0.699615 0.121826
0.378296 0.708954 0.115662
0.479187 0.714966 0.105011
0.637634 0.725189 0.076477
0.744934 0.726044 0.090607
0.834167 0.723206 0.121002
0.913361 0.731873 0.155426
1.000000 0.739105 0.160004
0.258392 0.817505 0.157349
0.323364 0.822784 0.154236
0.414185 0.830536 0.145630
0.508179 0.836334 0.135742
0.645416 0.845490 0.120270
0.759064 0.850494 0.101776
0.847900 0.852386 0.117035
0.920105 0.848358 0.135132
1.000000 0.853333 0.164185
0.315674 0.939148 0.197144
0.370941 0.944580 0.195374
0.449097 0.952545 0.190735
0.537476 0.959717 0.182831
0.651154 0.969727 0.169434
0.766693 0.980530 0.150116
0.855682 0.985138 0.136749
0.928680 0.981628 0.147125
1.000000 0.980225 0.165741
0.000000 0.001404 0.104309
0.146912 0.007416 0.092072
0.288910 0.036224 0.099548
0.419464 0.064545 0.106567
0.542542 0.089294 0.113312
0.658142 0.116302 0.120728
0.754364 0.142090 0.128418
0.838043 0.162262 0.135071
0.915466 0.181274 0.141815
0.000000 0.125885 0.101074
0.148987 0.129639 0.096100
0.299927 0.142029 0.107391
0.429199 0.155670 0.112152
0.552429 0.171478 0.116638
0.668915 0.190186 0.123932
0.763489 0.207489 0.131134
0.845734 0.223572 0.138031
0.922882 0.239136 0.144684
0.000000 0.235260 0.106445
0.121552 0.241333 0.079102
0.302429 0.244690 0.107910
0.439209 0.255737 0.120361
0.566254 0.267700 0.123016
0.681915 0.280975 0.129700
0.775238 0.293182 0.137390
0.856323 0.305420 0.143982
0.933350 0.317230 0.150360
0.000000 0.344086 0.115509
0.129089 0.349701 0.101349
0.290588 0.359406 0.079956
0.453888 0.360229 0.120422
0.583282 0.371735 0.138397
0.697052 0.379547 0.142639
0.789032 0.387970 0.147400
0.869385 0.397125 0.152435
0.949371 0.406769 0.158112
0.009430 0.452515 0.137634
0.163361 0.462067 0.129089
0.310577 0.473114 0.113525
0.462646 0.481689 0.080231
0.598450 0.477020 0.146240
0.712799 0.487976 0.158264
0.805908 0.498108 0.160339
0.885529 0.505280 0.163727
0.970276 0.512207 0.169769
0.100952 0.568909 0.159302
0.208374 0.578186 0.152405
0.336731 0.588898 0.142670
0.451813 0.595825 0.128967
0.617737 0.603333 0.114227
0.726471 0.600037 0.159576
0.820923 0.610321 0.179535
0.900940 0.620178 0.180298
0.989960 0.626404 0.183380
0.172882 0.694885 0.184753
0.263062 0.702057 0.179626
0.371643 0.711639 0.172546
0.476074 0.718414 0.158173
0.634644 0.728577 0.131409
0.744354 0.730133 0.139465
0.833862 0.726410 0.167419
0.913208 0.734680 0.203796
1.000000 0.741882 0.208191
0.246613 0.819519 0.208374
0.314575 0.824738 0.205048
0.408417 0.832916 0.197876
0.504639 0.839203 0.186340
0.637390 0.847870 0.169312
0.756683 0.853516 0.148926
0.847382 0.855988 0.161346
0.920166 0.851440 0.181000
1.000000 0.856384 0.212738
0.307953 0.941345 0.243805
0.364227 0.946686 0.242462
0.444122 0.954834 0.239197
0.533997 0.962433 0.232697
0.642059 0.971252 0.220428
0.763336 0.982788 0.197998
0.854340 0.987946 0.183502
0.928345 0.984924 0.193085
1.000000 0.983521 0.212830
0.000000 0.004059 0.184418
0.146393 0.014160 0.175171
0.292175 0.037323 0.183289
0.421021 0.067719 0.187836
0.543640 0.092133 0.195923
0.658905 0.118195 0.203888
0.754700 0.145264 0.210724
0.838074 0.166595 0.215881
0.914948 0.185516 0.220978
0.000000 0.131561 0.193878
0.125946 0.132080 0.217590
0.297089 0.141571 0.188538
0.428162 0.158295 0.194397
0.553345 0.176208 0.201416
0.670349 0.194977 0.208069
0.764496 0.212555 0.213623
0.846100 0.228943 0.218140
0.922546 0.244080 0.222870
0.000000 0.239777 0.197693
0.043274 0.246796 0.190460
0.300720 0.250427 0.199066
0.439911 0.260651 0.203918
0.566101 0.272980 0.207794
0.682434 0.286102 0.212402
0.775909 0.298187 0.216797
0.856506 0.309937 0.221375
0.932983 0.321411 0.226349
0.000000 0.347229 0.202881
0.084229 0.352142 0.190002
0.279907 0.363525 0.176971
0.453217 0.366455 0.218536
0.580170 0.376770 0.220642
0.696289 0.382904 0.219818
0.788910 0.391266 0.222809
0.869080 0.400208 0.227051
0.948578 0.409821 0.232544
0.000000 0.456238 0.214508
0.130524 0.464294 0.210510
0.297394 0.477692 0.202209
0.442047 0.485718 0.177246
0.598877 0.483246 0.226654
0.711182 0.494110 0.239197
0.804443 0.500916 0.235840
0.884491 0.506470 0.236389
0.968964 0.513916 0.242310
0.060547 0.568878 0.232635
0.175232 0.580566 0.230530
0.322235 0.593048 0.222931
0.444855 0.601013 0.210175
0.616516 0.610046 0.183838
0.725128 0.605652 0.239655
0.819458 0.615021 0.255646
0.899536 0.622681 0.254242
0.989044 0.628418 0.256561
0.141998 0.695679 0.255341
0.236877 0.704346 0.252594
0.357635 0.715088 0.247620
0.467987 0.722717 0.236053
0.627289 0.732819 0.199585
0.742310 0.735901 0.203613
0.832581 0.731232 0.240417
0.912354 0.738800 0.272308
1.000000 0.745819 0.275513
0.222778 0.821198 0.274963
0.296509 0.826782 0.273132
0.396729 0.835815 0.269928
0.497162 0.842896 0.261597
0.621246 0.850861 0.247620
0.752411 0.858154 0.217255
0.845917 0.861298 0.229309
0.919556 0.855865 0.250763
1.000000 0.860840 0.280212
0.292816 0.943756 0.301056
0.351562 0.949493 0.300140
0.435089 0.957855 0.298767
0.527313 0.966034 0.294922
0.627563 0.973602 0.287506
0.757324 0.986084 0.267670
0.851776 0.991730 0.255859
0.927307 0.989685 0.260834
1.000000 0.988068 0.277832
0.000000 0.019958 0.268005
0.144684 0.024170 0.258057
0.287506 0.041046 0.263947
0.426025 0.065460 0.272675
0.548035 0.097046 0.273102
0.661072 0.123871 0.282104
0.755341 0.148895 0.288910
0.837799 0.169891 0.294312
0.914307 0.189240 0.299438
0.000000 0.141754 0.284637
0.110809 0.140167 0.299438
0.285706 0.145111 0.272858
0.433533 0.156372 0.277283
0.556152 0.177368 0.278900
0.670227 0.196594 0.286591
0.763947 0.214386 0.292725
0.845245 0.231628 0.297913
0.921417 0.247894 0.303131
0.000000 0.247467 0.289124
0.022125 0.250946 0.312805
0.290375 0.256256 0.302612
0.440704 0.263641 0.283051
0.567474 0.278290 0.289307
0.682098 0.291656 0.295013
0.775909 0.304047 0.300262
0.856262 0.315735 0.304688
0.932129 0.327026 0.309143
0.000000 0.353638 0.291840
0.018005 0.358643 0.289337
0.234558 0.370819 0.282593
0.447296 0.375214 0.302612
0.578033 0.380371 0.302307
0.693939 0.389282 0.305054
0.788055 0.397552 0.307068
0.868652 0.405853 0.310028
0.947632 0.415253 0.314697
0.000000 0.460663 0.299103
0.048981 0.464417 0.290924
0.267578 0.482025 0.288544
0.422699 0.490326 0.273621
0.597656 0.491150 0.318726
0.708557 0.500519 0.322540
0.802216 0.505066 0.320007
0.882935 0.509552 0.319153
0.966949 0.517090 0.323517
0.000000 0.569397 0.302826
0.134460 0.580353 0.303772
0.298187 0.596191 0.300751
0.433350 0.605499 0.293396
0.611115 0.616364 0.272095
0.724121 0.612640 0.325256
0.816895 0.621307 0.338593
0.897064 0.625793 0.334961
0.986664 0.630585 0.335266
0.103821 0.693054 0.320801
0.199921 0.704529 0.320557
0.337006 0.717438 0.319305
0.456482 0.726257 0.314148
0.610504 0.736969 0.293274
0.738922 0.742767 0.288422
0.831085 0.737152 0.323212
0.910492 0.743683 0.350708
0.999817 0.750275 0.353027
0.187805 0.821259 0.340179
0.267731 0.827850 0.339355
0.379181 0.837952 0.338928
0.485931 0.846161 0.335876
0.602234 0.853455 0.328339
0.745544 0.863037 0.302643
0.843201 0.867279 0.307129
0.918579 0.861145 0.327789
1.000000 0.866028 0.358795
0.266235 0.945496 0.364563
0.331055 0.951599 0.364288
0.420898 0.960693 0.364471
0.517029 0.969604 0.362793
0.616241 0.977112 0.358643
0.748016 0.989105 0.342621
0.847809 0.995117 0.333710
0.925751 0.994049 0.334503
1.000000 0.992157 0.350281
0.000000 0.036072 0.342163
0.140076 0.034210 0.338196
0.281738 0.047089 0.338898
0.425690 0.069763 0.351990
0.551941 0.091919 0.359375
0.666748 0.113770 0.362366
0.757233 0.154755 0.368103
0.838287 0.174683 0.373810
0.913605 0.192902 0.379059
0.000000 0.150818 0.368256
0.109009 0.149597 0.376160
0.281708 0.152771 0.356171
0.431793 0.159424 0.359009
0.561798 0.174164 0.363800
0.674438 0.195312 0.364929
0.764404 0.217255 0.371399
0.844177 0.233185 0.376831
0.919525 0.249054 0.382446
0.000000 0.255402 0.377045
0.018494 0.256165 0.415283
0.271179 0.261963 0.408325
0.438232 0.265350 0.369568
0.575653 0.275116 0.369110
0.683319 0.292145 0.371582
0.775116 0.304626 0.378723
0.854614 0.316895 0.384430
0.929871 0.328796 0.390137
0.000000 0.357025 0.384125
0.019043 0.361481 0.396667
0.205811 0.373352 0.420319
0.442169 0.380615 0.390381
0.578430 0.385681 0.381805
0.692719 0.394806 0.387115
0.786682 0.404175 0.391663
0.867523 0.412292 0.395599
0.946289 0.421265 0.400818
0.000000 0.464172 0.386108
0.023987 0.468872 0.385406
0.190582 0.486267 0.386993
0.412567 0.497742 0.377014
0.594147 0.499725 0.406891
0.705902 0.503906 0.404938
0.799377 0.509491 0.405396
0.881226 0.515503 0.406403
0.965240 0.522644 0.410400
0.000000 0.573914 0.396057
0.036102 0.577606 0.390167
0.246704 0.600769 0.392334
0.413574 0.611725 0.385742
0.593140 0.621490 0.364197
0.721771 0.619263 0.423706
0.814117 0.627014 0.426147
0.894745 0.629456 0.421265
0.984192 0.633850 0.420746
0.000000 0.687775 0.403564
0.143280 0.703583 0.407562
0.298431 0.721100 0.407074
0.437927 0.730621 0.400024
0.589325 0.741150 0.383759
0.735229 0.747955 0.372650
0.829803 0.743134 0.415283
0.908203 0.749023 0.439240
0.998199 0.754150 0.439697
0.140594 0.819427 0.421448
0.222198 0.828766 0.421844
0.350616 0.839874 0.419037
0.470825 0.848755 0.412231
0.591675 0.856873 0.407776
0.736481 0.867157 0.389679
0.840057 0.872375 0.388641
0.917694 0.866333 0.413086
1.000000 0.870911 0.449219
0.227783 0.946442 0.439819
0.297424 0.953125 0.439423
0.401367 0.963013 0.437225
0.504242 0.972900 0.435944
0.606506 0.980865 0.434784
0.737335 0.991638 0.422638
0.842743 0.997101 0.415588
0.923950 0.996552 0.411530
1.000000 0.994934 0.429871
0.000000 0.054962 0.431488
0.143219 0.051971 0.429688
0.280396 0.057465 0.426453
0.425201 0.076050 0.441956
0.551300 0.096863 0.453918
0.667206 0.118927 0.463531
0.762360 0.141022 0.468018
0.844238 0.160370 0.468262
0.914459 0.198761 0.469482
0.000000 0.161102 0.468445
0.116364 0.161896 0.466003
0.277435 0.164062 0.457642
0.427460 0.162415 0.450592
0.560516 0.178802 0.460846
0.676910 0.194794 0.468079
0.770874 0.208862 0.470825
0.850250 0.225555 0.467957
0.919434 0.252899 0.472961
0.000000 0.263824 0.485657
0.020844 0.263733 0.522858
0.257965 0.271118 0.510590
0.427307 0.269257 0.465820
0.573547 0.278748 0.470184
0.689178 0.289673 0.473907
0.782288 0.298981 0.473572
0.855621 0.316254 0.472412
0.927917 0.329163 0.479584
0.000000 0.364075 0.490967
0.021423 0.367523 0.514709
0.143494 0.375031 0.567627
0.428925 0.385437 0.527771
0.578461 0.389130 0.488190
0.701263 0.393707 0.481262
0.787415 0.407227 0.480927
0.866272 0.415955 0.488098
0.943420 0.424835 0.494873
0.000000 0.466156 0.499969
0.023376 0.470612 0.509552
0.187775 0.488892 0.531494
0.385101 0.502411 0.551941
0.590485 0.505371 0.507599
0.704132 0.508453 0.498413
0.797699 0.515686 0.502411
0.879425 0.523621 0.506531
0.962341 0.530273 0.510376
0.000000 0.576569 0.497864
0.026215 0.580902 0.497131
0.145752 0.596802 0.501068
0.369720 0.620117 0.503571
0.575836 0.628204 0.483795
0.718597 0.627930 0.528778
0.811279 0.631165 0.524323
0.891754 0.634155 0.521393
0.980896 0.638977 0.521667
0.000000 0.691925 0.509796
0.032776 0.695312 0.506287
0.227386 0.722656 0.513611
0.401917 0.737549 0.509979
0.563660 0.747223 0.498291
0.724304 0.753174 0.472778
0.828278 0.750366 0.528076
0.904938 0.754944 0.544617
0.995819 0.757904 0.542236
0.030212 0.807495 0.516083
0.159119 0.825500 0.521332
0.293396 0.842529 0.522583
0.437897 0.852600 0.519806
0.574463 0.861694 0.511597
0.719208 0.871368 0.495148
0.835693 0.877197 0.480072
0.917419 0.872406 0.511047
1.000000 0.876923 0.567505
0.172729 0.945770 0.540222
0.245728 0.955139 0.541107
0.363831 0.966858 0.540344
0.476959 0.976898 0.537720
0.592987 0.985565 0.530121
0.723541 0.994110 0.516754
0.833893 0.997589 0.509338
0.921600 0.997528 0.500122
0.999390 0.996460 0.521118
0.045532 0.075317 0.542175
0.154694 0.071899 0.542023
0.281555 0.072327 0.537872
0.421997 0.085663 0.545898
0.552277 0.105499 0.566589
0.667419 0.126068 0.582397
0.761993 0.146027 0.591858
0.843994 0.163910 0.596741
0.920898 0.181030 0.599091
0.000000 0.173645 0.574188
0.133545 0.175629 0.576782
0.279175 0.177368 0.574341
0.413513 0.169891 0.555237
0.558319 0.184204 0.575745
0.675934 0.200470 0.588776
0.770233 0.213928 0.596832
0.851501 0.227295 0.599640
0.927399 0.240692 0.601257
0.000000 0.273895 0.615784
0.036926 0.273926 0.627228
0.260895 0.283020 0.624420
0.412964 0.283020 0.602570
0.569061 0.281921 0.589233
0.687439 0.293823 0.597748
0.781464 0.303802 0.603241
0.861847 0.312744 0.604370
0.938171 0.322083 0.605011
0.000000 0.373199 0.620880
0.023438 0.375214 0.652893
0.169342 0.382141 0.701172
0.412262 0.392517 0.672974
0.574005 0.392151 0.612610
0.699646 0.397827 0.611725
0.794067 0.404175 0.611237
0.874420 0.410278 0.609009
0.954529 0.417236 0.607819
0.000000 0.472321 0.636414
0.023895 0.475708 0.654388
0.143707 0.488281 0.691833
0.334747 0.504791 0.744385
0.581207 0.511383 0.666687
0.707764 0.513885 0.635284
0.807007 0.516846 0.626740
0.883575 0.526459 0.618530
0.960236 0.535583 0.623627
0.000000 0.579376 0.645386
0.025421 0.583099 0.654022
0.179077 0.603729 0.677368
0.363464 0.623047 0.695068
0.540283 0.633423 0.722809
0.718323 0.633484 0.652466
0.810638 0.637207 0.641205
0.890289 0.640961 0.640839
0.976807 0.646698 0.644226
0.000000 0.695496 0.640381
0.027466 0.699249 0.642212
0.164856 0.719269 0.650848
0.348938 0.744202 0.652802
0.520203 0.757111 0.647064
0.703979 0.760651 0.613403
0.822906 0.758514 0.668945
0.902527 0.759827 0.664673
0.993195 0.762421 0.664825
0.000000 0.809387 0.644348
0.032867 0.812134 0.642273
0.223236 0.841492 0.652588
0.395416 0.858368 0.653168
0.546814 0.869537 0.645721
0.697571 0.877594 0.629486
0.822327 0.882660 0.605682
0.917572 0.879974 0.638214
0.999756 0.883087 0.690674
0.091461 0.932434 0.657898
0.184326 0.952057 0.662537
0.304382 0.970093 0.664246
0.438599 0.982513 0.662140
0.575348 0.991516 0.658112
0.706390 0.996521 0.647736
0.819183 0.997498 0.633759
0.917603 0.996765 0.619995
0.998474 0.996307 0.632812
0.090912 0.093323 0.671722
0.174316 0.091431 0.672028
0.290314 0.090851 0.669586
0.414917 0.097351 0.670227
0.556000 0.120605 0.692688
0.669250 0.141937 0.713379
0.762238 0.156555 0.730286
0.843506 0.170410 0.742676
0.920624 0.187073 0.748108
0.056763 0.186401 0.699646
0.159424 0.189087 0.704742
0.287415 0.190491 0.705139
0.410980 0.187134 0.695251
0.559662 0.194672 0.702789
0.675873 0.210175 0.722412
0.769470 0.221497 0.737915
0.850708 0.233795 0.747589
0.927673 0.246918 0.751862
0.000000 0.282440 0.743561
0.110718 0.286102 0.747192
0.271698 0.294159 0.751129
0.414337 0.295654 0.741394
0.565887 0.288116 0.719604
0.685486 0.299408 0.736542
0.779572 0.308899 0.749146
0.860809 0.318207 0.754547
0.938751 0.327637 0.757874
0.000000 0.380402 0.779816
0.023834 0.381317 0.810059
0.211670 0.393188 0.816589
0.410492 0.401367 0.802490
0.556824 0.399872 0.770081
0.695190 0.400970 0.756714
0.791229 0.407990 0.760254
0.872955 0.415070 0.763062
0.954010 0.422485 0.765808
0.000000 0.480286 0.779388
0.025299 0.482697 0.802490
0.082092 0.487488 0.850647
0.353424 0.508484 0.899292
0.563538 0.516785 0.846680
0.701843 0.516449 0.784485
0.803680 0.521271 0.781372
0.885437 0.526337 0.778107
0.969543 0.531433 0.774170
0.000000 0.585419 0.802582
0.025482 0.588654 0.817841
0.117676 0.599335 0.850311
0.321960 0.625153 0.899017
0.514893 0.632812 0.926758
0.711090 0.637817 0.832062
0.814148 0.639954 0.798096
0.895874 0.641815 0.786591
0.984406 0.646515 0.783417
0.000000 0.697998 0.810089
0.026489 0.700989 0.817596
0.184967 0.724152 0.841064
0.362488 0.745667 0.861084
0.521301 0.757233 0.880310
0.672638 0.762634 0.920105
0.821594 0.763733 0.814331
0.905457 0.764160 0.800323
0.992584 0.768616 0.799225
0.000000 0.813141 0.800568
0.031006 0.816223 0.802917
0.207245 0.843719 0.817993
0.367004 0.863403 0.823975
0.508270 0.876953 0.822937
0.649902 0.888702 0.810272
0.795746 0.892090 0.773499
0.914429 0.885895 0.825378
0.998840 0.888611 0.826141
0.000000 0.921021 0.794525
0.048828 0.926910 0.795441
0.220703 0.964966 0.809235
0.392731 0.986786 0.813934
0.544434 0.995544 0.813202
0.681091 0.997253 0.805878
0.801208 0.996277 0.790405
0.909546 0.994659 0.773987
0.997162 0.994537 0.766388
0.133057 0.114441 0.813843
0.205078 0.113251 0.814270
0.305908 0.112762 0.811951
0.421204 0.117401 0.812256
0.562836 0.139221 0.831421
0.672821 0.160736 0.854340
0.764282 0.177185 0.877045
0.844391 0.190765 0.896088
0.920685 0.204498 0.912109
0.119537 0.202667 0.840210
0.194733 0.204773 0.844727
0.303558 0.206055 0.847931
0.419281 0.204468 0.842651
0.561920 0.206818 0.841675
0.677643 0.223572 0.865936
0.769958 0.237061 0.887299
0.850311 0.249054 0.904907
0.927246 0.260742 0.919617
0.065460 0.295380 0.885315
0.165771 0.301117 0.895538
0.289124 0.306641 0.901215
0.421051 0.308411 0.898163
0.552124 0.295837 0.871063
0.685120 0.308899 0.885773
0.778656 0.319183 0.905182
0.859161 0.328217 0.919678
0.937805 0.337219 0.926727
0.000000 0.388550 0.933075
0.062714 0.390442 0.932526
0.253632 0.405060 0.930664
0.416809 0.411163 0.929321
0.552856 0.412506 0.928680
0.689758 0.407196 0.915894
0.788239 0.414581 0.925720
0.870605 0.421936 0.926270
0.952972 0.429901 0.924744
0.000000 0.487427 0.932007
0.026550 0.488159 0.931763
0.174927 0.499908 0.930511
0.388428 0.515808 0.928711
0.557892 0.524353 0.927277
0.689484 0.524872 0.926208
0.797852 0.525635 0.925293
0.882080 0.531738 0.924500
0.967590 0.538818 0.923706
0.000000 0.592682 0.931183
0.026642 0.594818 0.930908
0.153229 0.609070 0.929810
0.377563 0.629395 0.927887
0.556976 0.637299 0.926361
0.699280 0.644165 0.925140
0.807159 0.643005 0.924225
0.892944 0.646545 0.923462
0.981445 0.651398 0.922638
0.000000 0.701935 0.930328
0.039093 0.704590 0.929962
0.210754 0.728058 0.928406
0.391937 0.746338 0.926819
0.546326 0.756317 0.925476
0.698975 0.760620 0.924194
0.814301 0.765930 0.923157
0.903595 0.767120 0.922363
0.994293 0.769989 0.921539
0.000000 0.814026 0.929413
0.032990 0.816498 0.929108
0.216949 0.845245 0.927399
0.375214 0.863251 0.925995
0.530090 0.874725 0.924622
0.673767 0.882568 0.923401
0.798706 0.887207 0.922272
0.913361 0.889893 0.921234
0.997864 0.892944 0.920471
0.000000 0.923279 0.928528
0.092377 0.937164 0.927643
0.242798 0.971252 0.926178
0.391205 0.988831 0.924835
0.537811 0.996216 0.923584
0.667297 0.996552 0.922485
0.776123 0.994354 0.921570
0.890472 0.993011 0.920563
0.995270 0.992035 0.919617
