Kodak Eastman EXR 100T (5248) - Only color.cube
# Created by Benjamin (IWLTBAP) : http://luts.iwltbap.com
# Copyright: (C) Copyright 2010-2017 Triune Films and IWLTBAP SAS
# Cannot be resold, shared or otherwise redistributed
TITLE "Film Print Emulation LUTs Pack (Rec.709, sRGB, DCI-P3)"
LUT_3D_SIZE 9
0.004517 0.002777 0.021332
0.094849 0.001984 0.020294
0.221771 0.000977 0.019012
0.350800 0.000000 0.017792
0.479645 0.000000 0.016632
0.607300 0.000000 0.015533
0.734802 0.000000 0.014557
0.858398 0.000000 0.013733
0.999023 0.000000 0.012909
0.003540 0.110443 0.020172
0.094910 0.110626 0.019135
0.221954 0.110535 0.017914
0.350922 0.110474 0.016754
0.479797 0.110382 0.015656
0.607391 0.110291 0.014679
0.734863 0.110229 0.013794
0.858521 0.110168 0.013092
0.999237 0.110016 0.012451
0.002502 0.229828 0.018951
0.094910 0.230042 0.017975
0.222046 0.230042 0.016815
0.351013 0.230011 0.015717
0.479858 0.229950 0.014709
0.607452 0.229950 0.013855
0.734894 0.229919 0.013123
0.858582 0.229919 0.012573
0.999420 0.229797 0.012085
0.001465 0.350952 0.017792
0.094910 0.351166 0.016846
0.222137 0.351135 0.015778
0.351074 0.351074 0.014771
0.479919 0.351044 0.013885
0.607513 0.350983 0.013184
0.734894 0.350952 0.012604
0.858643 0.350922 0.012238
0.999603 0.350800 0.011932
0.000427 0.473053 0.016663
0.094910 0.473267 0.015808
0.222229 0.473236 0.014832
0.351135 0.473206 0.013947
0.479980 0.473175 0.013214
0.607544 0.473145 0.012634
0.734894 0.473114 0.012238
0.858704 0.473114 0.012054
0.999786 0.472992 0.011932
0.000000 0.595764 0.015625
0.094879 0.595947 0.014862
0.222321 0.595917 0.013977
0.351166 0.595856 0.013245
0.480042 0.595825 0.012665
0.607574 0.595795 0.012268
0.734894 0.595734 0.012054
0.858765 0.595734 0.012054
0.999939 0.595581 0.012024
0.000000 0.717773 0.014679
0.094879 0.717957 0.014038
0.222382 0.717896 0.013306
0.351227 0.717865 0.012726
0.480103 0.717804 0.012299
0.607605 0.717743 0.012085
0.734863 0.717712 0.012054
0.858826 0.717682 0.012146
1.000000 0.717560 0.012177
0.000000 0.840637 0.013855
0.094849 0.840820 0.013336
0.222473 0.840820 0.012756
0.351288 0.840820 0.012360
0.480133 0.840820 0.012115
0.607635 0.840790 0.012085
0.734863 0.840790 0.012146
0.858887 0.840820 0.012299
1.000000 0.840729 0.012390
0.000000 0.987427 0.013000
0.094666 0.988312 0.012634
0.222351 0.988953 0.012207
0.351135 0.989655 0.011993
0.479980 0.990417 0.011932
0.607483 0.991211 0.011993
0.734650 0.992065 0.012115
0.858734 0.992950 0.012329
0.999969 0.993469 0.049866
0.003265 0.001587 0.169586
0.094635 0.000824 0.169952
0.221649 0.000000 0.170074
0.350647 0.000000 0.170166
0.479492 0.000000 0.170258
0.607117 0.000000 0.170380
0.734589 0.000000 0.170471
0.858215 0.000000 0.170593
0.998932 0.000000 0.170563
0.002289 0.110199 0.169830
0.094696 0.110382 0.170166
0.221832 0.110291 0.170288
0.350769 0.110199 0.170380
0.479614 0.110107 0.170471
0.607208 0.110016 0.170563
0.734619 0.109955 0.170654
0.858337 0.109894 0.170746
0.999176 0.109711 0.170746
0.001251 0.229645 0.170013
0.094696 0.229858 0.170349
0.221924 0.229828 0.170441
0.350830 0.229767 0.170532
0.479675 0.229736 0.170624
0.607269 0.229706 0.170685
0.734650 0.229675 0.170776
0.858398 0.229645 0.170898
0.999359 0.229523 0.170868
0.000214 0.350769 0.170166
0.094666 0.350952 0.170502
0.221985 0.350891 0.170593
0.350891 0.350830 0.170654
0.479736 0.350800 0.170746
0.607300 0.350739 0.170837
0.734650 0.350708 0.170898
0.858459 0.350677 0.170990
0.999512 0.350525 0.170990
0.000000 0.472870 0.170288
0.094635 0.473053 0.170624
0.222076 0.473022 0.170715
0.350922 0.472961 0.170776
0.479797 0.472931 0.170868
0.607330 0.472900 0.170929
0.734619 0.472870 0.171021
0.858521 0.472870 0.171112
0.999664 0.472748 0.171082
0.000000 0.595551 0.170441
0.094635 0.595703 0.170746
0.222137 0.595673 0.170837
0.350983 0.595612 0.170898
0.479828 0.595581 0.170959
0.607361 0.595520 0.171051
0.734619 0.595490 0.171112
0.858582 0.595459 0.171204
0.999817 0.595337 0.171173
0.000000 0.717529 0.170563
0.094604 0.717682 0.170868
0.222229 0.717651 0.170959
0.351044 0.717590 0.171021
0.479889 0.717529 0.171082
0.607391 0.717499 0.171143
0.734619 0.717438 0.171234
0.858643 0.717438 0.171295
0.999939 0.717285 0.171265
0.000000 0.840424 0.170685
0.094574 0.840607 0.170990
0.222290 0.840607 0.171051
0.351074 0.840607 0.171112
0.479919 0.840576 0.171173
0.607422 0.840576 0.171265
0.734589 0.840576 0.171326
0.858673 0.840607 0.171387
1.000000 0.840515 0.171356
0.000000 0.987885 0.170654
0.094391 0.988739 0.170929
0.222168 0.989441 0.170990
0.350922 0.990204 0.171051
0.479767 0.990997 0.171082
0.607269 0.991852 0.171143
0.734406 0.992706 0.171204
0.858521 0.993591 0.171265
0.999878 0.994354 0.171234
0.002167 0.000580 0.298340
0.094574 0.000000 0.298523
0.221710 0.000000 0.298462
0.350647 0.000000 0.298401
0.479523 0.000000 0.298340
0.607117 0.000000 0.298279
0.734528 0.000000 0.298248
0.858246 0.000000 0.298218
0.999084 0.000000 0.298065
0.001190 0.110138 0.298401
0.094635 0.110291 0.298584
0.221863 0.110199 0.298523
0.350769 0.110107 0.298462
0.479614 0.110016 0.298370
0.607208 0.109955 0.298309
0.734589 0.109863 0.298279
0.858337 0.109802 0.298248
0.999268 0.109619 0.298096
0.000153 0.229614 0.298401
0.094635 0.229828 0.298584
0.221954 0.229797 0.298523
0.350830 0.229736 0.298431
0.479706 0.229706 0.298370
0.607239 0.229675 0.298309
0.734589 0.229645 0.298279
0.858398 0.229614 0.298248
0.999451 0.229492 0.298096
0.000000 0.350708 0.298401
0.094604 0.350891 0.298553
0.222046 0.350861 0.298492
0.350891 0.350800 0.298431
0.479767 0.350739 0.298370
0.607300 0.350708 0.298309
0.734589 0.350647 0.298248
0.858490 0.350616 0.298218
0.999634 0.350494 0.298096
0.000000 0.472839 0.298370
0.094604 0.473022 0.298523
0.222107 0.472992 0.298462
0.350952 0.472931 0.298401
0.479797 0.472900 0.298340
0.607330 0.472870 0.298279
0.734589 0.472839 0.298248
0.858551 0.472839 0.298218
0.999786 0.472717 0.298065
0.000000 0.595490 0.298370
0.094574 0.595673 0.298523
0.222168 0.595642 0.298462
0.350983 0.595581 0.298401
0.479858 0.595520 0.298340
0.607361 0.595490 0.298279
0.734589 0.595459 0.298218
0.858582 0.595428 0.298187
0.999908 0.595306 0.298065
0.000000 0.717499 0.298340
0.094543 0.717651 0.298492
0.222260 0.717590 0.298431
0.351044 0.717560 0.298370
0.479889 0.717499 0.298309
0.607391 0.717438 0.298248
0.734589 0.717407 0.298218
0.858673 0.717377 0.298187
1.000000 0.717255 0.298065
0.000000 0.840424 0.298309
0.094543 0.840607 0.298462
0.222321 0.840607 0.298401
0.351105 0.840607 0.298340
0.479950 0.840576 0.298279
0.607452 0.840576 0.298248
0.734558 0.840576 0.298187
0.858704 0.840607 0.298187
1.000000 0.840515 0.298035
0.000000 0.988556 0.298126
0.094330 0.989441 0.298279
0.222198 0.990204 0.298218
0.350952 0.990997 0.298157
0.479797 0.991852 0.298065
0.607269 0.992706 0.298035
0.734344 0.993591 0.297974
0.858551 0.994446 0.297943
0.999908 0.995178 0.297821
0.001099 0.000000 0.423126
0.094543 0.000000 0.423340
0.221771 0.000000 0.423340
0.350677 0.000000 0.423309
0.479553 0.000000 0.423279
0.607117 0.000000 0.423279
0.734528 0.000000 0.423248
0.858276 0.000000 0.423248
0.999237 0.000000 0.423157
0.000122 0.110077 0.423218
0.094574 0.110229 0.423431
0.221924 0.110138 0.423401
0.350800 0.110046 0.423370
0.479645 0.109955 0.423340
0.607208 0.109863 0.423340
0.734558 0.109802 0.423309
0.858368 0.109741 0.423309
0.999420 0.109558 0.423218
0.000000 0.229614 0.423279
0.094574 0.229797 0.423462
0.222015 0.229767 0.423462
0.350861 0.229736 0.423431
0.479736 0.229675 0.423401
0.607269 0.229645 0.423370
0.734558 0.229614 0.423340
0.858459 0.229614 0.423340
0.999603 0.229492 0.423248
0.000000 0.350708 0.423309
0.094574 0.350861 0.423492
0.222076 0.350830 0.423462
0.350922 0.350769 0.423431
0.479767 0.350708 0.423401
0.607300 0.350677 0.423401
0.734558 0.350616 0.423370
0.858521 0.350616 0.423370
0.999756 0.350464 0.423248
0.000000 0.472809 0.423309
0.094543 0.472992 0.423492
0.222168 0.472961 0.423492
0.350983 0.472931 0.423462
0.479828 0.472900 0.423431
0.607361 0.472839 0.423401
0.734558 0.472839 0.423401
0.858582 0.472809 0.423401
0.999878 0.472687 0.423279
0.000000 0.595490 0.423340
0.094543 0.595642 0.423523
0.222229 0.595612 0.423492
0.351013 0.595551 0.423462
0.479889 0.595490 0.423431
0.607391 0.595459 0.423431
0.734558 0.595428 0.423401
0.858643 0.595398 0.423401
0.999969 0.595276 0.423279
0.000000 0.717468 0.423370
0.094513 0.717621 0.423553
0.222321 0.717560 0.423523
0.351074 0.717529 0.423492
0.479919 0.717468 0.423462
0.607422 0.717407 0.423431
0.734558 0.717377 0.423431
0.858704 0.717346 0.423431
1.000000 0.717224 0.423309
0.000000 0.840424 0.423370
0.094513 0.840637 0.423553
0.222382 0.840637 0.423523
0.351135 0.840607 0.423492
0.479980 0.840607 0.423462
0.607452 0.840607 0.423431
0.734528 0.840607 0.423431
0.858765 0.840607 0.423431
1.000000 0.840515 0.423309
0.000000 0.989258 0.423218
0.094299 0.990234 0.423370
0.222260 0.991028 0.423340
0.350983 0.991882 0.423309
0.479828 0.992737 0.423279
0.607269 0.993591 0.423248
0.734314 0.994446 0.423218
0.858582 0.995300 0.423218
0.999908 0.995972 0.423096
0.000031 0.000000 0.547180
0.094513 0.000000 0.547363
0.221832 0.000000 0.547333
0.350739 0.000000 0.547302
0.479584 0.000000 0.547272
0.607147 0.000000 0.547241
0.734497 0.000000 0.547211
0.858337 0.000000 0.547211
0.999390 0.000000 0.547089
0.000000 0.110016 0.547241
0.094543 0.110168 0.547424
0.221985 0.110077 0.547394
0.350830 0.109985 0.547363
0.479706 0.109894 0.547302
0.607239 0.109833 0.547272
0.734528 0.109741 0.547241
0.858429 0.109680 0.547241
0.999573 0.109497 0.547119
0.000000 0.229614 0.547272
0.094543 0.229797 0.547455
0.222076 0.229767 0.547424
0.350922 0.229706 0.547394
0.479767 0.229675 0.547333
0.607300 0.229645 0.547302
0.734558 0.229614 0.547272
0.858490 0.229584 0.547272
0.999725 0.229462 0.547119
0.000000 0.350677 0.547302
0.094543 0.350830 0.547455
0.222137 0.350800 0.547424
0.350952 0.350739 0.547394
0.479828 0.350677 0.547333
0.607330 0.350647 0.547302
0.734558 0.350616 0.547272
0.858551 0.350586 0.547272
0.999878 0.350433 0.547150
0.000000 0.472809 0.547302
0.094513 0.472992 0.547485
0.222229 0.472961 0.547424
0.351013 0.472931 0.547394
0.479858 0.472870 0.547363
0.607361 0.472839 0.547302
0.734558 0.472809 0.547272
0.858612 0.472809 0.547272
0.999969 0.472687 0.547150
0.000000 0.595459 0.547302
0.094513 0.595642 0.547485
0.222290 0.595581 0.547424
0.351074 0.595551 0.547394
0.479919 0.595490 0.547363
0.607422 0.595459 0.547302
0.734528 0.595398 0.547272
0.858673 0.595398 0.547272
1.000000 0.595245 0.547150
0.000000 0.717438 0.547302
0.094513 0.717590 0.547485
0.222382 0.717560 0.547424
0.351105 0.717499 0.547394
0.479980 0.717438 0.547363
0.607452 0.717407 0.547333
0.734528 0.717346 0.547272
0.858765 0.717346 0.547272
1.000000 0.717194 0.547150
0.000000 0.840454 0.547302
0.094482 0.840637 0.547485
0.222443 0.840637 0.547424
0.351166 0.840637 0.547394
0.480011 0.840637 0.547333
0.607483 0.840607 0.547302
0.734528 0.840637 0.547272
0.858795 0.840637 0.547272
1.000000 0.840546 0.547150
0.000000 0.990051 0.547119
0.094299 0.991058 0.547272
0.222290 0.991913 0.547241
0.351013 0.992767 0.547180
0.479858 0.993622 0.547150
0.607300 0.994476 0.547089
0.734283 0.995300 0.547058
0.858643 0.996094 0.547028
0.999847 0.996704 0.546906
0.000000 0.000000 0.671844
0.094482 0.000000 0.672058
0.221893 0.000000 0.672058
0.350769 0.000000 0.672058
0.479614 0.000000 0.672028
0.607178 0.000000 0.672028
0.734497 0.000000 0.672028
0.858368 0.000000 0.672028
0.999542 0.000000 0.671936
0.000000 0.109985 0.671967
0.094513 0.110107 0.672150
0.222046 0.110016 0.672150
0.350861 0.109924 0.672119
0.479736 0.109833 0.672119
0.607269 0.109741 0.672089
0.734528 0.109680 0.672089
0.858459 0.109619 0.672089
0.999695 0.109436 0.671997
0.000000 0.229614 0.671997
0.094513 0.229767 0.672211
0.222137 0.229736 0.672180
0.350952 0.229706 0.672180
0.479797 0.229645 0.672150
0.607300 0.229614 0.672150
0.734528 0.229584 0.672119
0.858551 0.229584 0.672150
0.999847 0.229462 0.672028
0.000000 0.350647 0.672058
0.094513 0.350830 0.672241
0.222198 0.350769 0.672211
0.351013 0.350708 0.672211
0.479858 0.350677 0.672180
0.607361 0.350616 0.672180
0.734528 0.350586 0.672150
0.858612 0.350555 0.672150
0.999939 0.350403 0.672058
0.000000 0.472809 0.672089
0.094482 0.472992 0.672272
0.222290 0.472961 0.672241
0.351044 0.472900 0.672241
0.479889 0.472870 0.672211
0.607391 0.472839 0.672180
0.734528 0.472809 0.672180
0.858673 0.472809 0.672180
1.000000 0.472656 0.672058
0.000000 0.595459 0.672089
0.094482 0.595612 0.672272
0.222351 0.595551 0.672272
0.351105 0.595520 0.672241
0.479950 0.595459 0.672211
0.607422 0.595428 0.672211
0.734528 0.595398 0.672180
0.858734 0.595367 0.672211
1.000000 0.595245 0.672089
0.000000 0.717438 0.672119
0.094482 0.717560 0.672302
0.222412 0.717529 0.672302
0.351135 0.717468 0.672272
0.480011 0.717407 0.672241
0.607483 0.717377 0.672241
0.734497 0.717316 0.672211
0.858795 0.717316 0.672211
1.000000 0.717163 0.672119
0.000000 0.840485 0.672150
0.094452 0.840668 0.672333
0.222473 0.840668 0.672302
0.351196 0.840637 0.672272
0.480042 0.840637 0.672272
0.607513 0.840637 0.672241
0.734497 0.840637 0.672241
0.858856 0.840668 0.672241
1.000000 0.840576 0.672119
0.000000 0.990875 0.671967
0.094269 0.991913 0.672150
0.222351 0.992798 0.672119
0.351013 0.993652 0.672089
0.479858 0.994476 0.672058
0.607330 0.995300 0.672028
0.734253 0.996094 0.672028
0.858673 0.996826 0.671997
0.999786 0.997375 0.671906
0.000000 0.000000 0.797363
0.094421 0.000000 0.797607
0.221954 0.000000 0.797668
0.350800 0.000000 0.797699
0.479645 0.000000 0.797729
0.607208 0.000000 0.797791
0.734467 0.000000 0.797821
0.858398 0.000000 0.797882
0.999664 0.000000 0.797852
0.000000 0.109894 0.797516
0.094482 0.110046 0.797760
0.222076 0.109955 0.797791
0.350891 0.109863 0.797821
0.479767 0.109772 0.797852
0.607269 0.109680 0.797882
0.734497 0.109619 0.797943
0.858490 0.109558 0.798004
0.999817 0.109375 0.797943
0.000000 0.229584 0.797607
0.094482 0.229767 0.797852
0.222168 0.229736 0.797882
0.350952 0.229675 0.797913
0.479828 0.229645 0.797943
0.607330 0.229614 0.798004
0.734497 0.229584 0.798035
0.858582 0.229553 0.798096
0.999908 0.229431 0.798035
0.000000 0.350616 0.797699
0.094482 0.350800 0.797943
0.222260 0.350739 0.797974
0.351013 0.350677 0.798004
0.479889 0.350616 0.798035
0.607361 0.350586 0.798065
0.734497 0.350525 0.798126
0.858643 0.350525 0.798187
1.000000 0.350372 0.798126
0.000000 0.472809 0.797760
0.094452 0.472961 0.798004
0.222321 0.472931 0.798035
0.351074 0.472900 0.798065
0.479919 0.472839 0.798096
0.607422 0.472809 0.798157
0.734497 0.472778 0.798187
0.858704 0.472778 0.798248
1.000000 0.472656 0.798187
0.000000 0.595428 0.797852
0.094452 0.595581 0.798096
0.222382 0.595520 0.798126
0.351105 0.595490 0.798157
0.479980 0.595428 0.798187
0.607452 0.595398 0.798218
0.734497 0.595367 0.798279
0.858765 0.595337 0.798340
1.000000 0.595215 0.798279
0.000000 0.717407 0.797943
0.094452 0.717529 0.798157
0.222473 0.717499 0.798187
0.351166 0.717438 0.798218
0.480011 0.717377 0.798248
0.607483 0.717346 0.798309
0.734467 0.717285 0.798340
0.858826 0.717255 0.798401
1.000000 0.717133 0.798340
0.000000 0.840485 0.798004
0.094421 0.840668 0.798218
0.222534 0.840668 0.798279
0.351227 0.840668 0.798309
0.480072 0.840637 0.798340
0.607513 0.840637 0.798370
0.734467 0.840637 0.798401
0.858887 0.840668 0.798462
1.000000 0.840576 0.798401
0.000000 0.991760 0.797882
0.094208 0.992798 0.798096
0.222382 0.993652 0.798126
0.351044 0.994507 0.798157
0.479889 0.995331 0.798187
0.607330 0.996094 0.798218
0.734222 0.996826 0.798248
0.858734 0.997467 0.798309
0.999542 0.997742 0.798248
0.000000 0.000000 0.925751
0.094391 0.000000 0.925903
0.221985 0.000000 0.925842
0.350830 0.000000 0.925781
0.479675 0.000000 0.925690
0.607208 0.000000 0.925629
0.734406 0.000000 0.925568
0.858429 0.000000 0.925537
0.999756 0.000000 0.925354
0.000000 0.109833 0.925812
0.094421 0.109955 0.925934
0.222107 0.109863 0.925873
0.350922 0.109772 0.925781
0.479767 0.109680 0.925690
0.607269 0.109589 0.925629
0.734436 0.109528 0.925568
0.858521 0.109467 0.925507
0.999878 0.109283 0.925354
0.000000 0.229553 0.925781
0.094421 0.229706 0.925903
0.222198 0.229675 0.925842
0.350983 0.229645 0.925781
0.479828 0.229614 0.925690
0.607330 0.229553 0.925629
0.734467 0.229523 0.925537
0.858612 0.229523 0.925507
0.999969 0.229401 0.925323
0.000000 0.350586 0.925751
0.094421 0.350739 0.925903
0.222290 0.350677 0.925812
0.351044 0.350647 0.925751
0.479889 0.350586 0.925659
0.607361 0.350525 0.925598
0.734467 0.350494 0.925507
0.858673 0.350464 0.925476
1.000000 0.350342 0.925293
0.000000 0.472778 0.925720
0.094421 0.472931 0.925873
0.222351 0.472900 0.925781
0.351074 0.472839 0.925720
0.479950 0.472809 0.925629
0.607422 0.472778 0.925568
0.734467 0.472748 0.925476
0.858734 0.472748 0.925446
1.000000 0.472626 0.925262
0.000000 0.595398 0.925690
0.094391 0.595520 0.925812
0.222412 0.595490 0.925751
0.351135 0.595428 0.925659
0.479980 0.595398 0.925598
0.607452 0.595367 0.925507
0.734436 0.595306 0.925446
0.858795 0.595306 0.925385
1.000000 0.595154 0.925232
0.000000 0.717346 0.925659
0.094391 0.717499 0.925781
0.222504 0.717438 0.925720
0.351196 0.717377 0.925629
0.480042 0.717346 0.925537
0.607483 0.717285 0.925476
0.734436 0.717255 0.925415
0.858856 0.717224 0.925354
0.999969 0.717072 0.925201
0.000000 0.840485 0.925629
0.094391 0.840668 0.925751
0.222565 0.840668 0.925659
0.351227 0.840668 0.925598
0.480072 0.840637 0.925507
0.607513 0.840637 0.925446
0.734436 0.840668 0.925354
0.858917 0.840668 0.925323
0.999756 0.840576 0.925140
0.000000 0.992615 0.925385
0.094177 0.993683 0.925507
0.222412 0.994507 0.925415
0.351044 0.995331 0.925323
0.479889 0.996094 0.925232
0.607330 0.996826 0.925171
0.734192 0.997467 0.925079
0.858765 0.997833 0.925049
0.998718 0.996918 0.924896
0.000000 0.000000 1.000000
0.094604 0.000000 1.000000
0.222321 0.000000 1.000000
0.351135 0.000000 1.000000
0.479980 0.000000 1.000000
0.607513 0.000000 1.000000
0.734680 0.000000 1.000000
0.858765 0.000000 1.000000
1.000000 0.000000 1.000000
0.000000 0.110016 1.000000
0.094666 0.110138 1.000000
0.222443 0.110077 1.000000
0.351227 0.109985 1.000000
0.480072 0.109894 1.000000
0.607574 0.109833 1.000000
0.734711 0.109741 1.000000
0.858856 0.109711 1.000000
1.000000 0.109528 1.000000
0.000000 0.229797 1.000000
0.094666 0.229980 1.000000
0.222534 0.229950 1.000000
0.351288 0.229919 1.000000
0.480164 0.229858 1.000000
0.607635 0.229828 1.000000
0.734741 0.229828 1.000000
0.858948 0.229797 1.000000
1.000000 0.229675 1.000000
0.000000 0.350830 1.000000
0.094666 0.350983 1.000000
0.222626 0.350952 1.000000
0.351349 0.350891 1.000000
0.480225 0.350861 1.000000
0.607697 0.350800 1.000000
0.734741 0.350769 1.000000
0.859039 0.350769 1.000000
1.000000 0.350616 1.000000
0.000000 0.473022 1.000000
0.094666 0.473206 1.000000
0.222687 0.473175 1.000000
0.351410 0.473145 1.000000
0.480255 0.473114 1.000000
0.607727 0.473083 1.000000
0.734741 0.473053 1.000000
0.859100 0.473053 1.000000
1.000000 0.472931 1.000000
0.000000 0.595642 1.000000
0.094666 0.595795 1.000000
0.222778 0.595764 1.000000
0.351471 0.595734 1.000000
0.480316 0.595673 1.000000
0.607788 0.595642 1.000000
0.734741 0.595612 1.000000
0.859161 0.595612 1.000000
1.000000 0.595459 1.000000
0.000000 0.717621 1.000000
0.094666 0.717773 1.000000
0.222839 0.717712 1.000000
0.351532 0.717651 1.000000
0.480377 0.717621 1.000000
0.607819 0.717590 1.000000
0.734741 0.717529 1.000000
0.859253 0.717529 1.000000
1.000000 0.717377 1.000000
0.000000 0.840790 1.000000
0.094666 0.841003 1.000000
0.222900 0.841003 1.000000
0.351562 0.840973 1.000000
0.480438 0.840973 1.000000
0.607880 0.840973 1.000000
0.734741 0.841003 1.000000
0.859314 0.841034 1.000000
0.999268 0.840942 1.000000
0.000000 0.993805 1.000000
0.094452 0.994843 1.000000
0.222748 0.995667 1.000000
0.351410 0.996429 1.000000
0.480255 0.997162 1.000000
0.607697 0.997803 1.000000
0.734497 0.998169 1.000000
0.859131 0.997375 1.000000
0.997925 0.995880 1.000000
