Kodak Vision3 250D (5207) - Only color.cube
# Created by Benjamin (IWLTBAP) : http://luts.iwltbap.com
# Copyright: (C) Copyright 2010-2017 Triune Films and IWLTBAP SAS
# Cannot be resold, shared or otherwise redistributed
TITLE "Film Print Emulation LUTs Pack (Rec.709, sRGB, DCI-P3)"
LUT_3D_SIZE 9
0.000854 0.000000 0.000092
0.164673 0.006409 0.002411
0.332214 0.018799 0.012665
0.466339 0.046783 0.032532
0.600464 0.088623 0.078369
0.713806 0.124481 0.114166
0.818451 0.159546 0.138824
0.902863 0.195526 0.157166
0.970581 0.230530 0.173828
0.000183 0.079010 0.003174
0.128448 0.102173 0.014252
0.310333 0.123322 0.031525
0.469635 0.146484 0.052856
0.608368 0.177429 0.077271
0.721771 0.208832 0.103424
0.825317 0.238312 0.126404
0.908020 0.267120 0.146301
0.973145 0.294800 0.165649
0.029419 0.178223 0.026794
0.117981 0.200592 0.035614
0.285828 0.233246 0.050507
0.461914 0.253876 0.055695
0.613892 0.278198 0.073456
0.734711 0.303925 0.100922
0.838684 0.326691 0.124329
0.918213 0.349213 0.145111
0.978577 0.371307 0.165131
0.091278 0.275513 0.074463
0.142975 0.291504 0.080292
0.278625 0.337891 0.093048
0.454651 0.369324 0.093079
0.617645 0.389740 0.092072
0.750793 0.416168 0.109100
0.855896 0.435547 0.131470
0.931854 0.450928 0.153229
0.986725 0.465515 0.173279
0.153320 0.377808 0.125671
0.187836 0.389557 0.129639
0.290161 0.433136 0.139374
0.463318 0.486908 0.150208
0.621918 0.504578 0.142029
0.761292 0.524170 0.139099
0.872040 0.547485 0.153290
0.947845 0.563416 0.173004
0.996887 0.572845 0.191467
0.216614 0.489380 0.180878
0.250580 0.500031 0.184082
0.322601 0.529938 0.190308
0.484161 0.589722 0.206482
0.647064 0.622894 0.211060
0.777161 0.628296 0.198700
0.885223 0.643036 0.198273
0.960541 0.659729 0.208374
1.000000 0.672821 0.221588
0.284943 0.592529 0.231964
0.318359 0.602448 0.235687
0.373230 0.623169 0.241150
0.520355 0.675629 0.257416
0.683411 0.723358 0.272308
0.812653 0.734192 0.266022
0.902344 0.734100 0.255005
0.970551 0.742767 0.253876
1.000000 0.754028 0.258972
0.341461 0.673462 0.270447
0.374542 0.684326 0.277069
0.427490 0.702484 0.284943
0.559875 0.745972 0.300537
0.710144 0.794739 0.315338
0.841644 0.820831 0.318939
0.922821 0.819397 0.307037
0.980499 0.820496 0.301331
1.000000 0.828400 0.301941
0.385406 0.736908 0.297302
0.419861 0.748047 0.306549
0.476471 0.765228 0.315582
0.588715 0.799896 0.328644
0.719574 0.844849 0.340576
0.847412 0.883820 0.350586
0.936829 0.899658 0.348175
0.989441 0.896210 0.339294
1.000000 0.901031 0.338440
0.000244 0.000000 0.117157
0.148621 0.009277 0.111389
0.332153 0.032532 0.113312
0.473267 0.048889 0.120483
0.598602 0.079010 0.140717
0.707336 0.110931 0.168671
0.813690 0.141479 0.195221
0.900055 0.178833 0.214905
0.968140 0.220337 0.228180
0.027954 0.117249 0.140839
0.119751 0.123840 0.130981
0.302551 0.140564 0.124847
0.473511 0.158966 0.133026
0.613403 0.184937 0.150513
0.727051 0.214539 0.168610
0.829071 0.242889 0.185822
0.909790 0.272369 0.202606
0.973358 0.301697 0.218689
0.058228 0.215698 0.167358
0.115204 0.222229 0.156189
0.273956 0.246704 0.147400
0.463776 0.267090 0.140717
0.620453 0.287170 0.151031
0.743317 0.310730 0.167542
0.845001 0.332520 0.183960
0.921631 0.355316 0.200714
0.979675 0.377777 0.216797
0.109558 0.311798 0.194550
0.144287 0.316650 0.184540
0.257507 0.345673 0.180237
0.445312 0.378418 0.172485
0.620758 0.395905 0.160736
0.758575 0.415527 0.169708
0.862396 0.431213 0.186340
0.935913 0.447479 0.203705
0.987793 0.462555 0.219879
0.170807 0.412689 0.227997
0.196381 0.418060 0.220886
0.271332 0.440765 0.217407
0.437714 0.489166 0.222748
0.615784 0.510101 0.205627
0.764435 0.525818 0.193054
0.878082 0.544556 0.201965
0.952545 0.557983 0.218018
0.997864 0.563599 0.232330
0.236847 0.520660 0.270874
0.262817 0.526733 0.264771
0.314301 0.540466 0.260559
0.451202 0.588226 0.271271
0.630493 0.625305 0.269592
0.774933 0.632233 0.249298
0.889404 0.646179 0.244049
0.965759 0.663391 0.253693
1.000000 0.671539 0.263824
0.301331 0.614258 0.309235
0.327240 0.621307 0.304474
0.370544 0.633301 0.304718
0.490234 0.674866 0.317139
0.660858 0.722961 0.325867
0.807709 0.740143 0.317596
0.905151 0.739899 0.303070
0.974823 0.749573 0.301666
1.000000 0.760620 0.307159
0.351440 0.687317 0.334442
0.378143 0.695526 0.332947
0.424561 0.709412 0.339355
0.537415 0.746094 0.353241
0.690491 0.794342 0.363129
0.835724 0.825378 0.365814
0.924896 0.826904 0.355194
0.983612 0.827698 0.348328
1.000000 0.835938 0.349640
0.390625 0.745117 0.347656
0.420258 0.754456 0.351929
0.473053 0.769745 0.362946
0.574249 0.800751 0.376007
0.706055 0.844940 0.384521
0.841980 0.885895 0.392090
0.936584 0.905609 0.391815
0.991211 0.903381 0.383331
1.000000 0.908112 0.382324
0.033905 0.012726 0.203522
0.119537 0.009186 0.203583
0.288818 0.052765 0.214233
0.462189 0.086853 0.230499
0.600952 0.097198 0.241455
0.708649 0.110596 0.253235
0.811890 0.130585 0.268250
0.898834 0.157288 0.285675
0.966949 0.194427 0.296234
0.079010 0.161896 0.246826
0.119904 0.153870 0.239624
0.252991 0.155457 0.229919
0.444580 0.171509 0.231659
0.605194 0.186157 0.241058
0.723907 0.205750 0.250244
0.826721 0.231110 0.258911
0.907410 0.262115 0.269379
0.971802 0.295959 0.281158
0.110199 0.252167 0.271088
0.135803 0.251007 0.265747
0.234436 0.259033 0.256836
0.427124 0.279785 0.248932
0.604919 0.299591 0.250366
0.737244 0.322021 0.258179
0.843903 0.343750 0.265778
0.921326 0.366241 0.275116
0.980103 0.389954 0.286102
0.136688 0.342407 0.297119
0.158020 0.346222 0.292236
0.226990 0.357574 0.281738
0.406982 0.388611 0.276367
0.605560 0.411713 0.265747
0.753876 0.427856 0.264069
0.863037 0.441650 0.269348
0.937073 0.457550 0.278412
0.989075 0.473511 0.289001
0.179596 0.437714 0.324890
0.204132 0.447205 0.321869
0.253265 0.456512 0.309204
0.394287 0.491241 0.309540
0.595490 0.521851 0.301147
0.760406 0.535309 0.278320
0.880463 0.546509 0.274536
0.954529 0.556763 0.283112
0.998505 0.562317 0.293823
0.246033 0.540131 0.356812
0.273926 0.551666 0.354523
0.310730 0.558380 0.343750
0.410583 0.587585 0.346954
0.597260 0.627686 0.352783
0.764648 0.641785 0.327789
0.890930 0.652496 0.309174
0.969208 0.666229 0.313507
1.000000 0.668640 0.319824
0.312592 0.630585 0.386597
0.338257 0.640472 0.382294
0.371277 0.647919 0.375732
0.455688 0.674927 0.383636
0.621399 0.719666 0.397461
0.791992 0.746887 0.388916
0.904388 0.748260 0.366302
0.977478 0.757477 0.361328
1.000000 0.766663 0.365509
0.362457 0.701263 0.404388
0.384979 0.708130 0.397888
0.421234 0.717529 0.396851
0.510010 0.746216 0.411530
0.658020 0.792084 0.427551
0.820801 0.829193 0.427673
0.923798 0.836182 0.414307
0.985321 0.836243 0.404327
1.000000 0.844452 0.406036
0.399323 0.755859 0.411682
0.422089 0.762146 0.407013
0.465820 0.773865 0.412476
0.557098 0.801758 0.429138
0.687469 0.845490 0.441895
0.832092 0.887878 0.444977
0.934235 0.912445 0.442749
0.992218 0.912262 0.434875
1.000000 0.916046 0.433746
0.085052 0.063599 0.285553
0.126953 0.054565 0.289093
0.229034 0.057220 0.289124
0.410248 0.105560 0.314026
0.578156 0.135132 0.335297
0.701111 0.144806 0.350403
0.812378 0.149170 0.364563
0.900757 0.161499 0.377228
0.969421 0.183472 0.382843
0.130737 0.198364 0.333771
0.149170 0.191284 0.331726
0.211884 0.177399 0.323395
0.381348 0.184784 0.321289
0.569855 0.206146 0.331573
0.708038 0.216064 0.341522
0.820496 0.224243 0.347565
0.903412 0.243378 0.352325
0.968811 0.273346 0.357300
0.160156 0.284180 0.357727
0.176117 0.285370 0.359497
0.217834 0.281158 0.356445
0.362823 0.286255 0.348328
0.563721 0.303375 0.342987
0.717773 0.320587 0.345673
0.835938 0.338470 0.350616
0.916382 0.360077 0.357300
0.977356 0.386902 0.366791
0.185913 0.368835 0.380432
0.202820 0.376099 0.384399
0.233917 0.377838 0.381073
0.353271 0.392853 0.378601
0.563812 0.418976 0.371368
0.732849 0.440094 0.365692
0.856537 0.457733 0.368469
0.935028 0.473572 0.374664
0.989227 0.490204 0.383026
0.209045 0.457672 0.407562
0.230164 0.470947 0.412964
0.259338 0.478149 0.408203
0.349609 0.494904 0.402679
0.550812 0.528717 0.402252
0.744629 0.550751 0.388428
0.878418 0.560791 0.380493
0.955017 0.568695 0.383423
0.999176 0.574982 0.389618
0.249725 0.550659 0.435303
0.277679 0.566315 0.439148
0.309357 0.576721 0.434692
0.376678 0.592773 0.428558
0.546021 0.627319 0.437103
0.743988 0.654602 0.430969
0.890411 0.663696 0.406952
0.971893 0.671082 0.400238
1.000000 0.669647 0.401062
0.312897 0.637756 0.458557
0.340790 0.652252 0.459656
0.371704 0.662872 0.455688
0.429626 0.679962 0.453522
0.572296 0.715302 0.469269
0.761902 0.752472 0.477905
0.899841 0.760162 0.455688
0.979401 0.767426 0.438873
1.000000 0.772614 0.435547
0.367920 0.710907 0.474335
0.392090 0.720062 0.469666
0.422119 0.728088 0.464294
0.484619 0.747559 0.468536
0.616547 0.787598 0.490601
0.792755 0.830963 0.504089
0.918213 0.847626 0.494659
0.985901 0.847687 0.477142
1.000000 0.855011 0.472931
0.408936 0.767029 0.478943
0.429779 0.772308 0.472046
0.461304 0.779724 0.469543
0.532623 0.800629 0.478516
0.659790 0.843994 0.499695
0.815155 0.889648 0.511139
0.928680 0.920135 0.509735
0.992554 0.923767 0.500916
1.000000 0.925659 0.493683
0.130310 0.104462 0.356262
0.161194 0.107727 0.375916
0.208893 0.087646 0.366425
0.348511 0.104309 0.377991
0.527069 0.145844 0.407166
0.668854 0.176910 0.426178
0.790039 0.192322 0.440857
0.888306 0.199677 0.455597
0.964539 0.209717 0.467072
0.170929 0.230560 0.413361
0.185669 0.226868 0.415710
0.215210 0.211609 0.410767
0.324219 0.196198 0.402557
0.504272 0.215637 0.410583
0.668915 0.242767 0.424591
0.800507 0.255585 0.434418
0.894073 0.262238 0.441559
0.963989 0.272949 0.446320
0.198639 0.313873 0.438477
0.214478 0.317780 0.442932
0.237579 0.314331 0.444458
0.316803 0.303741 0.440155
0.486877 0.309326 0.432373
0.671356 0.329132 0.432098
0.815826 0.342041 0.434906
0.906769 0.352295 0.437958
0.971405 0.370300 0.442657
0.228729 0.394318 0.457825
0.247223 0.403687 0.464630
0.268341 0.405975 0.467529
0.326385 0.407318 0.469818
0.483856 0.419342 0.466980
0.682739 0.437195 0.454742
0.837585 0.454102 0.450562
0.926941 0.468964 0.453735
0.985565 0.487732 0.461365
0.255249 0.475708 0.479218
0.275818 0.490143 0.487854
0.297729 0.497955 0.491425
0.341797 0.504761 0.492004
0.477020 0.526581 0.496155
0.695709 0.554016 0.488037
0.864105 0.572632 0.479523
0.951721 0.583649 0.481201
0.999329 0.592590 0.486450
0.279999 0.562531 0.506195
0.302765 0.579346 0.514465
0.326752 0.591064 0.518005
0.366669 0.602325 0.516815
0.476379 0.623932 0.519775
0.690796 0.658936 0.523651
0.881653 0.678650 0.512390
0.973053 0.683563 0.504028
1.000000 0.682190 0.503723
0.317627 0.645447 0.529358
0.341370 0.660156 0.533386
0.368011 0.672272 0.534454
0.409943 0.687012 0.532867
0.511841 0.711212 0.538452
0.703949 0.750824 0.554138
0.887573 0.773926 0.551392
0.980835 0.780212 0.535828
1.000000 0.780487 0.528168
0.365814 0.715881 0.541534
0.389557 0.727081 0.541412
0.417145 0.736664 0.539307
0.463226 0.751801 0.537231
0.565399 0.781799 0.548309
0.741852 0.826904 0.570801
0.904022 0.858337 0.578522
0.985321 0.863220 0.567596
1.000000 0.869720 0.561493
0.410370 0.773956 0.546814
0.433228 0.781342 0.542542
0.460876 0.788544 0.538666
0.508911 0.802002 0.536072
0.614777 0.837250 0.549957
0.781555 0.887085 0.571808
0.917572 0.927063 0.583160
0.991638 0.937805 0.583252
1.000000 0.938538 0.574493
0.164032 0.137177 0.421356
0.196899 0.145355 0.452362
0.225494 0.123199 0.445862
0.311371 0.113770 0.441223
0.458649 0.141327 0.464020
0.624939 0.181396 0.490509
0.760864 0.212921 0.507446
0.866913 0.235474 0.519989
0.949707 0.253021 0.531433
0.207245 0.258209 0.484344
0.222809 0.255920 0.489227
0.242035 0.242920 0.486969
0.299255 0.218750 0.478210
0.433899 0.216278 0.477478
0.614471 0.245636 0.492981
0.767456 0.276337 0.508057
0.876373 0.295837 0.517578
0.954407 0.309479 0.525085
0.233795 0.339844 0.508636
0.249878 0.345093 0.513641
0.268158 0.343567 0.516235
0.308807 0.330902 0.516083
0.420532 0.316101 0.509033
0.605621 0.331360 0.507629
0.775818 0.356964 0.513672
0.889191 0.372070 0.518921
0.962341 0.382996 0.522644
0.263306 0.417847 0.526154
0.281158 0.427582 0.532867
0.299805 0.431274 0.537292
0.331604 0.431519 0.542664
0.422791 0.428772 0.545044
0.606262 0.436462 0.536072
0.791229 0.454193 0.528503
0.908508 0.465485 0.527618
0.976013 0.478333 0.530975
0.292297 0.494110 0.542969
0.312256 0.508026 0.551453
0.332123 0.515961 0.557190
0.360657 0.521454 0.562592
0.434540 0.532043 0.571747
0.614380 0.549591 0.571930
0.816925 0.566162 0.558075
0.935089 0.578003 0.552887
0.994354 0.591675 0.558594
0.319885 0.573120 0.565308
0.340851 0.590057 0.575562
0.362183 0.601624 0.582489
0.390228 0.610596 0.587219
0.453125 0.625183 0.594818
0.616425 0.653687 0.604675
0.841156 0.682281 0.600220
0.963806 0.694336 0.591125
1.000000 0.700073 0.593170
0.345978 0.654327 0.592072
0.366699 0.670380 0.600342
0.388641 0.682373 0.605682
0.417725 0.693787 0.609009
0.478729 0.711548 0.614227
0.623657 0.741608 0.625702
0.846252 0.779053 0.633942
0.977203 0.795868 0.626495
1.000000 0.796295 0.619781
0.374817 0.725739 0.610535
0.394592 0.736237 0.612793
0.416443 0.744720 0.613373
0.449158 0.756531 0.613922
0.515533 0.778107 0.617371
0.656189 0.814240 0.632050
0.862671 0.858856 0.648804
0.980591 0.880341 0.651245
1.000000 0.887207 0.647095
0.408966 0.779816 0.613831
0.427979 0.786438 0.612061
0.451294 0.793579 0.609619
0.486176 0.805115 0.607208
0.559113 0.829987 0.609436
0.706024 0.875031 0.626831
0.889313 0.926788 0.645813
0.987335 0.947327 0.656097
1.000000 0.948425 0.652710
0.196564 0.167877 0.483521
0.230835 0.171082 0.513733
0.255676 0.150574 0.511719
0.308746 0.134216 0.501740
0.415985 0.143829 0.511444
0.569214 0.177338 0.536560
0.721069 0.215698 0.561188
0.846802 0.244934 0.577667
0.934021 0.272095 0.590088
0.239777 0.278839 0.541321
0.255981 0.276459 0.547241
0.272827 0.263947 0.545990
0.304504 0.241272 0.538757
0.395630 0.224335 0.532867
0.553741 0.240845 0.543457
0.720062 0.276184 0.563507
0.854919 0.305939 0.578735
0.940613 0.331635 0.589264
0.264404 0.358795 0.563568
0.279327 0.363525 0.568268
0.295898 0.362213 0.570923
0.321045 0.352722 0.571930
0.390289 0.328094 0.567230
0.542389 0.326111 0.563995
0.718414 0.353394 0.571930
0.863739 0.381409 0.582947
0.949219 0.404694 0.591370
0.289856 0.434082 0.579926
0.306335 0.443207 0.586121
0.323090 0.446594 0.590363
0.345490 0.447205 0.595337
0.400757 0.439606 0.600861
0.542084 0.432343 0.596375
0.723236 0.448120 0.590424
0.876495 0.469940 0.592896
0.961945 0.489685 0.599457
0.318542 0.507355 0.595337
0.336823 0.520111 0.603363
0.355103 0.527435 0.609131
0.376892 0.531586 0.614929
0.424011 0.538452 0.626526
0.552490 0.546509 0.633270
0.739563 0.556641 0.622772
0.897797 0.570557 0.615631
0.981110 0.586853 0.620209
0.348389 0.581696 0.615326
0.368286 0.596680 0.624878
0.388824 0.607452 0.632202
0.412628 0.614227 0.638092
0.458740 0.626129 0.648834
0.571686 0.648041 0.663788
0.765991 0.671265 0.665924
0.929169 0.684631 0.655975
1.000000 0.697357 0.656525
0.377106 0.656799 0.639587
0.397980 0.672546 0.649231
0.420563 0.685272 0.657043
0.446716 0.695129 0.663208
0.492462 0.710571 0.672150
0.588623 0.735565 0.685852
0.779907 0.772278 0.698029
0.955231 0.799194 0.696503
1.000000 0.809967 0.693390
0.402893 0.730255 0.663757
0.422455 0.742462 0.670135
0.444366 0.752869 0.675385
0.470825 0.763672 0.680084
0.513763 0.781097 0.686218
0.604126 0.808044 0.697296
0.794861 0.850067 0.708954
0.966339 0.890656 0.716827
1.000000 0.907410 0.718597
0.422821 0.791565 0.678558
0.441467 0.798218 0.680450
0.462067 0.804840 0.681610
0.487976 0.814270 0.683289
0.532318 0.832977 0.686279
0.630096 0.865082 0.694244
0.837402 0.919159 0.705353
0.981445 0.950775 0.718323
1.000000 0.951660 0.723145
0.227570 0.192932 0.537628
0.260651 0.191193 0.562988
0.283997 0.174255 0.563904
0.321106 0.157562 0.553284
0.398529 0.156525 0.553467
0.526489 0.177643 0.572388
0.672150 0.213806 0.598816
0.819977 0.248993 0.622406
0.919159 0.276306 0.638977
0.267883 0.295807 0.587555
0.283783 0.293457 0.593719
0.299744 0.280762 0.592743
0.322449 0.259094 0.586060
0.382812 0.238037 0.578094
0.511688 0.241974 0.583008
0.664734 0.271149 0.601959
0.823853 0.306213 0.623810
0.925110 0.334229 0.639404
0.289337 0.373047 0.606781
0.302765 0.375977 0.610596
0.318054 0.373413 0.613129
0.337982 0.364441 0.614075
0.382416 0.339783 0.610046
0.500702 0.325073 0.605957
0.658539 0.343719 0.612701
0.827026 0.376038 0.628296
0.932068 0.404510 0.642548
0.310394 0.444611 0.621002
0.324982 0.452026 0.626343
0.340240 0.453949 0.630249
0.359131 0.452789 0.634186
0.396149 0.444305 0.638763
0.500305 0.427490 0.637421
0.660614 0.433624 0.633575
0.833557 0.459259 0.638611
0.941803 0.486023 0.649658
0.335999 0.514038 0.634949
0.352234 0.524353 0.641754
0.368866 0.529907 0.647064
0.387207 0.531799 0.652130
0.420410 0.535736 0.661652
0.513214 0.537292 0.670624
0.674316 0.539825 0.665436
0.848633 0.555756 0.660156
0.956238 0.577637 0.666382
0.365112 0.583832 0.652161
0.382965 0.595520 0.659729
0.402832 0.605072 0.666748
0.424469 0.610870 0.672668
0.458527 0.619110 0.682068
0.543915 0.636200 0.698120
0.702454 0.653839 0.704926
0.876953 0.666046 0.697479
0.978516 0.681763 0.697937
0.394104 0.651917 0.671417
0.413544 0.664490 0.679077
0.437042 0.677185 0.687225
0.463959 0.688721 0.695282
0.502289 0.702057 0.705078
0.581238 0.725342 0.722504
0.736633 0.759399 0.742767
0.915192 0.784149 0.745300
1.000000 0.798706 0.743011
0.423126 0.720856 0.692627
0.443329 0.732391 0.699677
0.467407 0.744690 0.707428
0.495667 0.757843 0.715912
0.533661 0.775330 0.726898
0.604919 0.801941 0.745117
0.766235 0.843811 0.768616
0.952393 0.889038 0.783844
1.000000 0.913727 0.800873
0.449036 0.785828 0.712585
0.467285 0.793915 0.717773
0.489197 0.803131 0.723846
0.514893 0.814148 0.730988
0.548035 0.831940 0.740845
0.609772 0.860657 0.757080
0.774475 0.907349 0.773956
0.969482 0.950470 0.791412
1.000000 0.948700 0.855438
0.255005 0.209808 0.582336
0.283508 0.203613 0.601807
0.301575 0.185760 0.600464
0.330627 0.167938 0.589935
0.388824 0.164276 0.585480
0.490692 0.176208 0.598724
0.626312 0.207520 0.624573
0.779968 0.246399 0.651733
0.901886 0.279114 0.674713
0.290222 0.308960 0.624451
0.303467 0.304016 0.628540
0.317535 0.289856 0.627014
0.335999 0.267609 0.620544
0.376862 0.246155 0.611572
0.477875 0.241699 0.612671
0.618439 0.263702 0.629517
0.779205 0.299988 0.653137
0.907440 0.334106 0.675598
0.308990 0.385345 0.640442
0.320282 0.384827 0.643005
0.333954 0.380219 0.645081
0.351715 0.370148 0.645752
0.381134 0.346741 0.641388
0.468506 0.324615 0.636841
0.613373 0.333679 0.642242
0.778107 0.365204 0.658295
0.913910 0.399994 0.678558
0.328033 0.455688 0.653625
0.340668 0.459961 0.657623
0.354523 0.459381 0.660706
0.371521 0.456207 0.663666
0.397461 0.446411 0.665955
0.470062 0.424225 0.665558
0.615692 0.419983 0.663574
0.783508 0.444550 0.669739
0.922272 0.475922 0.684235
0.351807 0.523163 0.667603
0.366028 0.530518 0.672638
0.380402 0.532806 0.676392
0.396881 0.532501 0.679962
0.421173 0.532318 0.685608
0.484192 0.528107 0.693329
0.627167 0.523438 0.692749
0.800507 0.538025 0.690033
0.935028 0.561554 0.696442
0.379822 0.588989 0.681793
0.395782 0.597992 0.687347
0.413605 0.604675 0.692719
0.432953 0.607910 0.697327
0.457977 0.611481 0.704010
0.516693 0.621796 0.718750
0.655151 0.635254 0.730957
0.833008 0.645691 0.725006
0.954651 0.660706 0.723572
0.406860 0.651093 0.696533
0.424896 0.661407 0.702576
0.447113 0.672424 0.709900
0.473053 0.682922 0.718201
0.503357 0.692291 0.727509
0.562347 0.710175 0.746826
0.696655 0.741669 0.782593
0.876556 0.763611 0.794586
0.984070 0.777344 0.789429
0.437378 0.715332 0.715179
0.457184 0.726135 0.722351
0.480988 0.737946 0.731018
0.508881 0.750946 0.741180
0.541473 0.765625 0.753784
0.595947 0.788147 0.780670
0.728394 0.827606 0.835815
0.930054 0.877502 0.859344
1.000000 0.905853 0.864502
0.466309 0.779266 0.737976
0.484406 0.786957 0.743713
0.505768 0.795654 0.750458
0.530304 0.806000 0.759186
0.559784 0.820129 0.773651
0.606506 0.845184 0.807190
0.713013 0.886414 0.852539
0.941681 0.947998 0.863983
1.000000 0.946045 0.858154
