Kodak Vision2 250D (5205) - Only color.cube
# Created by Benjamin (IWLTBAP) : http://luts.iwltbap.com
# Copyright: (C) Copyright 2010-2017 Triune Films and IWLTBAP SAS
# Cannot be resold, shared or otherwise redistributed
TITLE "Film Print Emulation LUTs Pack (Rec.709, sRGB, DCI-P3)"
LUT_3D_SIZE 9
0.000916 0.000916 0.000000
0.112915 0.000000 0.000000
0.216217 0.000000 0.000000
0.322357 0.000000 0.000000
0.426636 0.013977 0.000000
0.524872 0.061401 0.000000
0.614410 0.099182 0.000000
0.699921 0.120697 0.000000
0.780151 0.143463 0.000000
0.014526 0.085541 0.000000
0.135437 0.103760 0.000000
0.259674 0.112244 0.000000
0.379700 0.128479 0.000000
0.488068 0.141876 0.000000
0.582092 0.158844 0.000000
0.659210 0.176086 0.000000
0.736237 0.189636 0.000000
0.808136 0.196686 0.000000
0.088165 0.172974 0.000000
0.201324 0.206207 0.000000
0.305511 0.226013 0.000000
0.433197 0.240692 0.000000
0.551392 0.258240 0.000000
0.640930 0.273865 0.000000
0.715607 0.285828 0.000000
0.781433 0.291443 0.000000
0.847992 0.288666 0.000000
0.200958 0.295258 0.000000
0.304047 0.327271 0.000000
0.364258 0.368347 0.040222
0.459198 0.379791 0.000000
0.590851 0.380035 0.000000
0.678619 0.388916 0.000000
0.751770 0.396545 0.000000
0.816803 0.400055 0.000000
0.884583 0.393677 0.004547
0.321960 0.436005 0.000000
0.392731 0.458893 0.000000
0.425781 0.504517 0.094818
0.507538 0.517487 0.062805
0.586090 0.523621 0.000000
0.670898 0.523163 0.000000
0.767029 0.517609 0.000000
0.840820 0.513885 0.009857
0.909302 0.504852 0.025909
0.392700 0.552826 0.000000
0.449829 0.568481 0.023712
0.483032 0.608398 0.100769
0.530640 0.634613 0.125488
0.597198 0.643677 0.114044
0.672272 0.646149 0.074951
0.756714 0.641083 0.025879
0.829285 0.641205 0.028107
0.921204 0.623627 0.041443
0.433655 0.661957 0.033356
0.483276 0.668152 0.037811
0.520081 0.696014 0.111816
0.583221 0.715149 0.117401
0.642090 0.726990 0.116852
0.691040 0.737976 0.129059
0.747467 0.745056 0.133606
0.825043 0.745270 0.091827
0.911011 0.739838 0.072571
0.458527 0.753387 0.059998
0.500214 0.759430 0.062195
0.548492 0.778534 0.111145
0.616516 0.793335 0.111816
0.695740 0.804657 0.089417
0.761230 0.812866 0.076263
0.811401 0.822906 0.099213
0.841095 0.836426 0.152435
0.908600 0.840546 0.153717
0.498688 0.821350 0.075317
0.537048 0.826477 0.077240
0.590851 0.838562 0.098846
0.652191 0.855927 0.110718
0.725891 0.867493 0.082092
0.780914 0.882996 0.080597
0.839569 0.892914 0.079803
0.906281 0.897644 0.082489
0.945435 0.902039 0.118958
0.018616 0.051758 0.097534
0.099060 0.050323 0.109650
0.216339 0.000000 0.086487
0.313934 0.000000 0.078003
0.415131 0.000000 0.077454
0.505585 0.000000 0.078217
0.597015 0.000000 0.071106
0.684143 0.011688 0.047821
0.770844 0.065735 0.029785
0.000000 0.109192 0.117065
0.130035 0.130707 0.113556
0.257721 0.110382 0.060120
0.370819 0.108826 0.006958
0.467133 0.115875 0.000000
0.561066 0.137909 0.016144
0.647736 0.152313 0.002350
0.730835 0.170563 0.045746
0.808685 0.175201 0.000732
0.042084 0.204559 0.118103
0.182312 0.223663 0.089539
0.277252 0.227478 0.037323
0.405426 0.230774 0.000000
0.520905 0.243958 0.000000
0.618805 0.259186 0.021332
0.703674 0.270813 0.000000
0.776794 0.275757 0.035706
0.848328 0.273041 0.002319
0.164642 0.315796 0.113739
0.266693 0.332916 0.028381
0.350159 0.357025 0.053497
0.427582 0.367004 0.022125
0.555969 0.365906 0.000000
0.658539 0.378174 0.040131
0.741669 0.386536 0.007874
0.814056 0.389709 0.018280
0.885803 0.382507 0.028198
0.269226 0.441406 0.091217
0.358551 0.454559 0.017975
0.440826 0.476288 0.033417
0.462341 0.510010 0.112946
0.555634 0.515106 0.049011
0.653595 0.514832 0.054718
0.758514 0.509583 0.030426
0.838440 0.504944 0.038605
0.910400 0.495148 0.047028
0.348450 0.558350 0.118408
0.418396 0.565399 0.085968
0.496857 0.585510 0.091858
0.548859 0.616272 0.125488
0.579498 0.638947 0.157379
0.661102 0.642242 0.110199
0.752502 0.638153 0.057129
0.830902 0.638702 0.055359
0.923767 0.617371 0.063782
0.398529 0.664795 0.139709
0.454803 0.668610 0.125977
0.533844 0.679749 0.122223
0.598602 0.703125 0.123291
0.655914 0.719604 0.109619
0.699463 0.735229 0.139587
0.743439 0.745941 0.162415
0.826385 0.745636 0.109863
0.913757 0.739410 0.088898
0.431549 0.757446 0.142242
0.479950 0.762360 0.120300
0.556244 0.771606 0.120667
0.627533 0.789124 0.124512
0.697479 0.803894 0.116669
0.762726 0.816742 0.093353
0.819855 0.824921 0.110809
0.847717 0.838776 0.173492
0.911530 0.843201 0.174805
0.474670 0.824951 0.089966
0.521515 0.829376 0.093903
0.587891 0.838837 0.096527
0.657684 0.855347 0.098785
0.721802 0.871429 0.098663
0.780365 0.886932 0.097717
0.842529 0.897156 0.097351
0.909485 0.901703 0.099274
0.950439 0.905212 0.134796
0.002716 0.082703 0.169403
0.042908 0.088715 0.188995
0.205353 0.071320 0.196686
0.324371 0.000000 0.185608
0.422424 0.000000 0.178894
0.515778 0.000000 0.178986
0.603241 0.000000 0.178253
0.687683 0.000000 0.174164
0.767212 0.000000 0.162354
0.000000 0.137024 0.225128
0.064697 0.151642 0.236938
0.240417 0.145599 0.216614
0.367340 0.120758 0.196899
0.463440 0.114197 0.182709
0.555023 0.120392 0.178619
0.635284 0.138763 0.176880
0.717407 0.146423 0.173950
0.790985 0.138214 0.156006
0.000000 0.227386 0.257477
0.125854 0.247223 0.248413
0.275635 0.253021 0.221771
0.388458 0.242828 0.205048
0.495209 0.250641 0.206909
0.594391 0.259674 0.208801
0.681488 0.269012 0.210938
0.764801 0.269012 0.203430
0.843353 0.256927 0.182251
0.073181 0.337799 0.255981
0.219299 0.352570 0.241852
0.327301 0.359497 0.224365
0.414429 0.353516 0.213898
0.526703 0.355865 0.214722
0.624481 0.366058 0.219971
0.718140 0.374634 0.222626
0.800293 0.376099 0.214874
0.880463 0.360382 0.185638
0.214569 0.460205 0.274567
0.294556 0.465973 0.254150
0.387756 0.474152 0.243439
0.459747 0.484009 0.247040
0.548889 0.481079 0.242218
0.655853 0.487427 0.238770
0.748505 0.494293 0.240051
0.830048 0.493652 0.228912
0.911774 0.478516 0.187500
0.291626 0.567078 0.290710
0.359528 0.570862 0.263885
0.442413 0.578186 0.257996
0.523926 0.593933 0.266113
0.576202 0.613708 0.276337
0.659302 0.619934 0.270294
0.751221 0.623779 0.255493
0.842773 0.621796 0.245026
0.927063 0.606873 0.197388
0.345581 0.669495 0.294647
0.404022 0.671753 0.273315
0.488159 0.680969 0.275513
0.566101 0.697235 0.282593
0.645416 0.711151 0.284393
0.696716 0.728577 0.292786
0.747253 0.741058 0.298706
0.834625 0.743347 0.258942
0.921997 0.739716 0.207123
0.385956 0.762482 0.289917
0.436096 0.766968 0.276764
0.525940 0.776550 0.278564
0.597168 0.790771 0.288910
0.676239 0.806793 0.292877
0.749969 0.820038 0.291473
0.819244 0.829407 0.279999
0.849152 0.843262 0.292572
0.919952 0.851807 0.237793
0.436096 0.833893 0.265717
0.480103 0.837738 0.251465
0.560791 0.845276 0.234253
0.634705 0.862427 0.256561
0.708557 0.878418 0.266449
0.774811 0.893585 0.272980
0.844391 0.904205 0.263245
0.915070 0.911560 0.228699
0.963562 0.912781 0.156403
0.000000 0.103973 0.242310
0.000000 0.106293 0.255493
0.140503 0.111847 0.289154
0.296204 0.081146 0.272675
0.421539 0.010925 0.278290
0.517761 0.000000 0.277283
0.605164 0.031982 0.276794
0.691711 0.043640 0.273682
0.773499 0.009521 0.259003
0.000000 0.156738 0.300110
0.000000 0.165558 0.311615
0.171814 0.165680 0.323120
0.335602 0.155151 0.305054
0.455292 0.146698 0.301483
0.554291 0.144989 0.294006
0.639679 0.150330 0.288788
0.723877 0.154114 0.282349
0.799957 0.139221 0.262482
0.000000 0.238586 0.346436
0.061462 0.260498 0.357330
0.232880 0.273743 0.358429
0.376343 0.256805 0.322571
0.487640 0.255585 0.317230
0.589630 0.258667 0.311279
0.676086 0.263489 0.306702
0.760223 0.260193 0.296844
0.836273 0.241272 0.271545
0.000000 0.347992 0.389343
0.132111 0.367218 0.384460
0.282410 0.374603 0.354889
0.411041 0.373047 0.341156
0.510681 0.370453 0.336243
0.613892 0.378204 0.339508
0.708496 0.382690 0.339355
0.791229 0.377960 0.329407
0.877136 0.358978 0.302887
0.103088 0.470154 0.400055
0.225128 0.478241 0.387451
0.348602 0.485474 0.376740
0.451599 0.488098 0.367981
0.537628 0.478424 0.355499
0.640961 0.487335 0.359253
0.736664 0.494080 0.359802
0.823547 0.491821 0.347229
0.907166 0.471497 0.317047
0.213226 0.582581 0.416351
0.296600 0.587250 0.407135
0.399445 0.594788 0.400238
0.489777 0.601807 0.394562
0.567413 0.610962 0.396637
0.664520 0.607300 0.385742
0.758667 0.614441 0.384491
0.846588 0.615540 0.372650
0.927490 0.602997 0.336273
0.282745 0.675018 0.426086
0.350555 0.679291 0.422302
0.440369 0.689972 0.408539
0.534851 0.702423 0.410706
0.615570 0.714722 0.416748
0.691864 0.725769 0.417236
0.762390 0.730164 0.427673
0.855011 0.734772 0.397125
0.939301 0.731934 0.364349
0.334442 0.767273 0.434326
0.388641 0.772949 0.430206
0.476715 0.784119 0.415894
0.576447 0.801239 0.421967
0.652771 0.814056 0.430511
0.738190 0.827057 0.432037
0.813995 0.835480 0.427216
0.847198 0.849945 0.440155
0.931122 0.854858 0.397675
0.387085 0.837402 0.418518
0.432709 0.843414 0.406525
0.517670 0.855774 0.389221
0.613007 0.873383 0.389099
0.688568 0.888367 0.406189
0.766541 0.901001 0.416656
0.841370 0.913544 0.418762
0.916504 0.923279 0.410828
0.960968 0.928345 0.394928
0.000000 0.120636 0.306732
0.000000 0.117035 0.302368
0.063141 0.127991 0.333710
0.246307 0.117279 0.354919
0.381104 0.089478 0.341217
0.497498 0.083771 0.359314
0.598816 0.093445 0.370605
0.689301 0.097260 0.370605
0.774445 0.049988 0.350861
0.000000 0.170563 0.369781
0.000000 0.173126 0.370636
0.093750 0.171936 0.373932
0.270325 0.172180 0.391663
0.414581 0.161987 0.381622
0.533875 0.163727 0.388245
0.631927 0.168579 0.390594
0.721588 0.167877 0.383545
0.804993 0.147339 0.359894
0.000000 0.250061 0.426880
0.000000 0.263428 0.431305
0.183350 0.281799 0.436676
0.315979 0.271667 0.426605
0.457245 0.266876 0.412933
0.579285 0.269318 0.418243
0.675415 0.269836 0.414276
0.762390 0.264404 0.400787
0.842926 0.243774 0.375122
0.000000 0.352051 0.471436
0.074860 0.367004 0.474915
0.240936 0.385712 0.469574
0.381470 0.391022 0.452881
0.497894 0.374481 0.435059
0.605560 0.380402 0.438721
0.704407 0.382721 0.438141
0.788910 0.373444 0.425201
0.875305 0.349426 0.392914
0.029877 0.471741 0.519470
0.157654 0.486786 0.514709
0.290222 0.494049 0.494598
0.424194 0.494934 0.473999
0.534485 0.496796 0.468811
0.628754 0.496582 0.467529
0.732117 0.502716 0.471039
0.823547 0.498383 0.461609
0.911865 0.475342 0.429810
0.148163 0.589600 0.536102
0.218292 0.595856 0.518311
0.347565 0.600616 0.508118
0.462097 0.605530 0.504425
0.567169 0.612610 0.503571
0.654572 0.611328 0.496826
0.756073 0.617950 0.499176
0.850006 0.621399 0.489014
0.932190 0.607300 0.455200
0.191956 0.686554 0.542786
0.267517 0.691193 0.535919
0.390198 0.699677 0.532806
0.498474 0.711761 0.535767
0.601685 0.722839 0.534729
0.688324 0.731873 0.538300
0.777283 0.730988 0.532501
0.872772 0.737823 0.523529
0.949097 0.735626 0.494171
0.260132 0.777924 0.550323
0.325073 0.780792 0.543701
0.430328 0.788147 0.545227
0.535767 0.807098 0.548065
0.637482 0.825592 0.551422
0.726227 0.837128 0.559723
0.812439 0.846466 0.559479
0.862305 0.856140 0.570282
0.953003 0.858124 0.537720
0.325439 0.847046 0.546021
0.377045 0.852234 0.542908
0.465485 0.859253 0.542419
0.565613 0.880554 0.538605
0.670776 0.900635 0.541290
0.754852 0.912750 0.557495
0.838440 0.927338 0.562500
0.919250 0.938690 0.563660
0.962738 0.944519 0.560394
0.000000 0.141418 0.370056
0.000000 0.133270 0.352356
0.000000 0.139893 0.372040
0.186707 0.141022 0.405304
0.331940 0.126099 0.413666
0.450317 0.107513 0.415924
0.572998 0.115448 0.439056
0.680481 0.123840 0.455170
0.774261 0.110291 0.446716
0.000000 0.181152 0.429596
0.000000 0.183105 0.426086
0.011505 0.177856 0.412292
0.211487 0.184204 0.442017
0.359619 0.180389 0.450287
0.481323 0.173431 0.452271
0.603790 0.179047 0.465607
0.711975 0.183197 0.475739
0.802032 0.167664 0.458740
0.000000 0.260345 0.493622
0.000000 0.266693 0.492188
0.125854 0.283417 0.492126
0.257629 0.275696 0.493286
0.399353 0.274933 0.489655
0.532593 0.273712 0.493317
0.650269 0.278809 0.506439
0.756195 0.274109 0.504700
0.844940 0.249817 0.476471
0.000000 0.355438 0.546051
0.038513 0.367889 0.547119
0.199158 0.391632 0.544800
0.339203 0.401093 0.545105
0.450348 0.389587 0.529694
0.585999 0.389648 0.533356
0.693970 0.390320 0.540009
0.788147 0.379639 0.531555
0.878998 0.352844 0.500946
0.000000 0.464630 0.590485
0.114197 0.475952 0.586761
0.250824 0.496704 0.579590
0.387512 0.505341 0.574951
0.506378 0.507751 0.564117
0.613525 0.498535 0.558685
0.718658 0.503662 0.563751
0.818848 0.497559 0.559692
0.908966 0.468781 0.527954
0.087463 0.587402 0.631500
0.175110 0.599182 0.626312
0.292419 0.606781 0.611633
0.427917 0.611420 0.593964
0.545227 0.618378 0.597198
0.649811 0.623810 0.601196
0.746552 0.624481 0.599548
0.849304 0.628632 0.600250
0.936768 0.616577 0.577942
0.157379 0.689545 0.646484
0.220612 0.695557 0.638672
0.328613 0.701660 0.621613
0.462250 0.712524 0.624512
0.580231 0.722076 0.629395
0.683258 0.733795 0.636932
0.772888 0.735748 0.635254
0.878540 0.745026 0.635437
0.955872 0.745300 0.620087
0.197937 0.780853 0.653931
0.244293 0.786316 0.648743
0.361267 0.795044 0.647614
0.488983 0.812683 0.655121
0.608948 0.829529 0.666260
0.716522 0.844238 0.670868
0.808075 0.854980 0.675781
0.896637 0.856842 0.676147
0.968292 0.862457 0.664215
0.243195 0.856720 0.659912
0.298828 0.862152 0.659210
0.401459 0.871429 0.660706
0.517975 0.888794 0.668060
0.628204 0.905518 0.681427
0.739105 0.928253 0.685028
0.829193 0.941223 0.691162
0.920166 0.953003 0.698059
0.966187 0.960907 0.702576
0.000000 0.158539 0.431580
0.000000 0.146667 0.408722
0.000000 0.150574 0.407776
0.134857 0.155579 0.432983
0.275818 0.153320 0.468750
0.403625 0.143250 0.479706
0.522614 0.133148 0.495453
0.647217 0.144135 0.521820
0.765930 0.140961 0.536530
0.000000 0.193298 0.484833
0.000000 0.193298 0.478851
0.000000 0.183960 0.458923
0.145782 0.190735 0.470337
0.294098 0.193604 0.507172
0.426758 0.190460 0.519012
0.551208 0.186066 0.528839
0.677551 0.193085 0.545685
0.789581 0.185059 0.553650
0.000000 0.268555 0.555267
0.000000 0.269348 0.549255
0.055756 0.284637 0.546783
0.186737 0.275391 0.539520
0.335114 0.279907 0.558502
0.468170 0.281616 0.561737
0.598236 0.281891 0.570740
0.724670 0.281982 0.581390
0.833435 0.264008 0.578461
0.000000 0.357849 0.606995
0.024323 0.364960 0.605225
0.140900 0.384735 0.603577
0.280579 0.400970 0.604218
0.390320 0.389893 0.605530
0.521393 0.392120 0.605316
0.653259 0.396088 0.614807
0.769257 0.388489 0.621002
0.874146 0.359528 0.606476
0.004028 0.462036 0.652649
0.063599 0.471649 0.650787
0.209442 0.495789 0.649597
0.340546 0.510956 0.647583
0.460297 0.516022 0.653381
0.567352 0.509430 0.644684
0.694824 0.511261 0.651276
0.804871 0.502380 0.653625
0.907471 0.472443 0.635101
0.048920 0.571503 0.691895
0.133148 0.583160 0.688995
0.250732 0.602753 0.685181
0.383118 0.616882 0.682129
0.506744 0.624817 0.685394
0.619598 0.631378 0.685211
0.725739 0.624634 0.683411
0.833954 0.625153 0.686737
0.932373 0.610992 0.675201
0.114655 0.683868 0.726410
0.179657 0.692993 0.723022
0.283783 0.706055 0.717163
0.416046 0.713745 0.712280
0.546478 0.724182 0.712830
0.656708 0.735657 0.724213
0.768188 0.748077 0.733215
0.870056 0.749664 0.731445
0.960205 0.755280 0.730499
0.160461 0.778229 0.741913
0.211090 0.785828 0.739777
0.308624 0.797913 0.738647
0.428101 0.811127 0.737244
0.564056 0.828369 0.751007
0.689240 0.842682 0.761078
0.799622 0.858978 0.770386
0.899536 0.861542 0.770020
0.978485 0.870544 0.773132
0.196594 0.854553 0.750793
0.244049 0.862030 0.751312
0.322479 0.876190 0.754395
0.438965 0.893585 0.763489
0.577911 0.911469 0.779846
0.703339 0.930634 0.792694
0.818817 0.949921 0.805359
0.919220 0.962463 0.807587
0.984222 0.972565 0.813171
0.000000 0.172638 0.489807
0.000000 0.160309 0.466888
0.000000 0.159058 0.455200
0.045715 0.164551 0.466614
0.216766 0.167725 0.506622
0.339691 0.166626 0.545471
0.463776 0.160706 0.560944
0.598694 0.154266 0.576111
0.732361 0.160217 0.598785
0.000000 0.203400 0.540009
0.000000 0.202057 0.533722
0.003540 0.187500 0.508545
0.047058 0.193848 0.506226
0.225769 0.201080 0.543243
0.358459 0.203796 0.578278
0.485016 0.201660 0.594666
0.622162 0.198975 0.604828
0.757446 0.197418 0.617828
0.000000 0.271027 0.607819
0.003815 0.268250 0.599701
0.042908 0.274323 0.594147
0.066833 0.264099 0.578156
0.245605 0.273865 0.599854
0.384857 0.279785 0.626556
0.527527 0.282806 0.639435
0.662903 0.284241 0.648865
0.794525 0.272583 0.653381
0.001129 0.353912 0.663605
0.033783 0.356354 0.661255
0.065765 0.365784 0.656311
0.179199 0.383270 0.657288
0.285156 0.376068 0.664001
0.426819 0.381287 0.678070
0.579437 0.386597 0.682556
0.716400 0.391205 0.693146
0.839844 0.367767 0.691376
0.025879 0.454498 0.708984
0.054474 0.456543 0.706573
0.116913 0.471344 0.706207
0.245850 0.492523 0.708099
0.368439 0.508606 0.721893
0.477539 0.501251 0.724945
0.625610 0.503754 0.723572
0.763275 0.508850 0.731598
0.884613 0.480469 0.728271
0.042877 0.557434 0.747040
0.078033 0.564117 0.745453
0.182373 0.584961 0.745667
0.298370 0.608002 0.750793
0.427307 0.627869 0.761749
0.554077 0.637604 0.770935
0.675964 0.629578 0.762787
0.806091 0.631409 0.769958
0.921875 0.616364 0.768433
0.078766 0.667969 0.784149
0.132599 0.672089 0.782013
0.224762 0.691010 0.782562
0.340759 0.709381 0.786224
0.469971 0.728729 0.800140
0.606995 0.743103 0.810791
0.735992 0.754883 0.815582
0.850220 0.749512 0.815430
0.952301 0.749390 0.816742
0.128876 0.767059 0.814911
0.174011 0.776337 0.813995
0.257874 0.791412 0.815186
0.371552 0.807312 0.820007
0.501038 0.826752 0.833466
0.638824 0.843201 0.845612
0.767822 0.857666 0.852417
0.893311 0.869873 0.862885
0.981140 0.880981 0.870270
0.160339 0.840881 0.826691
0.194550 0.852081 0.828369
0.266541 0.869019 0.836060
0.369812 0.890076 0.849274
0.497437 0.911163 0.864685
0.639099 0.932343 0.873840
0.780579 0.950317 0.885101
0.916718 0.972900 0.898315
0.990997 0.984497 0.902283
0.000000 0.177795 0.543732
0.000000 0.166687 0.522705
0.000000 0.162048 0.509308
0.019714 0.163544 0.499573
0.095062 0.170471 0.531189
0.254456 0.175537 0.581207
0.381561 0.176331 0.622437
0.524353 0.172638 0.643707
0.677185 0.170105 0.661957
0.000000 0.202057 0.580597
0.000000 0.198761 0.576111
0.017517 0.183044 0.554016
0.042877 0.184113 0.546692
0.077911 0.191589 0.560730
0.255432 0.202332 0.614563
0.390869 0.206116 0.654144
0.542419 0.205872 0.675781
0.700165 0.205719 0.687012
0.000000 0.258026 0.646057
0.017395 0.251801 0.636688
0.050262 0.248627 0.632294
0.071075 0.234100 0.615997
0.094849 0.244873 0.625793
0.254761 0.261108 0.666321
0.412079 0.270813 0.698853
0.579651 0.275818 0.721619
0.739105 0.277344 0.726318
0.018799 0.331573 0.705933
0.042877 0.329315 0.703674
0.071136 0.323029 0.696808
0.105103 0.320129 0.693634
0.130066 0.318207 0.694733
0.261169 0.342438 0.724609
0.438782 0.356689 0.746704
0.623474 0.367981 0.762756
0.779510 0.372986 0.768311
0.040710 0.426910 0.758514
0.061920 0.424866 0.756683
0.095398 0.427246 0.754974
0.130280 0.426361 0.754730
0.169952 0.437622 0.765015
0.289185 0.453613 0.784332
0.476288 0.466309 0.797058
0.668640 0.476196 0.806763
0.825836 0.488525 0.812195
0.057373 0.530640 0.805176
0.079742 0.531830 0.804352
0.117523 0.536743 0.803497
0.159607 0.552216 0.808563
0.251160 0.574799 0.821381
0.385590 0.604645 0.843384
0.544586 0.607544 0.848785
0.731201 0.615295 0.849121
0.885956 0.628021 0.858368
0.070831 0.644257 0.841370
0.099518 0.647552 0.841248
0.143280 0.657318 0.842865
0.214203 0.670502 0.848450
0.321014 0.702942 0.863953
0.474365 0.735443 0.884674
0.648102 0.753143 0.894501
0.792877 0.748840 0.891083
0.933533 0.759674 0.899872
0.113159 0.744812 0.873932
0.140594 0.749512 0.874084
0.192871 0.760315 0.875580
0.262268 0.779968 0.880951
0.365021 0.806396 0.894073
0.524048 0.839935 0.912964
0.710480 0.864594 0.930634
0.874207 0.879852 0.941742
0.970245 0.881378 0.948120
0.139282 0.819122 0.886993
0.168488 0.825562 0.887787
0.214966 0.838165 0.890717
0.279633 0.860779 0.898712
0.377869 0.888550 0.913422
0.528625 0.918427 0.935242
0.717621 0.950989 0.957977
0.896698 0.978180 0.981415
0.996429 0.999969 0.999969
