Kodak Eastman EXR 100T (5248) - Only contrast.cube
# Created by Benjamin (IWLTBAP) : http://luts.iwltbap.com
# Copyright: (C) Copyright 2010-2017 Triune Films and IWLTBAP SAS
# Cannot be resold, shared or otherwise redistributed
TITLE "Film Print Emulation LUTs Pack (Rec.709, sRGB, DCI-P3)"
LUT_3D_SIZE 33
0.009705 0.009705 0.009705
0.031525 0.011139 0.009705
0.060486 0.014862 0.009766
0.080444 0.020050 0.009766
0.103760 0.025146 0.009766
0.125519 0.030853 0.009766
0.146088 0.036255 0.009735
0.167816 0.040649 0.009705
0.190063 0.044159 0.009674
0.212280 0.047394 0.009644
0.234833 0.050873 0.011810
0.256744 0.053650 0.013245
0.280457 0.056366 0.014679
0.305450 0.059509 0.015411
0.329620 0.064301 0.015381
0.355042 0.070099 0.016083
0.380493 0.074493 0.016785
0.406128 0.077606 0.018219
0.432709 0.080658 0.019653
0.459686 0.084839 0.021820
0.486481 0.091919 0.023926
0.513519 0.101685 0.026031
0.540375 0.113525 0.027405
0.567810 0.124542 0.028717
0.596527 0.135162 0.031372
0.625061 0.146027 0.034576
0.652100 0.155365 0.036957
0.678680 0.164612 0.040985
0.705261 0.175446 0.047363
0.733368 0.187622 0.055054
0.761353 0.200439 0.061859
0.787750 0.213715 0.069489
0.813080 0.227509 0.076721
0.016296 0.034302 0.014069
0.032227 0.038910 0.014099
0.061340 0.041412 0.014130
0.085358 0.044403 0.012695
0.109985 0.047150 0.010498
0.132904 0.049683 0.009766
0.155334 0.052521 0.009735
0.178741 0.055725 0.010437
0.202209 0.058380 0.011871
0.225525 0.061035 0.014038
0.248566 0.063202 0.015472
0.271423 0.065704 0.016907
0.297577 0.068604 0.018372
0.322845 0.072601 0.019806
0.349091 0.077698 0.021240
0.375977 0.081879 0.023376
0.401733 0.085266 0.024780
0.427704 0.088623 0.026154
0.454559 0.092682 0.028229
0.481110 0.099213 0.030243
0.507843 0.109070 0.032227
0.534363 0.119598 0.033478
0.561218 0.130066 0.035980
0.589844 0.140503 0.039490
0.618286 0.150299 0.044525
0.645477 0.160065 0.049042
0.671906 0.169434 0.054260
0.697998 0.179260 0.060242
0.725769 0.191223 0.066681
0.753662 0.203827 0.073639
0.780457 0.216888 0.080750
0.805664 0.229675 0.087311
0.829102 0.242310 0.094452
0.019257 0.054596 0.017792
0.040802 0.056854 0.019287
0.063965 0.059540 0.021545
0.089478 0.062195 0.021545
0.116455 0.064789 0.017151
0.139801 0.067719 0.014923
0.163757 0.070129 0.013397
0.188416 0.072510 0.013367
0.211487 0.075226 0.014069
0.234314 0.077911 0.014771
0.257233 0.080566 0.016205
0.281555 0.083191 0.017670
0.306915 0.086548 0.018372
0.331665 0.090637 0.019806
0.358185 0.095001 0.021942
0.384674 0.098938 0.024078
0.411499 0.101776 0.026184
0.439972 0.104584 0.029633
0.467926 0.110474 0.032959
0.496216 0.118286 0.036743
0.525330 0.127838 0.040863
0.554108 0.137390 0.045776
0.583618 0.147308 0.050690
0.612366 0.156860 0.055847
0.639832 0.166351 0.061279
0.665894 0.175781 0.066833
0.691437 0.185608 0.072968
0.718353 0.197021 0.079285
0.746490 0.209076 0.086243
0.773560 0.221619 0.092651
0.799255 0.233887 0.099274
0.823242 0.245880 0.106445
0.844971 0.257965 0.114471
0.025879 0.072266 0.023682
0.046631 0.075043 0.025177
0.069855 0.078156 0.027374
0.095337 0.081604 0.029510
0.120483 0.085358 0.030182
0.146271 0.088318 0.023712
0.171875 0.091248 0.019287
0.196747 0.094147 0.017059
0.220825 0.096985 0.015533
0.243744 0.099823 0.015503
0.266388 0.103333 0.016205
0.291290 0.106476 0.016907
0.315491 0.109894 0.018372
0.340088 0.113617 0.019775
0.365753 0.117981 0.021210
0.392090 0.121643 0.024048
0.418457 0.124908 0.025452
0.445923 0.129120 0.028229
0.472687 0.135162 0.030914
0.500580 0.142334 0.034180
0.528198 0.150543 0.037842
0.556763 0.157654 0.042450
0.587555 0.165161 0.048706
0.618164 0.174072 0.056244
0.648285 0.183197 0.065582
0.676544 0.192474 0.074982
0.705627 0.202881 0.086304
0.737000 0.215088 0.097137
0.766937 0.227295 0.105774
0.793030 0.239075 0.112061
0.817474 0.250366 0.119232
0.839508 0.261993 0.127899
0.857117 0.273529 0.138214
0.030853 0.093445 0.030151
0.051208 0.096375 0.031586
0.075806 0.099609 0.032990
0.104218 0.103180 0.034332
0.127655 0.108032 0.037567
0.150238 0.112823 0.038147
0.179718 0.115814 0.029388
0.205963 0.118774 0.022888
0.230835 0.122040 0.019928
0.254089 0.124634 0.017670
0.278046 0.127533 0.016907
0.302673 0.131378 0.016876
0.326233 0.134857 0.017578
0.350983 0.138916 0.019745
0.376373 0.143219 0.021881
0.402222 0.147797 0.023987
0.428375 0.151978 0.025391
0.454498 0.156708 0.027466
0.480591 0.162781 0.029510
0.507263 0.169525 0.032806
0.533997 0.175568 0.035309
0.561523 0.180664 0.039490
0.590576 0.187225 0.044495
0.619934 0.195374 0.050476
0.648010 0.204193 0.058014
0.675659 0.212677 0.066742
0.703369 0.222198 0.076111
0.733124 0.232147 0.085876
0.763458 0.242249 0.095642
0.792450 0.252655 0.105743
0.820068 0.263763 0.117554
0.845245 0.275909 0.132782
0.861206 0.287018 0.151215
0.035614 0.116394 0.034943
0.057648 0.119110 0.036316
0.084229 0.122437 0.037598
0.112488 0.126373 0.039459
0.135925 0.131500 0.041840
0.158783 0.137177 0.045776
0.184235 0.142426 0.044586
0.214630 0.145416 0.034058
0.240784 0.148407 0.024963
0.264465 0.151367 0.022034
0.290192 0.154053 0.019073
0.314636 0.157257 0.017578
0.338715 0.161285 0.018250
0.363373 0.165283 0.020416
0.388519 0.170013 0.022552
0.414001 0.174683 0.024658
0.439880 0.179535 0.026733
0.465027 0.184784 0.027374
0.490845 0.189941 0.029419
0.516937 0.195953 0.032074
0.542908 0.201385 0.034607
0.569885 0.206177 0.038818
0.597931 0.212311 0.042755
0.625977 0.220032 0.048920
0.653229 0.228180 0.056549
0.680054 0.236023 0.063690
0.707214 0.243958 0.072845
0.735992 0.251984 0.080750
0.764465 0.260437 0.089600
0.791748 0.269440 0.098145
0.817841 0.279449 0.107483
0.842224 0.290070 0.117889
0.863708 0.301086 0.131500
0.045410 0.138855 0.040070
0.067261 0.142303 0.041290
0.093506 0.146332 0.043060
0.120178 0.150269 0.045288
0.143951 0.155914 0.047882
0.168732 0.161987 0.050323
0.194946 0.168182 0.051666
0.221649 0.173096 0.050140
0.248962 0.176849 0.039642
0.274994 0.178955 0.027710
0.301300 0.182098 0.024109
0.325806 0.185486 0.021881
0.350983 0.188843 0.020386
0.376007 0.193146 0.021088
0.400787 0.197632 0.023926
0.426086 0.202026 0.026001
0.451416 0.206573 0.027374
0.476257 0.211487 0.028046
0.501862 0.216980 0.030029
0.527832 0.222565 0.031982
0.553284 0.227600 0.035126
0.580139 0.232300 0.039276
0.607452 0.238159 0.044281
0.634399 0.244629 0.050293
0.660889 0.251709 0.057373
0.687103 0.258881 0.064911
0.714172 0.266144 0.072784
0.742218 0.273560 0.080719
0.769714 0.281403 0.088043
0.796326 0.289520 0.096283
0.821686 0.298676 0.104980
0.845612 0.308411 0.115143
0.866333 0.318695 0.126282
0.059814 0.161530 0.045349
0.079590 0.165283 0.046936
0.103149 0.169769 0.048981
0.127045 0.175262 0.050873
0.152405 0.181427 0.052704
0.179047 0.187897 0.054504
0.205658 0.194489 0.056274
0.231842 0.200378 0.057556
0.256500 0.205902 0.057007
0.283691 0.209381 0.048370
0.311676 0.211426 0.034393
0.336945 0.214630 0.027527
0.362488 0.218262 0.025360
0.388062 0.221619 0.024628
0.413239 0.225342 0.025269
0.438477 0.229645 0.026642
0.463165 0.233887 0.027985
0.488220 0.238434 0.029327
0.513580 0.243713 0.030609
0.538971 0.248840 0.033203
0.564423 0.253265 0.036285
0.591125 0.257996 0.041473
0.617828 0.263336 0.047302
0.644135 0.269257 0.054047
0.669861 0.275879 0.060516
0.695496 0.282501 0.067810
0.722839 0.289612 0.074738
0.750336 0.296692 0.081848
0.777313 0.303894 0.089905
0.803436 0.311523 0.097382
0.828003 0.320251 0.106049
0.851257 0.329407 0.115814
0.871368 0.339111 0.126282
0.071686 0.185455 0.051910
0.089783 0.189606 0.053314
0.110413 0.194946 0.055115
0.135315 0.200836 0.056885
0.162567 0.207550 0.058624
0.189728 0.214050 0.059937
0.216339 0.220825 0.061188
0.241943 0.227173 0.062897
0.266571 0.233124 0.064545
0.293060 0.238129 0.065338
0.318695 0.241943 0.059082
0.346680 0.243683 0.040405
0.372986 0.246429 0.032196
0.398651 0.249542 0.029449
0.424622 0.252808 0.027313
0.450439 0.256042 0.027283
0.475159 0.260132 0.029297
0.500092 0.264496 0.030609
0.525177 0.269470 0.032532
0.549988 0.274536 0.035645
0.575836 0.279358 0.040314
0.602478 0.284058 0.046265
0.628662 0.289032 0.052612
0.654236 0.294525 0.059143
0.679565 0.300415 0.065247
0.705078 0.306763 0.071869
0.732361 0.313690 0.078674
0.759613 0.320618 0.085297
0.786163 0.327515 0.092896
0.811584 0.335052 0.100281
0.835724 0.343231 0.108856
0.858246 0.351990 0.118561
0.877350 0.360992 0.129242
0.079895 0.209320 0.058319
0.097778 0.214691 0.060120
0.119507 0.220337 0.061859
0.144592 0.226715 0.063568
0.173157 0.233124 0.064789
0.200165 0.239532 0.066406
0.226105 0.246155 0.067596
0.251221 0.252380 0.069183
0.277039 0.258209 0.070740
0.303467 0.264069 0.072296
0.327362 0.269257 0.073853
0.352661 0.273254 0.067261
0.381897 0.274902 0.046356
0.408600 0.277405 0.035309
0.435150 0.280640 0.032013
0.460907 0.283630 0.030640
0.486481 0.286774 0.029907
0.511688 0.290863 0.032532
0.536652 0.295685 0.035004
0.561310 0.300415 0.039734
0.587708 0.305237 0.045746
0.614197 0.310150 0.052124
0.639648 0.315094 0.058655
0.665070 0.320251 0.064392
0.689728 0.325867 0.070648
0.715698 0.331787 0.077057
0.742859 0.338562 0.083344
0.769592 0.345306 0.090240
0.795776 0.352051 0.097687
0.820679 0.359253 0.105286
0.844238 0.367065 0.113708
0.865753 0.375275 0.122589
0.883972 0.384003 0.132812
0.086731 0.233887 0.065369
0.108002 0.239105 0.066589
0.130249 0.245148 0.069061
0.155975 0.251221 0.070618
0.183838 0.257477 0.072174
0.209961 0.264099 0.072906
0.235657 0.270996 0.074432
0.260620 0.277557 0.075562
0.287262 0.283783 0.076691
0.313446 0.289856 0.077820
0.337952 0.295502 0.080475
0.362152 0.301147 0.083160
0.387970 0.305328 0.078430
0.417480 0.306793 0.057312
0.445221 0.308685 0.040558
0.470917 0.311859 0.038757
0.496948 0.314667 0.037506
0.522888 0.317902 0.036835
0.547668 0.322266 0.040283
0.573273 0.326874 0.045715
0.599762 0.331696 0.052582
0.625916 0.336548 0.059113
0.651123 0.341736 0.065643
0.676086 0.346710 0.071442
0.700714 0.351990 0.077850
0.727112 0.357788 0.083740
0.753784 0.363861 0.089478
0.779907 0.370331 0.096558
0.805695 0.377014 0.103485
0.830109 0.384155 0.110931
0.853241 0.391815 0.118835
0.873596 0.399536 0.127258
0.891113 0.407745 0.137634
0.102020 0.257629 0.072327
0.123474 0.263000 0.074280
0.145233 0.269806 0.076202
0.170471 0.276031 0.077728
0.195312 0.282806 0.078827
0.220215 0.289551 0.079926
0.245422 0.296448 0.081024
0.270844 0.303009 0.082153
0.297699 0.309265 0.084015
0.322693 0.315552 0.085876
0.348267 0.321533 0.088104
0.373291 0.327271 0.091461
0.398499 0.332886 0.095123
0.425415 0.337158 0.091370
0.454132 0.338898 0.073883
0.481262 0.340332 0.055695
0.507782 0.343414 0.053711
0.533508 0.346741 0.052216
0.558868 0.349762 0.051178
0.585175 0.353699 0.054932
0.611694 0.358459 0.060455
0.637634 0.363403 0.066467
0.662689 0.368286 0.072662
0.687195 0.373444 0.078644
0.712341 0.378632 0.084503
0.738800 0.384094 0.090210
0.764954 0.389923 0.096191
0.790680 0.396301 0.102020
0.815948 0.402924 0.109161
0.839935 0.410065 0.116455
0.862091 0.417297 0.124573
0.881622 0.424561 0.133759
0.898438 0.431976 0.144531
0.119843 0.282135 0.079742
0.140015 0.288086 0.081635
0.160065 0.295044 0.083496
0.182587 0.301788 0.084991
0.206482 0.308533 0.086090
0.231110 0.315399 0.087555
0.255859 0.322266 0.089386
0.281647 0.328827 0.090820
0.307465 0.335083 0.092285
0.332306 0.341492 0.094818
0.358276 0.347748 0.097717
0.384033 0.353912 0.101288
0.409973 0.359558 0.104828
0.435852 0.364960 0.109009
0.461945 0.369415 0.107239
0.490112 0.371857 0.093109
0.518158 0.373260 0.074524
0.544098 0.375916 0.068726
0.569580 0.379028 0.068268
0.596436 0.382233 0.067352
0.623566 0.386230 0.069397
0.649200 0.391113 0.074646
0.674255 0.395905 0.079407
0.698761 0.400970 0.084473
0.724670 0.405945 0.089447
0.750610 0.411316 0.095428
0.776184 0.416901 0.101288
0.801544 0.422913 0.107361
0.826324 0.429443 0.114380
0.849670 0.436249 0.122192
0.870911 0.442841 0.131470
0.889465 0.449707 0.141418
0.905945 0.456940 0.153107
0.138184 0.307953 0.087341
0.156311 0.314240 0.089172
0.173248 0.321564 0.091736
0.195129 0.328552 0.093933
0.218475 0.335510 0.095703
0.242859 0.342316 0.097137
0.267517 0.349213 0.098907
0.293457 0.355835 0.100311
0.318085 0.362183 0.102051
0.342987 0.368652 0.105225
0.368408 0.375000 0.108032
0.394226 0.381104 0.111481
0.420746 0.386963 0.114532
0.447235 0.392639 0.118256
0.472748 0.398193 0.121277
0.498901 0.402649 0.119904
0.526154 0.405609 0.108948
0.553772 0.406799 0.091522
0.580170 0.408875 0.083466
0.607269 0.412323 0.082642
0.634369 0.415771 0.082214
0.660614 0.419281 0.081757
0.685852 0.423981 0.084869
0.710999 0.428955 0.089447
0.737183 0.433746 0.094299
0.762543 0.438690 0.100922
0.787628 0.444061 0.107727
0.812561 0.450012 0.114014
0.836792 0.456268 0.121185
0.859314 0.462585 0.130157
0.879608 0.469025 0.139496
0.897766 0.475586 0.149475
0.913757 0.482605 0.160828
0.153961 0.334839 0.095428
0.169708 0.341644 0.098328
0.187042 0.349121 0.101532
0.208649 0.356232 0.103973
0.232208 0.363220 0.106049
0.255890 0.370026 0.107758
0.280823 0.376831 0.109833
0.305664 0.383575 0.111176
0.329254 0.390106 0.112885
0.354034 0.396271 0.115265
0.378845 0.402405 0.118286
0.404633 0.408691 0.121613
0.431824 0.414703 0.124603
0.458466 0.420563 0.127197
0.484375 0.425964 0.130127
0.509705 0.430908 0.133331
0.535034 0.435364 0.134613
0.561035 0.438660 0.127838
0.589813 0.439850 0.109222
0.617706 0.441650 0.097717
0.644806 0.445007 0.096588
0.671051 0.448517 0.095459
0.697205 0.452179 0.093201
0.723572 0.456848 0.096527
0.749451 0.461487 0.101990
0.774445 0.466339 0.108398
0.799286 0.471588 0.115723
0.823730 0.477386 0.123199
0.847260 0.483398 0.131134
0.868866 0.489532 0.138855
0.888580 0.495819 0.147003
0.906433 0.502380 0.156403
0.921844 0.509155 0.167145
0.168335 0.361969 0.105072
0.184479 0.368805 0.107849
0.201050 0.376709 0.111969
0.223206 0.383942 0.114685
0.245300 0.391022 0.116699
0.268616 0.397614 0.119019
0.293304 0.404297 0.120667
0.316620 0.410858 0.122650
0.340698 0.417267 0.123962
0.364838 0.423584 0.126587
0.389648 0.429474 0.128540
0.415375 0.435577 0.131744
0.442627 0.441650 0.134613
0.468811 0.447449 0.137787
0.495056 0.452942 0.140625
0.520874 0.458282 0.144043
0.545929 0.463165 0.148651
0.570709 0.467804 0.153473
0.596741 0.471191 0.149872
0.626923 0.472107 0.128815
0.654755 0.474091 0.114380
0.681183 0.477631 0.112305
0.707672 0.481384 0.109833
0.735535 0.485260 0.108429
0.761597 0.489655 0.111572
0.786621 0.494415 0.117767
0.810974 0.499634 0.125519
0.834839 0.505219 0.132416
0.857605 0.510864 0.140106
0.878204 0.516968 0.147919
0.897552 0.522858 0.154907
0.914886 0.529175 0.163727
0.929718 0.535553 0.174683
0.182922 0.389221 0.115051
0.199371 0.396515 0.118744
0.217194 0.403870 0.122406
0.238281 0.411194 0.125671
0.258698 0.418121 0.127930
0.281372 0.424438 0.129547
0.304626 0.431000 0.131775
0.327179 0.437378 0.133698
0.351196 0.443909 0.135590
0.375854 0.450256 0.137482
0.400970 0.456299 0.139679
0.426605 0.462219 0.142181
0.453033 0.468079 0.145264
0.479126 0.474091 0.148926
0.505737 0.480011 0.152252
0.531677 0.485504 0.156128
0.557037 0.490662 0.160522
0.583038 0.495331 0.165680
0.608063 0.499756 0.171814
0.634766 0.503296 0.166840
0.663574 0.504883 0.148071
0.690857 0.507233 0.133331
0.718201 0.510803 0.128784
0.746063 0.514679 0.127136
0.772858 0.518585 0.126495
0.798035 0.522766 0.129791
0.822174 0.527649 0.135956
0.845581 0.532837 0.143219
0.867218 0.538208 0.150940
0.887085 0.543976 0.158417
0.906036 0.549835 0.165680
0.922638 0.555817 0.174377
0.937012 0.561737 0.185425
0.200104 0.415955 0.125702
0.217651 0.423096 0.129242
0.233948 0.430939 0.133392
0.252899 0.438080 0.136871
0.272308 0.444916 0.139374
0.293976 0.451233 0.141571
0.315765 0.457611 0.143402
0.338013 0.464111 0.145874
0.362457 0.470642 0.147705
0.387207 0.477173 0.149841
0.412140 0.483307 0.152527
0.437866 0.489288 0.155212
0.463348 0.494965 0.158447
0.489349 0.500854 0.161346
0.515869 0.506958 0.165070
0.541870 0.512604 0.169586
0.568024 0.517975 0.173462
0.594360 0.522797 0.178619
0.620483 0.527435 0.184204
0.645386 0.532074 0.189392
0.671478 0.535492 0.184998
0.698700 0.537659 0.169952
0.727539 0.539764 0.154449
0.755554 0.543274 0.149017
0.782532 0.547150 0.147217
0.808258 0.551147 0.147217
0.832672 0.555389 0.149078
0.855621 0.560211 0.155426
0.876404 0.565338 0.162781
0.895813 0.571106 0.170166
0.914124 0.577026 0.177643
0.930023 0.583099 0.187195
0.943848 0.589142 0.198395
0.219482 0.442688 0.136566
0.234985 0.450073 0.140656
0.250214 0.457916 0.145264
0.267212 0.465118 0.148926
0.286682 0.471924 0.151917
0.306610 0.478516 0.154907
0.327606 0.484894 0.156952
0.350159 0.491364 0.158997
0.373932 0.498047 0.161041
0.398529 0.504486 0.163910
0.423584 0.510712 0.166473
0.448883 0.516449 0.169556
0.473816 0.522186 0.172607
0.499420 0.527893 0.176147
0.525665 0.533539 0.179138
0.551697 0.539429 0.183105
0.578644 0.545013 0.187286
0.605560 0.550049 0.192169
0.631622 0.554901 0.196930
0.656891 0.559326 0.201355
0.681213 0.563843 0.205933
0.706787 0.567322 0.203308
0.735260 0.569763 0.191498
0.764069 0.572266 0.176331
0.791412 0.576202 0.170013
0.817383 0.580414 0.168365
0.842133 0.584808 0.168701
0.864990 0.589050 0.170135
0.885284 0.594116 0.175934
0.904449 0.599670 0.182434
0.922211 0.605438 0.189758
0.937561 0.611420 0.199341
0.951019 0.617432 0.210419
0.237488 0.470032 0.148010
0.251770 0.477356 0.152832
0.265625 0.485352 0.157837
0.282379 0.492767 0.161896
0.300598 0.499603 0.165314
0.319580 0.506317 0.168396
0.340454 0.512939 0.170898
0.362854 0.519196 0.173126
0.386292 0.525604 0.175568
0.410187 0.531921 0.178558
0.435242 0.537903 0.180939
0.459686 0.543640 0.184387
0.484528 0.549316 0.187256
0.510040 0.554901 0.190338
0.535553 0.560486 0.193146
0.561493 0.566162 0.196136
0.588898 0.572052 0.200592
0.616150 0.577698 0.204712
0.642334 0.583008 0.208984
0.667633 0.587738 0.212494
0.692383 0.592255 0.216400
0.717682 0.596771 0.220917
0.743896 0.600464 0.220917
0.771118 0.603943 0.214630
0.799652 0.606812 0.197571
0.826141 0.610779 0.188782
0.850952 0.615479 0.188812
0.873627 0.619781 0.188873
0.893951 0.624084 0.189697
0.913025 0.629242 0.194824
0.930359 0.634613 0.201538
0.945190 0.640411 0.210876
0.958527 0.646332 0.221375
0.254822 0.497314 0.159607
0.267059 0.505066 0.165009
0.280884 0.513031 0.170074
0.296844 0.520416 0.174744
0.313690 0.527283 0.178253
0.332794 0.534119 0.181702
0.353821 0.540680 0.184357
0.375885 0.546997 0.186951
0.398621 0.553436 0.189789
0.422638 0.559540 0.192322
0.446838 0.565460 0.195587
0.470612 0.571198 0.198334
0.495300 0.577087 0.201263
0.520782 0.582947 0.203461
0.546112 0.588684 0.205627
0.572052 0.594543 0.208740
0.599396 0.600403 0.212250
0.626251 0.606201 0.216370
0.652496 0.611572 0.219543
0.678284 0.616699 0.222443
0.704102 0.621674 0.225952
0.730011 0.626129 0.230255
0.755157 0.630280 0.234894
0.780365 0.634735 0.237579
0.806122 0.638824 0.232849
0.834106 0.641724 0.215637
0.859589 0.645630 0.205688
0.881744 0.650543 0.207855
0.902191 0.654968 0.208374
0.921234 0.659271 0.209625
0.938232 0.664093 0.214996
0.952820 0.669647 0.223572
0.965729 0.675293 0.233093
0.269897 0.524597 0.171753
0.282379 0.532471 0.177185
0.295746 0.540527 0.182770
0.310852 0.547913 0.187439
0.327454 0.554779 0.191284
0.346619 0.561768 0.194550
0.367218 0.568481 0.197540
0.389069 0.575195 0.200256
0.411591 0.581787 0.202911
0.435242 0.588348 0.205811
0.458344 0.594208 0.208649
0.481689 0.600006 0.211487
0.506531 0.605988 0.213806
0.531799 0.612122 0.215424
0.557159 0.617828 0.217468
0.583374 0.623444 0.220398
0.609741 0.628967 0.223724
0.635956 0.634460 0.227417
0.662231 0.640167 0.230438
0.688904 0.645721 0.233398
0.715637 0.651123 0.236328
0.741882 0.655365 0.240631
0.766968 0.659515 0.245209
0.791656 0.663940 0.250092
0.815063 0.668915 0.255615
0.839905 0.672974 0.252808
0.866760 0.676239 0.236664
0.889618 0.679993 0.226196
0.909821 0.684662 0.228180
0.928497 0.688812 0.230988
0.945282 0.693146 0.233185
0.959839 0.698334 0.238831
0.972443 0.703766 0.247681
0.284393 0.551819 0.184357
0.297485 0.559937 0.190002
0.310272 0.568268 0.196045
0.325195 0.576172 0.200958
0.342072 0.583313 0.204590
0.360962 0.590546 0.208130
0.381012 0.597534 0.211182
0.402191 0.604431 0.213745
0.424835 0.610992 0.216278
0.447723 0.617249 0.219421
0.470337 0.623260 0.222107
0.493835 0.629089 0.224762
0.518524 0.635223 0.226501
0.543518 0.641266 0.228027
0.568878 0.647003 0.230377
0.594757 0.652252 0.232941
0.620453 0.657318 0.236481
0.645966 0.662537 0.239563
0.672363 0.668213 0.242401
0.698700 0.673828 0.245392
0.726166 0.678955 0.249298
0.752533 0.683350 0.253143
0.778076 0.687653 0.257080
0.802612 0.692261 0.262238
0.826355 0.696777 0.267090
0.849365 0.701843 0.272400
0.872894 0.706818 0.271545
0.895782 0.710510 0.262177
0.916748 0.713928 0.251282
0.935242 0.718384 0.251740
0.951569 0.723022 0.255585
0.965820 0.727905 0.258606
0.978058 0.732697 0.263641
0.301270 0.579834 0.197540
0.313538 0.588715 0.203857
0.326050 0.597351 0.209991
0.340851 0.605377 0.214844
0.357391 0.612579 0.218719
0.375397 0.619751 0.222076
0.395020 0.626709 0.224701
0.415771 0.633423 0.227753
0.437958 0.639801 0.230316
0.460236 0.646057 0.233093
0.482849 0.652191 0.235992
0.506683 0.658295 0.237854
0.531158 0.664429 0.239319
0.555603 0.670349 0.240936
0.580902 0.675781 0.243561
0.606110 0.680573 0.246521
0.630890 0.685242 0.250031
0.656128 0.690247 0.252716
0.682037 0.695709 0.255188
0.708801 0.701202 0.258179
0.736328 0.706573 0.262207
0.763123 0.711639 0.266693
0.788696 0.716431 0.270416
0.812988 0.721039 0.274261
0.836456 0.725708 0.279083
0.859406 0.730835 0.283966
0.881104 0.736511 0.289246
0.902008 0.741394 0.290131
0.922516 0.745361 0.283936
0.941498 0.748871 0.275574
0.957794 0.753021 0.274445
0.971313 0.757751 0.278290
0.982147 0.762238 0.282959
0.317841 0.608673 0.211182
0.329590 0.617401 0.217590
0.342621 0.626160 0.223572
0.356628 0.634247 0.228577
0.372864 0.641602 0.232422
0.390228 0.648712 0.235748
0.409332 0.655670 0.238647
0.429779 0.662445 0.241699
0.451111 0.668640 0.244690
0.472900 0.674683 0.247253
0.495819 0.680725 0.249420
0.519318 0.687042 0.251343
0.543304 0.693176 0.252502
0.568024 0.699188 0.253815
0.593048 0.704590 0.256653
0.617798 0.709564 0.259979
0.642426 0.714539 0.263428
0.667450 0.719666 0.266296
0.692902 0.725159 0.268799
0.719879 0.730621 0.271606
0.747131 0.735931 0.275085
0.773376 0.741119 0.279205
0.798706 0.745819 0.283234
0.823029 0.750671 0.287384
0.846741 0.755524 0.290985
0.869141 0.760559 0.295837
0.889984 0.765778 0.300903
0.909729 0.771057 0.306488
0.928772 0.776001 0.308380
0.946960 0.780090 0.304657
0.963074 0.783661 0.298340
0.975830 0.787292 0.296082
0.985718 0.791565 0.300598
0.334595 0.637543 0.224487
0.346344 0.646301 0.230713
0.358948 0.655029 0.236572
0.372864 0.663086 0.241486
0.388275 0.670654 0.245850
0.405060 0.677612 0.249390
0.423584 0.684265 0.252441
0.443817 0.690765 0.255493
0.464264 0.696991 0.258453
0.485474 0.703278 0.261017
0.508179 0.709656 0.263214
0.531647 0.716064 0.265015
0.555237 0.722443 0.266266
0.580200 0.728607 0.267883
0.605042 0.734222 0.270691
0.629700 0.739685 0.273834
0.654144 0.744873 0.277130
0.679138 0.750000 0.279999
0.704407 0.755310 0.283020
0.731384 0.760437 0.285858
0.757812 0.765381 0.288818
0.783417 0.770264 0.292236
0.808411 0.775208 0.295929
0.833191 0.780457 0.300354
0.856750 0.785675 0.304565
0.878387 0.790314 0.308716
0.898712 0.794922 0.313110
0.918091 0.799774 0.318634
0.936188 0.804932 0.324463
0.952820 0.809540 0.327393
0.967255 0.813232 0.325897
0.978821 0.816345 0.320831
0.988159 0.819733 0.319214
0.351746 0.666443 0.237396
0.363098 0.674988 0.243652
0.375031 0.683807 0.249756
0.388611 0.691833 0.254730
0.403534 0.699554 0.259003
0.420135 0.706818 0.262817
0.438354 0.713531 0.266235
0.457306 0.720093 0.269440
0.477234 0.726440 0.272400
0.498627 0.732910 0.275024
0.520935 0.739502 0.276917
0.543671 0.746002 0.278778
0.567291 0.752380 0.280640
0.592285 0.758453 0.282837
0.617096 0.764282 0.285675
0.641205 0.769745 0.288452
0.665802 0.775177 0.291382
0.690552 0.780365 0.293976
0.716492 0.785431 0.296997
0.743011 0.790436 0.300629
0.768677 0.794952 0.303741
