Kodak Vision2 500T (5218) - Only color.cube
# Created by Benjamin (IWLTBAP) : http://luts.iwltbap.com
# Copyright: (C) Copyright 2010-2017 Triune Films and IWLTBAP SAS
# Cannot be resold, shared or otherwise redistributed
TITLE "Film Print Emulation LUTs Pack (Rec.709, sRGB, DCI-P3)"
LUT_3D_SIZE 5
0.002350 0.001556 0.001556
0.221588 0.017181 0.000000
0.371887 0.027893 0.006195
0.500183 0.032959 0.006683
0.615814 0.041351 0.007141
0.000000 0.195587 0.142426
0.167267 0.240234 0.046478
0.446960 0.280029 0.006165
0.607941 0.263245 0.006714
0.727112 0.219330 0.008331
0.000000 0.300262 0.214020
0.026459 0.334717 0.164337
0.387726 0.428284 0.032013
0.683075 0.467529 0.028412
0.836823 0.441772 0.027496
0.000000 0.407318 0.276642
0.000000 0.439056 0.260315
0.177063 0.536285 0.173401
0.699890 0.661224 0.044403
0.933899 0.658051 0.011444
0.000000 0.604004 0.422821
0.000000 0.663452 0.454559
0.360626 0.810913 0.460663
0.756104 0.903625 0.401825
0.988434 0.929382 0.334961
0.001007 0.019684 0.155090
0.244476 0.017456 0.173492
0.407867 0.029541 0.197113
0.539154 0.039673 0.197662
0.652985 0.049164 0.193207
0.000000 0.219849 0.278809
0.219574 0.267181 0.263000
0.512115 0.313812 0.255737
0.656952 0.278625 0.205505
0.754425 0.221863 0.186249
0.000000 0.345154 0.332245
0.040497 0.383148 0.327789
0.473785 0.492126 0.300171
0.741241 0.508026 0.227966
0.865723 0.445129 0.162445
0.000000 0.465942 0.409821
0.000000 0.508636 0.419739
0.227386 0.608093 0.388977
0.753937 0.716400 0.321747
0.966217 0.701904 0.200195
0.000000 0.663330 0.560272
0.002930 0.709717 0.565979
0.372406 0.837189 0.572784
0.746735 0.914703 0.547607
0.989410 0.946808 0.533722
0.000092 0.036896 0.260132
0.237091 0.018585 0.282898
0.419922 0.021149 0.324066
0.571014 0.043945 0.350494
0.679840 0.055786 0.354828
0.000000 0.222748 0.367950
0.189911 0.263000 0.393799
0.510956 0.310425 0.426605
0.687592 0.296936 0.424500
0.782532 0.234650 0.376495
0.000000 0.357971 0.428375
0.037292 0.395599 0.444336
0.494904 0.517334 0.487488
0.764984 0.546234 0.483154
0.886078 0.462097 0.391510
0.000000 0.489624 0.491333
0.000000 0.543091 0.518738
0.255737 0.650116 0.544159
0.769257 0.746521 0.549957
0.973846 0.736328 0.501373
0.000000 0.680298 0.633820
0.007751 0.726074 0.648682
0.376038 0.856995 0.675903
0.751160 0.928711 0.667511
0.991364 0.959717 0.668793
0.000000 0.051300 0.333954
0.203827 0.035706 0.374725
0.408600 0.022980 0.399719
0.576294 0.045654 0.448181
0.709900 0.066467 0.478271
0.000000 0.211182 0.438751
0.162231 0.243195 0.476868
0.477539 0.266846 0.513306
0.678436 0.252930 0.543701
0.809662 0.241577 0.542786
0.000000 0.352905 0.502502
0.025970 0.389191 0.538086
0.471710 0.501587 0.603973
0.765594 0.543823 0.626740
0.904175 0.485626 0.605988
0.000000 0.498413 0.576477
0.000000 0.554443 0.607452
0.298767 0.668213 0.667328
0.782684 0.763153 0.704620
0.979279 0.766907 0.700226
0.000000 0.700439 0.707916
0.034271 0.749756 0.733215
0.459747 0.887177 0.787872
0.776520 0.951691 0.803650
0.995056 0.977020 0.813019
0.000000 0.055634 0.401459
0.186005 0.042511 0.447449
0.409607 0.032410 0.471527
0.574371 0.040039 0.508514
0.696869 0.054657 0.543121
0.000000 0.180634 0.488953
0.131134 0.192780 0.521454
0.454071 0.194519 0.565491
0.657623 0.151093 0.596436
0.790649 0.173218 0.618652
0.000000 0.348816 0.574432
0.029480 0.371643 0.605377
0.457092 0.449280 0.675781
0.755920 0.474701 0.712433
0.896118 0.429779 0.714233
0.000000 0.514221 0.657593
0.000000 0.554535 0.688354
0.313416 0.663055 0.784973
0.796631 0.756836 0.840118
0.984924 0.776245 0.863617
0.000000 0.707214 0.788818
0.093628 0.772064 0.838196
0.584595 0.907654 0.915985
0.854065 0.967804 0.958221
0.995026 0.979095 0.963348
