Kodak Vision2 500T Expression (5229) - Only contrast.cube
# Created by Benjamin (IWLTBAP) : http://luts.iwltbap.com
# Copyright: (C) Copyright 2010-2017 Triune Films and IWLTBAP SAS
# Cannot be resold, shared or otherwise redistributed
TITLE "Film Print Emulation LUTs Pack (Rec.709, sRGB, DCI-P3)"
LUT_3D_SIZE 9
0.002106 0.002106 0.002106
0.080322 0.001923 0.001923
0.194824 0.001495 0.001495
0.333862 0.000916 0.000916
0.472046 0.000305 0.000305
0.588715 0.000000 0.000000
0.687927 0.000000 0.000000
0.798157 0.000000 0.000000
0.941315 0.000000 0.000000
0.001923 0.080322 0.001923
0.080414 0.080414 0.001740
0.195160 0.080292 0.001312
0.334320 0.079987 0.000732
0.472412 0.079712 0.000122
0.588867 0.079559 0.000000
0.688080 0.079559 0.000000
0.798340 0.079498 0.000000
0.942566 0.079193 0.000000
0.001495 0.194824 0.001495
0.080292 0.195160 0.001312
0.195251 0.195251 0.000885
0.334534 0.195190 0.000275
0.472504 0.195160 0.000000
0.588745 0.195251 0.000000
0.688019 0.195465 0.000000
0.798279 0.195587 0.000000
0.943573 0.195496 0.000000
0.000916 0.333862 0.000916
0.079987 0.334320 0.000732
0.195190 0.334534 0.000275
0.334595 0.334595 0.000000
0.472443 0.334656 0.000000
0.588470 0.334869 0.000000
0.687744 0.335205 0.000000
0.798065 0.335449 0.000000
0.944427 0.335449 0.000000
0.000305 0.472046 0.000305
0.079712 0.472412 0.000122
0.195160 0.472504 0.000000
0.334656 0.472443 0.000000
0.472412 0.472412 0.000000
0.588196 0.472504 0.000000
0.687500 0.472717 0.000000
0.797852 0.472870 0.000000
0.945312 0.472748 0.000000
0.000000 0.588715 0.000000
0.079559 0.588867 0.000000
0.195251 0.588745 0.000000
0.334869 0.588470 0.000000
0.472504 0.588196 0.000000
0.588104 0.588104 0.000000
0.687439 0.588074 0.000000
0.797821 0.587982 0.000000
0.946350 0.587646 0.000000
0.000000 0.687927 0.000000
0.079559 0.688080 0.000000
0.195465 0.688019 0.000000
0.335205 0.687744 0.000000
0.472717 0.687500 0.000000
0.588074 0.687439 0.000000
0.687469 0.687469 0.000000
0.797882 0.687408 0.000000
0.947510 0.687073 0.000000
0.000000 0.798157 0.000000
0.079498 0.798340 0.000000
0.195587 0.798279 0.000000
0.335449 0.798065 0.000000
0.472870 0.797852 0.000000
0.587982 0.797821 0.000000
0.687408 0.797882 0.000000
0.797852 0.797852 0.000000
0.948578 0.797577 0.000000
0.000000 0.941315 0.000000
0.079193 0.942566 0.000000
0.195496 0.943573 0.000000
0.335449 0.944427 0.000000
0.472748 0.945312 0.000000
0.587646 0.946350 0.000000
0.687073 0.947510 0.000000
0.797577 0.948578 0.000000
0.949615 0.949280 0.005157
0.001923 0.001923 0.080322
0.080414 0.001740 0.080414
0.195160 0.001312 0.080292
0.334320 0.000732 0.079987
0.472412 0.000122 0.079712
0.588867 0.000000 0.079559
0.688080 0.000000 0.079559
0.798340 0.000000 0.079498
0.942566 0.000000 0.079193
0.001740 0.080414 0.080414
0.080536 0.080536 0.080536
0.195496 0.080383 0.080383
0.334778 0.080109 0.080109
0.472748 0.079803 0.079803
0.588989 0.079681 0.079681
0.688263 0.079681 0.079681
0.798523 0.079620 0.079620
0.943817 0.079315 0.079315
0.001312 0.195160 0.080292
0.080383 0.195496 0.080383
0.195618 0.195618 0.080261
0.335022 0.195557 0.079956
0.472870 0.195496 0.079681
0.588867 0.195587 0.079590
0.688171 0.195801 0.079590
0.798462 0.195953 0.079498
0.944824 0.195831 0.079193
0.000732 0.334320 0.079987
0.080109 0.334778 0.080109
0.195557 0.335022 0.079956
0.335052 0.335052 0.079681
0.472809 0.335114 0.079407
0.588593 0.335327 0.079285
0.687897 0.335663 0.079315
0.798248 0.335907 0.079254
0.945679 0.335907 0.078918
0.000122 0.472412 0.079712
0.079803 0.472748 0.079803
0.195496 0.472870 0.079681
0.335114 0.472809 0.079407
0.472748 0.472748 0.079163
0.588318 0.472839 0.079041
0.687653 0.473053 0.079071
0.798035 0.473175 0.079010
0.946564 0.473053 0.078674
0.000000 0.588867 0.079559
0.079681 0.588989 0.079681
0.195587 0.588867 0.079590
0.335327 0.588593 0.079285
0.472839 0.588318 0.079041
0.588196 0.588196 0.078949
0.687561 0.588196 0.078979
0.797974 0.588104 0.078918
0.947601 0.587738 0.078613
0.000000 0.688080 0.079559
0.079681 0.688263 0.079681
0.195801 0.688171 0.079590
0.335663 0.687897 0.079315
0.473053 0.687653 0.079071
0.588196 0.687561 0.078979
0.687592 0.687592 0.078979
0.798035 0.687531 0.078949
0.948761 0.687225 0.078613
0.000000 0.798340 0.079498
0.079620 0.798523 0.079620
0.195953 0.798462 0.079498
0.335907 0.798248 0.079254
0.473175 0.798035 0.079010
0.588104 0.797974 0.078918
0.687531 0.798035 0.078949
0.798035 0.798035 0.078888
0.949829 0.797729 0.078583
0.000000 0.942566 0.079193
0.079315 0.943817 0.079315
0.195831 0.944824 0.079193
0.335907 0.945679 0.078918
0.473053 0.946564 0.078674
0.587738 0.947601 0.078613
0.687225 0.948761 0.078613
0.797729 0.949829 0.078583
0.950592 0.950592 0.078247
0.001495 0.001495 0.194824
0.080292 0.001312 0.195160
0.195251 0.000885 0.195251
0.334534 0.000275 0.195190
0.472504 0.000000 0.195160
0.588745 0.000000 0.195251
0.688019 0.000000 0.195465
0.798279 0.000000 0.195587
0.943573 0.000000 0.195496
0.001312 0.080292 0.195160
0.080383 0.080383 0.195496
0.195618 0.080261 0.195618
0.335022 0.079956 0.195557
0.472870 0.079681 0.195496
0.588867 0.079590 0.195587
0.688171 0.079590 0.195801
0.798462 0.079498 0.195953
0.944824 0.079193 0.195831
0.000885 0.195251 0.195251
0.080261 0.195618 0.195618
0.195709 0.195709 0.195709
0.335205 0.195648 0.195648
0.472961 0.195587 0.195587
0.588745 0.195679 0.195679
0.688049 0.195892 0.195892
0.798401 0.196045 0.196045
0.945862 0.195923 0.195923
0.000275 0.334534 0.195190
0.079956 0.335022 0.195557
0.195648 0.335205 0.195648
0.335266 0.335266 0.195587
0.472900 0.335327 0.195526
0.588470 0.335541 0.195618
0.687805 0.335876 0.195831
0.798187 0.336121 0.195984
0.946716 0.336121 0.195862
0.000000 0.472504 0.195160
0.079681 0.472870 0.195496
0.195587 0.472961 0.195587
0.335327 0.472900 0.195526
0.472839 0.472839 0.195465
0.588196 0.472931 0.195587
0.687561 0.473145 0.195801
0.797974 0.473267 0.195953
0.947601 0.473114 0.195801
0.000000 0.588745 0.195251
0.079590 0.588867 0.195587
0.195679 0.588745 0.195679
0.335541 0.588470 0.195618
0.472931 0.588196 0.195587
0.588074 0.588074 0.195679
0.687469 0.588043 0.195923
0.797913 0.587952 0.196045
0.948639 0.587585 0.195923
0.000000 0.688019 0.195465
0.079590 0.688171 0.195801
0.195892 0.688049 0.195892
0.335876 0.687805 0.195831
0.473145 0.687561 0.195801
0.588043 0.687469 0.195923
0.687500 0.687500 0.196136
0.797974 0.687439 0.196289
0.949768 0.687103 0.196136
0.000000 0.798279 0.195587
0.079498 0.798462 0.195953
0.196045 0.798401 0.196045
0.336121 0.798187 0.195984
0.473267 0.797974 0.195953
0.587952 0.797913 0.196045
0.687439 0.797974 0.196289
0.797974 0.797974 0.196411
0.950836 0.797668 0.196289
0.000000 0.943573 0.195496
0.079193 0.944824 0.195831
0.195923 0.945862 0.195923
0.336121 0.946716 0.195862
0.473114 0.947601 0.195801
0.587585 0.948639 0.195923
0.687103 0.949768 0.196136
0.797668 0.950836 0.196289
0.951599 0.951599 0.196136
0.000916 0.000916 0.333862
0.079987 0.000732 0.334320
0.195190 0.000275 0.334534
0.334595 0.000000 0.334595
0.472443 0.000000 0.334656
0.588470 0.000000 0.334869
0.687744 0.000000 0.335205
0.798065 0.000000 0.335449
0.944427 0.000000 0.335449
0.000732 0.079987 0.334320
0.080109 0.080109 0.334778
0.195557 0.079956 0.335022
0.335052 0.079681 0.335052
0.472809 0.079407 0.335114
0.588593 0.079285 0.335327
0.687897 0.079315 0.335663
0.798248 0.079254 0.335907
0.945679 0.078918 0.335907
0.000275 0.195190 0.334534
0.079956 0.195557 0.335022
0.195648 0.195648 0.335205
0.335266 0.195587 0.335266
0.472900 0.195526 0.335327
0.588470 0.195618 0.335541
0.687805 0.195831 0.335876
0.798187 0.195984 0.336121
0.946716 0.195862 0.336121
0.000000 0.334595 0.334595
0.079681 0.335052 0.335052
0.195587 0.335266 0.335266
0.335297 0.335297 0.335297
0.472839 0.335358 0.335358
0.588165 0.335571 0.335571
0.687531 0.335907 0.335907
0.797943 0.336182 0.336182
0.947571 0.336182 0.336182
0.000000 0.472443 0.334656
0.079407 0.472809 0.335114
0.195526 0.472900 0.335327
0.335358 0.472839 0.335358
0.472778 0.472778 0.335419
0.587891 0.472870 0.335663
0.687317 0.473053 0.335999
0.797760 0.473175 0.336273
0.948456 0.473022 0.336243
0.000000 0.588470 0.334869
0.079285 0.588593 0.335327
0.195618 0.588470 0.335541
0.335571 0.588165 0.335571
0.472870 0.587891 0.335663
0.587769 0.587769 0.335876
0.687225 0.587738 0.336243
0.797699 0.587646 0.336517
0.949493 0.587250 0.336487
0.000000 0.687744 0.335205
0.079315 0.687897 0.335663
0.195831 0.687805 0.335876
0.335907 0.687531 0.335907
0.473053 0.687317 0.335999
0.587738 0.687225 0.336243
0.687225 0.687225 0.336578
0.797760 0.687195 0.336853
0.950623 0.686829 0.336823
0.000000 0.798065 0.335449
0.079254 0.798248 0.335907
0.195984 0.798187 0.336121
0.336182 0.797943 0.336182
0.473175 0.797760 0.336273
0.587646 0.797699 0.336517
0.687195 0.797760 0.336853
0.797760 0.797760 0.337128
0.951691 0.797455 0.337097
0.000000 0.944427 0.335449
0.078918 0.945679 0.335907
0.195862 0.946716 0.336121
0.336182 0.947571 0.336182
0.473022 0.948456 0.336243
0.587250 0.949493 0.336487
0.686829 0.950623 0.336823
0.797455 0.951691 0.337097
0.952423 0.952423 0.337067
0.000305 0.000305 0.472046
0.079712 0.000122 0.472412
0.195160 0.000000 0.472504
0.334656 0.000000 0.472443
0.472412 0.000000 0.472412
0.588196 0.000000 0.472504
0.687500 0.000000 0.472717
0.797852 0.000000 0.472870
0.945312 0.000000 0.472748
0.000122 0.079712 0.472412
0.079803 0.079803 0.472748
0.195496 0.079681 0.472870
0.335114 0.079407 0.472809
0.472748 0.079163 0.472748
0.588318 0.079041 0.472839
0.687653 0.079071 0.473053
0.798035 0.079010 0.473175
0.946564 0.078674 0.473053
0.000000 0.195160 0.472504
0.079681 0.195496 0.472870
0.195587 0.195587 0.472961
0.335327 0.195526 0.472900
0.472839 0.195465 0.472839
0.588196 0.195587 0.472931
0.687561 0.195801 0.473145
0.797974 0.195953 0.473267
0.947601 0.195801 0.473114
0.000000 0.334656 0.472443
0.079407 0.335114 0.472809
0.195526 0.335327 0.472900
0.335358 0.335358 0.472839
0.472778 0.335419 0.472778
0.587891 0.335663 0.472870
0.687317 0.335999 0.473053
0.797760 0.336273 0.473175
0.948456 0.336243 0.473022
0.000000 0.472412 0.472412
0.079163 0.472748 0.472748
0.195465 0.472839 0.472839
0.335419 0.472778 0.472778
0.472717 0.472717 0.472717
0.587616 0.472809 0.472809
0.687073 0.472992 0.472992
0.797546 0.473114 0.473114
0.949341 0.472931 0.472931
0.000000 0.588196 0.472504
0.079041 0.588318 0.472839
0.195587 0.588196 0.472931
0.335663 0.587891 0.472870
0.472809 0.587616 0.472809
0.587494 0.587494 0.472900
0.686981 0.587463 0.473083
0.797516 0.587372 0.473206
0.950378 0.586975 0.473022
0.000000 0.687500 0.472717
0.079071 0.687653 0.473053
0.195801 0.687561 0.473145
0.335999 0.687317 0.473053
0.472992 0.687073 0.472992
0.587463 0.686981 0.473083
0.687012 0.687012 0.473267
0.797577 0.686951 0.473389
0.951508 0.686584 0.473175
0.000000 0.797852 0.472870
0.079010 0.798035 0.473175
0.195953 0.797974 0.473267
0.336273 0.797760 0.473175
0.473114 0.797546 0.473114
0.587372 0.797516 0.473206
0.686951 0.797577 0.473389
0.797577 0.797577 0.473480
0.952576 0.797272 0.473267
0.000000 0.945312 0.472748
0.078674 0.946564 0.473053
0.195801 0.947601 0.473114
0.336243 0.948456 0.473022
0.472931 0.949341 0.472931
0.586975 0.950378 0.473022
0.686584 0.951508 0.473175
0.797272 0.952576 0.473267
0.953308 0.953308 0.473022
0.000000 0.000000 0.588715
0.079559 0.000000 0.588867
0.195251 0.000000 0.588745
0.334869 0.000000 0.588470
0.472504 0.000000 0.588196
0.588104 0.000000 0.588104
0.687439 0.000000 0.588074
0.797821 0.000000 0.587982
0.946350 0.000000 0.587646
0.000000 0.079559 0.588867
0.079681 0.079681 0.588989
0.195587 0.079590 0.588867
0.335327 0.079285 0.588593
0.472839 0.079041 0.588318
0.588196 0.078949 0.588196
0.687561 0.078979 0.588196
0.797974 0.078918 0.588104
0.947601 0.078613 0.587738
0.000000 0.195251 0.588745
0.079590 0.195587 0.588867
0.195679 0.195679 0.588745
0.335541 0.195618 0.588470
0.472931 0.195587 0.588196
0.588074 0.195679 0.588074
0.687469 0.195923 0.588043
0.797913 0.196045 0.587952
0.948639 0.195923 0.587585
0.000000 0.334869 0.588470
0.079285 0.335327 0.588593
0.195618 0.335541 0.588470
0.335571 0.335571 0.588165
0.472870 0.335663 0.587891
0.587769 0.335876 0.587769
0.687225 0.336243 0.587738
0.797699 0.336517 0.587646
0.949493 0.336487 0.587250
0.000000 0.472504 0.588196
0.079041 0.472839 0.588318
0.195587 0.472931 0.588196
0.335663 0.472870 0.587891
0.472809 0.472809 0.587616
0.587494 0.472900 0.587494
0.686981 0.473083 0.587463
0.797516 0.473206 0.587372
0.950378 0.473022 0.586975
0.000000 0.588104 0.588104
0.078949 0.588196 0.588196
0.195679 0.588074 0.588074
0.335876 0.587769 0.587769
0.472900 0.587494 0.587494
0.587372 0.587372 0.587372
0.686890 0.587341 0.587341
0.797485 0.587250 0.587250
0.951416 0.586823 0.586823
0.000000 0.687439 0.588074
0.078979 0.687561 0.588196
0.195923 0.687469 0.588043
0.336243 0.687225 0.587738
0.473083 0.686981 0.587463
0.587341 0.686890 0.587341
0.686920 0.686920 0.587311
0.797546 0.686859 0.587219
0.952545 0.686523 0.586792
0.000000 0.797821 0.587982
0.078918 0.797974 0.588104
0.196045 0.797913 0.587952
0.336517 0.797699 0.587646
0.473206 0.797516 0.587372
0.587250 0.797485 0.587250
0.686859 0.797546 0.587219
0.797546 0.797546 0.587097
0.953583 0.797241 0.586670
0.000000 0.946350 0.587646
0.078613 0.947601 0.587738
0.195923 0.948639 0.587585
0.336487 0.949493 0.587250
0.473022 0.950378 0.586975
0.586823 0.951416 0.586823
0.686523 0.952545 0.586792
0.797241 0.953583 0.586670
0.954315 0.954315 0.586212
0.000000 0.000000 0.687927
0.079559 0.000000 0.688080
0.195465 0.000000 0.688019
0.335205 0.000000 0.687744
0.472717 0.000000 0.687500
0.588074 0.000000 0.687439
0.687469 0.000000 0.687469
0.797882 0.000000 0.687408
0.947510 0.000000 0.687073
0.000000 0.079559 0.688080
0.079681 0.079681 0.688263
0.195801 0.079590 0.688171
0.335663 0.079315 0.687897
0.473053 0.079071 0.687653
0.588196 0.078979 0.687561
0.687592 0.078979 0.687592
0.798035 0.078949 0.687531
0.948761 0.078613 0.687225
0.000000 0.195465 0.688019
0.079590 0.195801 0.688171
0.195892 0.195892 0.688049
0.335876 0.195831 0.687805
0.473145 0.195801 0.687561
0.588043 0.195923 0.687469
0.687500 0.196136 0.687500
0.797974 0.196289 0.687439
0.949768 0.196136 0.687103
0.000000 0.335205 0.687744
0.079315 0.335663 0.687897
0.195831 0.335876 0.687805
0.335907 0.335907 0.687531
0.473053 0.335999 0.687317
0.587738 0.336243 0.687225
0.687225 0.336578 0.687225
0.797760 0.336853 0.687195
0.950623 0.336823 0.686829
0.000000 0.472717 0.687500
0.079071 0.473053 0.687653
0.195801 0.473145 0.687561
0.335999 0.473053 0.687317
0.472992 0.472992 0.687073
0.587463 0.473083 0.686981
0.687012 0.473267 0.687012
0.797577 0.473389 0.686951
0.951508 0.473175 0.686584
0.000000 0.588074 0.687439
0.078979 0.588196 0.687561
0.195923 0.588043 0.687469
0.336243 0.587738 0.687225
0.473083 0.587463 0.686981
0.587341 0.587341 0.686890
0.686920 0.587311 0.686920
0.797546 0.587219 0.686859
0.952545 0.586792 0.686523
0.000000 0.687469 0.687469
0.078979 0.687592 0.687592
0.196136 0.687500 0.687500
0.336578 0.687225 0.687225
0.473267 0.687012 0.687012
0.587311 0.686920 0.686920
0.686951 0.686951 0.686951
0.797607 0.686890 0.686890
0.953674 0.686523 0.686523
0.000000 0.797882 0.687408
0.078949 0.798035 0.687531
0.196289 0.797974 0.687439
0.336853 0.797760 0.687195
0.473389 0.797577 0.686951
0.587219 0.797546 0.686859
0.686890 0.797607 0.686890
0.797607 0.797607 0.686829
0.954712 0.797302 0.686432
0.000000 0.947510 0.687073
0.078613 0.948761 0.687225
0.196136 0.949768 0.687103
0.336823 0.950623 0.686829
0.473175 0.951508 0.686584
0.586792 0.952545 0.686523
0.686523 0.953674 0.686523
0.797302 0.954712 0.686432
0.955414 0.955414 0.686035
0.000000 0.000000 0.798157
0.079498 0.000000 0.798340
0.195587 0.000000 0.798279
0.335449 0.000000 0.798065
0.472870 0.000000 0.797852
0.587982 0.000000 0.797821
0.687408 0.000000 0.797882
0.797852 0.000000 0.797852
0.948578 0.000000 0.797577
0.000000 0.079498 0.798340
0.079620 0.079620 0.798523
0.195953 0.079498 0.798462
0.335907 0.079254 0.798248
0.473175 0.079010 0.798035
0.588104 0.078918 0.797974
0.687531 0.078949 0.798035
0.798035 0.078888 0.798035
0.949829 0.078583 0.797729
0.000000 0.195587 0.798279
0.079498 0.195953 0.798462
0.196045 0.196045 0.798401
0.336121 0.195984 0.798187
0.473267 0.195953 0.797974
0.587952 0.196045 0.797913
0.687439 0.196289 0.797974
0.797974 0.196411 0.797974
0.950836 0.196289 0.797668
0.000000 0.335449 0.798065
0.079254 0.335907 0.798248
0.195984 0.336121 0.798187
0.336182 0.336182 0.797943
0.473175 0.336273 0.797760
0.587646 0.336517 0.797699
0.687195 0.336853 0.797760
0.797760 0.337128 0.797760
0.951691 0.337097 0.797455
0.000000 0.472870 0.797852
0.079010 0.473175 0.798035
0.195953 0.473267 0.797974
0.336273 0.473175 0.797760
0.473114 0.473114 0.797546
0.587372 0.473206 0.797516
0.686951 0.473389 0.797577
0.797577 0.473480 0.797577
0.952576 0.473267 0.797272
0.000000 0.587982 0.797821
0.078918 0.588104 0.797974
0.196045 0.587952 0.797913
0.336517 0.587646 0.797699
0.473206 0.587372 0.797516
0.587250 0.587250 0.797485
0.686859 0.587219 0.797546
0.797546 0.587097 0.797546
0.953583 0.586670 0.797241
0.000000 0.687408 0.797882
0.078949 0.687531 0.798035
0.196289 0.687439 0.797974
0.336853 0.687195 0.797760
0.473389 0.686951 0.797577
0.587219 0.686859 0.797546
0.686890 0.686890 0.797607
0.797607 0.686829 0.797607
0.954712 0.686432 0.797302
0.000000 0.797852 0.797852
0.078888 0.798035 0.798035
0.196411 0.797974 0.797974
0.337128 0.797760 0.797760
0.473480 0.797577 0.797577
0.587097 0.797546 0.797546
0.686829 0.797607 0.797607
0.797638 0.797638 0.797638
0.955719 0.797302 0.797302
0.000000 0.948578 0.797577
0.078583 0.949829 0.797729
0.196289 0.950836 0.797668
0.337097 0.951691 0.797455
0.473267 0.952576 0.797272
0.586670 0.953583 0.797241
0.686432 0.954712 0.797302
0.797302 0.955719 0.797302
0.956390 0.956390 0.796967
0.000000 0.000000 0.941162
0.079193 0.000000 0.942566
0.195496 0.000000 0.943573
0.335449 0.000000 0.944427
0.472748 0.000000 0.945312
0.587646 0.000000 0.946350
0.687073 0.000000 0.947510
0.797577 0.000000 0.948578
0.949341 0.000000 0.949341
0.000000 0.079193 0.942566
0.079315 0.079315 0.943817
0.195831 0.079193 0.944824
0.335907 0.078918 0.945679
0.473053 0.078674 0.946564
0.587738 0.078613 0.947601
0.687225 0.078613 0.948761
0.797729 0.078583 0.949829
0.950592 0.078247 0.950592
0.000000 0.195496 0.943573
0.079193 0.195831 0.944824
0.195923 0.195923 0.945862
0.336121 0.195862 0.946716
0.473114 0.195801 0.947601
0.587585 0.195923 0.948639
0.687103 0.196136 0.949768
0.797668 0.196289 0.950836
0.951599 0.196136 0.951599
0.000000 0.335449 0.944427
0.078918 0.335907 0.945679
0.195862 0.336121 0.946716
0.336182 0.336182 0.947571
0.473022 0.336243 0.948456
0.587250 0.336487 0.949493
0.686829 0.336823 0.950623
0.797455 0.337097 0.951691
0.952423 0.337067 0.952423
0.000000 0.472748 0.945312
0.078674 0.473053 0.946564
0.195801 0.473114 0.947601
0.336243 0.473022 0.948456
0.472931 0.472931 0.949341
0.586975 0.473022 0.950378
0.686584 0.473175 0.951508
0.797272 0.473267 0.952576
0.953308 0.473022 0.953308
0.000000 0.587646 0.946350
0.078613 0.587738 0.947601
0.195923 0.587585 0.948639
0.336487 0.587250 0.949493
0.473022 0.586975 0.950378
0.586823 0.586823 0.951416
0.686523 0.586792 0.952545
0.797241 0.586670 0.953583
0.954315 0.586212 0.954315
0.000000 0.687073 0.947510
0.078613 0.687225 0.948761
0.196136 0.687103 0.949768
0.336823 0.686829 0.950623
0.473175 0.686584 0.951508
0.586792 0.686523 0.952545
0.686523 0.686523 0.953674
0.797302 0.686432 0.954712
0.955414 0.686035 0.955414
0.000000 0.797577 0.948578
0.078583 0.797729 0.949829
0.196289 0.797668 0.950836
0.337097 0.797455 0.951691
0.473267 0.797272 0.952576
0.586670 0.797241 0.953583
0.686432 0.797302 0.954712
0.797302 0.797302 0.955719
0.956390 0.796967 0.956390
0.000000 0.949341 0.949341
0.078247 0.950592 0.950592
0.196136 0.951599 0.951599
0.337067 0.952423 0.952423
0.473022 0.953308 0.953308
0.586212 0.954315 0.954315
0.686035 0.955414 0.955414
0.796967 0.956390 0.956390
0.957062 0.957062 0.957062
