Kodak Vision2 250D (5205) - Look.cube
# Created by Benjamin (IWLTBAP) : http://luts.iwltbap.com
# Copyright: (C) Copyright 2010-2017 Triune Films and IWLTBAP SAS
# Cannot be resold, shared or otherwise redistributed
TITLE "Film Print Emulation LUTs Pack (Rec.709, sRGB, DCI-P3)"
LUT_3D_SIZE 5
0.000916 0.000916 0.000000
0.161621 0.000000 0.000000
0.370819 0.006409 0.000000
0.537415 0.055756 0.000000
0.685150 0.098450 0.000000
0.047028 0.127289 0.000000
0.252380 0.181000 0.000000
0.479370 0.210907 0.000000
0.624664 0.238007 0.000000
0.751923 0.241272 0.000000
0.267029 0.374451 0.000000
0.370026 0.436554 0.059357
0.512451 0.452667 0.000000
0.671661 0.447510 0.000000
0.807800 0.436798 0.010284
0.377655 0.565399 0.014130
0.452423 0.600616 0.078430
0.561798 0.629669 0.083679
0.653259 0.646973 0.099426
0.810211 0.642059 0.039062
0.436096 0.720795 0.040955
0.516998 0.738434 0.064545
0.633881 0.772064 0.047119
0.744049 0.800995 0.045105
0.855896 0.813965 0.086060
0.005554 0.042480 0.130585
0.150726 0.035248 0.155060
0.366547 0.000000 0.139404
0.527344 0.000000 0.138947
0.671600 0.000000 0.124939
0.000000 0.181854 0.210663
0.222107 0.206024 0.176849
0.433441 0.203918 0.164520
0.595551 0.220886 0.167847
0.747467 0.209412 0.142883
0.158966 0.394775 0.230133
0.334320 0.407745 0.196777
0.477203 0.414978 0.195709
0.654114 0.427826 0.193634
0.810822 0.412292 0.147614
0.290222 0.573517 0.248383
0.427460 0.586304 0.231384
0.564636 0.614471 0.239471
0.653046 0.643036 0.251892
0.824493 0.641785 0.164642
0.379883 0.733490 0.220795
0.487976 0.745605 0.188049
0.618500 0.783905 0.221588
0.748413 0.816956 0.217926
0.883453 0.827576 0.120483
0.000000 0.076843 0.258484
0.030334 0.083984 0.282654
0.327881 0.047394 0.289520
0.523651 0.050446 0.312408
0.678955 0.022339 0.297180
0.000000 0.203247 0.362915
0.128357 0.233490 0.372192
0.399780 0.218781 0.349274
0.590424 0.221771 0.350433
0.747070 0.197571 0.316132
0.013092 0.405060 0.437836
0.237152 0.427643 0.419037
0.464630 0.430023 0.399078
0.639313 0.434906 0.400787
0.811188 0.409027 0.365906
0.136383 0.591675 0.457123
0.336456 0.603912 0.448792
0.526642 0.625641 0.450287
0.682678 0.633423 0.448364
0.861542 0.637787 0.417816
0.269531 0.747620 0.459930
0.407562 0.762329 0.456848
0.586700 0.812378 0.455780
0.742859 0.843048 0.473846
0.882812 0.860809 0.472046
0.000000 0.112518 0.367523
0.000000 0.104858 0.344360
0.222290 0.107635 0.399139
0.454529 0.088715 0.419830
0.670563 0.096069 0.451874
0.000000 0.220001 0.467743
0.025543 0.236328 0.460419
0.279724 0.231903 0.470703
0.523315 0.234070 0.481110
0.738251 0.216187 0.488068
0.005676 0.396393 0.553894
0.153503 0.429169 0.551361
0.402832 0.446289 0.554321
0.606842 0.442200 0.552368
0.806061 0.406250 0.539062
0.063660 0.589081 0.621033
0.230591 0.609802 0.612366
0.475494 0.627045 0.608307
0.673248 0.649475 0.627594
0.878967 0.655579 0.624817
0.140472 0.756561 0.647247
0.266479 0.781738 0.651489
0.504730 0.826508 0.675415
0.724548 0.866394 0.699280
0.917053 0.887360 0.707214
0.000000 0.132538 0.457886
0.002350 0.116150 0.430115
0.050995 0.124847 0.447479
0.328308 0.131317 0.528748
0.592102 0.124756 0.561584
0.002350 0.210327 0.548706
0.022552 0.201965 0.537079
0.050476 0.198578 0.531464
0.356934 0.222900 0.595673
0.645721 0.229645 0.621033
0.018127 0.366547 0.655884
0.050476 0.366852 0.651947
0.114594 0.375610 0.662750
0.417236 0.400604 0.691315
0.731201 0.422668 0.706360
0.035492 0.549225 0.736053
0.088257 0.560699 0.737671
0.265076 0.606995 0.759521
0.567322 0.653961 0.801147
0.840942 0.659271 0.808502
0.084198 0.718414 0.788757
0.158112 0.738068 0.794769
0.324249 0.796082 0.823761
0.626770 0.867493 0.869537
0.937164 0.912292 0.908081
