Kodak Vision3 500T (5219) - Look variant 2.cube
# Created by Benjamin (IWLTBAP) : http://luts.iwltbap.com
# Copyright: (C) Copyright 2010-2017 Triune Films and IWLTBAP SAS
# Cannot be resold, shared or otherwise redistributed
TITLE "Film Print Emulation LUTs Pack (Rec.709, sRGB, DCI-P3)"
LUT_3D_SIZE 9
0.000244 0.000244 0.000244
0.064270 0.009888 0.000153
0.144775 0.040314 0.000000
0.223633 0.060516 0.000000
0.301086 0.086761 0.000000
0.387726 0.115753 0.000000
0.471069 0.152985 0.000000
0.554413 0.194977 0.000000
0.643219 0.239349 0.000000
0.036285 0.082733 0.000092
0.097290 0.082703 0.000000
0.188568 0.100250 0.000000
0.252472 0.104767 0.000000
0.331696 0.117188 0.000000
0.413727 0.138885 0.000000
0.492462 0.172607 0.000000
0.569244 0.214478 0.000000
0.656555 0.257202 0.000000
0.090912 0.161194 0.000000
0.124298 0.162292 0.000000
0.178833 0.166901 0.000000
0.297485 0.199341 0.000000
0.375641 0.200897 0.000000
0.452881 0.207703 0.000000
0.530975 0.225800 0.000000
0.603363 0.259338 0.000000
0.690704 0.295441 0.000000
0.131104 0.256165 0.000000
0.159302 0.256927 0.000000
0.211548 0.259338 0.000000
0.269867 0.267090 0.000000
0.388916 0.290497 0.000000
0.506226 0.312958 0.000000
0.579102 0.317230 0.000000
0.657715 0.334503 0.000000
0.744507 0.359192 0.000000
0.206238 0.352142 0.049744
0.225891 0.352661 0.058929
0.259674 0.356415 0.017639
0.312347 0.362640 0.000000
0.381287 0.370819 0.000000
0.490021 0.388672 0.000000
0.638641 0.433014 0.000000
0.724548 0.437286 0.000000
0.810486 0.449188 0.000000
0.298096 0.456421 0.137115
0.309540 0.457886 0.133698
0.332367 0.462860 0.103058
0.373657 0.470154 0.065643
0.426758 0.481171 0.000000
0.501465 0.492096 0.000000
0.607849 0.500671 0.000000
0.754974 0.544373 0.000000
0.871338 0.561584 0.000000
0.400177 0.566956 0.235779
0.409393 0.568085 0.234833
0.431793 0.570984 0.232849
0.463623 0.577911 0.204285
0.502838 0.589325 0.141205
0.550293 0.604431 0.000000
0.625793 0.617218 0.000000
0.738678 0.622101 0.000000
0.878265 0.658752 0.000000
0.510376 0.674774 0.349670
0.517151 0.675842 0.350800
0.531982 0.679382 0.342560
0.556152 0.686157 0.321686
0.594208 0.695099 0.295563
0.637695 0.709076 0.221741
0.685211 0.726898 0.120178
0.754242 0.743286 0.000000
0.877991 0.749847 0.000000
0.621979 0.788391 0.454712
0.627533 0.789673 0.455078
0.641449 0.793030 0.455933
0.665466 0.799133 0.457642
0.694641 0.810852 0.435791
0.733459 0.827026 0.401672
0.784393 0.846985 0.340942
0.847565 0.877747 0.270844
0.945648 0.919495 0.147705
0.000244 0.006989 0.030945
0.041595 0.021667 0.055176
0.105377 0.061188 0.089539
0.254456 0.027679 0.000000
0.317108 0.066956 0.000000
0.409546 0.085510 0.000000
0.502747 0.114136 0.001892
0.578430 0.170074 0.003265
0.651917 0.231842 0.030273
0.000000 0.090546 0.089569
0.086273 0.086273 0.086273
0.177032 0.089111 0.077240
0.273743 0.074158 0.008545
0.354248 0.085419 0.008331
0.436188 0.108704 0.008087
0.520721 0.138580 0.007782
0.601074 0.181030 0.007477
0.674042 0.240814 0.021332
0.048401 0.168182 0.057129
0.106964 0.165985 0.081329
0.177124 0.168945 0.037811
0.310974 0.199615 0.069580
0.386169 0.188049 0.044769
0.477722 0.183441 0.031097
0.559937 0.197266 0.023163
0.632172 0.233093 0.018402
0.706482 0.281494 0.022705
0.116699 0.258789 0.069550
0.155243 0.257904 0.085114
0.206482 0.261078 0.073700
0.269470 0.268860 0.000000
0.401611 0.295746 0.051636
0.509644 0.307434 0.062714
0.591644 0.306671 0.047424
0.674744 0.321350 0.036835
0.750519 0.353668 0.038513
0.193665 0.354797 0.086365
0.215027 0.355072 0.097748
0.252960 0.358490 0.083130
0.308929 0.364441 0.042206
0.374512 0.374146 0.000000
0.497650 0.391174 0.026520
0.645935 0.433167 0.072723
0.728058 0.433838 0.058563
0.814758 0.445618 0.047302
0.285461 0.459412 0.151123
0.295868 0.461243 0.141846
0.326324 0.464661 0.135742
0.373444 0.470673 0.124664
0.422424 0.483276 0.000000
0.501190 0.493286 0.000000
0.612213 0.502563 0.005310
0.760620 0.545746 0.061371
0.873718 0.559845 0.066101
0.393219 0.568817 0.247528
0.402985 0.569855 0.247528
0.426636 0.572479 0.247650
0.459534 0.579102 0.226196
0.499298 0.590637 0.170532
0.547852 0.605896 0.028473
0.626404 0.617889 0.000000
0.740723 0.622131 0.000000
0.883026 0.659668 0.048737
0.501678 0.677216 0.352264
0.508636 0.678284 0.353394
0.523285 0.682037 0.342560
0.550293 0.688049 0.328674
0.590607 0.696381 0.307129
0.634857 0.710114 0.242737
0.683960 0.727722 0.148895
0.753021 0.744385 0.000000
0.879700 0.749939 0.000000
0.616577 0.790222 0.458984
0.622406 0.791443 0.459778
0.637146 0.794556 0.461853
0.661926 0.800446 0.464447
0.692566 0.811890 0.441956
0.731659 0.828064 0.408020
0.783661 0.847931 0.345886
0.847351 0.878723 0.281403
0.943817 0.921478 0.152588
0.003876 0.023071 0.089630
0.059814 0.036346 0.081787
0.102325 0.074738 0.107666
0.146515 0.110687 0.142395
0.255646 0.124420 0.140656
0.407684 0.095398 0.091461
0.507782 0.110046 0.073364
0.603729 0.136932 0.061554
0.662476 0.222260 0.096100
0.000000 0.086273 0.174744
0.039551 0.098175 0.165619
0.123840 0.109100 0.138458
0.168274 0.133911 0.163361
0.308899 0.125458 0.126678
0.428162 0.114868 0.090057
0.528168 0.122620 0.066193
0.629883 0.134186 0.039612
0.680054 0.231140 0.094208
0.000000 0.173340 0.156464
0.000000 0.180237 0.158752
0.170288 0.170380 0.170380
0.266602 0.182556 0.171387
0.364227 0.175507 0.135498
0.474823 0.165771 0.102234
0.565735 0.176483 0.076599
0.664734 0.187714 0.054260
0.731384 0.252350 0.087189
0.062286 0.266174 0.130005
0.123169 0.264648 0.143921
0.200043 0.263031 0.172089
0.275909 0.267670 0.147064
0.428711 0.314392 0.186554
0.502533 0.298828 0.159119
0.603638 0.287720 0.129272
0.703247 0.291534 0.100647
0.785156 0.322388 0.105225
0.159790 0.360992 0.144806
0.188049 0.360870 0.154938
0.248657 0.359833 0.179962
0.310455 0.364471 0.173798
0.373779 0.376373 0.107788
0.518005 0.399536 0.070435
0.648010 0.425568 0.139160
0.737732 0.422852 0.123749
0.820160 0.438293 0.151367
0.260956 0.465240 0.181763
0.278107 0.465851 0.187256
0.316895 0.467560 0.202820
0.367767 0.473022 0.199982
0.429718 0.482330 0.172211
0.496338 0.497192 0.044006
0.622040 0.508392 0.031464
0.776764 0.548431 0.111389
0.878265 0.554718 0.111267
0.369781 0.574951 0.259003
0.380615 0.575836 0.260925
0.406525 0.578186 0.265747
0.442078 0.584534 0.246613
0.497009 0.591797 0.241119
0.550476 0.606445 0.165649
0.625275 0.620392 0.000000
0.746155 0.622314 0.000000
0.894012 0.661743 0.086029
0.481323 0.682922 0.358215
0.489624 0.683868 0.358521
0.509857 0.686188 0.359192
0.542786 0.690521 0.358917
0.582703 0.699188 0.336121
0.628052 0.712738 0.285919
0.681122 0.729614 0.203186
0.754730 0.745758 0.000000
0.884186 0.750519 0.000000
0.600037 0.795929 0.461365
0.606049 0.797089 0.462494
0.621185 0.800201 0.465454
0.646088 0.806244 0.464752
0.678802 0.817352 0.444183
0.726746 0.830719 0.424744
0.780762 0.850311 0.364899
0.847107 0.881317 0.304169
0.943573 0.925140 0.176025
0.062164 0.044586 0.099640
0.088959 0.058807 0.105530
0.118439 0.086700 0.126465
0.156158 0.119415 0.155670
0.200653 0.158447 0.194733
0.267181 0.198425 0.233978
0.418457 0.202637 0.210938
0.565460 0.192200 0.176117
0.677856 0.212494 0.169769
0.020538 0.102844 0.186401
0.083679 0.105316 0.164337
0.131439 0.118713 0.158203
0.171875 0.143494 0.178070
0.216461 0.178619 0.213531
0.284149 0.213898 0.247192
0.454071 0.203186 0.202087
0.586273 0.198456 0.173492
0.687164 0.229248 0.173279
0.000000 0.156433 0.217957
0.000000 0.155212 0.272247
0.096497 0.185822 0.269592
0.209625 0.195770 0.227325
0.255737 0.222137 0.253937
0.388367 0.223175 0.228699
0.523712 0.211853 0.190063
0.621277 0.229523 0.175232
0.719818 0.259460 0.175812
0.000000 0.271759 0.234985
0.000000 0.276276 0.238617
0.071960 0.283478 0.240814
0.269104 0.269104 0.269104
0.369080 0.286255 0.273438
0.463440 0.281616 0.239441
0.591522 0.269867 0.207764
0.682495 0.290314 0.191467
0.798065 0.298553 0.176727
0.049744 0.372437 0.207001
0.123474 0.371063 0.217133
0.217072 0.368164 0.240417
0.302094 0.367401 0.271973
0.383240 0.374237 0.252319
0.545197 0.427673 0.294403
0.628845 0.419250 0.280731
0.732819 0.411774 0.258331
0.839355 0.415436 0.240662
0.222626 0.473358 0.238312
0.242065 0.474030 0.244629
0.286133 0.475525 0.260620
0.360443 0.475922 0.291443
0.429108 0.483368 0.287628
0.499268 0.497650 0.237396
0.651093 0.516388 0.094086
0.783264 0.552490 0.284363
0.875275 0.549347 0.269867
0.336151 0.583466 0.284821
0.348358 0.584259 0.288879
0.380157 0.585846 0.298828
0.430908 0.588348 0.318451
0.488983 0.595154 0.316864
0.556885 0.605377 0.296143
0.628174 0.621552 0.212708
0.761169 0.627716 0.025513
0.912109 0.667206 0.215393
0.450745 0.691589 0.367126
0.459808 0.692383 0.368683
0.482147 0.694489 0.372711
0.518646 0.698212 0.379791
0.564026 0.705811 0.367493
0.623444 0.714935 0.359924
0.682159 0.730682 0.296112
0.761353 0.746704 0.187500
0.894531 0.750519 0.000000
0.573608 0.804718 0.468628
0.580017 0.805817 0.469849
0.595856 0.808899 0.473145
0.625549 0.814056 0.476715
0.668396 0.821960 0.479797
0.716827 0.835541 0.459869
0.771606 0.854889 0.416351
0.844696 0.886108 0.357025
0.952545 0.928741 0.269165
0.097626 0.073608 0.126892
0.111145 0.083221 0.133270
0.136536 0.102814 0.149689
0.170593 0.131409 0.174713
0.213623 0.168976 0.209015
0.261871 0.212799 0.252808
0.325592 0.255798 0.296692
0.405487 0.297028 0.334015
0.581451 0.299774 0.302185
0.084137 0.114349 0.184814
0.104980 0.119568 0.180939
0.150818 0.129944 0.176727
0.187805 0.153961 0.196289
0.229034 0.188232 0.227509
0.275635 0.228302 0.267639
0.335999 0.269562 0.309235
0.418854 0.307800 0.342255
0.609741 0.300781 0.296661
0.000000 0.186920 0.267609
0.000000 0.190582 0.291290
0.150726 0.190979 0.264954
0.217133 0.205719 0.247864
0.260773 0.231873 0.268707
0.304169 0.265533 0.303009
0.366608 0.300140 0.336823
0.515961 0.307709 0.317017
0.671661 0.307526 0.287170
0.037354 0.264618 0.276367
0.054352 0.254517 0.287018
0.023041 0.246826 0.371765
0.181549 0.287811 0.382477
0.308350 0.295532 0.328735
0.355011 0.321198 0.354614
0.486328 0.326416 0.334564
0.629333 0.324493 0.302124
0.738586 0.343353 0.290588
0.000000 0.376190 0.321655
0.000000 0.379669 0.323669
0.000000 0.388641 0.328094
0.215881 0.387360 0.341278
0.376343 0.376343 0.376343
0.481293 0.398804 0.384705
0.580658 0.399689 0.356049
0.720551 0.391541 0.326996
0.815735 0.412598 0.313385
0.013428 0.491028 0.296844
0.108612 0.490601 0.304260
0.221283 0.488586 0.322845
0.329071 0.485992 0.353058
0.419861 0.487366 0.386993
0.506683 0.496216 0.371857
0.671173 0.549255 0.410431
0.760223 0.545349 0.406586
0.867004 0.538727 0.386078
0.291321 0.593231 0.340698
0.306885 0.593903 0.345367
0.343079 0.595306 0.357117
0.399506 0.597534 0.377716
0.481873 0.598114 0.412109
0.553497 0.607422 0.405701
0.628937 0.622375 0.363739
0.785675 0.638763 0.253021
0.922150 0.679810 0.417206
0.412384 0.702087 0.389648
0.422668 0.702759 0.392731
0.447418 0.704590 0.400726
0.490509 0.707397 0.414551
0.549622 0.710907 0.439331
0.612885 0.719452 0.434570
0.687317 0.730011 0.421631
0.763184 0.748138 0.347931
0.910553 0.754150 0.171387
0.536438 0.816620 0.480347
0.543182 0.817902 0.481842
0.562286 0.820465 0.485565
0.595795 0.825073 0.492554
0.642334 0.832275 0.503143
0.699524 0.843170 0.502319
0.766876 0.859375 0.494690
0.847809 0.890564 0.449524
0.964355 0.933289 0.388397
0.124542 0.100433 0.159393
0.134064 0.106964 0.164642
0.156281 0.122406 0.176941
0.191498 0.147461 0.197815
0.230713 0.182983 0.229919
0.275421 0.224884 0.268951
0.324219 0.270569 0.313507
0.393707 0.313599 0.359192
0.468750 0.362793 0.406769
0.125336 0.130463 0.195496
0.141235 0.134705 0.195312
0.172333 0.145996 0.200043
0.205505 0.168976 0.219177
0.244598 0.201141 0.247772
0.288727 0.239685 0.282837
0.335602 0.283203 0.325592
0.401672 0.325958 0.370789
0.479706 0.373230 0.416138
0.080048 0.194305 0.304291
0.121796 0.196106 0.295166
0.175690 0.203735 0.278809
0.230103 0.218445 0.270782
0.276550 0.241974 0.286926
0.317841 0.274963 0.316772
0.363831 0.313324 0.355194
0.422211 0.356049 0.398834
0.507263 0.398987 0.438934
0.000000 0.275665 0.347992
0.000000 0.275726 0.367493
0.000000 0.289185 0.408813
0.229401 0.292603 0.381897
0.314362 0.305542 0.350220
0.360077 0.331207 0.370331
0.404755 0.365784 0.405090
0.469177 0.403778 0.442963
0.598236 0.426208 0.446228
0.096924 0.378784 0.366425
0.133514 0.379333 0.371094
0.167023 0.360321 0.379761
0.168915 0.342651 0.460754
0.294006 0.396484 0.494171
0.419769 0.407410 0.442169
0.470245 0.436249 0.471344
0.602753 0.446136 0.457092
0.747284 0.448883 0.427673
0.000000 0.494171 0.420929
0.000000 0.497131 0.423157
0.000000 0.505249 0.427429
0.160858 0.510925 0.442871
0.340851 0.508606 0.460724
0.498932 0.498871 0.498871
0.605988 0.522583 0.508575
0.709686 0.525146 0.481812
0.851746 0.519684 0.453796
0.090942 0.613373 0.404114
0.130646 0.614258 0.407562
0.206451 0.615723 0.417084
0.334167 0.612640 0.441681
0.448700 0.609650 0.475403
0.542664 0.612122 0.507324
0.635559 0.621124 0.496704
0.800934 0.672333 0.533752
0.896515 0.672333 0.535492
0.358002 0.714142 0.447571
0.371033 0.714661 0.451324
0.402588 0.715881 0.460602
0.451782 0.718201 0.476807
0.518860 0.721039 0.501373
0.607605 0.722076 0.538574
0.683258 0.732147 0.534729
0.764191 0.749237 0.494019
0.932465 0.767151 0.401245
0.491852 0.830566 0.500580
0.501068 0.831360 0.503326
0.523438 0.833679 0.510529
0.560303 0.837799 0.522888
0.614044 0.843536 0.542236
0.682068 0.851105 0.573761
0.758972 0.866455 0.579315
0.855225 0.894592 0.578857
0.968445 0.941925 0.535187
0.155701 0.125885 0.191284
0.164551 0.131409 0.195343
0.186523 0.144470 0.205902
0.219177 0.167236 0.225250
0.254700 0.200043 0.254456
0.296326 0.239075 0.289581
0.341064 0.283051 0.331543
0.394257 0.330353 0.377319
0.468964 0.378357 0.428467
0.162415 0.151520 0.219727
0.171997 0.156036 0.222656
0.194824 0.168060 0.231049
0.227692 0.188232 0.246857
0.266632 0.217133 0.271240
0.307343 0.253693 0.303772
0.351532 0.295410 0.343323
0.402405 0.342224 0.388489
0.476593 0.389618 0.438934
0.160095 0.207855 0.302948
0.173309 0.211517 0.299896
0.204407 0.220459 0.294037
0.255798 0.232574 0.291138
0.293793 0.256378 0.309631
0.333588 0.287628 0.337036
0.377380 0.325500 0.371582
0.426331 0.370514 0.415771
0.496094 0.417297 0.464966
0.000000 0.296387 0.418091
0.014069 0.298126 0.429657
0.162170 0.297760 0.422699
0.263000 0.302612 0.390106
0.324402 0.318268 0.375366
0.376953 0.341644 0.389130
0.420654 0.376312 0.420654
0.470398 0.417816 0.461761
0.528503 0.463196 0.507996
0.069092 0.381165 0.407928
0.055664 0.382538 0.418976
0.046722 0.381378 0.467834
0.056519 0.384460 0.542419
0.325134 0.404572 0.505188
0.425537 0.419312 0.466980
0.476868 0.447845 0.488708
0.523132 0.484192 0.524872
0.586151 0.521515 0.562683
0.148163 0.496674 0.472504
0.176971 0.497284 0.475647
0.234894 0.498779 0.484619
0.282745 0.480438 0.495178
0.290192 0.457397 0.579651
0.417145 0.520477 0.622742
0.544373 0.531860 0.568054
0.594269 0.560974 0.597565
0.717255 0.574707 0.591003
0.000000 0.619019 0.530029
0.000000 0.620758 0.532104
0.116913 0.623749 0.539764
0.215271 0.628693 0.553436
0.320770 0.634155 0.573822
0.444672 0.638184 0.590790
0.625122 0.625122 0.625122
0.734192 0.647827 0.637421
0.846191 0.652100 0.612549
0.119019 0.737305 0.518036
0.155182 0.738068 0.520691
0.220947 0.739777 0.527344
0.312317 0.741730 0.540497
0.451324 0.737885 0.569122
0.570190 0.735443 0.604645
0.667877 0.739288 0.631622
0.771820 0.749146 0.629303
0.940247 0.803375 0.669708
0.425110 0.846008 0.564819
0.435455 0.846954 0.567596
0.459229 0.849426 0.574249
0.505219 0.853027 0.588043
0.571594 0.857605 0.610291
0.653595 0.863739 0.641663
0.755493 0.874176 0.688202
0.857910 0.902496 0.711365
0.978271 0.950714 0.687561
0.197815 0.153961 0.224243
0.206299 0.158447 0.228027
0.225708 0.169922 0.237793
0.250122 0.191711 0.256775
0.282257 0.221313 0.282562
0.321075 0.257324 0.314301
0.365601 0.297913 0.352539
0.415314 0.344696 0.397339
0.472137 0.397980 0.449036
0.199554 0.178162 0.251892
0.207581 0.182220 0.254913
0.227234 0.192841 0.262634
0.259827 0.209991 0.275940
0.294159 0.236664 0.298279
0.331665 0.270782 0.328094
0.374969 0.310181 0.364380
0.423767 0.356110 0.408478
0.479706 0.408844 0.459412
0.205414 0.228912 0.314728
0.215515 0.232117 0.314606
0.240112 0.239685 0.315613
0.275024 0.253357 0.322052
0.313965 0.274567 0.337219
0.356018 0.302979 0.360626
0.398041 0.340027 0.393372
0.445374 0.384827 0.436096
0.500214 0.434967 0.484375
0.187653 0.301239 0.429260
0.206848 0.302917 0.424957
0.243530 0.307861 0.417084
0.286652 0.319061 0.406158
0.346741 0.333069 0.397461
0.394592 0.356750 0.413422
0.438385 0.390656 0.443176
0.486267 0.431763 0.480591
0.536804 0.477966 0.525482
0.000000 0.404327 0.505981
0.000000 0.406647 0.517975
0.000031 0.412018 0.549438
0.236664 0.410339 0.548065
0.365540 0.415222 0.512482
0.435486 0.434174 0.496094
0.495850 0.459534 0.509460
0.541046 0.495300 0.541870
0.590332 0.535614 0.581299
0.178558 0.508545 0.508331
0.200134 0.509308 0.512787
0.222412 0.501526 0.524475
0.206390 0.505463 0.568695
0.220245 0.503754 0.671021
0.442352 0.530060 0.638306
0.549683 0.544556 0.594879
0.603149 0.572723 0.615448
0.648651 0.608948 0.650696
0.224884 0.618134 0.585052
0.239777 0.619232 0.587555
0.279266 0.621521 0.593842
0.349945 0.623596 0.606567
0.402405 0.604370 0.621124
0.411133 0.582245 0.720093
0.536652 0.649109 0.757324
0.673523 0.659912 0.697418
0.721405 0.690125 0.727783
0.206512 0.736389 0.652069
0.219269 0.737671 0.653961
0.258728 0.740173 0.659760
0.320526 0.743927 0.670349
0.394104 0.749664 0.687500
0.486603 0.754944 0.714233
0.592224 0.760925 0.743195
0.757050 0.757050 0.757050
0.876801 0.782227 0.776978
0.016724 0.874451 0.645935
0.101929 0.876038 0.648193
0.203888 0.878906 0.653748
0.307373 0.883057 0.663605
0.429108 0.886902 0.682159
0.569550 0.889801 0.713837
0.707367 0.898682 0.760590
0.851440 0.918610 0.816071
0.981689 0.963531 0.833130
0.237457 0.186096 0.261078
0.243256 0.190552 0.265076
0.257263 0.201538 0.274750
0.280579 0.220123 0.291016
0.312347 0.245697 0.313629
0.348328 0.278687 0.342468
0.389801 0.317413 0.378113
0.438934 0.362793 0.421051
0.496429 0.414154 0.470551
0.240540 0.206787 0.284302
0.248047 0.210266 0.287201
0.266327 0.219086 0.294067
0.294220 0.234650 0.306915
0.323517 0.259583 0.328156
0.358246 0.291077 0.355438
0.399536 0.328949 0.389435
0.448486 0.373718 0.431854
0.504791 0.424286 0.480499
0.248779 0.251892 0.338135
0.256378 0.254913 0.339661
0.273987 0.262726 0.343903
0.303223 0.275787 0.352020
0.343506 0.294037 0.364532
0.382538 0.321472 0.386841
0.423187 0.357727 0.418396
0.471436 0.401093 0.458496
0.524689 0.449585 0.504913
0.257721 0.316956 0.430817
0.265869 0.319489 0.429810
0.284668 0.326447 0.426880
0.319244 0.337311 0.424377
0.367981 0.352142 0.426392
0.413269 0.375885 0.442780
0.462402 0.407257 0.468201
0.508453 0.447174 0.503357
0.557007 0.492279 0.546143
0.184448 0.410461 0.559784
0.209564 0.411102 0.560333
0.259003 0.413177 0.561523
0.329529 0.419220 0.544861
0.390747 0.432251 0.531921
0.455536 0.450623 0.521027
0.513428 0.475220 0.534637
0.559052 0.509552 0.564545
0.606354 0.549408 0.600464
0.000000 0.529144 0.594574
0.000000 0.530884 0.605377
0.000000 0.534637 0.640594
0.073547 0.541199 0.682709
0.342957 0.536652 0.679535
0.481812 0.540527 0.645966
0.557587 0.559540 0.625305
0.622253 0.584503 0.636383
0.667786 0.620026 0.668274
0.241669 0.631531 0.617371
0.258392 0.632294 0.620789
0.297485 0.634003 0.629608
0.348297 0.630463 0.644897
0.333710 0.635559 0.691833
0.359192 0.633362 0.797607
0.569702 0.657715 0.767609
0.679016 0.672974 0.724945
0.734100 0.701263 0.745422
0.304443 0.740051 0.698578
0.316162 0.740967 0.700745
0.344696 0.743347 0.705963
0.394958 0.746796 0.715271
0.471832 0.749603 0.731781
0.525970 0.730957 0.753815
0.539307 0.717560 0.867767
0.679596 0.782928 0.874634
0.819000 0.802551 0.829102
0.356628 0.867523 0.778290
0.366577 0.868835 0.780212
0.389130 0.872284 0.784882
0.435760 0.877319 0.793915
0.497375 0.885468 0.807770
0.568726 0.899994 0.831268
0.669952 0.920013 0.869293
0.794037 0.951569 0.920258
0.981842 0.981842 0.981842
