Kodak Vision 500T (5279) - Only color.cube
# Created by Benjamin (IWLTBAP) : http://luts.iwltbap.com
# Copyright: (C) Copyright 2010-2017 Triune Films and IWLTBAP SAS
# Cannot be resold, shared or otherwise redistributed
TITLE "Film Print Emulation LUTs Pack (Rec.709, sRGB, DCI-P3)"
LUT_3D_SIZE 5
0.002136 0.000000 0.000000
0.228699 0.034943 0.016388
0.426575 0.067749 0.059204
0.629364 0.091248 0.121582
0.870087 0.158142 0.172729
0.000427 0.203064 0.017456
0.218597 0.228058 0.047821
0.455383 0.264099 0.110718
0.672241 0.312592 0.159790
0.942017 0.374237 0.230408
0.000000 0.393860 0.109741
0.069855 0.409760 0.128723
0.459778 0.449615 0.150940
0.715240 0.506104 0.224182
0.961090 0.567017 0.317139
0.000000 0.577209 0.201294
0.045319 0.589813 0.209656
0.449921 0.646545 0.263763
0.744934 0.701233 0.322357
0.958557 0.759430 0.375946
0.004272 0.782990 0.346405
0.062042 0.797241 0.353027
0.451569 0.860413 0.403320
0.763306 0.903717 0.411072
0.956787 0.911224 0.444000
0.000916 0.007477 0.152130
0.222443 0.040619 0.248596
0.446320 0.074738 0.252075
0.646973 0.105225 0.303558
0.896790 0.185242 0.350586
0.000000 0.218262 0.242340
0.228638 0.238831 0.281006
0.466888 0.275330 0.299347
0.685486 0.330719 0.344910
0.957367 0.397491 0.395325
0.000000 0.408936 0.286591
0.048126 0.424561 0.307220
0.476105 0.473572 0.356476
0.738617 0.521484 0.403137
0.959625 0.574799 0.460571
0.000000 0.596100 0.358429
0.041168 0.602997 0.364441
0.458435 0.663849 0.425079
0.742981 0.712158 0.462738
0.957794 0.769897 0.517700
0.006561 0.801208 0.431763
0.060760 0.814941 0.447113
0.385590 0.859253 0.496246
0.764008 0.907745 0.527679
0.955963 0.909393 0.568359
0.000000 0.034607 0.349518
0.091309 0.054626 0.430817
0.459961 0.084106 0.441315
0.690948 0.130768 0.449524
0.949677 0.218079 0.494720
0.000000 0.230652 0.421967
0.062103 0.254089 0.466064
0.483978 0.293823 0.470337
0.734009 0.349823 0.492371
0.959747 0.415436 0.538330
0.000000 0.435242 0.445892
0.051483 0.456726 0.467163
0.500824 0.490051 0.509430
0.758118 0.534210 0.543823
0.958710 0.588837 0.590332
0.000000 0.622192 0.503418
0.047577 0.636871 0.515747
0.448700 0.683258 0.554718
0.757141 0.731415 0.602417
0.956696 0.782471 0.648865
0.012909 0.841034 0.568634
0.063171 0.854523 0.583160
0.256287 0.878510 0.613403
0.758881 0.910614 0.660095
0.955109 0.906952 0.691376
0.000000 0.041412 0.514465
0.078644 0.053436 0.572906
0.457306 0.094421 0.625397
0.735138 0.143097 0.624023
0.958893 0.238068 0.637482
0.000000 0.254730 0.594543
0.066956 0.285858 0.629456
0.493927 0.328888 0.653137
0.771790 0.381836 0.663116
0.959290 0.435242 0.682800
0.000000 0.462463 0.627258
0.072388 0.491760 0.662872
0.486084 0.511902 0.694855
0.781158 0.549835 0.695160
0.956177 0.597900 0.722321
0.000000 0.659546 0.655396
0.055664 0.678192 0.670776
0.430969 0.714752 0.706848
0.773376 0.742523 0.734802
0.955017 0.786072 0.774231
0.016174 0.869965 0.707001
0.065887 0.884033 0.718140
0.266235 0.904572 0.744995
0.763550 0.910278 0.790802
0.953857 0.904449 0.819763
0.000000 0.048828 0.703583
0.060760 0.057129 0.742065
0.496948 0.121094 0.782959
0.743439 0.172943 0.805054
0.959503 0.278809 0.813049
0.000000 0.289490 0.782806
0.140350 0.321442 0.808350
0.528137 0.347137 0.817566
0.782013 0.403870 0.842743
0.957123 0.460571 0.853607
0.001556 0.494934 0.821686
0.113983 0.525848 0.854462
0.535187 0.543152 0.875397
0.790192 0.566589 0.869446
0.954651 0.615082 0.882294
0.007996 0.701385 0.838837
0.075745 0.722229 0.860077
0.502228 0.744751 0.886292
0.780090 0.752838 0.887909
0.953583 0.787811 0.886749
0.020477 0.908600 0.878754
0.081635 0.912201 0.886078
0.460480 0.911652 0.887115
0.784119 0.908997 0.886383
0.953033 0.903809 0.881042
