Kodak Vision2 500T Expression (5229) - Look.cube
# Created by Benjamin (IWLTBAP) : http://luts.iwltbap.com
# Copyright: (C) Copyright 2010-2017 Triune Films and IWLTBAP SAS
# Cannot be resold, shared or otherwise redistributed
TITLE "Film Print Emulation LUTs Pack (Rec.709, sRGB, DCI-P3)"
LUT_3D_SIZE 9
0.000793 0.002380 0.003174
0.081665 0.004272 0.000732
0.194031 0.004303 0.000000
0.307098 0.005707 0.000000
0.393250 0.007874 0.000000
0.465973 0.008545 0.000000
0.545074 0.010010 0.000000
0.611877 0.013580 0.000000
0.672729 0.019989 0.000000
0.014191 0.112213 0.016479
0.097351 0.081512 0.011810
0.243805 0.099823 0.000458
0.356659 0.087799 0.000610
0.445282 0.075653 0.000671
0.524384 0.065094 0.000000
0.601074 0.065552 0.000000
0.667664 0.068115 0.000000
0.721710 0.070282 0.000000
0.036530 0.249054 0.035553
0.123230 0.214508 0.020172
0.242920 0.182556 0.017731
0.398651 0.198608 0.000641
0.501648 0.201752 0.000488
0.591187 0.178833 0.000000
0.662781 0.166199 0.000610
0.729523 0.165649 0.000641
0.785980 0.157776 0.000671
0.080750 0.379425 0.045044
0.146210 0.327606 0.028656
0.253571 0.315643 0.017548
0.392822 0.285309 0.021423
0.552673 0.290863 0.008667
0.636292 0.329559 0.002350
0.722443 0.306976 0.001984
0.788788 0.290405 0.003357
0.848022 0.278229 0.007812
0.133057 0.507874 0.056274
0.193420 0.449829 0.037628
0.264648 0.412628 0.025696
0.383057 0.420471 0.019958
0.521973 0.375885 0.028107
0.674408 0.389343 0.028351
0.760040 0.421539 0.022034
0.841003 0.431122 0.018646
0.907623 0.411865 0.028290
0.162170 0.623474 0.072540
0.233063 0.568207 0.048492
0.296234 0.524078 0.034485
0.391449 0.515289 0.028595
0.505829 0.523010 0.024750
0.633026 0.459564 0.036957
0.769592 0.478516 0.046814
0.854919 0.499023 0.060303
0.954559 0.553101 0.044434
0.216248 0.733093 0.078979
0.264343 0.680145 0.062225
0.325836 0.631409 0.043732
0.406006 0.610565 0.035126
0.511505 0.612915 0.031891
0.621429 0.618774 0.025452
0.725922 0.542450 0.049683
0.854431 0.563782 0.071960
0.939392 0.578491 0.099884
0.261169 0.834351 0.081573
0.307037 0.790497 0.073364
0.353821 0.739136 0.055908
0.423737 0.703949 0.040558
0.519012 0.699371 0.035217
0.625488 0.706818 0.032806
0.727356 0.719116 0.032532
0.819550 0.624451 0.071869
0.934601 0.632599 0.109100
0.283234 0.918457 0.085052
0.347137 0.891754 0.080109
0.384827 0.842773 0.068085
0.442535 0.803894 0.051453
0.529541 0.789337 0.041107
0.628265 0.795319 0.039001
0.726501 0.804657 0.041809
0.833069 0.805939 0.045502
0.912476 0.692932 0.096588
0.000000 0.000793 0.032318
0.031525 0.000793 0.017334
0.100464 0.000793 0.008301
0.207611 0.000793 0.007599
0.320282 0.000793 0.009338
0.406952 0.000763 0.012299
0.476440 0.000763 0.012054
0.548248 0.000732 0.011780
0.608337 0.000732 0.011078
0.022858 0.093414 0.086945
0.075653 0.086517 0.079590
0.192871 0.084747 0.062714
0.312714 0.080780 0.042511
0.417236 0.081665 0.037537
0.503937 0.075684 0.033234
0.583496 0.075684 0.032532
0.653107 0.078033 0.033234
0.713409 0.083008 0.037537
0.061646 0.263947 0.131195
0.121948 0.236084 0.124817
0.231964 0.193024 0.090179
0.372009 0.214508 0.091248
0.485107 0.203064 0.073669
0.577972 0.188690 0.061371
0.662262 0.184479 0.058197
0.734833 0.190796 0.063141
0.790741 0.186188 0.065277
0.110077 0.390503 0.137604
0.166077 0.368011 0.133270
0.259796 0.334930 0.120575
0.377808 0.295746 0.093811
0.528870 0.305603 0.075684
0.627380 0.331238 0.094849
0.713043 0.311096 0.085052
0.785217 0.301025 0.085815
0.848724 0.292236 0.088867
0.141052 0.504547 0.135712
0.210754 0.494812 0.144958
0.286163 0.449158 0.131073
0.385773 0.431641 0.118652
0.511993 0.395874 0.100372
0.656006 0.408264 0.095123
0.747986 0.434296 0.105438
0.834656 0.436462 0.109833
0.900391 0.420746 0.111786
0.164673 0.616272 0.149536
0.241943 0.613403 0.159210
0.320282 0.567322 0.145050
0.396423 0.534119 0.129944
0.503967 0.533844 0.121216
0.628021 0.485748 0.110657
0.758453 0.497253 0.114685
0.850952 0.518524 0.130859
0.953705 0.562927 0.136993
0.191254 0.726746 0.153778
0.281372 0.724945 0.169952
0.351624 0.682526 0.159698
0.417969 0.637085 0.140778
0.511475 0.628204 0.131287
0.619507 0.632812 0.124176
0.723846 0.568207 0.123749
0.852570 0.591614 0.151978
0.944336 0.605743 0.178680
0.228149 0.830933 0.151642
0.328613 0.831360 0.173950
0.386536 0.789093 0.169525
0.439270 0.742462 0.152100
0.519653 0.717255 0.138550
0.621887 0.720154 0.133118
0.727570 0.734833 0.134888
0.818604 0.648712 0.150360
0.937836 0.662689 0.180328
0.253601 0.918182 0.151001
0.354736 0.922394 0.176086
0.421082 0.893616 0.176575
0.467041 0.844818 0.162903
0.531860 0.814056 0.150452
0.625122 0.810791 0.145569
0.727936 0.821136 0.145844
0.832092 0.820129 0.144562
0.917206 0.718628 0.172821
0.000000 0.001587 0.066193
0.011047 0.001587 0.049683
0.053009 0.000793 0.028381
0.125366 0.000793 0.024292
0.228821 0.000793 0.022156
0.341919 0.000793 0.023834
0.431824 0.000793 0.023102
0.511261 0.000793 0.024445
0.595154 0.000763 0.029449
0.006287 0.049652 0.091309
0.042511 0.073120 0.124329
0.126556 0.072601 0.100708
0.222900 0.067474 0.081085
0.337311 0.064209 0.068054
0.444061 0.061920 0.060730
0.521271 0.056641 0.051666
0.598877 0.057220 0.054260
0.667084 0.060760 0.058899
0.044739 0.241364 0.195160
0.062805 0.211121 0.194153
0.198730 0.203033 0.185211
0.324615 0.197784 0.167358
0.445618 0.197205 0.151703
0.549438 0.193268 0.140198
0.633148 0.197205 0.137939
0.715027 0.199799 0.138245
0.774475 0.199249 0.143799
0.144501 0.418793 0.246216
0.152039 0.384094 0.233765
0.258759 0.362427 0.238831
0.364014 0.319153 0.204163
0.497437 0.334534 0.202240
0.608124 0.335999 0.200226
0.699493 0.324249 0.190979
0.776917 0.322205 0.185608
0.844452 0.316406 0.189056
0.214600 0.546082 0.255707
0.206970 0.503174 0.238586
0.294952 0.490753 0.249207
0.386810 0.456970 0.239929
0.498718 0.420685 0.208649
0.632477 0.426147 0.200134
0.734283 0.456818 0.219788
0.821594 0.447052 0.217743
0.895660 0.434113 0.215881
0.218842 0.639404 0.257233
0.236115 0.610016 0.239319
0.327026 0.607849 0.257874
0.409210 0.568573 0.252014
0.502594 0.551025 0.238861
0.615021 0.510742 0.214935
0.750305 0.527985 0.219666
0.846375 0.549286 0.233765
0.945251 0.570343 0.242279
0.232605 0.731750 0.237549
0.272614 0.719666 0.244324
0.360229 0.723694 0.270172
0.436279 0.683075 0.263855
0.515015 0.648621 0.248810
0.615540 0.649078 0.239899
0.710724 0.597656 0.227203
0.846313 0.616852 0.247162
0.938599 0.620422 0.259003
0.247986 0.819885 0.226074
0.320496 0.826355 0.248840
0.403320 0.833954 0.277313
0.466400 0.790955 0.274445
0.528778 0.748688 0.260620
0.618500 0.738861 0.252411
0.720154 0.748535 0.247864
0.813599 0.671204 0.245148
0.940582 0.691650 0.271637
0.260803 0.906097 0.220703
0.346588 0.918579 0.249542
0.430847 0.929230 0.280487
0.500336 0.897644 0.283142
0.550446 0.850830 0.270172
0.622070 0.829010 0.260132
0.724976 0.833527 0.257324
0.832397 0.839691 0.251556
0.917419 0.752045 0.270447
0.000793 0.006287 0.092163
0.010254 0.003937 0.080566
0.037842 0.001587 0.054962
0.076660 0.000793 0.040985
0.147003 0.000793 0.037048
0.243134 0.001587 0.035858
0.346924 0.002350 0.039185
0.441101 0.001556 0.036926
0.531494 0.001587 0.040924
0.000793 0.018127 0.063965
0.035492 0.070526 0.158722
0.097931 0.079102 0.145081
0.155426 0.071045 0.114319
0.245453 0.065216 0.099792
0.352264 0.061859 0.094818
0.465759 0.066437 0.097046
0.561432 0.063629 0.090393
0.637970 0.060150 0.093018
0.032318 0.152832 0.195343
0.034698 0.140594 0.212433
0.124969 0.182434 0.244965
0.259735 0.187744 0.215332
0.355896 0.186462 0.195892
0.475616 0.185272 0.184265
0.582611 0.181000 0.174866
0.657654 0.178802 0.175354
0.724243 0.177917 0.172028
0.095886 0.390717 0.316010
0.080994 0.357452 0.307770
0.154633 0.339630 0.313568
0.343628 0.341949 0.320374
0.469208 0.346130 0.312836
0.579346 0.344116 0.299835
0.671661 0.343750 0.292450
0.750397 0.339966 0.285187
0.815491 0.339478 0.286652
0.186920 0.537323 0.348633
0.183289 0.519012 0.346466
0.279724 0.504395 0.345520
0.388794 0.492889 0.368134
0.492493 0.457184 0.350067
0.615509 0.463562 0.339905
0.718445 0.470459 0.346130
0.804932 0.466614 0.339355
0.880280 0.458618 0.337738
0.264801 0.661835 0.371307
0.257111 0.642700 0.361420
0.315186 0.614594 0.344330
0.417328 0.611694 0.378174
0.509186 0.582123 0.372894
0.608612 0.547699 0.357422
0.728546 0.562805 0.357574
0.838379 0.585602 0.363831
0.932526 0.581726 0.365387
0.306213 0.759796 0.353455
0.295624 0.732727 0.345551
0.348389 0.716858 0.348541
0.443665 0.725952 0.385742
0.524323 0.687378 0.384949
0.614166 0.672028 0.375244
0.699066 0.634216 0.371979
0.836029 0.648285 0.376984
0.935059 0.661377 0.383331
0.312408 0.840363 0.332367
0.334839 0.819336 0.327545
0.412201 0.825378 0.353790
0.481567 0.834503 0.388245
0.548218 0.795715 0.395081
0.617981 0.764893 0.385956
0.717621 0.770599 0.382172
0.808929 0.705139 0.375702
0.941162 0.728271 0.395386
0.299591 0.893372 0.311127
0.359955 0.898651 0.313538
0.439087 0.915863 0.350769
0.511139 0.933685 0.393646
0.581177 0.904053 0.399017
0.638489 0.860626 0.392670
0.729279 0.854279 0.388000
0.833069 0.861755 0.382568
0.918915 0.787140 0.394745
0.000793 0.014191 0.100342
0.005524 0.013428 0.122406
0.032318 0.004730 0.093445
0.064514 0.001587 0.065674
0.106049 0.000793 0.050354
0.175568 0.000793 0.048492
0.264709 0.001587 0.050354
0.360321 0.003143 0.055267
0.442322 0.002350 0.058594
0.000793 0.009460 0.065094
0.029968 0.075653 0.196564
0.088715 0.087830 0.194946
0.129059 0.077148 0.154388
0.187775 0.068939 0.123688
0.271027 0.064636 0.117493
0.367096 0.063568 0.115845
0.468201 0.069672 0.122131
0.569916 0.073853 0.125183
0.020508 0.086517 0.153351
0.028381 0.102631 0.198730
0.115692 0.178040 0.279572
0.222931 0.198547 0.267639
0.289825 0.184357 0.227234
0.379883 0.184296 0.219025
0.489624 0.183502 0.214813
0.602295 0.182037 0.208527
0.690094 0.180328 0.219543
0.036285 0.293884 0.315887
0.035492 0.256073 0.311676
0.051697 0.250366 0.340271
0.264801 0.321960 0.375397
0.404755 0.336517 0.356049
0.501404 0.337921 0.340851
0.614594 0.334625 0.335449
0.702087 0.329437 0.326324
0.771881 0.322876 0.323883
0.152832 0.522369 0.420746
0.129669 0.487885 0.417816
0.147247 0.463745 0.417572
0.293884 0.473053 0.443329
0.474762 0.481781 0.461639
0.588806 0.484802 0.453430
0.684692 0.484741 0.447418
0.771667 0.487793 0.442444
0.845795 0.485931 0.438660
0.223114 0.649048 0.452332
0.215515 0.633606 0.457458
0.260773 0.624695 0.452850
0.404755 0.625549 0.473450
0.506622 0.612122 0.496674
0.599854 0.577728 0.489410
0.715210 0.587799 0.486969
0.827637 0.602844 0.488770
0.908936 0.594299 0.480927
0.291473 0.747253 0.448425
0.292114 0.744141 0.455322
0.359436 0.734192 0.452850
0.451141 0.720001 0.468719
0.529968 0.727631 0.505035
0.613525 0.698730 0.505341
0.695984 0.665161 0.500366
0.823608 0.672913 0.498291
0.937592 0.699219 0.496338
0.358459 0.833740 0.435577
0.390625 0.834198 0.436218
0.445282 0.826263 0.436890
0.501556 0.823700 0.462830
0.564545 0.840973 0.508514
0.635834 0.803467 0.512512
0.720215 0.789124 0.507996
0.807220 0.740265 0.508636
0.941742 0.757477 0.506226
0.339111 0.863586 0.411896
0.387604 0.870911 0.408966
0.458069 0.888458 0.417084
0.528168 0.915527 0.460388
0.593201 0.942841 0.507629
0.666962 0.912048 0.518524
0.735260 0.878815 0.512329
0.833496 0.884125 0.509949
0.919678 0.821014 0.508698
0.001556 0.020508 0.121094
0.003143 0.022888 0.151794
0.022064 0.015778 0.134827
0.059875 0.005524 0.104553
0.094269 0.001587 0.077179
0.134521 0.000793 0.063965
0.193878 0.000793 0.060852
0.283844 0.002380 0.064911
0.374725 0.003937 0.072388
0.000793 0.013428 0.082428
0.025238 0.082397 0.226562
0.071594 0.102631 0.243103
0.116394 0.084717 0.199524
0.163177 0.074158 0.165833
0.223114 0.067291 0.139740
0.293030 0.063477 0.131744
0.382874 0.064667 0.131317
0.476624 0.070709 0.142792
0.008667 0.053009 0.123047
0.025238 0.089600 0.205902
0.096313 0.181549 0.321411
0.205719 0.208527 0.317505
0.257690 0.193115 0.278107
0.324219 0.182861 0.244507
0.406250 0.182983 0.237915
0.501862 0.182404 0.237335
0.603516 0.184814 0.239990
0.037842 0.199524 0.272247
0.037842 0.188385 0.282654
0.058655 0.210022 0.336975
0.256226 0.315765 0.409454
0.367371 0.341003 0.402863
0.434082 0.337280 0.373962
0.524200 0.336182 0.365601
0.623566 0.333405 0.360779
0.715149 0.324310 0.359039
0.093414 0.433594 0.420197
0.074158 0.391815 0.413910
0.067291 0.362885 0.422394
0.132721 0.379395 0.467133
0.403473 0.449768 0.506470
0.528961 0.475983 0.495514
0.615967 0.479187 0.489075
0.714691 0.478668 0.484711
0.800293 0.472382 0.476837
0.195770 0.635712 0.516418
0.181366 0.611450 0.513184
0.171936 0.588501 0.512024
0.248383 0.578766 0.531891
0.424652 0.585510 0.558655
0.578979 0.598328 0.584900
0.690521 0.602509 0.576996
0.787048 0.603210 0.576599
0.872955 0.604614 0.568756
0.252502 0.741577 0.529205
0.245300 0.734070 0.541656
0.286194 0.725677 0.547577
0.399902 0.726959 0.565857
0.516418 0.724548 0.588196
0.616394 0.730499 0.616760
0.695129 0.685760 0.606323
0.821136 0.702942 0.600159
0.942230 0.717316 0.606232
0.312164 0.822266 0.514648
0.329681 0.824829 0.529633
0.411957 0.832733 0.543793
0.502106 0.834167 0.562317
0.583771 0.825714 0.579010
0.651520 0.843475 0.619904
0.731934 0.813568 0.625214
0.814117 0.769318 0.612274
0.942444 0.785553 0.608398
0.338348 0.851562 0.500885
0.373962 0.852783 0.512299
0.453979 0.863525 0.519501
0.539124 0.876617 0.524780
0.612732 0.912140 0.567627
0.680420 0.949982 0.618347
0.755341 0.915955 0.627686
0.843170 0.902252 0.622711
0.937897 0.855896 0.609344
0.003937 0.027618 0.149414
0.004730 0.029175 0.175598
0.014191 0.023651 0.172882
0.044739 0.014191 0.141174
0.084717 0.005524 0.115723
0.118774 0.000793 0.083374
0.155457 0.000793 0.071625
0.222382 0.000793 0.073120
0.307556 0.002380 0.078308
0.000793 0.020508 0.109375
0.027588 0.094269 0.254883
0.058655 0.111145 0.278381
0.104919 0.098328 0.246216
0.147522 0.083801 0.208160
0.193329 0.072601 0.174011
0.249451 0.068390 0.150208
0.314423 0.061737 0.148438
0.402252 0.062378 0.149536
0.001556 0.025238 0.091339
0.026031 0.092163 0.225037
0.081940 0.188385 0.361725
0.183289 0.216766 0.364960
0.237823 0.205322 0.323456
0.291992 0.191284 0.290833
0.353119 0.183716 0.257843
0.427002 0.182739 0.255096
0.520599 0.181946 0.256165
0.034698 0.151794 0.244507
0.034698 0.148865 0.255798
0.056824 0.198944 0.348724
0.242920 0.319580 0.444244
0.341125 0.342682 0.443176
0.394196 0.339630 0.417389
0.465698 0.338135 0.390900
0.546967 0.334229 0.385681
0.630890 0.332977 0.385101
0.052979 0.322540 0.385956
0.045471 0.304535 0.391266
0.046173 0.301727 0.413574
0.125916 0.342499 0.472778
0.395874 0.442017 0.530060
0.492035 0.472626 0.533844
0.553345 0.475800 0.515778
0.633392 0.477234 0.512817
0.724182 0.475220 0.510956
0.149658 0.559326 0.515228
0.126556 0.519257 0.506561
0.107178 0.486542 0.511322
0.115692 0.472992 0.541962
0.290588 0.497223 0.569977
0.529694 0.562073 0.606812
0.630829 0.590210 0.610962
0.719574 0.598694 0.610901
0.819153 0.595215 0.605103
0.231598 0.736511 0.592255
0.222076 0.718750 0.602356
0.215881 0.697693 0.609100
0.234894 0.682007 0.618896
0.383545 0.679688 0.630585
0.533417 0.678772 0.653442
0.680084 0.696960 0.683899
0.800720 0.709717 0.690155
0.893799 0.709747 0.678345
0.281067 0.823547 0.592316
0.281464 0.818146 0.607483
0.343628 0.812378 0.619049
0.431885 0.818054 0.637390
0.533539 0.830200 0.667633
0.630127 0.831482 0.691071
0.742706 0.843506 0.729553
0.816742 0.793915 0.711731
0.942719 0.811768 0.712524
0.303192 0.854553 0.576843
0.329010 0.857849 0.590546
0.402008 0.865234 0.608490
0.488434 0.874695 0.627167
0.583282 0.889282 0.648438
0.685669 0.906616 0.662598
0.769714 0.957642 0.729980
0.854797 0.927979 0.734772
0.946594 0.886658 0.712646
0.007111 0.037079 0.169861
0.007904 0.040222 0.196381
0.010254 0.032349 0.204407
0.038635 0.021301 0.171509
0.070526 0.011047 0.145386
0.105682 0.003174 0.115723
0.146454 0.000793 0.089203
0.187164 0.000793 0.081970
0.249695 0.000793 0.082092
0.003174 0.028412 0.138336
0.029968 0.103394 0.275146
0.044739 0.120728 0.318329
0.097931 0.109344 0.288147
0.132416 0.097534 0.248535
0.180267 0.081940 0.212616
0.227417 0.071564 0.177826
0.280945 0.064514 0.162689
0.341583 0.059937 0.159943
0.000793 0.018951 0.094696
0.029175 0.102631 0.250671
0.062805 0.196564 0.390656
0.162689 0.225189 0.400970
0.219269 0.213318 0.364563
0.266357 0.202240 0.330444
0.321167 0.187347 0.293152
0.384491 0.184357 0.270325
0.451447 0.181641 0.271973
0.027588 0.108612 0.207428
0.029968 0.113281 0.232300
0.052338 0.200500 0.372192
0.218567 0.319244 0.483734
0.319122 0.345825 0.482422
0.368622 0.340790 0.450073
0.420837 0.338776 0.427643
0.494507 0.336639 0.402954
0.565857 0.333557 0.403473
0.037079 0.259766 0.358246
0.037872 0.258148 0.371124
0.041016 0.258148 0.395172
0.130585 0.327362 0.485840
0.384460 0.438232 0.556244
0.470001 0.469208 0.560547
0.518005 0.471832 0.544403
0.574371 0.475006 0.533844
0.651764 0.475555 0.534332
0.093842 0.443542 0.476990
0.086945 0.417633 0.481171
0.083801 0.406494 0.497437
0.088715 0.411560 0.541138
0.270020 0.462799 0.589600
0.521332 0.548096 0.624756
0.595917 0.580566 0.640869
0.654663 0.591064 0.630920
0.735809 0.596588 0.635071
0.191711 0.664368 0.608459
0.177155 0.631989 0.601624
0.159729 0.604279 0.595215
0.150208 0.585999 0.612488
0.259308 0.585083 0.640106
0.437897 0.594574 0.656433
0.631653 0.656982 0.702759
0.735748 0.693726 0.717346
0.831543 0.699371 0.719238
0.257843 0.817657 0.651672
0.250519 0.801941 0.661499
0.249756 0.786072 0.669800
0.281708 0.776062 0.683014
0.391693 0.771912 0.693726
0.528839 0.771912 0.712463
0.649292 0.777710 0.747925
0.799805 0.804077 0.789154
0.929169 0.819275 0.804443
0.275818 0.859619 0.648743
0.279999 0.858276 0.662048
0.320282 0.860657 0.677856
0.404510 0.864868 0.698425
0.513367 0.879883 0.718628
0.618317 0.898285 0.753235
0.729523 0.915100 0.780640
0.863831 0.964111 0.845093
0.962463 0.920288 0.823273
0.011841 0.054932 0.197784
0.012634 0.056213 0.222290
0.011047 0.046173 0.239471
0.035492 0.029968 0.207062
0.071075 0.018921 0.174713
0.102661 0.008667 0.145111
0.131531 0.001587 0.110809
0.167053 0.000793 0.094299
0.211182 0.001587 0.091339
0.007111 0.039429 0.166321
0.032318 0.114319 0.301605
0.037048 0.131500 0.352020
0.091736 0.124969 0.330231
0.132416 0.104156 0.284912
0.176483 0.091309 0.248230
0.214966 0.078613 0.210968
0.256531 0.070007 0.179596
0.301605 0.062225 0.169159
0.003174 0.026031 0.128784
0.031525 0.113251 0.276093
0.050354 0.202637 0.423126
0.140869 0.230438 0.438385
0.208527 0.218201 0.401154
0.255341 0.208893 0.364288
0.305389 0.198730 0.329132
0.351807 0.184357 0.293915
0.409882 0.184143 0.277435
0.014984 0.068939 0.166077
0.028381 0.103394 0.238159
0.045471 0.207581 0.401306
0.191071 0.319794 0.519653
0.303925 0.348724 0.519470
0.353241 0.341949 0.484131
0.399994 0.340149 0.457825
0.455902 0.337158 0.430206
0.523468 0.335876 0.412994
0.040985 0.219971 0.338470
0.041748 0.212616 0.343018
0.042542 0.221191 0.380707
0.133606 0.323212 0.512939
0.372162 0.434387 0.582977
0.457153 0.463806 0.586578
0.498352 0.468201 0.567566
0.540955 0.470001 0.552216
0.599182 0.476837 0.544342
0.069458 0.365723 0.449188
0.068939 0.361328 0.463837
0.070526 0.363770 0.491028
0.081482 0.372650 0.537750
0.285156 0.446686 0.604004
0.512146 0.541290 0.642517
0.583405 0.572815 0.657593
0.620575 0.581421 0.652374
0.677734 0.594147 0.643982
0.133301 0.549286 0.557281
0.123688 0.525391 0.568756
0.118774 0.512482 0.585388
0.119751 0.512939 0.615845
0.215698 0.535889 0.656860
0.438385 0.566559 0.666687
0.627960 0.644806 0.717712
0.695190 0.678406 0.748993
0.752380 0.696655 0.739685
0.223480 0.748474 0.665527
0.212067 0.723358 0.666077
0.197754 0.697052 0.665405
0.189850 0.679535 0.678589
0.249146 0.677429 0.701294
0.415222 0.675079 0.709961
0.548462 0.677429 0.731537
0.739014 0.759949 0.817566
0.843842 0.807556 0.833069
0.253845 0.835449 0.708801
0.248993 0.826904 0.714691
0.244507 0.818970 0.719299
0.244507 0.811249 0.729736
0.372925 0.820312 0.740845
0.501801 0.829468 0.761719
0.621002 0.847656 0.797180
0.753296 0.879578 0.851196
0.961670 0.955688 0.953918
