Kodak Vision3 250D (5207) - Look.cube
# Created by Benjamin (IWLTBAP) : http://luts.iwltbap.com
# Copyright: (C) Copyright 2010-2017 Triune Films and IWLTBAP SAS
# Cannot be resold, shared or otherwise redistributed
TITLE "Film Print Emulation LUTs Pack (Rec.709, sRGB, DCI-P3)"
LUT_3D_SIZE 9
0.000000 0.000000 0.000000
0.087341 0.001740 0.001770
0.224579 0.003479 0.003479
0.339996 0.007629 0.007629
0.464844 0.026855 0.030060
0.581116 0.047821 0.050781
0.685211 0.072693 0.068024
0.782593 0.101318 0.079926
0.874390 0.129883 0.092102
0.001038 0.014465 0.001068
0.042694 0.028046 0.003784
0.208984 0.040314 0.010773
0.346130 0.056793 0.018738
0.472382 0.082825 0.028259
0.587067 0.109528 0.042236
0.690125 0.134155 0.057587
0.787170 0.158356 0.071594
0.877563 0.181885 0.085480
0.009369 0.085663 0.004242
0.035858 0.101654 0.007507
0.176605 0.132111 0.013947
0.341156 0.148407 0.016235
0.479095 0.167847 0.024597
0.600922 0.188629 0.041901
0.705627 0.208221 0.056427
0.800781 0.227631 0.070465
0.886719 0.246490 0.085419
0.037323 0.166473 0.026733
0.062012 0.172302 0.028717
0.173584 0.226288 0.037598
0.323608 0.243286 0.036285
0.484711 0.262756 0.032318
0.618713 0.289398 0.045654
0.725586 0.302460 0.060638
0.818329 0.314667 0.075867
0.900940 0.328796 0.090973
0.080200 0.252106 0.056335
0.101929 0.258057 0.058533
0.169434 0.297546 0.065247
0.348083 0.363251 0.080750
0.476929 0.360718 0.064545
0.627655 0.384735 0.062561
0.746002 0.413727 0.074310
0.841980 0.428741 0.089966
0.920807 0.436188 0.104431
0.129578 0.352753 0.097015
0.153870 0.361267 0.099548
0.197296 0.384827 0.101501
0.355499 0.458740 0.115387
0.517944 0.502777 0.125366
0.634857 0.493652 0.109100
0.760345 0.514526 0.107819
0.860809 0.537323 0.117615
0.943390 0.554749 0.129333
0.183685 0.459900 0.138000
0.210693 0.470612 0.142273
0.246887 0.485870 0.143524
0.383667 0.556244 0.158203
0.551910 0.622925 0.175354
0.678711 0.629150 0.165955
0.778534 0.626129 0.158325
0.876831 0.636902 0.154114
0.957245 0.651489 0.159454
0.231598 0.553131 0.169098
0.262024 0.567474 0.178253
0.299225 0.583435 0.182312
0.420288 0.642822 0.198517
0.578491 0.707123 0.211426
0.718506 0.746643 0.218231
0.804504 0.730316 0.202179
0.893402 0.733795 0.199402
0.968109 0.743896 0.198242
0.270447 0.628815 0.192780
0.300751 0.642670 0.201630
0.341003 0.660950 0.207611
0.447357 0.705231 0.220795
0.582611 0.762482 0.230621
0.712036 0.809845 0.240753
0.827179 0.828766 0.238770
0.908722 0.819031 0.228424
0.981598 0.826294 0.228851
0.003357 0.000549 0.052979
0.063904 0.002136 0.045135
0.236725 0.004761 0.042908
0.348450 0.006226 0.042664
0.458496 0.019592 0.059937
0.570679 0.037567 0.084534
0.678833 0.056519 0.108398
0.778625 0.088074 0.122284
0.870361 0.122955 0.132202
0.009705 0.036011 0.065277
0.029114 0.040649 0.059753
0.202637 0.059906 0.053436
0.349274 0.075684 0.061279
0.478851 0.097443 0.071167
0.595551 0.122742 0.084808
0.696655 0.144714 0.098907
0.791321 0.167969 0.112335
0.878998 0.191437 0.124878
0.020447 0.116547 0.088837
0.028229 0.115784 0.076813
0.176636 0.146088 0.071320
0.352234 0.155914 0.051361
0.491272 0.171112 0.067352
0.612915 0.193207 0.082306
0.713654 0.212036 0.096252
0.805420 0.231873 0.109955
0.888245 0.251282 0.123047
0.048553 0.197479 0.105347
0.067413 0.195801 0.094696
0.148529 0.226807 0.095062
0.321167 0.251495 0.085114
0.491669 0.268219 0.068420
0.627899 0.283783 0.083038
0.734039 0.294708 0.097626
0.824646 0.309845 0.111603
0.902313 0.324158 0.124603
0.095276 0.283508 0.131134
0.111694 0.285583 0.124084
0.150970 0.298340 0.118835
0.322662 0.362457 0.132294
0.472473 0.364197 0.106506
0.631653 0.386780 0.098450
0.755341 0.409088 0.106201
0.849396 0.419586 0.122131
0.922455 0.422180 0.133728
0.147797 0.386475 0.169556
0.164551 0.391205 0.163361
0.193451 0.393738 0.155151
0.319672 0.454346 0.169922
0.503906 0.509766 0.171692
0.632812 0.495728 0.144958
0.765778 0.517456 0.141479
0.871094 0.544952 0.153717
0.949890 0.553589 0.161346
0.197662 0.485016 0.205200
0.217834 0.494080 0.200409
0.249542 0.498932 0.199615
0.350372 0.553345 0.211639
0.529999 0.620056 0.216522
0.677582 0.640289 0.213409
0.782349 0.632660 0.198914
0.885101 0.645660 0.192322
0.964874 0.660767 0.200745
0.240387 0.569550 0.225464
0.262634 0.579956 0.222076
0.301331 0.593323 0.230316
0.394989 0.641937 0.242889
0.561554 0.706329 0.247467
0.710449 0.750824 0.257050
0.809265 0.740173 0.242706
0.899994 0.743011 0.238007
0.973938 0.753082 0.238434
0.274780 0.638641 0.235138
0.299835 0.649963 0.238098
0.342316 0.667603 0.250275
0.430237 0.705444 0.261475
0.569916 0.761810 0.264954
0.707764 0.812531 0.276855
0.828491 0.836823 0.277161
0.913177 0.826416 0.266205
0.985413 0.833771 0.266357
0.009705 0.000031 0.111176
0.036743 0.000031 0.112701
0.194275 0.012634 0.128662
0.345917 0.030518 0.140900
0.471436 0.027069 0.147308
0.574585 0.034576 0.149872
0.674530 0.049591 0.159973
0.777130 0.066772 0.181854
0.866913 0.096497 0.191742
0.031250 0.075165 0.151398
0.043427 0.069397 0.147156
0.139008 0.059052 0.128632
0.334747 0.076752 0.135345
0.477051 0.074646 0.141022
0.590607 0.103760 0.141724
0.691895 0.131165 0.151367
0.785675 0.158081 0.162109
0.875793 0.186768 0.174683
0.051453 0.147888 0.168640
0.064117 0.145355 0.166016
0.116211 0.148682 0.159790
0.318481 0.174347 0.150269
0.467712 0.194366 0.156433
0.602570 0.215454 0.164795
0.712402 0.232819 0.170776
0.805328 0.248779 0.176544
0.891357 0.267975 0.181091
0.064697 0.223816 0.194580
0.077087 0.227966 0.194519
0.108551 0.231384 0.179474
0.297394 0.266144 0.174774
0.478577 0.284088 0.159241
0.624725 0.293640 0.163910
0.735321 0.304749 0.165771
0.826019 0.319214 0.170258
0.905762 0.335419 0.178192
0.098938 0.303833 0.218048
0.118347 0.313019 0.212860
0.141968 0.315552 0.197144
0.270264 0.355499 0.205322
0.453857 0.380859 0.201080
0.630524 0.398407 0.162048
0.758240 0.403290 0.159088
0.851501 0.412231 0.170319
0.924072 0.419250 0.181793
0.154114 0.405396 0.246857
0.177673 0.419983 0.246918
0.197662 0.417389 0.228546
0.274994 0.447540 0.235535
0.460663 0.507751 0.250427
0.622894 0.505127 0.210693
0.768555 0.528076 0.194244
0.878296 0.549469 0.206085
0.954590 0.546326 0.208740
0.208496 0.504761 0.272247
0.231750 0.517914 0.269440
0.254089 0.518646 0.259033
0.318420 0.550507 0.269531
0.476562 0.610077 0.285614
0.667419 0.657440 0.273987
0.780457 0.641510 0.250305
0.890106 0.655182 0.245880
0.970520 0.670319 0.253204
0.251434 0.587189 0.287659
0.270111 0.595123 0.280762
0.297943 0.602478 0.275452
0.368896 0.640991 0.297638
0.521118 0.701904 0.313416
0.691376 0.752625 0.306000
0.810760 0.754547 0.295349
0.903748 0.752441 0.286407
0.977661 0.763367 0.289429
0.282776 0.652161 0.293030
0.300659 0.659241 0.286774
0.335175 0.671600 0.290161
0.413635 0.707123 0.311646
0.548645 0.762665 0.323639
0.698975 0.814911 0.320587
0.826996 0.846283 0.324249
0.916107 0.835999 0.313324
0.988708 0.842163 0.313385
0.033112 0.014801 0.182831
0.054779 0.009033 0.186951
0.121124 0.005554 0.178741
0.302032 0.039001 0.212921
0.442413 0.062317 0.227264
0.573059 0.059753 0.242767
0.683258 0.058807 0.257874
0.782104 0.069458 0.269348
0.876160 0.085114 0.269775
0.064789 0.103455 0.225403
0.074829 0.099609 0.224365
0.099152 0.078583 0.216736
0.265045 0.086273 0.209473
0.432098 0.115356 0.222229
0.579620 0.112122 0.232635
0.685394 0.106445 0.236938
0.778809 0.119843 0.232483
0.869110 0.161560 0.235687
0.087494 0.174194 0.245056
0.098999 0.176025 0.247650
0.115875 0.170654 0.247559
0.234802 0.170746 0.235779
0.434509 0.187042 0.229523
0.591309 0.193726 0.229156
0.705322 0.218201 0.236359
0.797546 0.239563 0.243347
0.884705 0.265045 0.255463
0.108490 0.245026 0.264496
0.121277 0.253479 0.270142
0.134521 0.249512 0.264801
0.214233 0.264191 0.269287
0.447388 0.290985 0.254639
0.599548 0.317078 0.258759
0.728943 0.334167 0.263092
0.824249 0.345306 0.265625
0.907715 0.359528 0.272461
0.123627 0.323242 0.290588
0.138428 0.337646 0.298096
0.150909 0.344421 0.294769
0.210327 0.351562 0.286743
0.420532 0.393768 0.288483
0.621399 0.415009 0.266693
0.757660 0.418213 0.264313
0.851074 0.426270 0.267242
0.926422 0.434753 0.274200
0.151764 0.413422 0.318298
0.175079 0.426300 0.314819
0.196838 0.441895 0.315155
0.246094 0.454529 0.303619
0.403809 0.499939 0.319366
0.608734 0.527222 0.314911
0.770844 0.544495 0.285339
0.884918 0.547852 0.272766
0.955170 0.541290 0.276825
0.207214 0.511475 0.338684
0.233185 0.530426 0.341217
0.259949 0.542480 0.337341
0.305939 0.559998 0.327759
0.422546 0.602570 0.351593
0.635040 0.665161 0.368927
0.774994 0.654053 0.332764
0.893341 0.670135 0.309479
0.975586 0.679901 0.312866
0.257446 0.600037 0.354218
0.281097 0.612579 0.347443
0.303131 0.618805 0.340881
0.345245 0.638641 0.339203
0.471741 0.694489 0.375244
0.661682 0.754486 0.390564
0.807465 0.773346 0.379974
0.904816 0.764618 0.347046
0.980682 0.775452 0.348633
0.292572 0.666656 0.355896
0.309021 0.671875 0.348114
0.332794 0.680573 0.347443
0.386108 0.702026 0.352295
0.524323 0.762787 0.381683
0.679718 0.816071 0.394257
0.816101 0.851898 0.388092
0.918518 0.848846 0.375214
0.990997 0.852295 0.368469
0.063416 0.034424 0.242981
0.087708 0.039001 0.265625
0.106750 0.022614 0.249054
0.228363 0.032227 0.260834
0.402588 0.064972 0.294708
0.535553 0.088593 0.307190
0.651794 0.104797 0.318604
0.764771 0.103058 0.335297
0.867432 0.109558 0.348236
0.094849 0.130615 0.296783
0.105225 0.128906 0.298615
0.119232 0.119598 0.296783
0.200012 0.087128 0.276184
0.377228 0.113617 0.291229
0.534882 0.142151 0.305359
0.670563 0.150421 0.315155
0.770447 0.151306 0.321228
0.863251 0.155548 0.325714
0.115448 0.198608 0.319855
0.126862 0.203064 0.324524
0.141113 0.201935 0.325958
0.186066 0.186707 0.324036
0.346191 0.190521 0.309479
0.535400 0.215942 0.310547
0.687164 0.218750 0.314453
0.784180 0.219971 0.312256
0.876343 0.238220 0.316681
0.140747 0.267975 0.336670
0.155243 0.278412 0.344543
0.169098 0.278992 0.347137
0.201721 0.276733 0.349731
0.343231 0.286957 0.350861
0.558380 0.300507 0.329956
0.711914 0.312347 0.322479
0.812256 0.333099 0.328583
0.901428 0.354279 0.340210
0.161652 0.338257 0.356598
0.178192 0.352997 0.366516
0.194611 0.359131 0.370972
0.222015 0.361084 0.368713
0.321472 0.386230 0.381744
0.591034 0.419983 0.361298
0.740875 0.449066 0.365295
0.851318 0.459106 0.369354
0.932861 0.464691 0.370819
0.178925 0.425507 0.386261
0.197052 0.446411 0.398224
0.215027 0.458832 0.404480
0.235657 0.472015 0.402863
0.313782 0.486298 0.401764
0.568176 0.540802 0.408600
0.770081 0.562927 0.388611
0.888672 0.556213 0.377563
0.959381 0.553986 0.380157
0.204315 0.519592 0.415680
0.229584 0.534637 0.414490
0.243805 0.547424 0.412567
0.283630 0.569519 0.413757
0.356689 0.594482 0.415497
0.583038 0.656982 0.445038
0.763885 0.676056 0.438965
0.899414 0.689270 0.417542
0.984924 0.686462 0.409485
0.250641 0.602539 0.422516
0.275543 0.620117 0.426697
0.301331 0.631775 0.424133
0.338623 0.650024 0.417267
0.409332 0.682007 0.423798
0.613739 0.746918 0.462982
0.791473 0.792664 0.477356
0.904999 0.782684 0.454224
0.985107 0.794739 0.452148
0.294006 0.675995 0.431213
0.314880 0.685791 0.425262
0.337189 0.693481 0.419006
0.371979 0.704773 0.410339
0.462189 0.749451 0.431366
0.650024 0.813568 0.460663
0.801819 0.860565 0.475952
0.920288 0.869965 0.476837
0.994781 0.869141 0.463531
0.088837 0.054413 0.300598
0.117401 0.067657 0.339142
0.131714 0.046234 0.326904
0.191010 0.034119 0.313904
0.326385 0.056274 0.342865
0.500366 0.092407 0.374939
0.627136 0.115540 0.387970
0.735687 0.137054 0.401031
0.843292 0.150665 0.413696
0.125183 0.155701 0.368408
0.134827 0.153717 0.370270
0.147064 0.145325 0.369690
0.171692 0.112549 0.358215
0.304840 0.109741 0.350037
0.485291 0.140228 0.373657
0.634460 0.167725 0.388947
0.746796 0.188721 0.398407
0.850433 0.194550 0.407227
0.143005 0.222198 0.389252
0.155457 0.228333 0.395172
0.169250 0.227264 0.397980
0.191345 0.221893 0.402679
0.291718 0.193542 0.386749
0.461273 0.210358 0.385590
0.642609 0.238617 0.395111
0.768463 0.250336 0.401459
0.861267 0.255676 0.404633
0.167084 0.288696 0.407562
0.181366 0.299072 0.415558
0.195129 0.300903 0.419922
0.215332 0.302826 0.427734
0.285553 0.297668 0.434906
0.454468 0.300079 0.417572
0.653961 0.325378 0.410248
0.794983 0.326569 0.408630
0.880127 0.330780 0.406311
0.189087 0.356049 0.424988
0.205872 0.370422 0.435181
0.222687 0.377289 0.441254
0.244293 0.382904 0.447296
0.299072 0.392883 0.459869
0.462952 0.409698 0.467255
0.692566 0.422607 0.438782
0.827820 0.430511 0.427429
0.917511 0.456024 0.441498
0.213226 0.435211 0.450104
0.231659 0.454681 0.463257
0.250824 0.467743 0.472229
0.273621 0.476501 0.477325
0.321930 0.490540 0.484924
0.445343 0.527466 0.507141
0.735504 0.576935 0.496429
0.877502 0.590393 0.489288
0.964203 0.595581 0.494751
0.235748 0.529449 0.483917
0.255463 0.552979 0.497284
0.274963 0.569366 0.505829
0.296326 0.581970 0.511108
0.331818 0.602600 0.516602
0.449158 0.630737 0.527771
0.724884 0.696503 0.546112
0.902130 0.710693 0.524597
0.993378 0.698914 0.510834
0.242645 0.617523 0.509247
0.275024 0.631439 0.513458
0.297729 0.638275 0.508240
0.324554 0.650116 0.504639
0.357422 0.676239 0.506561
0.488037 0.720459 0.526764
0.751007 0.792419 0.560181
0.899017 0.803741 0.557892
0.990784 0.815643 0.553284
0.292664 0.678131 0.501038
0.298309 0.683929 0.497955
0.323639 0.697144 0.501862
0.352692 0.711273 0.500671
0.409271 0.739777 0.497040
0.578339 0.801331 0.524933
0.771881 0.859589 0.549805
0.912537 0.888153 0.566711
0.997284 0.885345 0.557159
0.114655 0.078613 0.361298
0.144714 0.086517 0.402344
0.157684 0.064697 0.392670
0.191254 0.053253 0.377747
0.292877 0.057617 0.389252
0.420685 0.082855 0.418060
0.595093 0.119598 0.450958
0.714661 0.139923 0.466736
0.820770 0.164673 0.481995
0.150269 0.172638 0.429474
0.159454 0.169495 0.432098
0.172699 0.160400 0.431854
0.187897 0.136505 0.422028
0.271484 0.114502 0.407867
0.403351 0.131470 0.422485
0.597137 0.168182 0.452789
0.724426 0.189972 0.467682
0.828827 0.214264 0.480743
0.166748 0.237671 0.449463
0.178802 0.242950 0.455353
0.191254 0.241547 0.458191
0.208160 0.239044 0.461334
0.256592 0.202759 0.454865
0.395111 0.202606 0.445740
0.592224 0.231262 0.458099
0.735596 0.255585 0.473572
0.839661 0.279053 0.483337
0.186493 0.303345 0.469910
0.200287 0.312653 0.477783
0.214020 0.314636 0.481964
0.230743 0.316223 0.486389
0.272675 0.311066 0.498810
0.396362 0.294678 0.487854
0.589752 0.313416 0.478760
0.749115 0.334839 0.484009
0.860046 0.355591 0.492981
0.211609 0.370209 0.486481
0.228394 0.384827 0.497253
0.244446 0.391449 0.503448
0.261780 0.394653 0.508575
0.293854 0.401459 0.525360
0.395233 0.411346 0.542419
0.596954 0.415375 0.517334
0.770386 0.434448 0.509125
0.895996 0.451172 0.518311
0.238434 0.447052 0.511230
0.255981 0.463318 0.522675
0.274689 0.475342 0.531494
0.293060 0.480530 0.537048
0.328430 0.493652 0.551453
0.413788 0.520935 0.575104
0.626404 0.550903 0.582123
0.825043 0.559113 0.561646
0.940887 0.575134 0.561462
0.264771 0.531860 0.541351
0.284180 0.552124 0.555054
0.304901 0.569031 0.565674
0.324829 0.576843 0.572113
0.363586 0.597473 0.585602
0.434052 0.624969 0.604034
0.629456 0.681763 0.633698
0.883392 0.725983 0.625671
0.987732 0.733887 0.625671
0.289124 0.623474 0.574615
0.307312 0.642151 0.585815
0.326202 0.655640 0.593994
0.346649 0.667419 0.601105
0.376007 0.690033 0.610596
0.437988 0.719940 0.627075
0.622314 0.763947 0.640625
0.872345 0.825867 0.662231
0.993530 0.840332 0.658203
0.302185 0.701569 0.597076
0.313782 0.709595 0.600372
0.328094 0.717468 0.604095
0.341522 0.724457 0.606873
0.392853 0.748108 0.608765
0.479065 0.780151 0.613800
0.712799 0.851379 0.632751
0.907135 0.905823 0.659882
1.000000 0.903625 0.656677
0.138245 0.098846 0.419159
0.165710 0.097931 0.452087
0.183167 0.084656 0.452606
0.210083 0.071930 0.438751
0.276367 0.067902 0.435577
0.390472 0.086060 0.460175
0.535675 0.116333 0.491791
0.691925 0.147552 0.524200
0.801178 0.168274 0.541779
0.172821 0.187531 0.484009
0.183105 0.184509 0.487610
0.196594 0.175690 0.487854
0.211761 0.152130 0.477753
0.255249 0.129730 0.463379
0.378723 0.135590 0.469666
0.523834 0.160187 0.492828
0.697906 0.195099 0.525696
0.807861 0.215302 0.541779
0.186829 0.248901 0.500549
0.197754 0.252869 0.505280
0.210205 0.250519 0.508423
0.227142 0.245789 0.511780
0.255188 0.217834 0.505005
0.368683 0.202393 0.495605
0.510345 0.221710 0.505951
0.701324 0.253754 0.530029
0.816376 0.275787 0.545715
0.203766 0.311737 0.518036
0.216217 0.319702 0.525055
0.229675 0.320679 0.529327
0.245300 0.319763 0.533966
0.272369 0.318298 0.542969
0.358276 0.291321 0.539490
0.515137 0.297791 0.530792
0.707123 0.324219 0.538727
0.828125 0.347687 0.553711
0.225372 0.374603 0.532837
0.239655 0.385162 0.541687
0.254364 0.390442 0.548340
0.269897 0.391602 0.554688
0.294739 0.397797 0.569702
0.364899 0.402313 0.587830
0.535431 0.395630 0.571442
0.719666 0.415833 0.562653
0.845581 0.438599 0.574249
0.251709 0.446533 0.554810
0.267487 0.459167 0.565155
0.286682 0.472260 0.576172
0.305298 0.477783 0.584045
0.331055 0.486176 0.596283
0.400085 0.510406 0.624756
0.568817 0.532196 0.638580
0.747437 0.540588 0.617401
0.877563 0.561493 0.621582
0.278168 0.522797 0.580139
0.295258 0.537872 0.590820
0.317505 0.555664 0.605164
0.341827 0.572723 0.618805
0.370575 0.586700 0.631836
0.439606 0.616943 0.659790
0.596893 0.666992 0.697601
0.793488 0.695160 0.701904
0.940125 0.707367 0.698181
0.304871 0.607910 0.612396
0.322632 0.623627 0.624084
0.343628 0.640015 0.636536
0.367523 0.657623 0.649750
0.398987 0.680573 0.669891
0.465210 0.714203 0.695190
0.626617 0.768127 0.726013
0.870789 0.827118 0.729279
0.993652 0.849030 0.739075
0.326843 0.688354 0.641724
0.342041 0.698364 0.649200
0.361389 0.710297 0.661957
0.383392 0.724365 0.672882
0.412140 0.747101 0.687439
0.459473 0.781647 0.708282
0.620056 0.836853 0.732269
0.913696 0.901245 0.722168
1.000000 0.929901 0.778503
0.159119 0.112610 0.469757
0.183350 0.105774 0.495392
0.194672 0.091370 0.491364
0.216461 0.076965 0.478333
0.268280 0.075714 0.469543
0.355927 0.082581 0.487213
0.483185 0.108093 0.519806
0.646240 0.143494 0.555603
0.778259 0.169830 0.586639
0.189575 0.198944 0.525696
0.197144 0.192688 0.526337
0.209747 0.181915 0.525970
0.223053 0.157623 0.516052
0.250610 0.136353 0.501129
0.346008 0.131409 0.500427
0.473328 0.152802 0.524414
0.646545 0.187042 0.556854
0.785065 0.215118 0.587555
0.202301 0.259644 0.539673
0.211456 0.259460 0.542786
0.222687 0.255432 0.545288
0.238434 0.249329 0.548065
0.260345 0.227570 0.541443
0.335205 0.202515 0.532898
0.469879 0.212463 0.540222
0.642578 0.240692 0.561035
0.793152 0.271698 0.592133
0.218658 0.321747 0.556488
0.229462 0.326111 0.561890
0.241699 0.325256 0.565369
0.256317 0.322968 0.569824
0.275574 0.316620 0.573029
0.326263 0.287018 0.572693
0.474426 0.282013 0.565094
0.644867 0.309174 0.575836
0.803833 0.338654 0.599915
0.239075 0.384583 0.574951
0.252197 0.393250 0.582794
0.263428 0.394440 0.587646
0.278351 0.393768 0.592133
0.297424 0.393677 0.598907
0.343414 0.393555 0.615112
0.489502 0.379730 0.609589
0.658997 0.397034 0.604797
0.819916 0.421265 0.616241
0.265228 0.453827 0.594971
0.279602 0.463898 0.602966
0.295837 0.472260 0.611237
0.312439 0.474854 0.617126
0.331024 0.475922 0.624420
0.367096 0.488007 0.647034
0.509613 0.507568 0.677094
0.696075 0.514221 0.656036
0.847595 0.532898 0.654938
0.289001 0.523560 0.616058
0.304230 0.535706 0.624573
0.323425 0.548737 0.635315
0.346191 0.562744 0.648407
0.368500 0.570709 0.660034
0.412323 0.591125 0.686218
0.550537 0.639862 0.731171
0.748901 0.661713 0.735199
0.890442 0.675964 0.730103
0.316345 0.600861 0.642395
0.333893 0.615570 0.656494
0.354401 0.631714 0.670044
0.378204 0.648651 0.683411
0.404724 0.666321 0.698120
0.453644 0.695221 0.723938
0.580505 0.741791 0.763977
0.840240 0.820099 0.783630
0.988098 0.837952 0.791321
0.340424 0.681030 0.677490
0.355011 0.690338 0.684875
0.373169 0.700897 0.693298
0.394226 0.714020 0.703217
0.418915 0.728485 0.715118
0.464417 0.760681 0.739685
0.541473 0.799805 0.770050
0.835663 0.891846 0.789734
1.000000 0.947510 0.864563
