Kodak Vision 320T (5277) - Look.cube
# Created by Benjamin (IWLTBAP) : http://luts.iwltbap.com
# Copyright: (C) Copyright 2010-2017 Triune Films and IWLTBAP SAS
# Cannot be resold, shared or otherwise redistributed
TITLE "Film Print Emulation LUTs Pack (Rec.709, sRGB, DCI-P3)"
LUT_3D_SIZE 5
0.000641 0.002625 0.000885
0.272522 0.032440 0.021240
0.549622 0.075836 0.035614
0.761505 0.123505 0.055359
0.915527 0.160889 0.069702
0.001190 0.217102 0.011902
0.281799 0.225220 0.016418
0.575378 0.251526 0.050385
0.781738 0.279144 0.067230
0.932037 0.305267 0.081146
0.045746 0.456787 0.051727
0.298126 0.476746 0.034058
0.609222 0.481171 0.077606
0.812500 0.505157 0.098907
0.958832 0.520569 0.108978
0.169312 0.703339 0.111206
0.367035 0.719391 0.102478
0.647522 0.735809 0.068115
0.839874 0.733459 0.107880
0.982056 0.748749 0.145935
0.298004 0.933105 0.185211
0.446716 0.942413 0.178650
0.660706 0.954376 0.156250
0.861053 0.964935 0.122803
0.994537 0.960876 0.152161
0.000885 0.010101 0.169586
0.273651 0.032959 0.169159
0.552368 0.079803 0.183319
0.762268 0.127930 0.199493
0.915009 0.167664 0.210449
0.001129 0.223663 0.184113
0.282440 0.235382 0.186249
0.575684 0.259735 0.196259
0.782898 0.286865 0.206146
0.931885 0.312134 0.216339
0.003723 0.462372 0.202454
0.278625 0.485474 0.189972
0.609039 0.491547 0.216797
0.810883 0.509796 0.226807
0.958344 0.522644 0.233765
0.121735 0.705780 0.247345
0.344025 0.725220 0.239349
0.637085 0.743103 0.188141
0.838409 0.741241 0.232086
0.981781 0.755157 0.271240
0.272766 0.936066 0.299805
0.430267 0.945892 0.297577
0.637115 0.956848 0.285217
0.857391 0.970337 0.249603
0.993958 0.966858 0.274170
0.002808 0.032013 0.343964
0.261719 0.040558 0.341064
0.560669 0.079102 0.363953
0.764618 0.137207 0.373566
0.913940 0.175049 0.385010
0.001892 0.240021 0.381622
0.249573 0.247437 0.414917
0.585114 0.261719 0.374512
0.782104 0.293732 0.384888
0.929291 0.320190 0.396729
0.003418 0.470581 0.391388
0.166656 0.494049 0.392792
0.603760 0.508392 0.414276
0.806030 0.518311 0.412842
0.955719 0.531281 0.417938
0.005432 0.697418 0.409821
0.278778 0.730957 0.414185
0.598724 0.751007 0.390594
0.835815 0.752655 0.423431
0.979340 0.763092 0.447998
0.203125 0.937653 0.447968
0.391602 0.949219 0.445587
0.615845 0.961639 0.443451
0.848785 0.976929 0.423981
0.992126 0.974152 0.438141
0.040588 0.064148 0.552795
0.261078 0.061798 0.548767
0.560608 0.091034 0.577423
0.769348 0.128479 0.603088
0.921143 0.163177 0.609924
0.002655 0.259644 0.627136
0.238190 0.269806 0.636047
0.577942 0.269012 0.600464
0.788666 0.292725 0.614410
0.936371 0.312653 0.615692
0.002960 0.479156 0.647766
0.122833 0.496155 0.702881
0.590271 0.520447 0.678070
0.813751 0.525726 0.637756
0.952362 0.544434 0.634125
0.004303 0.705139 0.651581
0.141876 0.728943 0.662109
0.525604 0.766541 0.658325
0.829651 0.767792 0.679596
0.975739 0.771240 0.674927
0.076752 0.927765 0.668915
0.284912 0.954041 0.675232
0.583923 0.970337 0.669128
0.826294 0.981873 0.644348
0.991608 0.982971 0.642670
0.113800 0.098938 0.822540
0.287415 0.097626 0.820709
0.571777 0.122253 0.838196
0.772156 0.159790 0.871063
0.921753 0.187439 0.894714
0.056519 0.283325 0.875916
0.268829 0.295959 0.887054
0.560272 0.284363 0.866943
0.786499 0.310181 0.890015
0.936493 0.329834 0.910400
0.003571 0.495087 0.932892
0.151276 0.508331 0.958771
0.565796 0.533569 0.961884
0.805389 0.534760 0.931763
0.957764 0.547668 0.928009
0.004395 0.711548 0.947388
0.185486 0.737793 0.968933
0.553375 0.765839 0.984863
0.821686 0.775024 0.977966
0.977020 0.778534 0.942474
0.005402 0.920990 0.938873
0.218109 0.954651 0.958221
0.544098 0.977203 0.967773
0.784607 0.990417 0.963715
0.994446 0.991425 0.919006
