Kodak Vision 500T (5263) - Only contrast.cube
# Created by Benjamin (IWLTBAP) : http://luts.iwltbap.com
# Copyright: (C) Copyright 2010-2017 Triune Films and IWLTBAP SAS
# Cannot be resold, shared or otherwise redistributed
TITLE "Film Print Emulation LUTs Pack (Rec.709, sRGB, DCI-P3)"
LUT_3D_SIZE 33
0.000000 0.000000 0.000000
0.033295 0.000000 0.000000
0.054565 0.000092 0.000092
0.081085 0.000153 0.000153
0.106964 0.000214 0.000214
0.133118 0.000244 0.000244
0.159180 0.000305 0.000305
0.184692 0.000366 0.000366
0.210114 0.000427 0.000427
0.235535 0.000519 0.000519
0.261322 0.000580 0.000580
0.287140 0.000641 0.000641
0.313416 0.000671 0.000671
0.340546 0.000732 0.000732
0.368164 0.000793 0.000793
0.396118 0.000854 0.000854
0.423431 0.000885 0.000885
0.449738 0.000977 0.000977
0.475952 0.001007 0.001007
0.502106 0.001068 0.001068
0.528137 0.001129 0.001129
0.553650 0.001221 0.001221
0.579010 0.001282 0.001282
0.603821 0.001343 0.001343
0.627777 0.001434 0.001434
0.650757 0.001495 0.001495
0.672272 0.001587 0.001587
0.692535 0.001709 0.001709
0.711700 0.001801 0.001801
0.729736 0.001923 0.001923
0.746552 0.002045 0.002045
0.762177 0.002197 0.002197
0.776703 0.002319 0.002319
0.000000 0.033295 0.000000
0.033234 0.033234 0.000000
0.054504 0.033264 0.000092
0.081024 0.033264 0.000153
0.106903 0.033264 0.000214
0.133057 0.033264 0.000275
0.159119 0.033264 0.000336
0.184631 0.033264 0.000397
0.210083 0.033264 0.000458
0.235474 0.033264 0.000519
0.261292 0.033264 0.000580
0.287109 0.033264 0.000641
0.313385 0.033264 0.000702
0.340515 0.033234 0.000763
0.368134 0.033203 0.000793
0.396088 0.033173 0.000854
0.423370 0.033173 0.000916
0.449707 0.033142 0.000977
0.475922 0.033142 0.001038
0.502075 0.033112 0.001099
0.528076 0.033081 0.001160
0.553589 0.033081 0.001221
0.578949 0.033051 0.001282
0.603790 0.033051 0.001373
0.627716 0.033051 0.001434
0.650696 0.033051 0.001526
0.672211 0.033051 0.001617
0.692474 0.033051 0.001740
0.711609 0.033081 0.001831
0.729645 0.033112 0.001953
0.746429 0.033142 0.002075
0.762085 0.033203 0.002228
0.776581 0.033234 0.002350
0.000092 0.054565 0.000092
0.033264 0.054504 0.000092
0.054535 0.054535 0.000183
0.081055 0.054535 0.000244
0.106934 0.054535 0.000305
0.133087 0.054535 0.000366
0.159149 0.054535 0.000427
0.184662 0.054535 0.000488
0.210083 0.054535 0.000549
0.235504 0.054535 0.000610
0.261322 0.054535 0.000671
0.287140 0.054535 0.000732
0.313416 0.054535 0.000793
0.340546 0.054535 0.000854
0.368195 0.054535 0.000885
0.396118 0.054504 0.000946
0.423401 0.054504 0.001007
0.449738 0.054504 0.001068
0.475952 0.054504 0.001129
0.502106 0.054504 0.001190
0.528107 0.054504 0.001251
0.553619 0.054504 0.001312
0.578979 0.054504 0.001373
0.603790 0.054535 0.001434
0.627747 0.054535 0.001526
0.650696 0.054565 0.001617
0.672180 0.054596 0.001709
0.692444 0.054626 0.001801
0.711578 0.054688 0.001923
0.729614 0.054749 0.002045
0.746399 0.054810 0.002167
0.762024 0.054871 0.002289
0.776550 0.054962 0.002441
0.000153 0.081085 0.000153
0.033264 0.081024 0.000153
0.054535 0.081055 0.000244
0.081055 0.081055 0.000305
0.106934 0.081055 0.000366
0.133087 0.081055 0.000427
0.159149 0.081055 0.000488
0.184662 0.081055 0.000549
0.210083 0.081055 0.000610
0.235504 0.081055 0.000671
0.261322 0.081055 0.000732
0.287140 0.081055 0.000793
0.313416 0.081055 0.000854
0.340546 0.081055 0.000916
0.368195 0.081055 0.000946
0.396118 0.081024 0.001007
0.423431 0.081024 0.001068
0.449738 0.081024 0.001129
0.475952 0.081024 0.001190
0.502106 0.081024 0.001251
0.528107 0.081024 0.001312
0.553619 0.081024 0.001373
0.578979 0.081024 0.001434
0.603790 0.081024 0.001495
0.627716 0.081024 0.001587
0.650665 0.081055 0.001678
0.672150 0.081085 0.001770
0.692413 0.081116 0.001862
0.711517 0.081177 0.001984
0.729553 0.081238 0.002106
0.746338 0.081299 0.002228
0.761963 0.081360 0.002380
0.776459 0.081451 0.002533
0.000214 0.106964 0.000214
0.033264 0.106903 0.000214
0.054535 0.106934 0.000305
0.081055 0.106934 0.000366
0.106934 0.106934 0.000427
0.133087 0.106934 0.000488
0.159149 0.106934 0.000549
0.184662 0.106934 0.000610
0.210083 0.106934 0.000671
0.235504 0.106964 0.000732
0.261322 0.106964 0.000793
0.287140 0.106964 0.000854
0.313416 0.106964 0.000916
0.340576 0.106934 0.000977
0.368195 0.106934 0.001007
0.396149 0.106934 0.001068
0.423431 0.106903 0.001129
0.449738 0.106903 0.001190
0.475952 0.106903 0.001251
0.502106 0.106903 0.001312
0.528107 0.106903 0.001373
0.553619 0.106903 0.001434
0.578949 0.106934 0.001495
0.603760 0.106934 0.001556
0.627716 0.106934 0.001648
0.650635 0.106964 0.001740
0.672119 0.106995 0.001831
0.692352 0.107025 0.001923
0.711487 0.107086 0.002045
0.729492 0.107147 0.002167
0.746246 0.107208 0.002289
0.761871 0.107269 0.002441
0.776367 0.107361 0.002594
0.000244 0.133118 0.000244
0.033264 0.133057 0.000275
0.054535 0.133087 0.000366
0.081055 0.133087 0.000427
0.106934 0.133087 0.000488
0.133087 0.133087 0.000549
0.159149 0.133087 0.000610
0.184662 0.133118 0.000671
0.210083 0.133118 0.000732
0.235504 0.133118 0.000793
0.261292 0.133118 0.000854
0.287140 0.133118 0.000916
0.313416 0.133118 0.000977
0.340576 0.133118 0.001038
0.368225 0.133087 0.001068
0.396149 0.133087 0.001129
0.423431 0.133087 0.001190
0.449738 0.133087 0.001251
0.475952 0.133057 0.001312
0.502106 0.133057 0.001373
0.528107 0.133057 0.001434
0.553619 0.133087 0.001495
0.578949 0.133087 0.001556
0.603760 0.133087 0.001648
0.627686 0.133087 0.001709
0.650604 0.133118 0.001801
0.672089 0.133148 0.001892
0.692322 0.133209 0.001984
0.711426 0.133240 0.002106
0.729431 0.133301 0.002228
0.746185 0.133362 0.002380
0.761810 0.133423 0.002502
0.776276 0.133514 0.002655
0.000305 0.159180 0.000305
0.033264 0.159119 0.000336
0.054535 0.159149 0.000427
0.081055 0.159149 0.000488
0.106934 0.159149 0.000549
0.133087 0.159149 0.000610
0.159149 0.159149 0.000671
0.184662 0.159149 0.000732
0.210083 0.159149 0.000793
0.235504 0.159149 0.000854
0.261292 0.159149 0.000916
0.287140 0.159149 0.000977
0.313416 0.159149 0.001038
0.340576 0.159149 0.001099
0.368225 0.159119 0.001129
0.396179 0.159119 0.001190
0.423431 0.159088 0.001251
0.449738 0.159088 0.001312
0.475952 0.159088 0.001373
0.502106 0.159088 0.001434
0.528107 0.159088 0.001495
0.553589 0.159088 0.001556
0.578949 0.159088 0.001617
0.603729 0.159088 0.001709
0.627655 0.159088 0.001770
0.650574 0.159119 0.001862
0.672058 0.159149 0.001953
0.692261 0.159180 0.002045
0.711365 0.159241 0.002167
0.729370 0.159271 0.002289
0.746124 0.159332 0.002441
0.761719 0.159424 0.002563
0.776215 0.159485 0.002716
0.000366 0.184692 0.000366
0.033264 0.184631 0.000397
0.054535 0.184662 0.000488
0.081055 0.184662 0.000549
0.106934 0.184662 0.000610
0.133118 0.184662 0.000671
0.159149 0.184662 0.000732
0.184662 0.184662 0.000793
0.210083 0.184662 0.000854
0.235504 0.184662 0.000916
0.261292 0.184631 0.000977
0.287140 0.184631 0.001038
0.313446 0.184631 0.001099
0.340607 0.184631 0.001160
0.368225 0.184601 0.001221
0.396179 0.184601 0.001251
0.423431 0.184570 0.001312
0.449738 0.184570 0.001373
0.475952 0.184570 0.001434
0.502106 0.184570 0.001495
0.528107 0.184540 0.001556
0.553589 0.184540 0.001617
0.578949 0.184540 0.001678
0.603729 0.184570 0.001770
0.627655 0.184570 0.001831
0.650574 0.184570 0.001923
0.671997 0.184601 0.002014
0.692230 0.184631 0.002136
0.711334 0.184692 0.002258
0.729309 0.184753 0.002380
0.746063 0.184784 0.002502
0.761658 0.184875 0.002625
0.776123 0.184937 0.002777
0.000427 0.210114 0.000427
0.033264 0.210083 0.000458
0.054535 0.210083 0.000549
0.081055 0.210083 0.000610
0.106934 0.210083 0.000671
0.133118 0.210083 0.000732
0.159149 0.210083 0.000793
0.184662 0.210083 0.000854
0.210083 0.210083 0.000916
0.235504 0.210083 0.000977
0.261322 0.210083 0.001038
0.287140 0.210052 0.001099
0.313446 0.210052 0.001160
0.340607 0.210052 0.001221
0.368256 0.210022 0.001282
0.396210 0.210022 0.001312
0.423431 0.209991 0.001373
0.449738 0.209991 0.001434
0.475952 0.209991 0.001495
0.502106 0.209991 0.001556
0.528107 0.209991 0.001617
0.553589 0.209991 0.001678
0.578949 0.209991 0.001770
0.603729 0.209991 0.001831
0.627625 0.209991 0.001923
0.650543 0.210022 0.001984
0.671967 0.210052 0.002106
0.692200 0.210083 0.002197
0.711273 0.210114 0.002319
0.729248 0.210175 0.002441
0.745972 0.210236 0.002563
0.761566 0.210297 0.002716
0.776031 0.210358 0.002838
0.000519 0.235535 0.000519
0.033264 0.235474 0.000519
0.054535 0.235504 0.000610
0.081055 0.235504 0.000671
0.106964 0.235504 0.000732
0.133118 0.235504 0.000793
0.159149 0.235504 0.000854
0.184662 0.235504 0.000916
0.210083 0.235504 0.000977
0.235504 0.235504 0.001038
0.261322 0.235504 0.001099
0.287140 0.235504 0.001160
0.313446 0.235504 0.001221
0.340607 0.235474 0.001282
0.368256 0.235474 0.001343
0.396210 0.235443 0.001404
0.423462 0.235443 0.001434
0.449738 0.235443 0.001495
0.475983 0.235443 0.001556
0.502106 0.235443 0.001617
0.528107 0.235413 0.001678
0.553589 0.235413 0.001770
0.578949 0.235443 0.001831
0.603729 0.235443 0.001892
0.627625 0.235443 0.001984
0.650513 0.235474 0.002075
0.671936 0.235504 0.002167
0.692139 0.235535 0.002258
0.711212 0.235565 0.002380
0.729187 0.235626 0.002502
0.745911 0.235687 0.002625
0.761505 0.235748 0.002777
0.775970 0.235840 0.002899
0.000580 0.261322 0.000580
0.033264 0.261292 0.000580
0.054535 0.261322 0.000671
0.081055 0.261322 0.000732
0.106964 0.261322 0.000793
0.133118 0.261292 0.000854
0.159149 0.261292 0.000916
0.184631 0.261292 0.000977
0.210083 0.261322 0.001038
0.235504 0.261322 0.001099
0.261322 0.261322 0.001160
0.287140 0.261322 0.001251
0.313446 0.261292 0.001312
0.340637 0.261292 0.001343
0.368286 0.261292 0.001404
0.396240 0.261261 0.001465
0.423462 0.261261 0.001495
0.449738 0.261261 0.001556
0.475983 0.261261 0.001617
0.502106 0.261230 0.001678
0.528107 0.261230 0.001770
0.553589 0.261230 0.001831
0.578949 0.261261 0.001892
0.603699 0.261261 0.001953
0.627594 0.261261 0.002045
0.650482 0.261292 0.002136
0.671906 0.261322 0.002228
0.692108 0.261353 0.002350
0.711182 0.261414 0.002441
0.729126 0.261444 0.002563
0.745850 0.261505 0.002686
0.761444 0.261597 0.002838
0.775879 0.261658 0.002991
0.000641 0.287140 0.000641
0.033264 0.287109 0.000641
0.054535 0.287140 0.000732
0.081055 0.287140 0.000793
0.106964 0.287140 0.000854
0.133118 0.287140 0.000916
0.159149 0.287140 0.000977
0.184631 0.287140 0.001038
0.210052 0.287140 0.001099
0.235504 0.287140 0.001160
0.261322 0.287140 0.001251
0.287140 0.287140 0.001312
0.313477 0.287140 0.001373
0.340637 0.287109 0.001404
0.368286 0.287109 0.001465
0.396240 0.287109 0.001526
0.423462 0.287079 0.001587
0.449738 0.287079 0.001648
0.475983 0.287079 0.001709
0.502106 0.287079 0.001770
0.528107 0.287079 0.001831
0.553589 0.287079 0.001892
0.578949 0.287079 0.001953
0.603699 0.287079 0.002045
0.627594 0.287109 0.002106
0.650482 0.287140 0.002197
0.671875 0.287170 0.002289
0.692047 0.287201 0.002411
0.711121 0.287231 0.002533
0.729095 0.287292 0.002625
0.745789 0.287354 0.002777
0.761353 0.287445 0.002899
0.775787 0.287506 0.003052
0.000671 0.313416 0.000671
0.033264 0.313385 0.000702
0.054535 0.313416 0.000793
0.081055 0.313416 0.000854
0.106964 0.313416 0.000916
0.133118 0.313416 0.000977
0.159149 0.313416 0.001038
0.184631 0.313446 0.001099
0.210052 0.313446 0.001160
0.235504 0.313446 0.001221
0.261292 0.313446 0.001312
0.287140 0.313477 0.001373
0.313477 0.313477 0.001434
0.340637 0.313477 0.001465
0.368317 0.313446 0.001526
0.396271 0.313446 0.001587
0.423462 0.313446 0.001648
0.449738 0.313446 0.001709
0.475983 0.313446 0.001770
0.502106 0.313446 0.001831
0.528107 0.313477 0.001892
0.553589 0.313477 0.001953
0.578918 0.313477 0.002045
0.603668 0.313507 0.002106
0.627563 0.313507 0.002197
0.650452 0.313538 0.002258
0.671844 0.313599 0.002350
0.692017 0.313629 0.002472
0.711060 0.313690 0.002563
0.729004 0.313751 0.002686
0.745697 0.313812 0.002838
0.761261 0.313904 0.002960
0.775696 0.313995 0.003113
0.000732 0.340546 0.000732
0.033234 0.340515 0.000763
0.054535 0.340546 0.000854
0.081055 0.340546 0.000916
0.106934 0.340576 0.000977
0.133118 0.340576 0.001038
0.159149 0.340576 0.001099
0.184631 0.340607 0.001160
0.210052 0.340607 0.001221
0.235474 0.340607 0.001282
0.261292 0.340637 0.001343
0.287109 0.340637 0.001404
0.313477 0.340637 0.001465
0.340668 0.340668 0.001526
0.368317 0.340637 0.001587
0.396271 0.340637 0.001648
0.423462 0.340637 0.001678
0.449738 0.340668 0.001740
0.475983 0.340668 0.001831
0.502106 0.340668 0.001892
0.528076 0.340698 0.001953
0.553558 0.340698 0.002014
0.578918 0.340729 0.002075
0.603668 0.340729 0.002167
0.627533 0.340759 0.002228
0.650391 0.340790 0.002319
0.671783 0.340820 0.002411
0.691956 0.340881 0.002533
0.710999 0.340942 0.002625
0.728943 0.341003 0.002747
0.745636 0.341095 0.002869
0.761200 0.341156 0.003021
0.775604 0.341248 0.003174
0.000793 0.368164 0.000793
0.033203 0.368134 0.000793
0.054535 0.368195 0.000885
0.081055 0.368195 0.000946
0.106934 0.368195 0.001007
0.133087 0.368225 0.001068
0.159119 0.368225 0.001129
0.184601 0.368225 0.001221
0.210022 0.368256 0.001282
0.235474 0.368256 0.001343
0.261292 0.368286 0.001404
0.287109 0.368286 0.001465
0.313446 0.368317 0.001526
0.340637 0.368317 0.001587
0.368317 0.368317 0.001648
0.396271 0.368317 0.001678
0.423431 0.368317 0.001740
0.449738 0.368317 0.001801
0.475952 0.368317 0.001862
0.502106 0.368347 0.001953
0.528076 0.368347 0.002014
0.553558 0.368378 0.002075
0.578888 0.368378 0.002136
0.603638 0.368408 0.002197
0.627502 0.368439 0.002289
0.650360 0.368469 0.002380
0.671722 0.368500 0.002472
0.691895 0.368561 0.002563
0.710938 0.368622 0.002686
0.728882 0.368683 0.002808
0.745544 0.368744 0.002930
0.761108 0.368835 0.003082
0.775513 0.368927 0.003204
0.000854 0.396118 0.000854
0.033173 0.396088 0.000854
0.054504 0.396118 0.000946
0.081024 0.396118 0.001007
0.106934 0.396149 0.001068
0.133087 0.396149 0.001129
0.159119 0.396179 0.001190
0.184601 0.396179 0.001251
0.210022 0.396210 0.001312
0.235443 0.396210 0.001404
0.261261 0.396240 0.001465
0.287109 0.396240 0.001526
0.313446 0.396271 0.001587
0.340637 0.396271 0.001648
0.368317 0.396271 0.001678
0.396271 0.396271 0.001740
0.423431 0.396271 0.001801
0.449707 0.396271 0.001862
0.475952 0.396271 0.001923
0.502075 0.396301 0.001984
0.528046 0.396301 0.002045
0.553528 0.396332 0.002136
0.578888 0.396332 0.002197
0.603607 0.396362 0.002258
0.627472 0.396393 0.002350
0.650330 0.396423 0.002411
0.671692 0.396454 0.002533
0.691833 0.396515 0.002625
0.710876 0.396576 0.002747
0.728790 0.396637 0.002869
0.745453 0.396729 0.002991
0.761017 0.396790 0.003113
0.775421 0.396881 0.003265
0.000885 0.423431 0.000885
0.033173 0.423370 0.000916
0.054504 0.423401 0.001007
0.081024 0.423431 0.001068
0.106903 0.423431 0.001129
0.133087 0.423431 0.001190
0.159088 0.423431 0.001251
0.184570 0.423431 0.001312
0.209991 0.423431 0.001373
0.235443 0.423462 0.001434
0.261261 0.423462 0.001495
0.287079 0.423462 0.001587
0.313446 0.423462 0.001648
0.340637 0.423462 0.001678
0.368317 0.423431 0.001740
0.396271 0.423431 0.001801
0.423431 0.423431 0.001862
0.449707 0.423431 0.001923
0.475952 0.423431 0.001984
0.502075 0.423431 0.002045
0.528046 0.423431 0.002106
0.553528 0.423431 0.002167
0.578857 0.423431 0.002258
0.603577 0.423462 0.002319
0.627441 0.423462 0.002411
0.650299 0.423492 0.002472
0.671631 0.423523 0.002563
0.691803 0.423584 0.002686
0.710815 0.423615 0.002808
0.728729 0.423676 0.002899
0.745392 0.423737 0.003052
0.760925 0.423828 0.003174
0.775330 0.423889 0.003326
0.000977 0.449738 0.000977
0.033142 0.449707 0.000977
0.054504 0.449738 0.001068
0.081024 0.449738 0.001129
0.106903 0.449738 0.001190
0.133087 0.449738 0.001251
0.159088 0.449738 0.001312
0.184570 0.449738 0.001373
0.209991 0.449738 0.001434
0.235443 0.449738 0.001495
0.261261 0.449738 0.001556
0.287079 0.449738 0.001648
0.313446 0.449738 0.001709
0.340668 0.449738 0.001740
0.368317 0.449738 0.001801
0.396271 0.449707 0.001862
0.423431 0.449707 0.001923
0.449707 0.449707 0.001984
0.475952 0.449707 0.002045
0.502075 0.449707 0.002106
0.528046 0.449707 0.002167
0.553528 0.449707 0.002228
0.578857 0.449707 0.002319
0.603577 0.449738 0.002380
0.627441 0.449738 0.002472
0.650269 0.449768 0.002533
0.671600 0.449799 0.002625
0.691742 0.449860 0.002747
0.710754 0.449890 0.002869
0.728668 0.449951 0.002960
0.745331 0.450012 0.003113
0.760864 0.450104 0.003235
0.775238 0.450165 0.003387
0.001007 0.475952 0.001007
0.033142 0.475922 0.001038
0.054504 0.475952 0.001129
0.081024 0.475952 0.001190
0.106903 0.475952 0.001251
0.133057 0.475952 0.001312
0.159088 0.475952 0.001373
0.184570 0.475952 0.001434
0.209991 0.475952 0.001495
0.235443 0.475983 0.001556
0.261261 0.475983 0.001617
0.287079 0.475983 0.001709
0.313446 0.475983 0.001770
0.340668 0.475983 0.001831
0.368317 0.475952 0.001862
0.396271 0.475952 0.001923
0.423431 0.475952 0.001984
0.449707 0.475952 0.002045
0.475952 0.475952 0.002106
0.502075 0.475952 0.002167
0.528046 0.475952 0.002228
0.553497 0.475952 0.002289
0.578857 0.475952 0.002380
0.603546 0.475952 0.002441
0.627411 0.475983 0.002533
0.650238 0.476013 0.002594
0.671570 0.476044 0.002716
0.691711 0.476074 0.002808
0.710693 0.476135 0.002930
0.728607 0.476196 0.003021
0.745239 0.476257 0.003174
0.760773 0.476318 0.003296
0.775177 0.476410 0.003448
0.001068 0.502106 0.001068
0.033112 0.502075 0.001099
0.054504 0.502106 0.001190
0.081024 0.502106 0.001251
0.106903 0.502106 0.001312
0.133057 0.502106 0.001373
0.159088 0.502106 0.001434
0.184570 0.502106 0.001495
0.209991 0.502106 0.001556
0.235443 0.502106 0.001617
0.261230 0.502106 0.001678
0.287079 0.502106 0.001770
0.313446 0.502106 0.001831
0.340668 0.502106 0.001892
0.368347 0.502106 0.001953
0.396301 0.502075 0.001984
0.423431 0.502075 0.002045
0.449707 0.502075 0.002106
0.475952 0.502075 0.002167
0.502075 0.502075 0.002228
0.528046 0.502075 0.002289
0.553497 0.502075 0.002350
0.578857 0.502075 0.002441
0.603546 0.502075 0.002502
0.627380 0.502106 0.002594
0.650208 0.502106 0.002655
0.671509 0.502136 0.002777
0.691650 0.502197 0.002869
0.710663 0.502228 0.002991
0.728546 0.502289 0.003113
0.745178 0.502350 0.003235
0.760681 0.502441 0.003357
0.775085 0.502502 0.003510
0.001129 0.528137 0.001129
0.033081 0.528076 0.001160
0.054504 0.528107 0.001251
0.081024 0.528107 0.001312
0.106903 0.528107 0.001373
0.133057 0.528107 0.001434
0.159088 0.528107 0.001495
0.184540 0.528107 0.001556
0.209991 0.528107 0.001617
0.235413 0.528107 0.001678
0.261230 0.528107 0.001770
0.287079 0.528107 0.001831
0.313477 0.528107 0.001892
0.340698 0.528076 0.001953
0.368347 0.528076 0.002014
0.396301 0.528046 0.002045
0.423431 0.528046 0.002106
0.449707 0.528046 0.002167
0.475952 0.528046 0.002228
0.502075 0.528046 0.002289
0.528046 0.528046 0.002350
0.553497 0.528046 0.002441
0.578827 0.528046 0.002502
0.603546 0.528046 0.002563
0.627380 0.528046 0.002655
0.650177 0.528076 0.002747
0.671478 0.528107 0.002838
0.691620 0.528137 0.002930
0.710602 0.528198 0.003052
0.728485 0.528259 0.003174
0.745117 0.528320 0.003296
0.760620 0.528381 0.003418
0.774994 0.528442 0.003571
0.001221 0.553650 0.001221
0.033081 0.553589 0.001221
0.054504 0.553619 0.001312
0.081024 0.553619 0.001373
0.106903 0.553619 0.001434
0.133087 0.553619 0.001495
0.159088 0.553589 0.001556
0.184540 0.553589 0.001617
0.209991 0.553589 0.001678
0.235413 0.553589 0.001770
0.261230 0.553589 0.001831
0.287079 0.553589 0.001892
0.313477 0.553589 0.001953
0.340698 0.553558 0.002014
0.368378 0.553558 0.002075
0.396332 0.553528 0.002136
0.423431 0.553528 0.002167
0.449707 0.553528 0.002228
0.475952 0.553497 0.002289
0.502075 0.553497 0.002350
0.528046 0.553497 0.002441
0.553497 0.553497 0.002502
0.578827 0.553497 0.002563
0.603516 0.553497 0.002625
0.627350 0.553497 0.002716
0.650146 0.553528 0.002808
0.671448 0.553558 0.002899
0.691559 0.553589 0.002991
0.710541 0.553619 0.003113
0.728424 0.553680 0.003235
0.745056 0.553741 0.003357
0.760529 0.553802 0.003479
0.774933 0.553894 0.003632
0.001282 0.579010 0.001282
0.033051 0.578949 0.001282
0.054504 0.578979 0.001373
0.081024 0.578979 0.001434
0.106934 0.578949 0.001495
0.133087 0.578949 0.001556
0.159088 0.578949 0.001617
0.184540 0.578949 0.001678
0.209991 0.578949 0.001770
0.235443 0.578949 0.001831
0.261261 0.578949 0.001892
0.287079 0.578949 0.001953
0.313477 0.578918 0.002045
0.340729 0.578918 0.002075
0.368378 0.578888 0.002136
0.396332 0.578888 0.002197
0.423431 0.578857 0.002258
0.449707 0.578857 0.002319
0.475952 0.578857 0.002380
0.502075 0.578857 0.002441
0.528046 0.578827 0.002502
0.553497 0.578827 0.002563
0.578827 0.578827 0.002625
0.603516 0.578827 0.002716
0.627350 0.578857 0.002777
0.650116 0.578857 0.002869
0.671417 0.578888 0.002960
0.691528 0.578918 0.003052
0.710510 0.578979 0.003174
0.728363 0.579010 0.003296
0.744965 0.579071 0.003418
0.760468 0.579132 0.003571
0.774841 0.579224 0.003693
0.001343 0.603821 0.001343
0.033051 0.603790 0.001373
0.054535 0.603790 0.001434
0.081024 0.603790 0.001495
0.106934 0.603760 0.001556
0.133087 0.603760 0.001648
0.159088 0.603729 0.001709
0.184570 0.603729 0.001770
0.209991 0.603729 0.001831
0.235443 0.603729 0.001892
0.261261 0.603699 0.001953
0.287079 0.603699 0.002045
0.313507 0.603668 0.002106
0.340729 0.603668 0.002167
0.368408 0.603638 0.002197
0.396362 0.603607 0.002258
0.423462 0.603577 0.002319
0.449738 0.603577 0.002380
0.475952 0.603546 0.002441
0.502075 0.603546 0.002502
0.528046 0.603546 0.002563
0.553497 0.603516 0.002625
0.578827 0.603516 0.002716
0.603516 0.603516 0.002777
0.627350 0.603516 0.002869
0.650116 0.603516 0.002930
0.671387 0.603546 0.003021
0.691498 0.603577 0.003143
0.710449 0.603607 0.003235
0.728333 0.603638 0.003357
0.744904 0.603699 0.003510
0.760406 0.603760 0.003632
0.774780 0.603821 0.003784
0.001434 0.627777 0.001434
0.033051 0.627716 0.001434
0.054535 0.627747 0.001526
0.081024 0.627716 0.001587
0.106934 0.627716 0.001648
0.133087 0.627686 0.001709
0.159088 0.627655 0.001770
0.184570 0.627655 0.001831
0.209991 0.627625 0.001923
0.235443 0.627625 0.001984
0.261261 0.627594 0.002045
0.287109 0.627594 0.002106
0.313507 0.627563 0.002197
0.340759 0.627533 0.002228
0.368439 0.627502 0.002289
0.396393 0.627472 0.002350
0.423462 0.627441 0.002411
0.449738 0.627441 0.002472
0.475983 0.627411 0.002533
0.502106 0.627380 0.002594
0.528046 0.627380 0.002655
0.553497 0.627350 0.002716
0.578857 0.627350 0.002777
0.603516 0.627350 0.002869
0.627319 0.627319 0.002930
0.650085 0.627350 0.003021
0.671356 0.627350 0.003113
0.691467 0.627380 0.003204
0.710419 0.627411 0.003326
0.728271 0.627441 0.003448
0.744873 0.627502 0.003571
0.760345 0.627533 0.003723
0.774689 0.627594 0.003845
0.001495 0.650757 0.001495
0.033051 0.650696 0.001526
0.054565 0.650696 0.001617
0.081055 0.650665 0.001678
0.106964 0.650635 0.001740
0.133118 0.650604 0.001801
0.159119 0.650574 0.001862
0.184570 0.650574 0.001923
0.210022 0.650543 0.001984
0.235474 0.650513 0.002075
0.261292 0.650482 0.002136
0.287140 0.650482 0.002197
0.313538 0.650452 0.002258
0.340790 0.650391 0.002319
0.368469 0.650360 0.002380
0.396423 0.650330 0.002411
0.423492 0.650299 0.002472
0.449768 0.650269 0.002533
0.476013 0.650238 0.002594
0.502106 0.650208 0.002655
0.528076 0.650177 0.002747
0.553528 0.650146 0.002808
0.578857 0.650116 0.002869
0.603516 0.650116 0.002930
0.627350 0.650085 0.003021
0.650085 0.650085 0.003113
0.671356 0.650085 0.003204
0.691437 0.650116 0.003296
0.710388 0.650116 0.003418
0.728241 0.650146 0.003540
0.744812 0.650177 0.003662
0.760284 0.650238 0.003784
0.774628 0.650299 0.003937
0.001587 0.672272 0.001587
0.033051 0.672211 0.001617
0.054596 0.672180 0.001709
0.081085 0.672150 0.001770
0.106995 0.672119 0.001831
0.133148 0.672089 0.001892
0.159149 0.672058 0.001953
0.184601 0.671997 0.002014
0.210052 0.671967 0.002106
0.235504 0.671936 0.002167
0.261322 0.671906 0.002228
0.287170 0.671875 0.002289
0.313599 0.671844 0.002350
0.340820 0.671783 0.002411
0.368500 0.671722 0.002472
0.396454 0.671692 0.002533
0.423523 0.671631 0.002563
0.449799 0.671600 0.002625
0.476044 0.671570 0.002716
0.502136 0.671509 0.002777
0.528107 0.671478 0.002838
