Kodak Vision 200T (5274) - Only contrast.cube
# Created by Benjamin (IWLTBAP) : http://luts.iwltbap.com
# Copyright: (C) Copyright 2010-2017 Triune Films and IWLTBAP SAS
# Cannot be resold, shared or otherwise redistributed
TITLE "Film Print Emulation LUTs Pack (Rec.709, sRGB, DCI-P3)"
LUT_3D_SIZE 33
0.000000 0.000000 0.000000
0.007660 0.000000 0.000000
0.019409 0.000000 0.000000
0.036041 0.000000 0.000000
0.056152 0.000000 0.000000
0.080322 0.000000 0.000000
0.108459 0.000000 0.000000
0.139557 0.000000 0.000000
0.173248 0.000000 0.000000
0.208282 0.000000 0.000000
0.244324 0.000000 0.000000
0.280212 0.000000 0.000000
0.315552 0.000000 0.000000
0.349792 0.000000 0.000000
0.382996 0.000000 0.000000
0.414917 0.000000 0.000000
0.445709 0.000000 0.000000
0.475494 0.000000 0.000000
0.504486 0.000000 0.000000
0.532959 0.000000 0.000000
0.561401 0.000000 0.000000
0.589905 0.000000 0.000000
0.618835 0.000000 0.000000
0.648193 0.000000 0.000000
0.678009 0.000000 0.000000
0.708374 0.000000 0.000000
0.739380 0.000000 0.000000
0.770966 0.000000 0.000000
0.803436 0.000000 0.000000
0.837067 0.000000 0.000000
0.871979 0.000000 0.000000
0.907837 0.000000 0.000000
0.944061 0.000000 0.000000
0.000000 0.007660 0.000000
0.007660 0.007660 0.000000
0.019470 0.007660 0.000000
0.036102 0.007599 0.000000
0.056274 0.007507 0.000000
0.080444 0.007416 0.000000
0.108612 0.007294 0.000000
0.139740 0.007141 0.000000
0.173431 0.006958 0.000000
0.208466 0.006805 0.000000
0.244507 0.006622 0.000000
0.280426 0.006439 0.000000
0.315735 0.006256 0.000000
0.349976 0.006073 0.000000
0.383179 0.005920 0.000000
0.415070 0.005768 0.000000
0.445862 0.005615 0.000000
0.475647 0.005493 0.000000
0.504639 0.005341 0.000000
0.533112 0.005219 0.000000
0.561554 0.005096 0.000000
0.590027 0.004974 0.000000
0.618988 0.004852 0.000000
0.648346 0.004700 0.000000
0.678162 0.004578 0.000000
0.708527 0.004425 0.000000
0.739532 0.004303 0.000000
0.771149 0.004150 0.000000
0.803619 0.003998 0.000000
0.837250 0.003815 0.000000
0.872162 0.003662 0.000000
0.908051 0.003479 0.000000
0.944244 0.003296 0.000000
0.000000 0.019409 0.000000
0.007660 0.019470 0.000000
0.019501 0.019501 0.000000
0.036163 0.019470 0.000000
0.056335 0.019440 0.000000
0.080536 0.019379 0.000000
0.108734 0.019287 0.000000
0.139862 0.019165 0.000000
0.173584 0.019012 0.000000
0.208618 0.018890 0.000000
0.244690 0.018738 0.000000
0.280579 0.018585 0.000000
0.315887 0.018463 0.000000
0.350128 0.018311 0.000000
0.383331 0.018188 0.000000
0.415192 0.018066 0.000000
0.445984 0.017975 0.000000
0.475769 0.017853 0.000000
0.504730 0.017761 0.000000
0.533234 0.017670 0.000000
0.561646 0.017578 0.000000
0.590149 0.017487 0.000000
0.619080 0.017395 0.000000
0.648438 0.017273 0.000000
0.678284 0.017181 0.000000
0.708649 0.017090 0.000000
0.739655 0.016968 0.000000
0.771271 0.016846 0.000000
0.803741 0.016724 0.000000
0.837372 0.016602 0.000000
0.872314 0.016479 0.000000
0.908203 0.016327 0.000000
0.944397 0.016174 0.000000
0.000000 0.036041 0.000000
0.007599 0.036102 0.000000
0.019470 0.036163 0.000000
0.036163 0.036163 0.000000
0.056366 0.036163 0.000000
0.080597 0.036133 0.000000
0.108826 0.036041 0.000000
0.139984 0.035980 0.000000
0.173737 0.035858 0.000000
0.208771 0.035767 0.000000
0.244812 0.035645 0.000000
0.280701 0.035522 0.000000
0.316040 0.035400 0.000000
0.350250 0.035309 0.000000
0.383423 0.035187 0.000000
0.415314 0.035095 0.000000
0.446075 0.035034 0.000000
0.475861 0.034943 0.000000
0.504822 0.034882 0.000000
0.533295 0.034821 0.000000
0.561737 0.034760 0.000000
0.590240 0.034668 0.000000
0.619171 0.034607 0.000000
0.648529 0.034546 0.000000
0.678375 0.034454 0.000000
0.708740 0.034393 0.000000
0.739746 0.034302 0.000000
0.771393 0.034210 0.000000
0.803864 0.034119 0.000000
0.837494 0.034027 0.000000
0.872467 0.033936 0.000000
0.908325 0.033813 0.000000
0.944550 0.033691 0.000000
0.000000 0.056152 0.000000
0.007507 0.056274 0.000000
0.019440 0.056335 0.000000
0.036163 0.056366 0.000000
0.056396 0.056396 0.000000
0.080658 0.056366 0.000000
0.108917 0.056335 0.000000
0.140076 0.056274 0.000000
0.173828 0.056183 0.000000
0.208862 0.056122 0.000000
0.244934 0.056000 0.000000
0.280823 0.055908 0.000000
0.316132 0.055847 0.000000
0.350342 0.055756 0.000000
0.383514 0.055695 0.000000
0.415375 0.055603 0.000000
0.446136 0.055573 0.000000
0.475922 0.055511 0.000000
0.504883 0.055481 0.000000
0.533356 0.055420 0.000000
0.561798 0.055389 0.000000
0.590302 0.055359 0.000000
0.619232 0.055298 0.000000
0.648590 0.055267 0.000000
0.678436 0.055206 0.000000
0.708801 0.055176 0.000000
0.739838 0.055115 0.000000
0.771454 0.055054 0.000000
0.803955 0.054993 0.000000
0.837585 0.054901 0.000000
0.872559 0.054840 0.000000
0.908447 0.054749 0.000000
0.944641 0.054657 0.000000
0.000000 0.080322 0.000000
0.007416 0.080444 0.000000
0.019379 0.080536 0.000000
0.036133 0.080597 0.000000
0.056366 0.080658 0.000000
0.080658 0.080658 0.000000
0.108948 0.080658 0.000000
0.140137 0.080627 0.000000
0.173889 0.080566 0.000000
0.208954 0.080536 0.000000
0.244995 0.080444 0.000000
0.280884 0.080383 0.000000
0.316193 0.080322 0.000000
0.350403 0.080292 0.000000
0.383575 0.080231 0.000000
0.415436 0.080200 0.000000
0.446198 0.080170 0.000000
0.475952 0.080170 0.000000
0.504913 0.080139 0.000000
0.533386 0.080139 0.000000
0.561829 0.080139 0.000000
0.590302 0.080109 0.000000
0.619263 0.080109 0.000000
0.648621 0.080078 0.000000
0.678467 0.080078 0.000000
0.708862 0.080048 0.000000
0.739868 0.080017 0.000000
0.771515 0.079987 0.000000
0.804016 0.079956 0.000000
0.837677 0.079895 0.000000
0.872620 0.079865 0.000000
0.908508 0.079803 0.000000
0.944733 0.079742 0.000000
0.000000 0.108459 0.000000
0.007294 0.108612 0.000000
0.019287 0.108734 0.000000
0.036041 0.108826 0.000000
0.056335 0.108917 0.000000
0.080658 0.108948 0.000000
0.108948 0.108948 0.000000
0.140167 0.108948 0.000000
0.173950 0.108917 0.000000
0.209015 0.108887 0.000000
0.245056 0.108856 0.000000
0.280945 0.108826 0.000000
0.316254 0.108795 0.000000
0.350433 0.108765 0.000000
0.383606 0.108734 0.000000
0.415436 0.108734 0.000000
0.446198 0.108734 0.000000
0.475952 0.108734 0.000000
0.504913 0.108734 0.000000
0.533386 0.108765 0.000000
0.561829 0.108765 0.000000
0.590302 0.108795 0.000000
0.619263 0.108795 0.000000
0.648651 0.108795 0.000000
0.678467 0.108795 0.000000
0.708862 0.108795 0.000000
0.739899 0.108795 0.000000
0.771545 0.108795 0.000000
0.804047 0.108795 0.000000
0.837708 0.108765 0.000000
0.872681 0.108734 0.000000
0.908569 0.108704 0.000000
0.944794 0.108643 0.000000
0.000000 0.139557 0.000000
0.007141 0.139740 0.000000
0.019165 0.139862 0.000000
0.035980 0.139984 0.000000
0.056274 0.140076 0.000000
0.080627 0.140137 0.000000
0.108948 0.140167 0.000000
0.140167 0.140167 0.000000
0.173981 0.140167 0.000000
0.209045 0.140167 0.000000
0.245087 0.140137 0.000000
0.280975 0.140106 0.000000
0.316284 0.140106 0.000000
0.350464 0.140106 0.000000
0.383606 0.140106 0.000000
0.415436 0.140106 0.000000
0.446198 0.140106 0.000000
0.475952 0.140137 0.000000
0.504883 0.140167 0.000000
0.533356 0.140198 0.000000
0.561798 0.140228 0.000000
0.590302 0.140259 0.000000
0.619263 0.140289 0.000000
0.648621 0.140320 0.000000
0.678467 0.140350 0.000000
0.708862 0.140381 0.000000
0.739899 0.140381 0.000000
0.771545 0.140411 0.000000
0.804047 0.140411 0.000000
0.837738 0.140411 0.000000
0.872711 0.140381 0.000000
0.908600 0.140381 0.000000
0.944824 0.140350 0.000000
0.000000 0.173248 0.000000
0.006958 0.173431 0.000000
0.019012 0.173584 0.000000
0.035858 0.173737 0.000000
0.056183 0.173828 0.000000
0.080566 0.173889 0.000000
0.108917 0.173950 0.000000
0.140167 0.173981 0.000000
0.173981 0.173981 0.000000
0.209045 0.173981 0.000000
0.245117 0.173981 0.000000
0.281006 0.173950 0.000000
0.316284 0.173950 0.000000
0.350464 0.173981 0.000000
0.383606 0.173981 0.000000
0.415436 0.174011 0.000000
0.446167 0.174042 0.000000
0.475922 0.174072 0.000000
0.504852 0.174103 0.000000
0.533325 0.174164 0.000000
0.561768 0.174194 0.000000
0.590271 0.174255 0.000000
0.619232 0.174286 0.000000
0.648590 0.174347 0.000000
0.678436 0.174377 0.000000
0.708832 0.174408 0.000000
0.739868 0.174438 0.000000
0.771515 0.174469 0.000000
0.804047 0.174469 0.000000
0.837738 0.174500 0.000000
0.872711 0.174500 0.000000
0.908600 0.174469 0.000000
0.944824 0.174469 0.000000
0.000000 0.208282 0.000000
0.006805 0.208466 0.000000
0.018890 0.208618 0.000000
0.035767 0.208771 0.000000
0.056122 0.208862 0.000000
0.080536 0.208954 0.000000
0.108887 0.209015 0.000000
0.140167 0.209045 0.000000
0.173981 0.209045 0.000000
0.209045 0.209045 0.000000
0.245117 0.209045 0.000000
0.281006 0.209045 0.000000
0.316284 0.209076 0.000000
0.350433 0.209076 0.000000
0.383575 0.209106 0.000000
0.415405 0.209137 0.000000
0.446136 0.209167 0.000000
0.475861 0.209198 0.000000
0.504822 0.209259 0.000000
0.533295 0.209320 0.000000
0.561707 0.209351 0.000000
0.590210 0.209412 0.000000
0.619202 0.209473 0.000000
0.648560 0.209503 0.000000
0.678406 0.209564 0.000000
0.708801 0.209595 0.000000
0.739838 0.209625 0.000000
0.771515 0.209656 0.000000
0.804016 0.209686 0.000000
0.837708 0.209717 0.000000
0.872711 0.209717 0.000000
0.908630 0.209717 0.000000
0.944824 0.209717 0.000000
0.000000 0.244324 0.000000
0.006622 0.244507 0.000000
0.018738 0.244690 0.000000
0.035645 0.244812 0.000000
0.056000 0.244934 0.000000
0.080444 0.244995 0.000000
0.108856 0.245056 0.000000
0.140137 0.245087 0.000000
0.173981 0.245117 0.000000
0.209045 0.245117 0.000000
0.245117 0.245117 0.000000
0.281006 0.245117 0.000000
0.316284 0.245117 0.000000
0.350433 0.245148 0.000000
0.383575 0.245148 0.000000
0.415375 0.245178 0.000000
0.446106 0.245239 0.000000
0.475830 0.245270 0.000000
0.504761 0.245331 0.000000
0.533234 0.245392 0.000000
0.561676 0.245422 0.000000
0.590179 0.245483 0.000000
0.619141 0.245544 0.000000
0.648529 0.245575 0.000000
0.678375 0.245636 0.000000
0.708771 0.245667 0.000000
0.739807 0.245697 0.000000
0.771484 0.245728 0.000000
0.804016 0.245758 0.000000
0.837708 0.245758 0.000000
0.872711 0.245789 0.000000
0.908630 0.245789 0.000000
0.944855 0.245789 0.000000
0.000000 0.280212 0.000000
0.006439 0.280426 0.000000
0.018585 0.280579 0.000000
0.035522 0.280701 0.000000
0.055908 0.280823 0.000000
0.080383 0.280884 0.000000
0.108826 0.280945 0.000000
0.140106 0.280975 0.000000
0.173950 0.281006 0.000000
0.209045 0.281006 0.000000
0.245117 0.281006 0.000000
0.281006 0.281006 0.000000
0.316254 0.281006 0.000000
0.350403 0.281036 0.000000
0.383545 0.281036 0.000000
0.415344 0.281067 0.000000
0.446045 0.281097 0.000000
0.475800 0.281158 0.000000
0.504700 0.281189 0.000000
0.533173 0.281250 0.000000
0.561615 0.281311 0.000000
0.590118 0.281372 0.000000
0.619110 0.281403 0.000000
0.648468 0.281464 0.000000
0.678345 0.281494 0.000000
0.708740 0.281525 0.000000
0.739777 0.281555 0.000000
0.771454 0.281586 0.000000
0.803986 0.281616 0.000000
0.837708 0.281647 0.000000
0.872711 0.281647 0.000000
0.908630 0.281647 0.000000
0.944855 0.281647 0.000000
0.000000 0.315552 0.000000
0.006256 0.315735 0.000000
0.018463 0.315887 0.000000
0.035400 0.316040 0.000000
0.055847 0.316132 0.000000
0.080322 0.316193 0.000000
0.108795 0.316254 0.000000
0.140106 0.316284 0.000000
0.173950 0.316284 0.000000
0.209076 0.316284 0.000000
0.245117 0.316284 0.000000
0.281006 0.316254 0.000000
0.316254 0.316254 0.000000
0.350403 0.316254 0.000000
0.383514 0.316284 0.000000
0.415314 0.316315 0.000000
0.446014 0.316345 0.000000
0.475739 0.316376 0.000000
0.504669 0.316406 0.000000
0.533142 0.316467 0.000000
0.561554 0.316498 0.000000
0.590088 0.316559 0.000000
0.619049 0.316589 0.000000
0.648438 0.316620 0.000000
0.678284 0.316650 0.000000
0.708710 0.316681 0.000000
0.739746 0.316711 0.000000
0.771423 0.316742 0.000000
0.803986 0.316742 0.000000
0.837708 0.316772 0.000000
0.872711 0.316772 0.000000
0.908630 0.316742 0.000000
0.944855 0.316742 0.000000
0.000000 0.349792 0.000000
0.006073 0.349976 0.000000
0.018311 0.350128 0.000000
0.035309 0.350250 0.000000
0.055756 0.350342 0.000000
0.080292 0.350403 0.000000
0.108765 0.350433 0.000000
0.140106 0.350464 0.000000
0.173981 0.350464 0.000000
0.209076 0.350433 0.000000
0.245148 0.350433 0.000000
0.281036 0.350403 0.000000
0.316254 0.350403 0.000000
0.350403 0.350403 0.000000
0.383514 0.350403 0.000000
0.415283 0.350433 0.000000
0.445984 0.350433 0.000000
0.475708 0.350464 0.000000
0.504639 0.350494 0.000000
0.533112 0.350525 0.000000
0.561523 0.350586 0.000000
0.590027 0.350616 0.000000
0.619019 0.350647 0.000000
0.648407 0.350677 0.000000
0.678284 0.350708 0.000000
0.708679 0.350739 0.000000
0.739746 0.350739 0.000000
0.771423 0.350769 0.000000
0.803986 0.350769 0.000000
0.837708 0.350769 0.000000
0.872742 0.350769 0.000000
0.908661 0.350739 0.000000
0.944885 0.350739 0.000000
0.000000 0.382996 0.000000
0.005920 0.383179 0.000000
0.018188 0.383331 0.000000
0.035187 0.383423 0.000000
0.055695 0.383514 0.000000
0.080231 0.383575 0.000000
0.108734 0.383606 0.000000
0.140106 0.383606 0.000000
0.173981 0.383606 0.000000
0.209106 0.383575 0.000000
0.245148 0.383575 0.000000
0.281036 0.383545 0.000000
0.316284 0.383514 0.000000
0.350403 0.383514 0.000000
0.383514 0.383514 0.000000
0.415283 0.383514 0.000000
0.445984 0.383514 0.000000
0.475677 0.383545 0.000000
0.504608 0.383575 0.000000
0.533081 0.383606 0.000000
0.561493 0.383636 0.000000
0.589996 0.383667 0.000000
0.618988 0.383667 0.000000
0.648376 0.383698 0.000000
0.678253 0.383728 0.000000
0.708679 0.383728 0.000000
0.739746 0.383759 0.000000
0.771423 0.383759 0.000000
0.803986 0.383759 0.000000
0.837708 0.383728 0.000000
0.872742 0.383728 0.000000
0.908661 0.383698 0.000000
0.944885 0.383667 0.000000
0.000000 0.414917 0.000000
0.005768 0.415070 0.000000
0.018066 0.415192 0.000000
0.035095 0.415314 0.000000
0.055603 0.415375 0.000000
0.080200 0.415436 0.000000
0.108734 0.415436 0.000000
0.140106 0.415436 0.000000
0.174011 0.415436 0.000000
0.209137 0.415405 0.000000
0.245178 0.415375 0.000000
0.281067 0.415344 0.000000
0.316315 0.415314 0.000000
0.350433 0.415283 0.000000
0.383514 0.415283 0.000000
0.415283 0.415283 0.000000
0.445953 0.415283 0.000000
0.475677 0.415283 0.000000
0.504578 0.415314 0.000000
0.533051 0.415344 0.000000
0.561462 0.415344 0.000000
0.589996 0.415375 0.000000
0.618988 0.415375 0.000000
0.648376 0.415405 0.000000
0.678253 0.415405 0.000000
0.708679 0.415405 0.000000
0.739746 0.415405 0.000000
0.771423 0.415405 0.000000
0.803986 0.415405 0.000000
0.837738 0.415375 0.000000
0.872772 0.415375 0.000000
0.908691 0.415314 0.000000
0.944916 0.415283 0.000000
0.000000 0.445709 0.000000
0.005615 0.445862 0.000000
0.017975 0.445984 0.000000
0.035034 0.446075 0.000000
0.055573 0.446136 0.000000
0.080170 0.446198 0.000000
0.108734 0.446198 0.000000
0.140106 0.446198 0.000000
0.174042 0.446167 0.000000
0.209167 0.446136 0.000000
0.245239 0.446106 0.000000
0.281097 0.446045 0.000000
0.316345 0.446014 0.000000
0.350433 0.445984 0.000000
0.383514 0.445984 0.000000
0.415283 0.445953 0.000000
0.445953 0.445953 0.000000
0.475677 0.445953 0.000000
0.504578 0.445984 0.000000
0.533020 0.445984 0.000000
0.561462 0.445984 0.000000
0.589966 0.446014 0.000000
0.618988 0.446014 0.000000
0.648376 0.446014 0.000000
0.678253 0.446014 0.000000
0.708679 0.446014 0.000000
0.739746 0.446014 0.000000
0.771423 0.446014 0.000000
0.804016 0.445984 0.000000
0.837769 0.445953 0.000000
0.872803 0.445923 0.000000
0.908752 0.445892 0.000000
0.944977 0.445862 0.000000
0.000000 0.475494 0.000000
0.005493 0.475647 0.000000
0.017853 0.475769 0.000000
0.034943 0.475861 0.000000
0.055511 0.475922 0.000000
0.080170 0.475952 0.000000
0.108734 0.475952 0.000000
0.140137 0.475952 0.000000
0.174072 0.475922 0.000000
0.209198 0.475861 0.000000
0.245270 0.475830 0.000000
0.281158 0.475800 0.000000
0.316376 0.475739 0.000000
0.350464 0.475708 0.000000
0.383545 0.475677 0.000000
0.415283 0.475677 0.000000
0.445953 0.475677 0.000000
0.475647 0.475647 0.000000
0.504547 0.475677 0.000000
0.533020 0.475677 0.000000
0.561462 0.475677 0.000000
0.589966 0.475677 0.000000
0.618988 0.475677 0.000000
0.648376 0.475677 0.000000
0.678253 0.475677 0.000000
0.708679 0.475677 0.000000
0.739746 0.475647 0.000000
0.771454 0.475647 0.000000
0.804047 0.475616 0.000000
0.837799 0.475586 0.000000
0.872864 0.475555 0.000000
0.908783 0.475494 0.000000
0.945007 0.475464 0.000000
0.000000 0.504486 0.000000
0.005341 0.504639 0.000000
0.017761 0.504730 0.000000
0.034882 0.504822 0.000000
0.055481 0.504883 0.000000
0.080139 0.504913 0.000000
0.108734 0.504913 0.000000
0.140167 0.504883 0.000000
0.174103 0.504852 0.000000
0.209259 0.504822 0.000000
0.245331 0.504761 0.000000
0.281189 0.504700 0.000000
0.316406 0.504669 0.000000
0.350494 0.504639 0.000000
0.383575 0.504608 0.000000
0.415314 0.504578 0.000000
0.445984 0.504578 0.000000
0.475677 0.504547 0.000000
0.504547 0.504547 0.000000
0.533020 0.504547 0.000000
0.561462 0.504578 0.000000
0.589966 0.504578 0.000000
0.618988 0.504578 0.000000
0.648376 0.504547 0.000000
0.678253 0.504547 0.000000
0.708710 0.504547 0.000000
0.739777 0.504517 0.000000
0.771484 0.504486 0.000000
0.804077 0.504486 0.000000
0.837830 0.504425 0.000000
0.872894 0.504395 0.000000
0.908844 0.504333 0.000000
0.945068 0.504303 0.000000
0.000000 0.532959 0.000000
0.005219 0.533112 0.000000
0.017670 0.533234 0.000000
0.034821 0.533295 0.000000
0.055420 0.533356 0.000000
0.080139 0.533386 0.000000
0.108765 0.533386 0.000000
0.140198 0.533356 0.000000
0.174164 0.533325 0.000000
0.209320 0.533295 0.000000
0.245392 0.533234 0.000000
0.281250 0.533173 0.000000
0.316467 0.533142 0.000000
0.350525 0.533112 0.000000
0.383606 0.533081 0.000000
0.415344 0.533051 0.000000
0.445984 0.533020 0.000000
0.475677 0.533020 0.000000
0.504547 0.533020 0.000000
0.533020 0.533020 0.000000
0.561462 0.533020 0.000000
0.589966 0.533020 0.000000
0.618988 0.533020 0.000000
0.648376 0.533020 0.000000
0.678253 0.533020 0.000000
0.708710 0.532990 0.000000
0.739777 0.532990 0.000000
0.771484 0.532959 0.000000
0.804108 0.532928 0.000000
0.837891 0.532898 0.000000
0.872955 0.532837 0.000000
0.908905 0.532806 0.000000
0.945129 0.532745 0.000000
0.000000 0.561401 0.000000
0.005096 0.561554 0.000000
0.017578 0.561646 0.000000
0.034760 0.561737 0.000000
0.055389 0.561798 0.000000
0.080139 0.561829 0.000000
0.108765 0.561829 0.000000
0.140228 0.561798 0.000000
0.174194 0.561768 0.000000
0.209351 0.561707 0.000000
0.245422 0.561676 0.000000
0.281311 0.561615 0.000000
0.316498 0.561554 0.000000
0.350586 0.561523 0.000000
0.383636 0.561493 0.000000
0.415344 0.561462 0.000000
0.445984 0.561462 0.000000
0.475677 0.561462 0.000000
0.504578 0.561462 0.000000
0.533020 0.561462 0.000000
0.561462 0.561462 0.000000
0.589966 0.561462 0.000000
0.618988 0.561462 0.000000
0.648376 0.561432 0.000000
0.678284 0.561432 0.000000
0.708740 0.561432 0.000000
0.739807 0.561401 0.000000
0.771515 0.561371 0.000000
0.804138 0.561371 0.000000
0.837921 0.561310 0.000000
0.873016 0.561279 0.000000
0.908936 0.561218 0.000000
0.945190 0.561157 0.000000
0.000000 0.589905 0.000000
0.004974 0.590027 0.000000
0.017487 0.590149 0.000000
0.034668 0.590240 0.000000
0.055359 0.590302 0.000000
0.080109 0.590302 0.000000
0.108795 0.590302 0.000000
0.140259 0.590302 0.000000
0.174255 0.590271 0.000000
0.209412 0.590210 0.000000
0.245483 0.590179 0.000000
0.281372 0.590118 0.000000
0.316559 0.590088 0.000000
0.350616 0.590027 0.000000
0.383667 0.589996 0.000000
0.415375 0.589996 0.000000
0.446014 0.589966 0.000000
0.475677 0.589966 0.000000
0.504578 0.589966 0.000000
0.533020 0.589966 0.000000
0.561462 0.589966 0.000000
0.589966 0.589966 0.000000
0.618988 0.589966 0.000000
0.648407 0.589966 0.000000
0.678284 0.589966 0.000000
0.708740 0.589966 0.000000
0.739838 0.589935 0.000000
0.771545 0.589905 0.000000
0.804169 0.589905 0.000000
0.837952 0.589844 0.000000
0.873047 0.589813 0.000000
0.908997 0.589752 0.000000
0.945221 0.589722 0.000000
0.000000 0.618835 0.000000
0.004852 0.618988 0.000000
0.017395 0.619080 0.000000
0.034607 0.619171 0.000000
0.055298 0.619232 0.000000
0.080109 0.619263 0.000000
0.108795 0.619263 0.000000
0.140289 0.619263 0.000000
0.174286 0.619232 0.000000
0.209473 0.619202 0.000000
0.245544 0.619141 0.000000
0.281403 0.619110 0.000000
0.316589 0.619049 0.000000
0.350647 0.619019 0.000000
0.383667 0.618988 0.000000
0.415375 0.618988 0.000000
0.446014 0.618988 0.000000
0.475677 0.618988 0.000000
0.504578 0.618988 0.000000
0.533020 0.618988 0.000000
0.561462 0.618988 0.000000
0.589966 0.618988 0.000000
0.618988 0.618988 0.000000
0.648407 0.618988 0.000000
0.678314 0.618988 0.000000
0.708771 0.618988 0.000000
0.739838 0.618988 0.000000
0.771576 0.618958 0.000000
0.804199 0.618927 0.000000
0.838013 0.618896 0.000000
0.873108 0.618866 0.000000
0.909058 0.618835 0.000000
0.945282 0.618774 0.000000
0.000000 0.648193 0.000000
0.004700 0.648346 0.000000
0.017273 0.648438 0.000000
0.034546 0.648529 0.000000
0.055267 0.648590 0.000000
0.080078 0.648621 0.000000
0.108795 0.648651 0.000000
0.140320 0.648621 0.000000
0.174347 0.648590 0.000000
0.209503 0.648560 0.000000
0.245575 0.648529 0.000000
0.281464 0.648468 0.000000
0.316620 0.648438 0.000000
0.350677 0.648407 0.000000
0.383698 0.648376 0.000000
0.415405 0.648376 0.000000
0.446014 0.648376 0.000000
0.475677 0.648376 0.000000
0.504547 0.648376 0.000000
0.533020 0.648376 0.000000
0.561432 0.648376 0.000000
0.589966 0.648407 0.000000
0.618988 0.648407 0.000000
0.648407 0.648407 0.000000
0.678314 0.648407 0.000000
0.708771 0.648407 0.000000
0.739868 0.648376 0.000000
0.771606 0.648376 0.000000
0.804230 0.648346 0.000000
0.838043 0.648315 0.000000
0.873138 0.648285 0.000000
0.909088 0.648254 0.000000
0.945343 0.648193 0.000000
0.000000 0.678009 0.000000
0.004578 0.678162 0.000000
0.017181 0.678284 0.000000
0.034454 0.678375 0.000000
0.055206 0.678436 0.000000
0.080078 0.678467 0.000000
0.108795 0.678467 0.000000
0.140350 0.678467 0.000000
0.174377 0.678436 0.000000
0.209564 0.678406 0.000000
0.245636 0.678375 0.000000
0.281494 0.678345 0.000000
0.316650 0.678284 0.000000
0.350708 0.678284 0.000000
0.383728 0.678253 0.000000
0.415405 0.678253 0.000000
0.446014 0.678253 0.000000
0.475677 0.678253 0.000000
0.504547 0.678253 0.000000
0.533020 0.678253 0.000000
0.561432 0.678284 0.000000
0.589966 0.678284 0.000000
0.618988 0.678314 0.000000
0.648407 0.678314 0.000000
0.678314 0.678314 0.000000
0.708771 0.678314 0.000000
0.739868 0.678314 0.000000
0.771606 0.678284 0.000000
0.804260 0.678284 0.000000
0.838074 0.678253 0.000000
0.873199 0.678223 0.000000
0.909149 0.678192 0.000000
0.945374 0.678131 0.000000
0.000000 0.708374 0.000000
0.004425 0.708527 0.000000
0.017090 0.708649 0.000000
0.034393 0.708740 0.000000
0.055176 0.708801 0.000000
0.080048 0.708862 0.000000
0.108795 0.708862 0.000000
0.140381 0.708862 0.000000
0.174408 0.708832 0.000000
0.209595 0.708801 0.000000
0.245667 0.708771 0.000000
0.281525 0.708740 0.000000
0.316681 0.708710 0.000000
0.350739 0.708679 0.000000
0.383728 0.708679 0.000000
0.415405 0.708679 0.000000
0.446014 0.708679 0.000000
0.475677 0.708679 0.000000
0.504547 0.708710 0.000000
0.532990 0.708710 0.000000
0.561432 0.708740 0.000000
0.589966 0.708740 0.000000
0.618988 0.708771 0.000000
0.648407 0.708771 0.000000
0.678314 0.708771 0.000000
0.708771 0.708771 0.000000
0.739868 0.708771 0.000000
0.771606 0.708771 0.000000
0.804260 0.708771 0.000000
0.838104 0.708740 0.000000
0.873230 0.708710 0.000000
0.909180 0.708679 0.000000
0.945435 0.708649 0.000000
0.000000 0.739380 0.000000
0.004303 0.739532 0.000000
0.016968 0.739655 0.000000
0.034302 0.739746 0.000000
0.055115 0.739838 0.000000
0.080017 0.739868 0.000000
0.108795 0.739899 0.000000
0.140381 0.739899 0.000000
0.174438 0.739868 0.000000
0.209625 0.739838 0.000000
0.245697 0.739807 0.000000
0.281555 0.739777 0.000000
0.316711 0.739746 0.000000
0.350739 0.739746 0.000000
0.383759 0.739746 0.000000
0.415405 0.739746 0.000000
0.446014 0.739746 0.000000
0.475647 0.739746 0.000000
0.504517 0.739777 0.000000
0.532990 0.739777 0.000000
0.561401 0.739807 0.000000
