Kodak Vision3 500T (5219) - Only contrast 2.cube
# Created by Benjamin (IWLTBAP) : http://luts.iwltbap.com
# Copyright: (C) Copyright 2010-2017 Triune Films and IWLTBAP SAS
# Cannot be resold, shared or otherwise redistributed
TITLE "Film Print Emulation LUTs Pack (Rec.709, sRGB, DCI-P3)"
LUT_3D_SIZE 9
0.000244 0.000244 0.000244
0.086304 0.000122 0.000122
0.170135 0.000000 0.000000
0.268616 0.000000 0.000000
0.375122 0.000000 0.000000
0.497131 0.000000 0.000000
0.623138 0.000000 0.000000
0.753418 0.000000 0.000000
0.961090 0.000000 0.000000
0.000122 0.086304 0.000122
0.086304 0.086304 0.000000
0.170197 0.086304 0.000000
0.268707 0.086182 0.000000
0.375305 0.085999 0.000000
0.497406 0.085724 0.000000
0.623444 0.085419 0.000000
0.753815 0.085052 0.000000
0.962646 0.084198 0.000000
0.000000 0.170135 0.000000
0.086304 0.170197 0.000000
0.170258 0.170258 0.000000
0.268829 0.170227 0.000000
0.375549 0.170166 0.000000
0.497681 0.169952 0.000000
0.623749 0.169739 0.000000
0.754242 0.169495 0.000000
0.964203 0.168701 0.000000
0.000000 0.268616 0.000000
0.086182 0.268707 0.000000
0.170227 0.268829 0.000000
0.268860 0.268860 0.000000
0.375671 0.268829 0.000000
0.497864 0.268677 0.000000
0.623932 0.268524 0.000000
0.754547 0.268341 0.000000
0.965668 0.267578 0.000000
0.000000 0.375122 0.000000
0.085999 0.375305 0.000000
0.170166 0.375549 0.000000
0.268829 0.375671 0.000000
0.375732 0.375732 0.000000
0.497986 0.375702 0.000000
0.624084 0.375610 0.000000
0.754822 0.375519 0.000000
0.967072 0.374878 0.000000
0.000000 0.497131 0.000000
0.085724 0.497406 0.000000
0.169952 0.497681 0.000000
0.268677 0.497864 0.000000
0.375702 0.497986 0.000000
0.498016 0.498016 0.000000
0.624115 0.498016 0.000000
0.754974 0.497986 0.000000
0.968384 0.497375 0.000000
0.000000 0.623138 0.000000
0.085419 0.623444 0.000000
0.169739 0.623749 0.000000
0.268524 0.623932 0.000000
0.375610 0.624084 0.000000
0.498016 0.624115 0.000000
0.624146 0.624146 0.000000
0.755127 0.624115 0.000000
0.969666 0.623535 0.000000
0.000000 0.753418 0.000000
0.085052 0.753815 0.000000
0.169495 0.754242 0.000000
0.268341 0.754547 0.000000
0.375519 0.754822 0.000000
0.497986 0.754974 0.000000
0.624115 0.755127 0.000000
0.755219 0.755219 0.000000
0.970917 0.754761 0.000000
0.000000 0.961090 0.000000
0.084198 0.962646 0.000000
0.168701 0.964203 0.000000
0.267578 0.965668 0.000000
0.374878 0.967072 0.000000
0.497375 0.968384 0.000000
0.623535 0.969666 0.000000
0.754761 0.970917 0.000000
0.971863 0.971466 0.007080
0.000122 0.000122 0.086304
0.086304 0.000000 0.086304
0.170197 0.000000 0.086304
0.268707 0.000000 0.086182
0.375305 0.000000 0.085999
0.497406 0.000000 0.085724
0.623444 0.000000 0.085419
0.753815 0.000000 0.085052
0.962646 0.000000 0.084198
0.000000 0.086304 0.086304
0.086273 0.086273 0.086273
0.170258 0.086243 0.086243
0.268829 0.086151 0.086151
0.375519 0.085968 0.085968
0.497681 0.085663 0.085663
0.623718 0.085358 0.085358
0.754211 0.085022 0.085022
0.964203 0.084137 0.084137
0.000000 0.170197 0.086304
0.086243 0.170258 0.086243
0.170319 0.170319 0.086243
0.268951 0.170288 0.086121
0.375732 0.170197 0.085938
0.497955 0.170013 0.085663
0.624023 0.169800 0.085327
0.754639 0.169556 0.084991
0.965759 0.168762 0.084076
0.000000 0.268707 0.086182
0.086151 0.268829 0.086151
0.170288 0.268951 0.086121
0.268951 0.268951 0.085999
0.375854 0.268921 0.085815
0.498138 0.268799 0.085541
0.624237 0.268616 0.085205
0.754974 0.268433 0.084869
0.967224 0.267670 0.083954
0.000000 0.375305 0.085999
0.085968 0.375519 0.085968
0.170197 0.375732 0.085938
0.268921 0.375854 0.085815
0.375916 0.375916 0.085632
0.498260 0.375885 0.085327
0.624359 0.375824 0.085022
0.755219 0.375732 0.084686
0.968628 0.375061 0.083740
0.000000 0.497406 0.085724
0.085663 0.497681 0.085663
0.170013 0.497955 0.085663
0.268799 0.498138 0.085541
0.375885 0.498260 0.085327
0.498291 0.498291 0.085052
0.624420 0.498260 0.084747
0.755371 0.498230 0.084381
0.969940 0.497620 0.083466
0.000000 0.623444 0.085419
0.085358 0.623718 0.085358
0.169800 0.624023 0.085327
0.268616 0.624237 0.085205
0.375824 0.624359 0.085022
0.498260 0.624420 0.084747
0.624420 0.624420 0.084412
0.755524 0.624420 0.084076
0.971222 0.623810 0.083130
0.000000 0.753815 0.085052
0.085022 0.754211 0.085022
0.169556 0.754639 0.084991
0.268433 0.754974 0.084869
0.375732 0.755219 0.084686
0.498230 0.755371 0.084381
0.624420 0.755524 0.084076
0.755615 0.755615 0.083710
0.972443 0.755127 0.082764
0.000000 0.962646 0.084198
0.084137 0.964203 0.084137
0.168762 0.965759 0.084076
0.267670 0.967224 0.083954
0.375061 0.968628 0.083740
0.497620 0.969940 0.083466
0.623810 0.971222 0.083130
0.755127 0.972443 0.082764
0.973114 0.973114 0.081787
0.000000 0.000000 0.170135
0.086304 0.000000 0.170197
0.170258 0.000000 0.170258
0.268829 0.000000 0.170227
0.375549 0.000000 0.170166
0.497681 0.000000 0.169952
0.623749 0.000000 0.169739
0.754242 0.000000 0.169495
0.964203 0.000000 0.168701
0.000000 0.086304 0.170197
0.086243 0.086243 0.170258
0.170319 0.086243 0.170319
0.268951 0.086121 0.170288
0.375732 0.085938 0.170197
0.497955 0.085663 0.170013
0.624023 0.085327 0.169800
0.754639 0.084991 0.169556
0.965759 0.084076 0.168762
0.000000 0.170258 0.170258
0.086243 0.170319 0.170319
0.170380 0.170380 0.170380
0.269073 0.170349 0.170349
0.375977 0.170288 0.170288
0.498230 0.170074 0.170074
0.624329 0.169861 0.169861
0.755066 0.169617 0.169617
0.967316 0.168823 0.168823
0.000000 0.268829 0.170227
0.086121 0.268951 0.170288
0.170349 0.269073 0.170349
0.269073 0.269073 0.170319
0.376099 0.269043 0.170258
0.498413 0.268921 0.170044
0.624512 0.268738 0.169830
0.755371 0.268555 0.169586
0.968781 0.267761 0.168762
0.000000 0.375549 0.170166
0.085938 0.375732 0.170197
0.170288 0.375977 0.170288
0.269043 0.376099 0.170258
0.376160 0.376160 0.170166
0.498535 0.376099 0.169983
0.624664 0.376038 0.169739
0.755646 0.375946 0.169495
0.970184 0.375275 0.168671
0.000000 0.497681 0.169952
0.085663 0.497955 0.170013
0.170074 0.498230 0.170074
0.268921 0.498413 0.170044
0.376099 0.498535 0.169983
0.498566 0.498566 0.169769
0.624725 0.498566 0.169556
0.755798 0.498505 0.169312
0.971497 0.497894 0.168488
0.000000 0.623749 0.169739
0.085327 0.624023 0.169800
0.169861 0.624329 0.169861
0.268738 0.624512 0.169830
0.376038 0.624664 0.169739
0.498566 0.624725 0.169556
0.624725 0.624725 0.169342
0.755951 0.624695 0.169098
0.972778 0.624084 0.168243
0.000000 0.754242 0.169495
0.084991 0.754639 0.169556
0.169617 0.755066 0.169617
0.268555 0.755371 0.169586
0.375946 0.755646 0.169495
0.498505 0.755798 0.169312
0.624695 0.755951 0.169098
0.756042 0.756042 0.168823
0.974030 0.755554 0.167999
0.000000 0.964203 0.168701
0.084076 0.965759 0.168762
0.168823 0.967316 0.168823
0.267761 0.968781 0.168762
0.375275 0.970184 0.168671
0.497894 0.971497 0.168488
0.624084 0.972778 0.168243
0.755554 0.974030 0.167999
0.974640 0.974640 0.167114
0.000000 0.000000 0.268616
0.086182 0.000000 0.268707
0.170227 0.000000 0.268829
0.268860 0.000000 0.268860
0.375671 0.000000 0.268829
0.497864 0.000000 0.268677
0.623932 0.000000 0.268524
0.754547 0.000000 0.268341
0.965668 0.000000 0.267578
0.000000 0.086182 0.268707
0.086151 0.086151 0.268829
0.170288 0.086121 0.268951
0.268951 0.085999 0.268951
0.375854 0.085815 0.268921
0.498138 0.085541 0.268799
0.624237 0.085205 0.268616
0.754974 0.084869 0.268433
0.967224 0.083954 0.267670
0.000000 0.170227 0.268829
0.086121 0.170288 0.268951
0.170349 0.170349 0.269073
0.269073 0.170319 0.269073
0.376099 0.170258 0.269043
0.498413 0.170044 0.268921
0.624512 0.169830 0.268738
0.755371 0.169586 0.268555
0.968781 0.168762 0.267761
0.000000 0.268860 0.268860
0.085999 0.268951 0.268951
0.170319 0.269073 0.269073
0.269104 0.269104 0.269104
0.376221 0.269073 0.269073
0.498596 0.268921 0.268921
0.624725 0.268768 0.268768
0.755707 0.268555 0.268555
0.970245 0.267792 0.267792
0.000000 0.375671 0.268829
0.085815 0.375854 0.268921
0.170258 0.376099 0.269043
0.269073 0.376221 0.269073
0.376282 0.376282 0.269043
0.498718 0.376221 0.268890
0.624878 0.376160 0.268738
0.755981 0.376068 0.268524
0.971649 0.375397 0.267731
0.000000 0.497864 0.268677
0.085541 0.498138 0.268799
0.170044 0.498413 0.268921
0.268921 0.498596 0.268921
0.376221 0.498718 0.268890
0.498749 0.498749 0.268738
0.624908 0.498718 0.268585
0.756134 0.498688 0.268372
0.972961 0.498047 0.267578
0.000000 0.623932 0.268524
0.085205 0.624237 0.268616
0.169830 0.624512 0.268738
0.268768 0.624725 0.268768
0.376160 0.624878 0.268738
0.498718 0.624908 0.268585
0.624939 0.624939 0.268402
0.756256 0.624908 0.268219
0.974243 0.624298 0.267395
0.000000 0.754547 0.268341
0.084869 0.754974 0.268433
0.169586 0.755371 0.268555
0.268555 0.755707 0.268555
0.376068 0.755981 0.268524
0.498688 0.756134 0.268372
0.624908 0.756256 0.268219
0.756378 0.756378 0.268005
0.975494 0.755859 0.267212
0.000000 0.965668 0.267578
0.083954 0.967224 0.267670
0.168762 0.968781 0.267761
0.267792 0.970245 0.267792
0.375397 0.971649 0.267731
0.498047 0.972961 0.267578
0.624298 0.974243 0.267395
0.755859 0.975494 0.267212
0.976105 0.976105 0.266357
0.000000 0.000000 0.375122
0.085999 0.000000 0.375305
0.170166 0.000000 0.375549
0.268829 0.000000 0.375671
0.375732 0.000000 0.375732
0.497986 0.000000 0.375702
0.624084 0.000000 0.375610
0.754822 0.000000 0.375519
0.967072 0.000000 0.374878
0.000000 0.085999 0.375305
0.085968 0.085968 0.375519
0.170197 0.085938 0.375732
0.268921 0.085815 0.375854
0.375916 0.085632 0.375916
0.498260 0.085327 0.375885
0.624359 0.085022 0.375824
0.755219 0.084686 0.375732
0.968628 0.083740 0.375061
0.000000 0.170166 0.375549
0.085938 0.170197 0.375732
0.170288 0.170288 0.375977
0.269043 0.170258 0.376099
0.376160 0.170166 0.376160
0.498535 0.169983 0.376099
0.624664 0.169739 0.376038
0.755646 0.169495 0.375946
0.970184 0.168671 0.375275
0.000000 0.268829 0.375671
0.085815 0.268921 0.375854
0.170258 0.269043 0.376099
0.269073 0.269073 0.376221
0.376282 0.269043 0.376282
0.498718 0.268890 0.376221
0.624878 0.268738 0.376160
0.755981 0.268524 0.376068
0.971649 0.267731 0.375397
0.000000 0.375732 0.375732
0.085632 0.375916 0.375916
0.170166 0.376160 0.376160
0.269043 0.376282 0.376282
0.376343 0.376343 0.376343
0.498840 0.376312 0.376312
0.625000 0.376251 0.376251
0.756226 0.376129 0.376129
0.973053 0.375458 0.375458
0.000000 0.497986 0.375702
0.085327 0.498260 0.375885
0.169983 0.498535 0.376099
0.268890 0.498718 0.376221
0.376312 0.498840 0.376312
0.498871 0.498871 0.376251
0.625061 0.498840 0.376190
0.756409 0.498810 0.376099
0.974365 0.498169 0.375397
0.000000 0.624084 0.375610
0.085022 0.624359 0.375824
0.169739 0.624664 0.376038
0.268738 0.624878 0.376160
0.376251 0.625000 0.376251
0.498840 0.625061 0.376190
0.625061 0.625061 0.376129
0.756531 0.625061 0.376038
0.975647 0.624420 0.375336
0.000000 0.754822 0.375519
0.084686 0.755219 0.375732
0.169495 0.755646 0.375946
0.268524 0.755981 0.376068
0.376129 0.756226 0.376129
0.498810 0.756409 0.376099
0.625061 0.756531 0.376038
0.756622 0.756622 0.375946
0.976868 0.756134 0.375214
0.000000 0.967072 0.374878
0.083740 0.968628 0.375061
0.168671 0.970184 0.375275
0.267731 0.971649 0.375397
0.375458 0.973053 0.375458
0.498169 0.974365 0.375397
0.624420 0.975647 0.375336
0.756134 0.976868 0.375214
0.977509 0.977509 0.374512
0.000000 0.000000 0.497131
0.085724 0.000000 0.497406
0.169952 0.000000 0.497681
0.268677 0.000000 0.497864
0.375702 0.000000 0.497986
0.498016 0.000000 0.498016
0.624115 0.000000 0.498016
0.754974 0.000000 0.497986
0.968384 0.000000 0.497375
0.000000 0.085724 0.497406
0.085663 0.085663 0.497681
0.170013 0.085663 0.497955
0.268799 0.085541 0.498138
0.375885 0.085327 0.498260
0.498291 0.085052 0.498291
0.624420 0.084747 0.498260
0.755371 0.084381 0.498230
0.969940 0.083466 0.497620
0.000000 0.169952 0.497681
0.085663 0.170013 0.497955
0.170074 0.170074 0.498230
0.268921 0.170044 0.498413
0.376099 0.169983 0.498535
0.498566 0.169769 0.498566
0.624725 0.169556 0.498566
0.755798 0.169312 0.498505
0.971497 0.168488 0.497894
0.000000 0.268677 0.497864
0.085541 0.268799 0.498138
0.170044 0.268921 0.498413
0.268921 0.268921 0.498596
0.376221 0.268890 0.498718
0.498749 0.268738 0.498749
0.624908 0.268585 0.498718
0.756134 0.268372 0.498688
0.972961 0.267578 0.498047
0.000000 0.375702 0.497986
0.085327 0.375885 0.498260
0.169983 0.376099 0.498535
0.268890 0.376221 0.498718
0.376312 0.376312 0.498840
0.498871 0.376251 0.498871
0.625061 0.376190 0.498840
0.756409 0.376099 0.498810
0.974365 0.375397 0.498169
0.000000 0.498016 0.498016
0.085052 0.498291 0.498291
0.169769 0.498566 0.498566
0.268738 0.498749 0.498749
0.376251 0.498871 0.498871
0.498871 0.498871 0.498871
0.625092 0.498871 0.498871
0.756561 0.498810 0.498810
0.975677 0.498169 0.498169
0.000000 0.624115 0.498016
0.084747 0.624420 0.498260
0.169556 0.624725 0.498566
0.268585 0.624908 0.498718
0.376190 0.625061 0.498840
0.498871 0.625092 0.498871
0.625092 0.625092 0.498840
0.756683 0.625092 0.498810
0.976929 0.624451 0.498138
0.000000 0.754974 0.497986
0.084381 0.755371 0.498230
0.169312 0.755798 0.498505
0.268372 0.756134 0.498688
0.376099 0.756409 0.498810
0.498810 0.756561 0.498810
0.625092 0.756683 0.498810
0.756805 0.756805 0.498749
0.978180 0.756287 0.498077
0.000000 0.968384 0.497375
0.083466 0.969940 0.497620
0.168488 0.971497 0.497894
0.267578 0.972961 0.498047
0.375397 0.974365 0.498169
0.498169 0.975677 0.498169
0.624451 0.976929 0.498138
0.756287 0.978180 0.498077
0.978790 0.978790 0.497406
0.000000 0.000000 0.623138
0.085419 0.000000 0.623444
0.169739 0.000000 0.623749
0.268524 0.000000 0.623932
0.375610 0.000000 0.624084
0.498016 0.000000 0.624115
0.624146 0.000000 0.624146
0.755127 0.000000 0.624115
0.969666 0.000000 0.623535
0.000000 0.085419 0.623444
0.085358 0.085358 0.623718
0.169800 0.085327 0.624023
0.268616 0.085205 0.624237
0.375824 0.085022 0.624359
0.498260 0.084747 0.624420
0.624420 0.084412 0.624420
0.755524 0.084076 0.624420
0.971222 0.083130 0.623810
0.000000 0.169739 0.623749
0.085327 0.169800 0.624023
0.169861 0.169861 0.624329
0.268738 0.169830 0.624512
0.376038 0.169739 0.624664
0.498566 0.169556 0.624725
0.624725 0.169342 0.624725
0.755951 0.169098 0.624695
0.972778 0.168243 0.624084
0.000000 0.268524 0.623932
0.085205 0.268616 0.624237
0.169830 0.268738 0.624512
0.268768 0.268768 0.624725
0.376160 0.268738 0.624878
0.498718 0.268585 0.624908
0.624939 0.268402 0.624939
0.756256 0.268219 0.624908
0.974243 0.267395 0.624298
0.000000 0.375610 0.624084
0.085022 0.375824 0.624359
0.169739 0.376038 0.624664
0.268738 0.376160 0.624878
0.376251 0.376251 0.625000
0.498840 0.376190 0.625061
0.625061 0.376129 0.625061
0.756531 0.376038 0.625061
0.975647 0.375336 0.624420
0.000000 0.498016 0.624115
0.084747 0.498260 0.624420
0.169556 0.498566 0.624725
0.268585 0.498718 0.624908
0.376190 0.498840 0.625061
0.498871 0.498871 0.625092
0.625092 0.498840 0.625092
0.756683 0.498810 0.625092
0.976929 0.498138 0.624451
0.000000 0.624146 0.624146
0.084412 0.624420 0.624420
0.169342 0.624725 0.624725
0.268402 0.624939 0.624939
0.376129 0.625061 0.625061
0.498840 0.625092 0.625092
0.625122 0.625122 0.625122
0.756836 0.625092 0.625092
0.978210 0.624451 0.624451
0.000000 0.755127 0.624115
0.084076 0.755524 0.624420
0.169098 0.755951 0.624695
0.268219 0.756256 0.624908
0.376038 0.756531 0.625061
0.498810 0.756683 0.625092
0.625092 0.756836 0.625092
0.756927 0.756927 0.625061
0.979462 0.756409 0.624420
0.000000 0.969666 0.623535
0.083130 0.971222 0.623810
0.168243 0.972778 0.624084
0.267395 0.974243 0.624298
0.375336 0.975647 0.624420
0.498138 0.976929 0.624451
0.624451 0.978210 0.624451
0.756409 0.979462 0.624420
0.980042 0.980042 0.623749
0.000000 0.000000 0.753418
0.085052 0.000000 0.753815
0.169495 0.000000 0.754242
0.268341 0.000000 0.754547
0.375519 0.000000 0.754822
0.497986 0.000000 0.754974
0.624115 0.000000 0.755127
0.755219 0.000000 0.755219
0.970917 0.000000 0.754761
0.000000 0.085052 0.753815
0.085022 0.085022 0.754211
0.169556 0.084991 0.754639
0.268433 0.084869 0.754974
0.375732 0.084686 0.755219
0.498230 0.084381 0.755371
0.624420 0.084076 0.755524
0.755615 0.083710 0.755615
0.972443 0.082764 0.755127
0.000000 0.169495 0.754242
0.084991 0.169556 0.754639
0.169617 0.169617 0.755066
0.268555 0.169586 0.755371
0.375946 0.169495 0.755646
0.498505 0.169312 0.755798
0.624695 0.169098 0.755951
0.756042 0.168823 0.756042
0.974030 0.167999 0.755554
0.000000 0.268341 0.754547
0.084869 0.268433 0.754974
0.169586 0.268555 0.755371
0.268555 0.268555 0.755707
0.376068 0.268524 0.755981
0.498688 0.268372 0.756134
0.624908 0.268219 0.756256
0.756378 0.268005 0.756378
0.975494 0.267212 0.755859
0.000000 0.375519 0.754822
0.084686 0.375732 0.755219
0.169495 0.375946 0.755646
0.268524 0.376068 0.755981
0.376129 0.376129 0.756226
0.498810 0.376099 0.756409
0.625061 0.376038 0.756531
0.756622 0.375946 0.756622
0.976868 0.375214 0.756134
0.000000 0.497986 0.754974
0.084381 0.498230 0.755371
0.169312 0.498505 0.755798
0.268372 0.498688 0.756134
0.376099 0.498810 0.756409
0.498810 0.498810 0.756561
0.625092 0.498810 0.756683
0.756805 0.498749 0.756805
0.978180 0.498077 0.756287
0.000000 0.624115 0.755127
0.084076 0.624420 0.755524
0.169098 0.624695 0.755951
0.268219 0.624908 0.756256
0.376038 0.625061 0.756531
0.498810 0.625092 0.756683
0.625092 0.625092 0.756836
0.756927 0.625061 0.756927
0.979462 0.624420 0.756409
0.000000 0.755219 0.755219
0.083710 0.755615 0.755615
0.168823 0.756042 0.756042
0.268005 0.756378 0.756378
0.375946 0.756622 0.756622
0.498749 0.756805 0.756805
0.625061 0.756927 0.756927
0.757050 0.757050 0.757050
0.980682 0.756500 0.756500
0.000000 0.970917 0.754761
0.082764 0.972443 0.755127
0.167999 0.974030 0.755554
0.267212 0.975494 0.755859
0.375214 0.976868 0.756134
0.498077 0.978180 0.756287
0.624420 0.979462 0.756409
0.756500 0.980682 0.756500
0.981262 0.981262 0.755981
0.000000 0.000000 0.960907
0.084198 0.000000 0.962646
0.168701 0.000000 0.964203
0.267578 0.000000 0.965668
0.374878 0.000000 0.967072
0.497375 0.000000 0.968384
0.623535 0.000000 0.969666
0.754761 0.000000 0.970917
0.971558 0.000000 0.971558
0.000000 0.084198 0.962646
0.084137 0.084137 0.964203
0.168762 0.084076 0.965759
0.267670 0.083954 0.967224
0.375061 0.083740 0.968628
0.497620 0.083466 0.969940
0.623810 0.083130 0.971222
0.755127 0.082764 0.972443
0.973114 0.081787 0.973114
0.000000 0.168701 0.964203
0.084076 0.168762 0.965759
0.168823 0.168823 0.967316
0.267761 0.168762 0.968781
0.375275 0.168671 0.970184
0.497894 0.168488 0.971497
0.624084 0.168243 0.972778
0.755554 0.167999 0.974030
0.974640 0.167114 0.974640
0.000000 0.267578 0.965668
0.083954 0.267670 0.967224
0.168762 0.267761 0.968781
0.267792 0.267792 0.970245
0.375397 0.267731 0.971649
0.498047 0.267578 0.972961
0.624298 0.267395 0.974243
0.755859 0.267212 0.975494
0.976105 0.266357 0.976105
0.000000 0.374878 0.967072
0.083740 0.375061 0.968628
0.168671 0.375275 0.970184
0.267731 0.375397 0.971649
0.375458 0.375458 0.973053
0.498169 0.375397 0.974365
0.624420 0.375336 0.975647
0.756134 0.375214 0.976868
0.977509 0.374512 0.977509
0.000000 0.497375 0.968384
0.083466 0.497620 0.969940
0.168488 0.497894 0.971497
0.267578 0.498047 0.972961
0.375397 0.498169 0.974365
0.498169 0.498169 0.975677
0.624451 0.498138 0.976929
0.756287 0.498077 0.978180
0.978790 0.497406 0.978790
0.000000 0.623535 0.969666
0.083130 0.623810 0.971222
0.168243 0.624084 0.972778
0.267395 0.624298 0.974243
0.375336 0.624420 0.975647
0.498138 0.624451 0.976929
0.624451 0.624451 0.978210
0.756409 0.624420 0.979462
0.980042 0.623749 0.980042
0.000000 0.754761 0.970917
0.082764 0.755127 0.972443
0.167999 0.755554 0.974030
0.267212 0.755859 0.975494
0.375214 0.756134 0.976868
0.498077 0.756287 0.978180
0.624420 0.756409 0.979462
0.756500 0.756500 0.980682
0.981262 0.755981 0.981262
0.000000 0.971558 0.971558
0.081787 0.973114 0.973114
0.167114 0.974640 0.974640
0.266357 0.976105 0.976105
0.374512 0.977509 0.977509
0.497406 0.978790 0.978790
0.623749 0.980042 0.980042
0.755981 0.981262 0.981262
0.981842 0.981842 0.981842
