Kodak Vision3 200T (5213) - Only contrast.cube
# Created by Benjamin (IWLTBAP) : http://luts.iwltbap.com
# Copyright: (C) Copyright 2010-2017 Triune Films and IWLTBAP SAS
# Cannot be resold, shared or otherwise redistributed
TITLE "Film Print Emulation LUTs Pack (Rec.709, sRGB, DCI-P3)"
LUT_3D_SIZE 33
0.000793 0.000793 0.000793
0.016968 0.000793 0.000793
0.033691 0.000793 0.000793
0.054871 0.000763 0.000763
0.078705 0.000702 0.000702
0.104492 0.000641 0.000641
0.130859 0.000580 0.000580
0.157043 0.000488 0.000488
0.182434 0.000427 0.000427
0.211212 0.000336 0.000336
0.240295 0.000244 0.000244
0.274445 0.000122 0.000122
0.312927 0.000000 0.000000
0.354889 0.000000 0.000000
0.400818 0.000000 0.000000
0.446869 0.000000 0.000000
0.490082 0.000000 0.000000
0.531403 0.000000 0.000000
0.570038 0.000000 0.000000
0.607117 0.000000 0.000000
0.642059 0.000000 0.000000
0.675415 0.000000 0.000000
0.706970 0.000000 0.000000
0.736481 0.000000 0.000000
0.764160 0.000000 0.000000
0.792999 0.000000 0.000000
0.822235 0.000000 0.000000
0.851196 0.000000 0.000000
0.879852 0.000000 0.000000
0.907684 0.000000 0.000000
0.932465 0.000000 0.000000
0.953003 0.000000 0.000000
0.974304 0.000000 0.000000
0.000793 0.016968 0.000793
0.016968 0.016968 0.000793
0.033722 0.016937 0.000793
0.054932 0.016907 0.000763
0.078766 0.016876 0.000702
0.104553 0.016785 0.000641
0.130920 0.016724 0.000549
0.157104 0.016663 0.000488
0.182526 0.016602 0.000427
0.211304 0.016510 0.000336
0.240387 0.016418 0.000244
0.274597 0.016296 0.000122
0.313080 0.016144 0.000000
0.355072 0.015961 0.000000
0.401001 0.015747 0.000000
0.447083 0.015564 0.000000
0.490265 0.015381 0.000000
0.531586 0.015198 0.000000
0.570190 0.015045 0.000000
0.607239 0.014893 0.000000
0.642181 0.014771 0.000000
0.675537 0.014648 0.000000
0.707062 0.014557 0.000000
0.736572 0.014465 0.000000
0.764221 0.014374 0.000000
0.793091 0.014282 0.000000
0.822327 0.014221 0.000000
0.851288 0.014130 0.000000
0.879944 0.014038 0.000000
0.907776 0.013947 0.000000
0.932495 0.013916 0.000000
0.953033 0.013885 0.000000
0.974335 0.013855 0.000000
0.000793 0.033691 0.000793
0.016937 0.033722 0.000793
0.033722 0.033722 0.000793
0.054962 0.033691 0.000763
0.078827 0.033661 0.000702
0.104614 0.033600 0.000641
0.130981 0.033539 0.000549
0.157166 0.033478 0.000488
0.182587 0.033447 0.000427
0.211395 0.033386 0.000336
0.240448 0.033295 0.000244
0.274750 0.033203 0.000122
0.313232 0.033051 0.000000
0.355255 0.032898 0.000000
0.401215 0.032715 0.000000
0.447266 0.032501 0.000000
0.490417 0.032349 0.000000
0.531738 0.032196 0.000000
0.570312 0.032043 0.000000
0.607361 0.031921 0.000000
0.642303 0.031799 0.000000
0.675659 0.031708 0.000000
0.707153 0.031616 0.000000
0.736633 0.031555 0.000000
0.764313 0.031494 0.000000
0.793182 0.031433 0.000000
0.822418 0.031372 0.000000
0.851349 0.031281 0.000000
0.880005 0.031219 0.000000
0.907837 0.031158 0.000000
0.932526 0.031128 0.000000
0.953033 0.031128 0.000000
0.974396 0.031128 0.000000
0.000763 0.054871 0.000763
0.016907 0.054932 0.000763
0.033691 0.054962 0.000763
0.054993 0.054993 0.000702
0.078857 0.054962 0.000671
0.104645 0.054962 0.000580
0.131012 0.054932 0.000519
0.157227 0.054901 0.000458
0.182617 0.054901 0.000397
0.211456 0.054871 0.000305
0.240509 0.054810 0.000214
0.274872 0.054749 0.000061
0.313385 0.054626 0.000000
0.355438 0.054504 0.000000
0.401398 0.054352 0.000000
0.447449 0.054199 0.000000
0.490570 0.054047 0.000000
0.531891 0.053925 0.000000
0.570435 0.053833 0.000000
0.607483 0.053741 0.000000
0.642395 0.053650 0.000000
0.675720 0.053589 0.000000
0.707214 0.053528 0.000000
0.736694 0.053467 0.000000
0.764343 0.053436 0.000000
0.793243 0.053406 0.000000
0.822449 0.053375 0.000000
0.851410 0.053345 0.000000
0.880066 0.053284 0.000000
0.907867 0.053253 0.000000
0.932556 0.053253 0.000000
0.953033 0.053284 0.000000
0.974396 0.053284 0.000000
0.000702 0.078705 0.000702
0.016876 0.078766 0.000702
0.033661 0.078827 0.000702
0.054962 0.078857 0.000671
0.078857 0.078857 0.000610
0.104675 0.078857 0.000549
0.131042 0.078857 0.000458
0.157227 0.078857 0.000397
0.182648 0.078857 0.000336
0.211487 0.078827 0.000244
0.240540 0.078827 0.000153
0.274963 0.078766 0.000031
0.313477 0.078674 0.000000
0.355560 0.078552 0.000000
0.401550 0.078400 0.000000
0.447601 0.078278 0.000000
0.490692 0.078156 0.000000
0.531982 0.078033 0.000000
0.570526 0.077942 0.000000
0.607574 0.077881 0.000000
0.642456 0.077820 0.000000
0.675781 0.077759 0.000000
0.707245 0.077728 0.000000
0.736725 0.077698 0.000000
0.764374 0.077698 0.000000
0.793274 0.077667 0.000000
0.822479 0.077637 0.000000
0.851440 0.077606 0.000000
0.880066 0.077606 0.000000
0.907867 0.077576 0.000000
0.932526 0.077576 0.000000
0.953003 0.077637 0.000000
0.974365 0.077667 0.000000
0.000641 0.104492 0.000641
0.016785 0.104553 0.000641
0.033600 0.104614 0.000641
0.054962 0.104645 0.000580
0.078857 0.104675 0.000549
0.104675 0.104675 0.000458
0.131042 0.104675 0.000397
0.157227 0.104675 0.000336
0.182678 0.104675 0.000244
0.211517 0.104675 0.000183
0.240570 0.104645 0.000092
0.275055 0.104584 0.000000
0.313568 0.104492 0.000000
0.355713 0.104401 0.000000
0.401672 0.104248 0.000000
0.447723 0.104126 0.000000
0.490784 0.104004 0.000000
0.532104 0.103912 0.000000
0.570618 0.103821 0.000000
0.607635 0.103760 0.000000
0.642517 0.103699 0.000000
0.675842 0.103638 0.000000
0.707275 0.103607 0.000000
0.736755 0.103577 0.000000
0.764374 0.103577 0.000000
0.793304 0.103546 0.000000
0.822510 0.103546 0.000000
0.851471 0.103516 0.000000
0.880096 0.103516 0.000000
0.907867 0.103485 0.000000
0.932495 0.103516 0.000000
0.952942 0.103546 0.000000
0.974365 0.103577 0.000000
0.000580 0.130859 0.000580
0.016724 0.130920 0.000549
0.033539 0.130981 0.000549
0.054932 0.131012 0.000519
0.078857 0.131042 0.000458
0.104675 0.131042 0.000397
0.131042 0.131042 0.000336
0.157227 0.131042 0.000244
0.182678 0.131042 0.000183
0.211517 0.131042 0.000092
0.240601 0.131012 0.000000
0.275116 0.130951 0.000000
0.313690 0.130859 0.000000
0.355835 0.130768 0.000000
0.401825 0.130615 0.000000
0.447876 0.130493 0.000000
0.490906 0.130371 0.000000
0.532196 0.130280 0.000000
0.570679 0.130188 0.000000
0.607697 0.130127 0.000000
0.642548 0.130066 0.000000
0.675873 0.130005 0.000000
0.707306 0.129974 0.000000
0.736755 0.129944 0.000000
0.764374 0.129944 0.000000
0.793304 0.129913 0.000000
0.822540 0.129913 0.000000
0.851471 0.129883 0.000000
0.880127 0.129883 0.000000
0.907867 0.129852 0.000000
0.932465 0.129883 0.000000
0.952911 0.129913 0.000000
0.974335 0.129944 0.000000
0.000488 0.157043 0.000488
0.016663 0.157104 0.000488
0.033478 0.157166 0.000488
0.054901 0.157227 0.000458
0.078857 0.157227 0.000397
0.104675 0.157227 0.000336
0.131042 0.157227 0.000244
0.157227 0.157227 0.000183
0.182709 0.157257 0.000122
0.211548 0.157227 0.000031
0.240601 0.157196 0.000000
0.275208 0.157135 0.000000
0.313782 0.157074 0.000000
0.355957 0.156952 0.000000
0.401947 0.156830 0.000000
0.447998 0.156677 0.000000
0.490997 0.156555 0.000000
0.532288 0.156464 0.000000
0.570770 0.156372 0.000000
0.607788 0.156311 0.000000
0.642609 0.156250 0.000000
0.675903 0.156189 0.000000
0.707336 0.156158 0.000000
0.736786 0.156128 0.000000
0.764404 0.156097 0.000000
0.793335 0.156097 0.000000
0.822571 0.156067 0.000000
0.851501 0.156036 0.000000
0.880127 0.156006 0.000000
0.907898 0.156006 0.000000
0.932465 0.156006 0.000000
0.952850 0.156036 0.000000
0.974304 0.156067 0.000000
0.000427 0.182434 0.000427
0.016602 0.182526 0.000427
0.033447 0.182587 0.000427
0.054901 0.182617 0.000397
0.078857 0.182648 0.000336
0.104675 0.182678 0.000244
0.131042 0.182678 0.000183
0.157257 0.182709 0.000122
0.182709 0.182709 0.000061
0.211578 0.182709 0.000000
0.240631 0.182709 0.000000
0.275299 0.182678 0.000000
0.313873 0.182587 0.000000
0.356110 0.182495 0.000000
0.402100 0.182373 0.000000
0.448151 0.182281 0.000000
0.491119 0.182159 0.000000
0.532410 0.182098 0.000000
0.570831 0.182037 0.000000
0.607849 0.181976 0.000000
0.642670 0.181946 0.000000
0.675964 0.181915 0.000000
0.707367 0.181885 0.000000
0.736786 0.181885 0.000000
0.764404 0.181885 0.000000
0.793365 0.181885 0.000000
0.822571 0.181885 0.000000
0.851501 0.181885 0.000000
0.880157 0.181885 0.000000
0.907898 0.181915 0.000000
0.932434 0.181946 0.000000
0.952820 0.182007 0.000000
0.974274 0.182037 0.000000
0.000336 0.211212 0.000336
0.016510 0.211304 0.000336
0.033386 0.211395 0.000336
0.054871 0.211456 0.000305
0.078827 0.211487 0.000244
0.104675 0.211517 0.000183
0.131042 0.211517 0.000092
0.157227 0.211548 0.000031
0.182709 0.211578 0.000000
0.211578 0.211578 0.000000
0.240631 0.211578 0.000000
0.275360 0.211548 0.000000
0.313965 0.211456 0.000000
0.356201 0.211365 0.000000
0.402222 0.211273 0.000000
0.448273 0.211151 0.000000
0.491180 0.211060 0.000000
0.532471 0.210968 0.000000
0.570892 0.210907 0.000000
0.607910 0.210846 0.000000
0.642700 0.210815 0.000000
0.675995 0.210785 0.000000
0.707397 0.210754 0.000000
0.736786 0.210754 0.000000
0.764404 0.210785 0.000000
0.793365 0.210785 0.000000
0.822571 0.210785 0.000000
0.851501 0.210785 0.000000
0.880157 0.210785 0.000000
0.907867 0.210785 0.000000
0.932373 0.210815 0.000000
0.952728 0.210876 0.000000
0.974243 0.210938 0.000000
0.000244 0.240295 0.000244
0.016418 0.240387 0.000244
0.033295 0.240448 0.000244
0.054810 0.240509 0.000214
0.078827 0.240540 0.000153
0.104645 0.240570 0.000092
0.131012 0.240601 0.000000
0.157196 0.240601 0.000000
0.182709 0.240631 0.000000
0.211578 0.240631 0.000000
0.240631 0.240631 0.000000
0.275421 0.240601 0.000000
0.314056 0.240540 0.000000
0.356323 0.240448 0.000000
0.402344 0.240326 0.000000
0.448395 0.240204 0.000000
0.491272 0.240112 0.000000
0.532562 0.240021 0.000000
0.570953 0.239960 0.000000
0.607941 0.239899 0.000000
0.642731 0.239868 0.000000
0.676025 0.239838 0.000000
0.707397 0.239838 0.000000
0.736786 0.239838 0.000000
0.764374 0.239838 0.000000
0.793365 0.239838 0.000000
0.822571 0.239838 0.000000
0.851501 0.239868 0.000000
0.880157 0.239868 0.000000
0.907867 0.239899 0.000000
0.932343 0.239929 0.000000
0.952667 0.239990 0.000000
0.974182 0.240051 0.000000
0.000122 0.274445 0.000122
0.016296 0.274597 0.000122
0.033203 0.274750 0.000122
0.054749 0.274872 0.000061
0.078766 0.274963 0.000031
0.104584 0.275055 0.000000
0.130951 0.275116 0.000000
0.157135 0.275208 0.000000
0.182678 0.275299 0.000000
0.211548 0.275360 0.000000
0.240601 0.275421 0.000000
0.275452 0.275452 0.000000
0.314087 0.275421 0.000000
0.356384 0.275391 0.000000
0.402405 0.275360 0.000000
0.448456 0.275299 0.000000
0.491302 0.275269 0.000000
0.532593 0.275238 0.000000
0.570984 0.275238 0.000000
0.607971 0.275238 0.000000
0.642731 0.275269 0.000000
0.675995 0.275299 0.000000
0.707367 0.275330 0.000000
0.736755 0.275391 0.000000
0.764343 0.275452 0.000000
0.793335 0.275513 0.000000
0.822540 0.275574 0.000000
0.851471 0.275635 0.000000
0.880096 0.275696 0.000000
0.907776 0.275757 0.000000
0.932251 0.275848 0.000000
0.952545 0.275970 0.000000
0.974091 0.276093 0.000000
0.000000 0.312927 0.000000
0.016144 0.313080 0.000000
0.033051 0.313232 0.000000
0.054626 0.313385 0.000000
0.078674 0.313477 0.000000
0.104492 0.313568 0.000000
0.130859 0.313690 0.000000
0.157074 0.313782 0.000000
0.182587 0.313873 0.000000
0.211456 0.313965 0.000000
0.240540 0.314056 0.000000
0.275421 0.314087 0.000000
0.314087 0.314087 0.000000
0.356445 0.314087 0.000000
0.402466 0.314056 0.000000
0.448517 0.314026 0.000000
0.491333 0.313995 0.000000
0.532593 0.313995 0.000000
0.570953 0.314026 0.000000
0.607941 0.314026 0.000000
0.642700 0.314087 0.000000
0.675964 0.314148 0.000000
0.707306 0.314209 0.000000
0.736664 0.314270 0.000000
0.764252 0.314392 0.000000
0.793243 0.314453 0.000000
0.822479 0.314545 0.000000
0.851379 0.314636 0.000000
0.880035 0.314728 0.000000
0.907684 0.314819 0.000000
0.932129 0.314911 0.000000
0.952423 0.315063 0.000000
0.973969 0.315216 0.000000
0.000000 0.354889 0.000000
0.015961 0.355072 0.000000
0.032898 0.355255 0.000000
0.054504 0.355438 0.000000
0.078552 0.355560 0.000000
0.104401 0.355713 0.000000
0.130768 0.355835 0.000000
0.156952 0.355957 0.000000
0.182495 0.356110 0.000000
0.211365 0.356201 0.000000
0.240448 0.356323 0.000000
0.275391 0.356384 0.000000
0.314087 0.356445 0.000000
0.356445 0.356445 0.000000
0.402496 0.356445 0.000000
0.448547 0.356445 0.000000
0.491333 0.356476 0.000000
0.532593 0.356506 0.000000
0.570923 0.356537 0.000000
0.607910 0.356598 0.000000
0.642639 0.356689 0.000000
0.675873 0.356781 0.000000
0.707214 0.356873 0.000000
0.736572 0.356995 0.000000
0.764160 0.357117 0.000000
0.793152 0.357239 0.000000
0.822388 0.357361 0.000000
0.851288 0.357452 0.000000
0.879913 0.357574 0.000000
0.907593 0.357727 0.000000
0.931976 0.357849 0.000000
0.952271 0.358032 0.000000
0.973846 0.358215 0.000000
0.000000 0.400818 0.000000
0.015747 0.401001 0.000000
0.032715 0.401215 0.000000
0.054352 0.401398 0.000000
0.078400 0.401550 0.000000
0.104248 0.401672 0.000000
0.130615 0.401825 0.000000
0.156830 0.401947 0.000000
0.182373 0.402100 0.000000
0.211273 0.402222 0.000000
0.240326 0.402344 0.000000
0.275360 0.402405 0.000000
0.314056 0.402466 0.000000
0.356445 0.402496 0.000000
0.402496 0.402496 0.000000
0.448547 0.402496 0.000000
0.491302 0.402527 0.000000
0.532562 0.402557 0.000000
0.570862 0.402618 0.000000
0.607819 0.402679 0.000000
0.642548 0.402740 0.000000
0.675781 0.402832 0.000000
0.707092 0.402954 0.000000
0.736450 0.403076 0.000000
0.764038 0.403198 0.000000
0.793060 0.403320 0.000000
0.822266 0.403442 0.000000
0.851166 0.403534 0.000000
0.879791 0.403656 0.000000
0.907440 0.403809 0.000000
0.931824 0.403961 0.000000
0.952087 0.404114 0.000000
0.973663 0.404297 0.000000
0.000000 0.446869 0.000000
0.015564 0.447083 0.000000
0.032501 0.447266 0.000000
0.054199 0.447449 0.000000
0.078278 0.447601 0.000000
0.104126 0.447723 0.000000
0.130493 0.447876 0.000000
0.156677 0.447998 0.000000
0.182281 0.448151 0.000000
0.211151 0.448273 0.000000
0.240204 0.448395 0.000000
0.275299 0.448456 0.000000
0.314026 0.448517 0.000000
0.356445 0.448547 0.000000
0.402496 0.448547 0.000000
0.448547 0.448547 0.000000
0.491272 0.448547 0.000000
0.532501 0.448608 0.000000
0.570801 0.448639 0.000000
0.607758 0.448700 0.000000
0.642456 0.448792 0.000000
0.675690 0.448883 0.000000
0.707001 0.448975 0.000000
0.736328 0.449097 0.000000
0.763885 0.449219 0.000000
0.792938 0.449341 0.000000
0.822144 0.449463 0.000000
0.851044 0.449585 0.000000
0.879669 0.449707 0.000000
0.907318 0.449829 0.000000
0.931641 0.449982 0.000000
0.951904 0.450134 0.000000
0.973511 0.450317 0.000000
0.000000 0.490082 0.000000
0.015381 0.490265 0.000000
0.032349 0.490417 0.000000
0.054047 0.490570 0.000000
0.078156 0.490692 0.000000
0.104004 0.490784 0.000000
0.130371 0.490906 0.000000
0.156555 0.490997 0.000000
0.182159 0.491119 0.000000
0.211060 0.491180 0.000000
0.240112 0.491272 0.000000
0.275269 0.491302 0.000000
0.313995 0.491333 0.000000
0.356476 0.491333 0.000000
0.402527 0.491302 0.000000
0.448547 0.491272 0.000000
0.491241 0.491241 0.000000
0.532501 0.491241 0.000000
0.570770 0.491272 0.000000
0.607727 0.491302 0.000000
0.642395 0.491364 0.000000
0.675629 0.491394 0.000000
0.706909 0.491486 0.000000
0.736237 0.491547 0.000000
0.763794 0.491669 0.000000
0.792847 0.491730 0.000000
0.822052 0.491821 0.000000
0.850952 0.491913 0.000000
0.879578 0.492004 0.000000
0.907196 0.492096 0.000000
0.931519 0.492218 0.000000
0.951752 0.492371 0.000000
0.973389 0.492493 0.000000
0.000000 0.531403 0.000000
0.015198 0.531586 0.000000
0.032196 0.531738 0.000000
0.053925 0.531891 0.000000
0.078033 0.531982 0.000000
0.103912 0.532104 0.000000
0.130280 0.532196 0.000000
0.156464 0.532288 0.000000
0.182098 0.532410 0.000000
0.210968 0.532471 0.000000
0.240021 0.532562 0.000000
0.275238 0.532593 0.000000
0.313995 0.532593 0.000000
0.356506 0.532593 0.000000
0.402557 0.532562 0.000000
0.448608 0.532501 0.000000
0.491241 0.532501 0.000000
0.532501 0.532501 0.000000
0.570740 0.532501 0.000000
0.607697 0.532532 0.000000
0.642365 0.532562 0.000000
0.675568 0.532623 0.000000
0.706848 0.532684 0.000000
0.736176 0.532745 0.000000
0.763702 0.532837 0.000000
0.792755 0.532898 0.000000
0.821960 0.532990 0.000000
0.850891 0.533051 0.000000
0.879486 0.533142 0.000000
0.907104 0.533234 0.000000
0.931396 0.533325 0.000000
0.951599 0.533478 0.000000
0.973267 0.533600 0.000000
0.000000 0.570038 0.000000
0.015045 0.570190 0.000000
0.032043 0.570312 0.000000
0.053833 0.570435 0.000000
0.077942 0.570526 0.000000
0.103821 0.570618 0.000000
0.130188 0.570679 0.000000
0.156372 0.570770 0.000000
0.182037 0.570831 0.000000
0.210907 0.570892 0.000000
0.239960 0.570953 0.000000
0.275238 0.570984 0.000000
0.314026 0.570953 0.000000
0.356537 0.570923 0.000000
0.402618 0.570862 0.000000
0.448639 0.570801 0.000000
0.491272 0.570770 0.000000
0.532501 0.570740 0.000000
0.570740 0.570740 0.000000
0.607666 0.570740 0.000000
0.642334 0.570770 0.000000
0.675537 0.570801 0.000000
0.706787 0.570831 0.000000
0.736084 0.570892 0.000000
0.763641 0.570953 0.000000
0.792694 0.571014 0.000000
0.821899 0.571075 0.000000
0.850830 0.571136 0.000000
0.879425 0.571198 0.000000
0.907013 0.571259 0.000000
0.931274 0.571350 0.000000
0.951447 0.571472 0.000000
0.973145 0.571594 0.000000
0.000000 0.607117 0.000000
0.014893 0.607239 0.000000
0.031921 0.607361 0.000000
0.053741 0.607483 0.000000
0.077881 0.607574 0.000000
0.103760 0.607635 0.000000
0.130127 0.607697 0.000000
0.156311 0.607788 0.000000
0.181976 0.607849 0.000000
0.210846 0.607910 0.000000
0.239899 0.607941 0.000000
0.275238 0.607971 0.000000
0.314026 0.607941 0.000000
0.356598 0.607910 0.000000
0.402679 0.607819 0.000000
0.448700 0.607758 0.000000
0.491302 0.607727 0.000000
0.532532 0.607697 0.000000
0.570740 0.607666 0.000000
0.607666 0.607666 0.000000
0.642303 0.607666 0.000000
0.675507 0.607697 0.000000
0.706726 0.607727 0.000000
0.736053 0.607758 0.000000
0.763580 0.607819 0.000000
0.792633 0.607880 0.000000
0.821869 0.607910 0.000000
0.850769 0.607971 0.000000
0.879364 0.608032 0.000000
0.906952 0.608093 0.000000
0.931183 0.608154 0.000000
0.951355 0.608276 0.000000
0.973053 0.608368 0.000000
0.000000 0.642059 0.000000
0.014771 0.642181 0.000000
0.031799 0.642303 0.000000
0.053650 0.642395 0.000000
0.077820 0.642456 0.000000
0.103699 0.642517 0.000000
0.130066 0.642548 0.000000
0.156250 0.642609 0.000000
0.181946 0.642670 0.000000
0.210815 0.642700 0.000000
0.239868 0.642731 0.000000
0.275269 0.642731 0.000000
0.314087 0.642700 0.000000
0.356689 0.642639 0.000000
0.402740 0.642548 0.000000
0.448792 0.642456 0.000000
0.491364 0.642395 0.000000
0.532562 0.642365 0.000000
0.570770 0.642334 0.000000
0.607666 0.642303 0.000000
0.642303 0.642303 0.000000
0.675476 0.642303 0.000000
0.706696 0.642334 0.000000
0.735992 0.642365 0.000000
0.763519 0.642395 0.000000
0.792603 0.642426 0.000000
0.821838 0.642456 0.000000
0.850708 0.642487 0.000000
0.879333 0.642517 0.000000
0.906891 0.642578 0.000000
0.931091 0.642639 0.000000
0.951233 0.642731 0.000000
0.972961 0.642822 0.000000
0.000000 0.675415 0.000000
0.014648 0.675537 0.000000
0.031708 0.675659 0.000000
0.053589 0.675720 0.000000
0.077759 0.675781 0.000000
0.103638 0.675842 0.000000
0.130005 0.675873 0.000000
0.156189 0.675903 0.000000
0.181915 0.675964 0.000000
0.210785 0.675995 0.000000
0.239838 0.676025 0.000000
0.275299 0.675995 0.000000
0.314148 0.675964 0.000000
0.356781 0.675873 0.000000
0.402832 0.675781 0.000000
0.448883 0.675690 0.000000
0.491394 0.675629 0.000000
0.532623 0.675568 0.000000
0.570801 0.675537 0.000000
0.607697 0.675507 0.000000
0.642303 0.675476 0.000000
0.675476 0.675476 0.000000
0.706696 0.675507 0.000000
0.735962 0.675507 0.000000
0.763489 0.675537 0.000000
0.792572 0.675568 0.000000
0.821808 0.675598 0.000000
0.850677 0.675629 0.000000
0.879303 0.675659 0.000000
0.906830 0.675690 0.000000
0.931000 0.675751 0.000000
0.951141 0.675812 0.000000
0.972900 0.675903 0.000000
0.000000 0.706970 0.000000
0.014557 0.707062 0.000000
0.031616 0.707153 0.000000
0.053528 0.707214 0.000000
0.077728 0.707245 0.000000
0.103607 0.707275 0.000000
0.129974 0.707306 0.000000
0.156158 0.707336 0.000000
0.181885 0.707367 0.000000
0.210754 0.707397 0.000000
0.239838 0.707397 0.000000
0.275330 0.707367 0.000000
0.314209 0.707306 0.000000
0.356873 0.707214 0.000000
0.402954 0.707092 0.000000
0.448975 0.707001 0.000000
0.491486 0.706909 0.000000
0.532684 0.706848 0.000000
0.570831 0.706787 0.000000
0.607727 0.706726 0.000000
0.642334 0.706696 0.000000
0.675507 0.706696 0.000000
0.706665 0.706665 0.000000
0.735962 0.706696 0.000000
0.763458 0.706696 0.000000
0.792572 0.706696 0.000000
0.821777 0.706726 0.000000
0.850677 0.706726 0.000000
0.879303 0.706726 0.000000
0.906799 0.706757 0.000000
0.930939 0.706787 0.000000
0.951080 0.706848 0.000000
0.972839 0.706909 0.000000
0.000000 0.736481 0.000000
0.014465 0.736572 0.000000
0.031555 0.736633 0.000000
0.053467 0.736694 0.000000
0.077698 0.736725 0.000000
0.103577 0.736755 0.000000
0.129944 0.736755 0.000000
0.156128 0.736786 0.000000
0.181885 0.736786 0.000000
0.210754 0.736786 0.000000
0.239838 0.736786 0.000000
0.275391 0.736755 0.000000
0.314270 0.736664 0.000000
0.356995 0.736572 0.000000
0.403076 0.736450 0.000000
0.449097 0.736328 0.000000
0.491547 0.736237 0.000000
0.532745 0.736176 0.000000
0.570892 0.736084 0.000000
0.607758 0.736053 0.000000
0.642365 0.735992 0.000000
0.675507 0.735962 0.000000
0.706696 0.735962 0.000000
0.735931 0.735931 0.000000
0.763458 0.735962 0.000000
0.792572 0.735962 0.000000
0.821777 0.735931 0.000000
0.850677 0.735931 0.000000
0.879272 0.735931 0.000000
0.906799 0.735962 0.000000
0.930908 0.735992 0.000000
0.950989 0.736053 0.000000
0.972778 0.736084 0.000000
0.000000 0.764160 0.000000
0.014374 0.764221 0.000000
0.031494 0.764313 0.000000
0.053436 0.764343 0.000000
0.077698 0.764374 0.000000
0.103577 0.764374 0.000000
0.129944 0.764374 0.000000
0.156097 0.764404 0.000000
0.181885 0.764404 0.000000
0.210785 0.764404 0.000000
0.239838 0.764374 0.000000
0.275452 0.764343 0.000000
0.314392 0.764252 0.000000
0.357117 0.764160 0.000000
0.403198 0.764038 0.000000
0.449219 0.763885 0.000000
0.491669 0.763794 0.000000
0.532837 0.763702 0.000000
0.570953 0.763641 0.000000
0.607819 0.763580 0.000000
0.642395 0.763519 0.000000
0.675537 0.763489 0.000000
0.706696 0.763458 0.000000
0.735962 0.763458 0.000000
0.763458 0.763458 0.000000
0.792572 0.763458 0.000000
0.821808 0.763458 0.000000
0.850677 0.763458 0.000000
0.879303 0.763458 0.000000
0.906769 0.763458 0.000000
0.930847 0.763489 0.000000
0.950958 0.763550 0.000000
0.972748 0.763580 0.000000
0.000000 0.792999 0.000000
0.014282 0.793091 0.000000
0.031433 0.793182 0.000000
0.053406 0.793243 0.000000
0.077667 0.793274 0.000000
0.103546 0.793304 0.000000
0.129913 0.793304 0.000000
0.156097 0.793335 0.000000
0.181885 0.793365 0.000000
0.210785 0.793365 0.000000
0.239838 0.793365 0.000000
0.275513 0.793335 0.000000
0.314453 0.793243 0.000000
0.357239 0.793152 0.000000
0.403320 0.793060 0.000000
0.449341 0.792938 0.000000
0.491730 0.792847 0.000000
0.532898 0.792755 0.000000
0.571014 0.792694 0.000000
0.607880 0.792633 0.000000
0.642426 0.792603 0.000000
0.675568 0.792572 0.000000
0.706696 0.792572 0.000000
0.735962 0.792572 0.000000
0.763458 0.792572 0.000000
0.792572 0.792572 0.000000
0.821808 0.792603 0.000000
0.850677 0.792603 0.000000
0.879272 0.792603 0.000000
0.906769 0.792603 0.000000
0.930817 0.792633 0.000000
0.950897 0.792694 0.000000
0.972717 0.792755 0.000000
0.000000 0.822235 0.000000
0.014221 0.822327 0.000000
0.031372 0.822418 0.000000
0.053375 0.822449 0.000000
0.077637 0.822479 0.000000
0.103546 0.822510 0.000000
0.129913 0.822540 0.000000
0.156067 0.822571 0.000000
0.181885 0.822571 0.000000
0.210785 0.822571 0.000000
0.239838 0.822571 0.000000
0.275574 0.822540 0.000000
0.314545 0.822479 0.000000
0.357361 0.822388 0.000000
0.403442 0.822266 0.000000
0.449463 0.822144 0.000000
0.491821 0.822052 0.000000
0.532990 0.821960 0.000000
0.571075 0.821899 0.000000
0.607910 0.821869 0.000000
0.642456 0.821838 0.000000
