Kodachrome 25 (K-14) - Only contrast.cube
# Copyright: (C) Copyright 2017 by IWLTBAP
# Cannot be resold, shared or otherwise redistributed
# Website: https://luts.iwltbap.com
TITLE "Kodak Kodachrome 25 (K-14) - Contrast (Rec.709 sRGB)"
LUT_3D_SIZE 9
0.000000 0.000000 0.000000
0.100309 0.000000 0.000000
0.288014 0.000000 0.000000
0.454796 0.000000 0.000000
0.558423 0.000000 0.000000
0.640387 0.000000 0.000000
0.724561 0.000000 0.000000
0.841568 0.000000 0.000000
0.984932 0.000000 0.000000
0.000000 0.099916 0.000000
0.099916 0.099916 0.000000
0.288789 0.099522 0.000000
0.455019 0.099522 0.000000
0.558480 0.099522 0.000000
0.640290 0.099916 0.000000
0.724438 0.100700 0.000000
0.841838 0.101090 0.000000
0.985014 0.101090 0.000000
0.000000 0.288014 0.000000
0.099522 0.288531 0.000000
0.288660 0.288660 0.000000
0.454648 0.288918 0.000000
0.557849 0.289818 0.000000
0.639568 0.290587 0.000000
0.723741 0.291099 0.000000
0.841534 0.291864 0.000000
0.984576 0.292118 0.000000
0.000000 0.454871 0.000000
0.099522 0.455093 0.000000
0.289046 0.454648 0.000000
0.454425 0.454425 0.000000
0.557275 0.454648 0.000000
0.638990 0.454945 0.000000
0.723412 0.455242 0.000000
0.841332 0.455316 0.000000
0.984302 0.455167 0.000000
0.000000 0.558308 0.000000
0.099522 0.558365 0.000000
0.289561 0.557677 0.000000
0.454648 0.557217 0.000000
0.557217 0.557217 0.000000
0.638797 0.557447 0.000000
0.723330 0.557562 0.000000
0.841703 0.557447 0.000000
0.984302 0.557102 0.000000
0.000000 0.640531 0.000000
0.099916 0.640338 0.000000
0.290587 0.639568 0.000000
0.454945 0.638990 0.000000
0.557447 0.638797 0.000000
0.638797 0.638797 0.000000
0.723453 0.638749 0.000000
0.842073 0.638411 0.000000
0.984604 0.638073 0.000000
0.000000 0.724520 0.000000
0.100700 0.724520 0.000000
0.291354 0.723823 0.000000
0.455242 0.723371 0.000000
0.557562 0.723330 0.000000
0.638749 0.723453 0.000000
0.723494 0.723494 0.000000
0.842511 0.723371 0.000000
0.984850 0.723001 0.000000
0.000000 0.841602 0.000000
0.101090 0.841871 0.000000
0.291864 0.841467 0.000000
0.455316 0.841433 0.000000
0.557447 0.841669 0.000000
0.638411 0.842141 0.000000
0.723371 0.842578 0.000000
0.842713 0.842713 0.000000
0.984850 0.842713 0.000000
0.000000 0.985042 0.000000
0.101479 0.985096 0.000000
0.292246 0.984631 0.000000
0.455167 0.984247 0.000000
0.557102 0.984302 0.000000
0.638073 0.984631 0.000000
0.723001 0.984850 0.000000
0.842713 0.984877 0.000000
0.984686 0.984686 0.000000
0.000000 0.000000 0.100700
0.100309 0.000000 0.100309
0.288789 0.000000 0.099522
0.455242 0.000000 0.099522
0.558480 0.000000 0.099522
0.640194 0.000000 0.099916
0.724561 0.000000 0.100700
0.841871 0.000000 0.101090
0.985042 0.000000 0.101090
0.000000 0.099916 0.099916
0.099916 0.099916 0.099916
0.289304 0.099916 0.099916
0.455242 0.099522 0.099522
0.558365 0.099916 0.099916
0.640146 0.100309 0.100309
0.724479 0.101090 0.101090
0.842208 0.101479 0.101479
0.985151 0.101479 0.101479
0.000000 0.288660 0.099522
0.099916 0.289304 0.099916
0.289304 0.289304 0.099522
0.454871 0.289561 0.099522
0.557734 0.290459 0.099916
0.639472 0.291226 0.100309
0.723741 0.291737 0.100700
0.841770 0.292500 0.101090
0.984631 0.292627 0.101479
0.000000 0.455093 0.099522
0.099522 0.455242 0.099522
0.289818 0.454871 0.099522
0.454648 0.454648 0.099522
0.557275 0.454796 0.099916
0.638700 0.455093 0.100309
0.723207 0.455390 0.100700
0.841602 0.455464 0.101090
0.984275 0.455242 0.101867
0.000000 0.558365 0.099522
0.099916 0.558251 0.099916
0.290203 0.557677 0.099916
0.454722 0.557217 0.099916
0.557275 0.557275 0.099916
0.638604 0.557447 0.100700
0.723248 0.557504 0.101479
0.842006 0.557390 0.101867
0.984439 0.556987 0.101867
0.000000 0.640338 0.099916
0.100309 0.640098 0.100309
0.291226 0.639424 0.100309
0.455093 0.638749 0.100309
0.557447 0.638604 0.100700
0.638604 0.638604 0.101479
0.723330 0.638556 0.101867
0.842376 0.638266 0.102253
0.984658 0.637783 0.102637
0.000000 0.724479 0.100700
0.101090 0.724438 0.101090
0.291991 0.723741 0.100700
0.455390 0.723289 0.100700
0.557504 0.723289 0.101479
0.638556 0.723330 0.101867
0.723453 0.723453 0.102637
0.842746 0.723248 0.103021
0.984905 0.723001 0.103403
0.000000 0.841871 0.101090
0.101479 0.842174 0.101479
0.292500 0.841804 0.101090
0.455464 0.841703 0.101090
0.557390 0.841905 0.101867
0.638266 0.842410 0.102253
0.723248 0.842814 0.103021
0.842915 0.842915 0.103403
0.984877 0.842915 0.104163
0.000000 0.985124 0.101479
0.101867 0.985151 0.101867
0.292627 0.984658 0.101479
0.455242 0.984330 0.101479
0.556987 0.984439 0.101479
0.637879 0.984686 0.103021
0.723042 0.984932 0.103784
0.842881 0.984850 0.102253
0.984686 0.984686 0.103403
0.000000 0.000000 0.286587
0.099916 0.000000 0.288789
0.288660 0.000000 0.288660
0.454648 0.000000 0.288918
0.557677 0.000000 0.289690
0.639472 0.000000 0.290331
0.723700 0.000000 0.291099
0.841568 0.000000 0.291991
0.984521 0.000000 0.291991
0.000000 0.099522 0.288660
0.099916 0.099916 0.288918
0.289690 0.099522 0.289690
0.454722 0.099522 0.289561
0.557792 0.099916 0.290459
0.639424 0.100309 0.290971
0.723617 0.100700 0.291737
0.841737 0.101090 0.292500
0.984658 0.101867 0.292881
0.000000 0.288660 0.288660
0.099522 0.289304 0.289304
0.289561 0.289561 0.289561
0.454350 0.289561 0.289561
0.557045 0.290459 0.290459
0.638507 0.290971 0.290971
0.723125 0.291864 0.291864
0.841534 0.292627 0.292627
0.984138 0.292881 0.292881
0.000000 0.454722 0.289175
0.099522 0.454945 0.289818
0.289818 0.454499 0.289818
0.454202 0.454202 0.290075
0.556642 0.454350 0.290459
0.638073 0.454573 0.291482
0.722714 0.454871 0.292246
0.841299 0.454945 0.292754
0.983836 0.454722 0.293134
0.000000 0.557619 0.289561
0.099916 0.557734 0.290203
0.290203 0.556987 0.290203
0.454350 0.556584 0.290459
0.556642 0.556642 0.291354
0.637831 0.556757 0.292118
0.722549 0.556815 0.292627
0.841636 0.556700 0.293514
0.983891 0.556412 0.293893
0.000000 0.639568 0.290587
0.100309 0.639376 0.291226
0.291226 0.638652 0.291226
0.454573 0.638024 0.291482
0.556757 0.637879 0.292118
0.637831 0.637831 0.292881
0.722755 0.637783 0.293767
0.842073 0.637493 0.294272
0.984138 0.637009 0.294272
0.000000 0.723782 0.291354
0.100700 0.723741 0.291991
0.292118 0.723166 0.292118
0.454871 0.722673 0.292246
0.556815 0.722631 0.292881
0.637783 0.722714 0.293767
0.722837 0.722837 0.294398
0.842477 0.722673 0.295027
0.984384 0.722385 0.295153
0.000000 0.841501 0.291991
0.101090 0.841804 0.292500
0.292500 0.841433 0.292500
0.454945 0.841299 0.292754
0.556700 0.841568 0.293514
0.637541 0.842006 0.294272
0.722631 0.842410 0.295027
0.842612 0.842612 0.295529
0.984302 0.842578 0.295529
0.000000 0.984604 0.292246
0.101479 0.984686 0.292881
0.292500 0.984138 0.292500
0.454573 0.983836 0.292754
0.556469 0.983891 0.294145
0.637057 0.984138 0.294650
0.722343 0.984384 0.295027
0.842679 0.984330 0.296781
0.984138 0.984138 0.295278
0.000000 0.000000 0.454276
0.099126 0.000000 0.454796
0.288660 0.000000 0.454350
0.454425 0.000000 0.454425
0.557275 0.000000 0.454573
0.638893 0.000000 0.454871
0.723412 0.000000 0.455316
0.841400 0.000000 0.455316
0.984165 0.000000 0.455167
0.000000 0.099522 0.454945
0.099522 0.099522 0.454871
0.289818 0.099522 0.455019
0.454350 0.099522 0.454350
0.557217 0.099916 0.454796
0.638700 0.100309 0.454945
0.723207 0.100700 0.455242
0.841602 0.101090 0.455464
0.984330 0.101867 0.455242
0.000000 0.288918 0.454722
0.099522 0.289561 0.454796
0.289818 0.289818 0.454499
0.454276 0.290075 0.454276
0.556700 0.290715 0.454350
0.637976 0.291226 0.454573
0.722590 0.291991 0.454796
0.841299 0.292754 0.454945
0.983836 0.293134 0.454796
0.000000 0.454425 0.454425
0.099522 0.454648 0.454648
0.290075 0.454202 0.454202
0.453904 0.453904 0.453904
0.556181 0.454053 0.454053
0.637444 0.454350 0.454350
0.722261 0.454573 0.454573
0.841164 0.454648 0.454648
0.983507 0.454499 0.454499
0.000000 0.557275 0.454648
0.099916 0.557217 0.454796
0.290715 0.556642 0.454350
0.454053 0.556124 0.454053
0.556181 0.556181 0.454202
0.637299 0.556354 0.454573
0.722138 0.556412 0.454796
0.841433 0.556354 0.454796
0.983590 0.556008 0.454648
0.000000 0.638990 0.454945
0.100309 0.638797 0.455093
0.291482 0.638024 0.454573
0.454350 0.637444 0.454350
0.556297 0.637251 0.454499
0.637251 0.637251 0.454722
0.722302 0.637202 0.455093
0.841939 0.636912 0.455093
0.983836 0.636379 0.454796
0.000000 0.723330 0.455242
0.100700 0.723289 0.455390
0.292246 0.722631 0.454871
0.454573 0.722179 0.454573
0.556412 0.722179 0.454796
0.637202 0.722302 0.455093
0.722343 0.722343 0.455316
0.842343 0.722179 0.455316
0.984083 0.721891 0.455093
0.000000 0.841366 0.455316
0.101090 0.841602 0.455464
0.292754 0.841299 0.454945
0.454648 0.841164 0.454648
0.556354 0.841433 0.454796
0.636912 0.841905 0.455093
0.722179 0.842376 0.455316
0.842444 0.842444 0.455316
0.984001 0.842477 0.455019
0.000000 0.984247 0.455167
0.101479 0.984330 0.455242
0.293007 0.983836 0.454722
0.454350 0.983507 0.454350
0.556124 0.983590 0.454796
0.636379 0.983836 0.454871
0.721932 0.984083 0.455242
0.842511 0.984001 0.455242
0.983891 0.983891 0.454499
0.000000 0.000000 0.558480
0.099522 0.000000 0.557906
0.289433 0.000000 0.557447
0.454573 0.000000 0.557275
0.557447 0.000000 0.557447
0.638893 0.000000 0.557504
0.723248 0.000000 0.557504
0.841602 0.000000 0.557390
0.984247 0.000000 0.557045
0.000000 0.099522 0.557906
0.099916 0.099916 0.558193
0.290459 0.099916 0.557734
0.454722 0.099916 0.557102
0.557275 0.099916 0.557275
0.638507 0.100700 0.557332
0.723248 0.101479 0.557504
0.842006 0.101867 0.557390
0.984412 0.102253 0.557045
0.000000 0.289561 0.557677
0.099916 0.290203 0.557619
0.290459 0.290459 0.557102
0.454202 0.290459 0.556584
0.556642 0.291354 0.556642
0.637734 0.291864 0.556642
0.722590 0.292627 0.556815
0.841636 0.293514 0.556700
0.983891 0.293767 0.556412
0.000000 0.454648 0.557390
0.099916 0.454796 0.557390
0.290715 0.454350 0.556642
0.454053 0.454053 0.556181
0.556239 0.454202 0.556239
0.637348 0.454573 0.556354
0.722138 0.454722 0.556354
0.841433 0.454796 0.556354
0.983590 0.454722 0.556066
0.000000 0.557160 0.557160
0.099916 0.557275 0.557275
0.291354 0.556642 0.556642
0.454202 0.556124 0.556124
0.556239 0.556239 0.556239
0.637106 0.556354 0.556354
0.722138 0.556412 0.556412
0.841804 0.556297 0.556297
0.983699 0.555951 0.555951
0.000000 0.638797 0.557447
0.100700 0.638652 0.557447
0.292246 0.637928 0.556815
0.454499 0.637251 0.556297
0.556354 0.637106 0.556354
0.637057 0.637057 0.556469
0.722302 0.637009 0.556527
0.842208 0.636718 0.556412
0.983946 0.636282 0.556181
0.000000 0.723330 0.557562
0.101479 0.723289 0.557504
0.292881 0.722631 0.556815
0.454796 0.722138 0.556354
0.556412 0.722179 0.556412
0.637057 0.722302 0.556527
0.722385 0.722385 0.556642
0.842646 0.722138 0.556469
0.984193 0.721850 0.556124
0.000000 0.841669 0.557447
0.101867 0.841905 0.557390
0.293514 0.841568 0.556700
0.454796 0.841433 0.556354
0.556239 0.841737 0.556239
0.636718 0.842242 0.556412
0.722179 0.842578 0.556469
0.842780 0.842780 0.556354
0.984138 0.842780 0.556124
0.000000 0.984384 0.557102
0.101867 0.984412 0.557045
0.293387 0.983891 0.556354
0.454499 0.983590 0.555951
0.556008 0.983699 0.556008
0.636233 0.983946 0.556066
0.721850 0.984193 0.556124
0.842881 0.984138 0.556354
0.983946 0.983946 0.555432
0.000000 0.000000 0.640387
0.100309 0.000000 0.640387
0.290203 0.000000 0.639279
0.454871 0.000000 0.638845
0.557447 0.000000 0.638845
0.638700 0.000000 0.638700
0.723330 0.000000 0.638604
0.842174 0.000000 0.638459
0.984604 0.000000 0.637976
0.000000 0.099916 0.640002
0.100309 0.100309 0.640050
0.291226 0.100309 0.639568
0.455242 0.100309 0.638893
0.557390 0.100700 0.638556
0.638556 0.101479 0.638556
0.723330 0.101867 0.638556
0.842275 0.102253 0.638218
0.984631 0.103021 0.637783
0.000000 0.290331 0.639520
0.100309 0.290971 0.639327
0.291226 0.291226 0.638652
0.454648 0.291482 0.638121
0.556815 0.292246 0.637928
0.637831 0.292627 0.637831
0.722673 0.293387 0.637734
0.842006 0.294272 0.637541
0.984138 0.294650 0.637057
0.000000 0.454945 0.639038
0.100309 0.455093 0.638749
0.291482 0.454648 0.638024
0.454276 0.454276 0.637396
0.556297 0.454499 0.637299
0.637299 0.454796 0.637299
0.722343 0.455093 0.637202
0.841871 0.455093 0.636912
0.983836 0.455019 0.636427
0.000000 0.557390 0.638845
0.100700 0.557390 0.638604
0.292118 0.556757 0.637831
0.454499 0.556297 0.637299
0.556297 0.556297 0.637057
0.637057 0.556469 0.637057
0.722220 0.556527 0.636960
0.842242 0.556412 0.636718
0.983946 0.556124 0.636282
0.000000 0.638797 0.638797
0.101479 0.638652 0.638652
0.292881 0.637831 0.637831
0.454796 0.637251 0.637251
0.556469 0.637009 0.637009
0.637009 0.637009 0.637009
0.722343 0.636960 0.636960
0.842646 0.636718 0.636718
0.984193 0.636330 0.636330
0.000000 0.723453 0.638749
0.101867 0.723289 0.638507
0.293640 0.722714 0.637734
0.455093 0.722261 0.637202
0.556527 0.722302 0.637009
0.636960 0.722343 0.636960
0.722467 0.722467 0.636960
0.843015 0.722302 0.636670
0.984439 0.722014 0.636233
0.000000 0.842107 0.638411
0.102253 0.842343 0.638266
0.294272 0.841972 0.637493
0.455093 0.841939 0.636912
0.556412 0.842208 0.636718
0.636718 0.842646 0.636718
0.722302 0.843015 0.636670
0.843184 0.843184 0.636330
0.984439 0.843217 0.636039
0.000000 0.984631 0.638073
0.102637 0.984686 0.637831
0.294019 0.984138 0.636912
0.454945 0.983836 0.636476
0.556124 0.983946 0.636330
0.636330 0.984193 0.636330
0.721891 0.984439 0.636136
0.843184 0.984439 0.635991
0.984247 0.984247 0.635505
0.000000 0.000000 0.724397
0.100700 0.000000 0.724274
0.291099 0.000000 0.723823
0.455167 0.000000 0.723248
0.557562 0.000000 0.723330
0.638749 0.000000 0.723453
0.723494 0.000000 0.723494
0.842612 0.000000 0.723412
0.984850 0.000000 0.723001
0.000000 0.100700 0.724151
0.101090 0.101090 0.724520
0.291737 0.100700 0.723741
0.455242 0.100700 0.723166
0.557447 0.101479 0.723207
0.638556 0.101867 0.723371
0.723330 0.102637 0.723330
0.842814 0.103021 0.723248
0.984905 0.102637 0.723001
0.000000 0.291099 0.723700
0.100700 0.291737 0.723659
0.291737 0.291737 0.723001
0.454796 0.292118 0.722673
0.556872 0.292881 0.722714
0.637734 0.293514 0.722714
0.722755 0.294272 0.722755
0.842477 0.295027 0.722631
0.984384 0.295404 0.722385
0.000000 0.455242 0.723371
0.100700 0.455390 0.723371
0.292246 0.454871 0.722673
0.454573 0.454573 0.722220
0.556412 0.454796 0.722179
0.637154 0.455019 0.722302
0.722426 0.455316 0.722426
0.842376 0.455316 0.722179
0.984083 0.455167 0.721850
0.000000 0.557562 0.723248
0.101479 0.557504 0.723207
0.292627 0.556872 0.722631
0.454796 0.556412 0.722138
0.556354 0.556354 0.722138
0.637057 0.556527 0.722302
0.722343 0.556642 0.722343
0.842679 0.556469 0.722179
0.984193 0.556181 0.721891
0.000000 0.638749 0.723453
0.101867 0.638556 0.723330
0.293640 0.637734 0.722673
0.455093 0.637202 0.722302
0.556527 0.637009 0.722220
0.637009 0.637009 0.722385
0.722467 0.636960 0.722467
0.843015 0.636573 0.722261
0.984439 0.636185 0.721973
0.000000 0.723535 0.723535
0.102637 0.723453 0.723453
0.294398 0.722878 0.722878
0.455316 0.722343 0.722343
0.556642 0.722302 0.722302
0.636960 0.722467 0.722467
0.722549 0.722549 0.722549
0.843452 0.722385 0.722385
0.984686 0.722055 0.722055
0.000000 0.842578 0.723371
0.103021 0.842847 0.723289
0.295027 0.842410 0.722673
0.455316 0.842376 0.722179
0.556469 0.842578 0.722179
0.636670 0.843015 0.722302
0.722426 0.843452 0.722426
0.843587 0.843587 0.722179
0.984631 0.843553 0.721850
0.000000 0.984877 0.723042
0.103403 0.984905 0.723001
0.295153 0.984384 0.722385
0.455093 0.984056 0.721808
0.556181 0.984193 0.721850
0.636282 0.984439 0.722014
0.721973 0.984686 0.721973
0.843654 0.984631 0.721932
0.984439 0.984439 0.721396
0.000000 0.000000 0.841332
0.101090 0.000000 0.842073
0.291609 0.000000 0.841400
0.455242 0.000000 0.841197
0.557562 0.000000 0.841905
0.638411 0.000000 0.842174
0.723453 0.000000 0.842612
0.842814 0.000000 0.842814
0.984795 0.000000 0.842713
0.000000 0.101090 0.841737
0.101479 0.101479 0.842073
0.292246 0.101090 0.841602
0.455390 0.101090 0.841636
0.557390 0.101867 0.841972
0.638218 0.102253 0.842309
0.723207 0.103021 0.842679
0.842948 0.103403 0.842948
0.984850 0.103784 0.842881
0.000000 0.291609 0.841568
0.101090 0.292373 0.841838
0.292373 0.292373 0.841433
0.454945 0.292500 0.841265
0.556700 0.293514 0.841669
0.637541 0.294272 0.842006
0.722590 0.294775 0.842376
0.842612 0.295529 0.842612
0.984302 0.295655 0.842578
0.000000 0.455167 0.841265
0.101090 0.455390 0.841602
0.292754 0.454945 0.841366
0.454648 0.454648 0.841197
0.556354 0.454796 0.841467
0.636863 0.455093 0.841905
0.722261 0.455316 0.842410
0.842477 0.455316 0.842477
0.984001 0.455242 0.842477
0.000000 0.557390 0.841636
0.101867 0.557390 0.841905
0.293134 0.556757 0.841602
0.454796 0.556297 0.841400
0.556239 0.556239 0.841770
0.636767 0.556412 0.842275
0.722179 0.556469 0.842578
0.842814 0.556297 0.842814
0.984138 0.556008 0.842780
0.000000 0.638459 0.842174
0.102253 0.638266 0.842410
0.294272 0.637493 0.841972
0.455093 0.636912 0.841939
0.556412 0.636718 0.842208
0.636718 0.636718 0.842646
0.722302 0.636670 0.843015
0.843217 0.636379 0.843217
0.984439 0.635991 0.843184
0.000000 0.723412 0.842612
0.103021 0.723289 0.842847
0.295027 0.722631 0.842376
0.455316 0.722179 0.842376
0.556469 0.722138 0.842578
0.636670 0.722261 0.843015
0.722426 0.722426 0.843452
0.843587 0.722179 0.843587
0.984631 0.721850 0.843553
0.000000 0.842713 0.842713
0.103403 0.842948 0.842948
0.295529 0.842578 0.842578
0.455316 0.842545 0.842545
0.556354 0.842746 0.842746
0.636476 0.843217 0.843217
0.722138 0.843553 0.843553
0.843755 0.843755 0.843755
0.984631 0.843755 0.843755
0.000000 0.984850 0.842713
0.104163 0.984877 0.842915
0.295529 0.984302 0.842578
0.455316 0.984001 0.842477
0.555893 0.984138 0.842746
0.636039 0.984439 0.843217
0.721891 0.984631 0.843587
0.843721 0.984631 0.843721
0.984439 0.984439 0.843822
0.000000 0.000000 0.985014
0.101090 0.000000 0.985206
0.291991 0.000000 0.984439
0.455167 0.000000 0.984247
0.557045 0.000000 0.984275
0.638121 0.000000 0.984686
0.723042 0.000000 0.984905
0.842612 0.000000 0.984768
0.984658 0.000000 0.984658
0.000000 0.101090 0.985233
0.101479 0.101479 0.985069
0.292754 0.101479 0.984795
0.455316 0.101479 0.984412
0.557045 0.102253 0.984384
0.637831 0.102637 0.984686
0.723001 0.103403 0.984877
0.842881 0.104163 0.984850
0.984686 0.104163 0.984686
0.000000 0.292246 0.984549
0.101479 0.292627 0.984686
0.292754 0.292754 0.984138
0.454722 0.292881 0.983836
0.556354 0.293767 0.983891
0.637057 0.294650 0.984138
0.722343 0.295153 0.984384
0.842578 0.295906 0.984302
0.984138 0.296031 0.984138
0.000000 0.455167 0.984247
0.101479 0.455167 0.984275
0.293261 0.454796 0.983836
0.454425 0.454425 0.983507
0.556008 0.454648 0.983590
0.636427 0.454796 0.983836
0.721850 0.455093 0.984083
0.842444 0.455167 0.984001
0.983891 0.455093 0.983891
0.000000 0.557102 0.984357
0.101867 0.557102 0.984467
0.293514 0.556412 0.983891
0.454648 0.556008 0.983590
0.555951 0.555951 0.983699
0.636282 0.556181 0.983946
0.721891 0.556239 0.984193
0.842780 0.556066 0.984138
0.983946 0.555720 0.983946
0.000000 0.638073 0.984658
0.103021 0.637831 0.984713
0.294650 0.637057 0.984138
0.455019 0.636427 0.983836
0.556124 0.636282 0.983946
0.636282 0.636282 0.984193
0.722014 0.636233 0.984439
0.843217 0.635991 0.984439
0.984247 0.635554 0.984247
0.000000 0.723001 0.984823
0.103784 0.723042 0.984960
0.295404 0.722343 0.984384
0.455167 0.721850 0.984056
0.556124 0.721850 0.984193
0.636233 0.721973 0.984439
0.722055 0.722055 0.984686
0.843553 0.721850 0.984631
0.984439 0.721561 0.984439
0.000000 0.842780 0.984877
0.104163 0.842982 0.984877
0.295780 0.842578 0.984302
0.455242 0.842477 0.984001
0.556066 0.842780 0.984138
0.635991 0.843184 0.984439
0.721932 0.843654 0.984631
0.843755 0.843755 0.984631
0.984439 0.843822 0.984439
0.000000 0.984686 0.984686
0.104542 0.984686 0.984686
0.296406 0.984138 0.984138
0.455167 0.983891 0.983891
0.555547 0.983946 0.983946
0.635554 0.984247 0.984247
0.721685 0.984439 0.984439
0.843788 0.984439 0.984439
0.984247 0.984247 0.984247
