Kodak Vision2 50D (5201) - Only color.cube
# Created by Benjamin (IWLTBAP) : http://luts.iwltbap.com
# Copyright: (C) Copyright 2010-2017 Triune Films and IWLTBAP SAS
# Cannot be resold, shared or otherwise redistributed
TITLE "Film Print Emulation LUTs Pack (Rec.709, sRGB, DCI-P3)"
LUT_3D_SIZE 5
0.001129 0.003265 0.007050
0.193542 0.002625 0.006012
0.324188 0.006592 0.005798
0.440582 0.008667 0.005890
0.587372 0.029205 0.006134
0.102417 0.207123 0.105988
0.255035 0.238617 0.050812
0.475555 0.203796 0.006256
0.691956 0.174622 0.007629
0.846619 0.181763 0.020325
0.303619 0.421844 0.169220
0.409058 0.433167 0.147949
0.626465 0.422699 0.095795
0.853027 0.389160 0.063873
0.971375 0.389191 0.129547
0.477570 0.603760 0.225525
0.572754 0.630859 0.240051
0.782379 0.612396 0.199860
0.924866 0.606567 0.185028
0.995056 0.611603 0.237457
0.525665 0.761719 0.341583
0.571655 0.793457 0.373749
0.849335 0.789459 0.308228
0.983215 0.790619 0.282867
0.999908 0.804230 0.317169
0.002991 0.042328 0.135468
0.094116 0.062500 0.184753
0.278290 0.021484 0.075714
0.429535 0.031067 0.041260
0.601440 0.048401 0.041412
0.080811 0.241608 0.260895
0.229126 0.276154 0.271698
0.449341 0.249481 0.198944
0.684265 0.250916 0.188263
0.866486 0.244080 0.196442
0.234070 0.436371 0.316681
0.366577 0.480713 0.333160
0.573151 0.479858 0.296051
0.810760 0.452179 0.256470
0.968140 0.473114 0.280731
0.372498 0.616821 0.355865
0.484070 0.672729 0.390320
0.680725 0.671631 0.367676
0.881866 0.674164 0.340393
0.988953 0.674469 0.365356
0.476501 0.769623 0.408813
0.490631 0.798340 0.493927
0.818481 0.831329 0.440460
0.944916 0.836639 0.437714
0.999084 0.867432 0.489868
0.062683 0.125427 0.272400
0.084320 0.130981 0.313812
0.222473 0.098938 0.269623
0.345032 0.074310 0.217072
0.553894 0.097168 0.200806
0.090424 0.286591 0.403564
0.189850 0.321320 0.446198
0.337189 0.318604 0.412415
0.574402 0.288116 0.352142
0.808899 0.281006 0.334045
0.190613 0.474243 0.507263
0.289673 0.512573 0.531372
0.474426 0.528137 0.515564
0.698914 0.509094 0.466522
0.917725 0.517334 0.465668
0.296997 0.664948 0.556396
0.363708 0.700623 0.586609
0.610077 0.712769 0.576324
0.821075 0.736420 0.576324
0.964905 0.741455 0.556641
0.360535 0.797760 0.597473
0.394287 0.820648 0.662872
0.662109 0.862671 0.631012
0.903137 0.898682 0.640900
0.996796 0.923431 0.706879
0.075317 0.179108 0.394928
0.079071 0.191071 0.431061
0.197937 0.165222 0.387817
0.324707 0.147522 0.346802
0.439514 0.129608 0.312592
0.103394 0.320190 0.522095
0.157349 0.355011 0.583557
0.301422 0.354065 0.549927
0.462250 0.328888 0.496155
0.649689 0.318237 0.471313
0.192688 0.501404 0.677063
0.262268 0.545532 0.710907
0.421692 0.567078 0.697784
0.616852 0.549713 0.638672
0.857361 0.532623 0.612732
0.275146 0.683746 0.729218
0.358429 0.731964 0.755737
0.536224 0.747833 0.736389
0.752747 0.767426 0.739594
0.937561 0.785675 0.739410
0.322296 0.816132 0.747559
0.378265 0.841522 0.783020
0.570984 0.880981 0.762238
0.847107 0.919830 0.792908
0.992004 0.965546 0.890381
0.082001 0.214081 0.506012
0.085327 0.223938 0.539062
0.185364 0.203735 0.500458
0.305817 0.201447 0.461731
0.410583 0.172577 0.414001
0.113617 0.330841 0.647247
0.153107 0.364136 0.703552
0.269348 0.383118 0.695312
0.413788 0.354828 0.617035
0.574493 0.325867 0.542480
0.192841 0.519379 0.766907
0.236206 0.552246 0.788422
0.392639 0.612213 0.788452
0.571747 0.604309 0.761200
0.757843 0.545715 0.717529
0.263123 0.696808 0.841003
0.311005 0.733917 0.880005
0.469299 0.772583 0.881409
0.688660 0.809570 0.900269
0.894379 0.798859 0.865356
0.301910 0.821869 0.887482
0.362396 0.849030 0.917480
0.527130 0.888885 0.915131
0.823975 0.941223 0.962921
0.996399 0.999969 0.999969
