Kodak Eastman Color Negative 50T (5251) - Only color.cube
# Created by Benjamin (IWLTBAP) : http://luts.iwltbap.com
# Copyright: (C) Copyright 2010-2017 Triune Films and IWLTBAP SAS
# Cannot be resold, shared or otherwise redistributed
TITLE "Film Print Emulation LUTs Pack (Rec.709, sRGB, DCI-P3)"
LUT_3D_SIZE 5
0.000000 0.000000 0.000000
0.256805 0.000153 0.000061
0.548981 0.000061 0.000000
0.797668 0.000275 0.000000
1.000000 0.000793 0.000397
0.000000 0.252167 0.000092
0.257111 0.252136 0.000153
0.549072 0.251831 0.000000
0.797455 0.251862 0.000061
1.000000 0.252167 0.000488
0.000000 0.507568 0.000153
0.257385 0.507599 0.000214
0.549133 0.507385 0.000031
0.797180 0.507477 0.000122
1.000000 0.507843 0.000549
0.000000 0.753571 0.000305
0.257751 0.753510 0.000336
0.549255 0.753204 0.000153
0.796967 0.753174 0.000275
1.000000 0.753479 0.000671
0.000000 1.000000 0.000397
0.258087 1.000000 0.000458
0.549377 1.000000 0.000275
0.796722 1.000000 0.000366
1.000000 1.000000 0.023895
0.000000 0.000244 0.241241
0.257172 0.000427 0.240845
0.549164 0.000336 0.240234
0.797516 0.000580 0.239899
1.000000 0.001068 0.239868
0.000000 0.252258 0.240906
0.257507 0.252197 0.240509
0.549255 0.251923 0.239868
0.797272 0.251953 0.239563
1.000000 0.252258 0.239502
0.000000 0.507721 0.240509
0.257782 0.507751 0.240112
0.549316 0.507538 0.239502
0.796997 0.507629 0.239166
1.000000 0.507996 0.239136
0.000000 0.753632 0.240204
0.258148 0.753540 0.239807
0.549438 0.753235 0.239197
0.796814 0.753235 0.238861
1.000000 0.753540 0.238831
0.000000 1.000000 0.239868
0.258484 1.000000 0.239471
0.549561 1.000000 0.238861
0.796570 1.000000 0.238525
1.000000 1.000000 0.238495
0.000000 0.000793 0.443573
0.257843 0.000977 0.443329
0.549591 0.000885 0.442841
0.797607 0.001099 0.442688
1.000000 0.001617 0.442780
0.000000 0.252594 0.443390
0.258148 0.252533 0.443146
0.549683 0.252258 0.442657
0.797363 0.252289 0.442474
1.000000 0.252594 0.442596
0.000000 0.508118 0.443146
0.258453 0.508148 0.442902
0.549744 0.507935 0.442444
0.797089 0.508026 0.442261
1.000000 0.508392 0.442383
0.000000 0.753937 0.442993
0.258820 0.753845 0.442749
0.549866 0.753540 0.442291
0.796875 0.753540 0.442108
1.000000 0.753845 0.442230
0.000000 1.000000 0.442810
0.259155 1.000000 0.442566
0.549988 1.000000 0.442108
0.796661 1.000000 0.441956
1.000000 1.000000 0.442078
0.000000 0.001007 0.698730
0.258118 0.001129 0.698914
0.549652 0.001068 0.698883
0.797333 0.001282 0.699158
1.000000 0.001770 0.699738
0.000000 0.252563 0.698975
0.258453 0.252502 0.699158
0.549744 0.252228 0.699158
0.797089 0.252258 0.699432
1.000000 0.252563 0.700012
0.000000 0.508179 0.699188
0.258728 0.508179 0.699402
0.549805 0.507965 0.699371
0.796814 0.508057 0.699677
1.000000 0.508423 0.700226
0.000000 0.753876 0.699493
0.259094 0.753784 0.699677
0.549927 0.753479 0.699677
0.796600 0.753479 0.699982
1.000000 0.753754 0.700562
0.000000 1.000000 0.699768
0.259430 1.000000 0.699951
0.550049 1.000000 0.699951
0.796356 1.000000 0.700256
1.000000 1.000000 0.700836
0.000000 0.000885 0.993713
0.258148 0.001038 0.994415
0.549438 0.000946 0.994720
0.796783 0.001129 0.995300
1.000000 0.001617 0.996094
0.000000 0.252258 0.994476
0.258453 0.252197 0.994995
0.549530 0.251923 0.995270
0.796509 0.251953 0.995789
1.000000 0.252258 0.996521
0.000000 0.507935 0.995026
0.258759 0.507935 0.995514
0.549591 0.507690 0.995728
0.796234 0.507782 0.996155
1.000000 0.508148 0.996826
0.000000 0.753540 0.995605
0.259125 0.753448 0.996033
0.549713 0.753143 0.996185
0.796021 0.753143 0.996552
1.000000 0.753418 0.997131
0.000000 1.000000 0.996124
0.259460 1.000000 0.996460
0.549835 1.000000 0.996521
0.795776 1.000000 0.996826
1.000000 1.000000 0.995667
