Kodak Vision2 200T (5217) - Look.cube
# Created by Benjamin (IWLTBAP) : http://luts.iwltbap.com
# Copyright: (C) Copyright 2010-2017 Triune Films and IWLTBAP SAS
# Cannot be resold, shared or otherwise redistributed
TITLE "Film Print Emulation LUTs Pack (Rec.709, sRGB, DCI-P3)"
LUT_3D_SIZE 5
0.000000 0.000000 0.001160
0.211761 0.027283 0.030029
0.420074 0.039673 0.041626
0.636536 0.060516 0.062103
0.848846 0.131653 0.131836
0.000000 0.113556 0.000000
0.212341 0.203064 0.043427
0.440277 0.207550 0.054596
0.671875 0.227905 0.084564
0.879700 0.300537 0.159149
0.000000 0.243317 0.000000
0.070343 0.288116 0.003387
0.444733 0.425568 0.075653
0.710449 0.467682 0.119354
0.917053 0.520203 0.211456
0.000000 0.362946 0.011810
0.005188 0.389862 0.018097
0.390839 0.593445 0.038879
0.724731 0.702209 0.158112
0.939484 0.735443 0.265778
0.000000 0.481842 0.070740
0.000000 0.504272 0.076721
0.291534 0.687592 0.039337
0.664612 0.871582 0.137360
0.950012 0.944702 0.323151
0.000000 0.000000 0.285950
0.255432 0.059296 0.258789
0.437012 0.052673 0.207672
0.653076 0.070923 0.213501
0.861938 0.139832 0.285583
0.000000 0.213776 0.245941
0.216797 0.209625 0.259796
0.459625 0.208893 0.211182
0.692719 0.241364 0.242798
0.896576 0.326294 0.332550
0.000000 0.290894 0.132416
0.043488 0.312988 0.110687
0.464783 0.449036 0.205688
0.729675 0.482300 0.284058
0.923279 0.526001 0.364197
0.000000 0.367188 0.000000
0.003967 0.396179 0.008148
0.371613 0.596710 0.125305
0.727539 0.710175 0.286224
0.942047 0.740662 0.404572
0.000000 0.488159 0.044739
0.000000 0.514801 0.056824
0.229309 0.648865 0.089081
0.645477 0.872742 0.199097
0.951904 0.948517 0.438965
0.000519 0.000000 0.519318
0.241089 0.000000 0.550446
0.514435 0.095886 0.513794
0.711273 0.128021 0.472809
0.885284 0.179688 0.479004
0.000000 0.216003 0.530365
0.119598 0.162567 0.571838
0.539490 0.191681 0.546661
0.759399 0.285736 0.514343
0.908752 0.359344 0.524078
0.000000 0.407562 0.466064
0.000946 0.433868 0.491333
0.472656 0.469604 0.504944
0.771912 0.506073 0.508698
0.928925 0.543274 0.546936
0.000000 0.505066 0.391052
0.006714 0.531586 0.398987
0.277527 0.632690 0.392151
0.749146 0.730927 0.464203
0.944489 0.749512 0.566071
0.000000 0.577759 0.353149
0.000000 0.589722 0.337738
0.137848 0.662689 0.323059
0.612579 0.890808 0.280823
0.954895 0.953064 0.560364
0.018036 0.000000 0.724091
0.234192 0.000000 0.771210
0.556000 0.119019 0.778229
0.779877 0.256256 0.768341
0.902466 0.314972 0.718719
0.000000 0.245911 0.757904
0.000000 0.187622 0.810120
0.562805 0.131592 0.813873
0.821472 0.374329 0.811249
0.918915 0.453766 0.762329
0.000000 0.445740 0.698059
0.000000 0.473297 0.730499
0.380768 0.414001 0.773102
0.804688 0.517273 0.797913
0.927399 0.591187 0.771881
0.000000 0.576874 0.621613
0.000000 0.600647 0.637085
0.089722 0.640625 0.671570
0.701324 0.735931 0.693848
0.933350 0.765869 0.781494
0.000000 0.632935 0.576599
0.000000 0.639130 0.573334
0.095764 0.694397 0.588348
0.503143 0.890961 0.636047
0.946747 0.948944 0.765808
0.043152 0.000000 0.839386
0.224945 0.065460 0.847290
0.500488 0.202057 0.871460
0.773987 0.338806 0.904541
0.910675 0.463165 0.903198
0.002563 0.239349 0.836792
0.143097 0.223694 0.836456
0.486603 0.205658 0.867645
0.803040 0.401489 0.909668
0.920624 0.543945 0.913086
0.000000 0.460999 0.823120
0.000000 0.512054 0.810486
0.279907 0.385223 0.843414
0.769867 0.467194 0.905212
0.923584 0.639587 0.917145
0.000000 0.618103 0.730408
0.000000 0.628235 0.718872
0.029785 0.639435 0.745026
0.619690 0.624969 0.889435
0.924377 0.769958 0.918915
0.000000 0.653748 0.682587
0.000000 0.659973 0.678864
0.035126 0.683685 0.697327
0.209442 0.846405 0.856781
0.929962 0.934814 0.926178
