Kodak Vision 800T (5289) - Only contrast.cube
# Created by Benjamin (IWLTBAP) : http://luts.iwltbap.com
# Copyright: (C) Copyright 2010-2017 Triune Films and IWLTBAP SAS
# Cannot be resold, shared or otherwise redistributed
TITLE "Film Print Emulation LUTs Pack (Rec.709, sRGB, DCI-P3)"
LUT_3D_SIZE 5
0.000000 0.000000 0.000000
0.218506 0.000977 0.000977
0.487030 0.001709 0.001709
0.743713 0.002502 0.002502
0.890198 0.004120 0.004120
0.000977 0.218506 0.000977
0.218597 0.218597 0.002045
0.487549 0.218353 0.002777
0.743591 0.218170 0.003632
0.889404 0.218781 0.005280
0.001709 0.487030 0.001709
0.218353 0.487549 0.002777
0.487701 0.487701 0.003571
0.743103 0.487976 0.004425
0.888245 0.488983 0.006042
0.002502 0.743713 0.002502
0.218170 0.743591 0.003632
0.487976 0.743103 0.004425
0.742676 0.742676 0.005310
0.887207 0.743011 0.006927
0.004120 0.890198 0.004120
0.218781 0.889404 0.005280
0.488983 0.888245 0.006042
0.743011 0.887207 0.006927
0.886810 0.886749 0.034668
0.000977 0.000977 0.218506
0.218597 0.002045 0.218597
0.487549 0.002777 0.218353
0.743591 0.003632 0.218170
0.889404 0.005280 0.218781
0.002045 0.218597 0.218597
0.218719 0.218719 0.218719
0.488098 0.218445 0.218445
0.743500 0.218292 0.218292
0.888672 0.218933 0.218933
0.002777 0.487549 0.218353
0.218445 0.488098 0.218445
0.488251 0.488251 0.218201
0.742981 0.488495 0.218048
0.887512 0.489532 0.218689
0.003632 0.743591 0.218170
0.218292 0.743500 0.218292
0.488495 0.742981 0.218048
0.742554 0.742554 0.217926
0.886475 0.742889 0.218567
0.005280 0.889404 0.218781
0.218933 0.888672 0.218933
0.489532 0.887512 0.218689
0.742889 0.886475 0.218567
0.886200 0.886200 0.219208
0.001709 0.001709 0.487030
0.218353 0.002777 0.487549
0.487701 0.003571 0.487701
0.743103 0.004425 0.487976
0.888245 0.006042 0.488983
0.002777 0.218353 0.487549
0.218445 0.218445 0.488098
0.488251 0.218201 0.488251
0.742981 0.218048 0.488495
0.887512 0.218689 0.489532
0.003571 0.487701 0.487701
0.218201 0.488251 0.488251
0.488403 0.488403 0.488403
0.742432 0.488647 0.488647
0.886353 0.489685 0.489685
0.004425 0.743103 0.487976
0.218048 0.742981 0.488495
0.488647 0.742432 0.488647
0.742035 0.742035 0.488922
0.885315 0.742340 0.489960
0.006042 0.888245 0.488983
0.218689 0.887512 0.489532
0.489685 0.886353 0.489685
0.742340 0.885315 0.489960
0.885040 0.885040 0.490997
0.002502 0.002502 0.743713
0.218170 0.003632 0.743591
0.487976 0.004425 0.743103
0.742676 0.005310 0.742676
0.887207 0.006927 0.743011
0.003632 0.218170 0.743591
0.218292 0.218292 0.743500
0.488495 0.218048 0.742981
0.742554 0.217926 0.742554
0.886475 0.218567 0.742889
0.004425 0.487976 0.743103
0.218048 0.488495 0.742981
0.488647 0.488647 0.742432
0.742035 0.488922 0.742035
0.885315 0.489960 0.742340
0.005310 0.742676 0.742676
0.217926 0.742554 0.742554
0.488922 0.742035 0.742035
0.741608 0.741608 0.741608
0.884277 0.741943 0.741943
0.006927 0.887207 0.743011
0.218567 0.886475 0.742889
0.489960 0.885315 0.742340
0.741943 0.884277 0.741943
0.884033 0.884033 0.742249
0.004120 0.004120 0.890167
0.218781 0.005280 0.889404
0.488983 0.006042 0.888245
0.743011 0.006927 0.887207
0.886932 0.008514 0.886932
0.005280 0.218781 0.889404
0.218933 0.218933 0.888672
0.489532 0.218689 0.887512
0.742889 0.218567 0.886475
0.886200 0.219208 0.886200
0.006042 0.488983 0.888245
0.218689 0.489532 0.887512
0.489685 0.489685 0.886353
0.742340 0.489960 0.885315
0.885040 0.490997 0.885040
0.006927 0.743011 0.887207
0.218567 0.742889 0.886475
0.489960 0.742340 0.885315
0.741943 0.741943 0.884277
0.884033 0.742249 0.884033
0.008514 0.886932 0.886932
0.219208 0.886200 0.886200
0.490997 0.885040 0.885040
0.742249 0.884033 0.884033
0.883789 0.883789 0.883789
