Kodak Vision3 500T (5219) - Look 2.cube
# Created by Benjamin (IWLTBAP) : http://luts.iwltbap.com
# Copyright: (C) Copyright 2010-2017 Triune Films and IWLTBAP SAS
# Cannot be resold, shared or otherwise redistributed
TITLE "Film Print Emulation LUTs Pack (Rec.709, sRGB, DCI-P3)"
LUT_3D_SIZE 33
0.000000 0.000793 0.000000
0.012665 0.003021 0.000000
0.026825 0.005280 0.000000
0.046844 0.009796 0.000000
0.072357 0.013580 0.000000
0.091614 0.020386 0.000000
0.110596 0.028687 0.000000
0.132599 0.038483 0.000000
0.151398 0.049469 0.000000
0.171448 0.056152 0.000000
0.192291 0.060669 0.000000
0.212891 0.065460 0.000000
0.231598 0.071442 0.000000
0.250092 0.077515 0.000000
0.269592 0.083221 0.000000
0.289612 0.089417 0.000000
0.309967 0.096008 0.000000
0.330505 0.103607 0.000000
0.353638 0.109741 0.000000
0.374390 0.118073 0.000000
0.397675 0.125000 0.000000
0.419464 0.133209 0.000000
0.441315 0.141724 0.000000
0.461884 0.151672 0.000000
0.481659 0.162811 0.000000
0.502167 0.173370 0.000000
0.523438 0.183502 0.000000
0.543427 0.195068 0.000000
0.565033 0.205231 0.000000
0.584167 0.217987 0.000000
0.606018 0.229187 0.000000
0.626984 0.241516 0.000000
0.653717 0.249878 0.000000
0.006287 0.019714 0.000000
0.025238 0.020508 0.000000
0.048187 0.025665 0.000000
0.072510 0.027649 0.000000
0.092987 0.030243 0.000000
0.111511 0.035461 0.000000
0.128357 0.043030 0.000000
0.143402 0.052429 0.000000
0.160522 0.059387 0.000000
0.179321 0.064362 0.000000
0.200226 0.067627 0.000000
0.219330 0.072144 0.000000
0.239716 0.076019 0.000000
0.257385 0.082306 0.000000
0.275238 0.088623 0.000000
0.295807 0.093811 0.000000
0.315826 0.100891 0.000000
0.336151 0.108246 0.000000
0.358917 0.113892 0.000000
0.379150 0.122589 0.000000
0.402252 0.129059 0.000000
0.424316 0.136536 0.000000
0.445038 0.145660 0.000000
0.464630 0.156342 0.000000
0.486511 0.165253 0.000000
0.505859 0.176544 0.000000
0.527679 0.185944 0.000000
0.546783 0.197968 0.000000
0.566315 0.209900 0.000000
0.587158 0.220978 0.000000
0.607117 0.233582 0.000000
0.630096 0.244141 0.000000
0.654663 0.254211 0.000000
0.015778 0.041748 0.000000
0.031525 0.042511 0.000000
0.052979 0.043243 0.000000
0.074677 0.049103 0.000000
0.105347 0.055298 0.000000
0.125092 0.057129 0.000000
0.141296 0.061829 0.000000
0.155579 0.066895 0.000000
0.169891 0.071136 0.000000
0.187561 0.074890 0.000000
0.205933 0.078125 0.000000
0.225006 0.081726 0.000000
0.246368 0.083984 0.000000
0.264954 0.088593 0.000000
0.282410 0.094513 0.000000
0.302521 0.099762 0.000000
0.323151 0.105499 0.000000
0.343079 0.112915 0.000000
0.364441 0.119293 0.000000
0.386017 0.126221 0.000000
0.407074 0.133911 0.000000
0.428741 0.141449 0.000000
0.449890 0.149811 0.000000
0.470001 0.159576 0.000000
0.489166 0.170441 0.000000
0.509857 0.180420 0.000000
0.529724 0.191193 0.000000
0.550476 0.201508 0.000000
0.569855 0.213287 0.000000
0.590668 0.224365 0.000000
0.610352 0.236938 0.000000
0.633331 0.247406 0.000000
0.657867 0.257385 0.000000
0.025238 0.067291 0.000000
0.041748 0.068390 0.000000
0.058044 0.068939 0.000000
0.075165 0.070526 0.000000
0.098846 0.073242 0.000000
0.132782 0.083130 0.000000
0.152710 0.084656 0.000000
0.167572 0.085907 0.000000
0.182678 0.087433 0.000000
0.196960 0.090363 0.000000
0.213989 0.092773 0.000000
0.233124 0.094879 0.000000
0.252960 0.097046 0.000000
0.273041 0.099213 0.000000
0.292664 0.103119 0.000000
0.311218 0.108887 0.000000
0.331329 0.114105 0.000000
0.351868 0.120056 0.000000
0.372833 0.126068 0.000000
0.394104 0.132629 0.000000
0.415222 0.139679 0.000000
0.435089 0.147919 0.000000
0.456390 0.155701 0.000000
0.475342 0.165955 0.000000
0.495758 0.175201 0.000000
0.514435 0.186310 0.000000
0.533722 0.197266 0.000000
0.554138 0.207275 0.000000
0.573395 0.218872 0.000000
0.593872 0.230011 0.000000
0.613617 0.242279 0.000000
0.635956 0.253204 0.000000
0.662170 0.261627 0.000000
0.041748 0.092163 0.000000
0.055573 0.092590 0.000000
0.068939 0.092590 0.000000
0.087402 0.091736 0.000000
0.103790 0.092163 0.000000
0.120087 0.093018 0.000000
0.153442 0.105316 0.000000
0.181152 0.109863 0.000000
0.196014 0.109253 0.000000
0.211487 0.109528 0.000000
0.226349 0.110626 0.000000
0.242126 0.112366 0.000000
0.260742 0.113770 0.000000
0.281403 0.115326 0.000000
0.301422 0.117828 0.000000
0.321014 0.121826 0.000000
0.340759 0.126373 0.000000
0.362061 0.130554 0.000000
0.382629 0.135986 0.000000
0.403290 0.141998 0.000000
0.423920 0.148529 0.000000
0.444580 0.155518 0.000000
0.464508 0.163574 0.000000
0.483063 0.173523 0.000000
0.502960 0.182526 0.000000
0.521210 0.193329 0.000000
0.541016 0.203156 0.000000
0.559814 0.214172 0.000000
0.579803 0.224792 0.000000
0.598541 0.236908 0.000000
0.619751 0.247833 0.000000
0.642853 0.257812 0.000000
0.666992 0.267792 0.000000
0.061646 0.111511 0.000000
0.071564 0.111511 0.000000
0.083344 0.111145 0.000000
0.095886 0.111145 0.000000
0.109344 0.111511 0.000000
0.123993 0.112213 0.000000
0.140594 0.112915 0.000000
0.172577 0.124939 0.000000
0.207550 0.134399 0.000000
0.224823 0.133728 0.000000
0.239624 0.132751 0.000000
0.255707 0.132996 0.000000
0.271576 0.134033 0.000000
0.290710 0.135193 0.000000
0.310303 0.137115 0.000000
0.329987 0.139923 0.000000
0.350464 0.142822 0.000000
0.371094 0.146515 0.000000
0.392090 0.150696 0.000000
0.411743 0.156403 0.000000
0.433411 0.160889 0.000000
0.455383 0.165741 0.000000
0.473541 0.174408 0.000000
0.492249 0.183258 0.000000
0.510101 0.193176 0.000000
0.529419 0.202423 0.000000
0.548737 0.211914 0.000000
0.566833 0.222900 0.000000
0.586639 0.233154 0.000000
0.605042 0.245056 0.000000
0.626068 0.255707 0.000000
0.648590 0.265900 0.000000
0.672760 0.275635 0.000000
0.078125 0.129974 0.000000
0.085602 0.130280 0.000000
0.093842 0.130280 0.000000
0.104523 0.130280 0.000000
0.116364 0.130890 0.000000
0.128113 0.132111 0.000000
0.146149 0.131805 0.000000
0.160950 0.132996 0.000000
0.190826 0.143219 0.000000
0.227325 0.155609 0.000000
0.254456 0.159576 0.000000
0.269226 0.157654 0.000000
0.285706 0.157257 0.000000
0.302734 0.157928 0.000000
0.320343 0.159760 0.000000
0.340057 0.161316 0.000000
0.359894 0.163544 0.000000
0.381134 0.165558 0.000000
0.401642 0.168884 0.000000
0.422394 0.172485 0.000000
0.442871 0.176910 0.000000
0.463287 0.182068 0.000000
0.483521 0.187897 0.000000
0.502380 0.195587 0.000000
0.521210 0.203888 0.000000
0.539551 0.213013 0.000000
0.556671 0.223328 0.000000
0.575531 0.233154 0.000000
0.593170 0.244415 0.000000
0.613464 0.254486 0.000000
0.633820 0.265289 0.000000
0.657043 0.274536 0.000000
0.680176 0.284637 0.000000
0.089600 0.149933 0.000000
0.095886 0.149933 0.000000
0.102631 0.150208 0.000000
0.112213 0.150452 0.000000
0.123688 0.150726 0.000000
0.135376 0.151520 0.000000
0.147522 0.153076 0.000000
0.165588 0.153076 0.000000
0.182434 0.154114 0.000000
0.209991 0.162445 0.000000
0.247833 0.176727 0.000000
0.283325 0.186157 0.000000
0.300842 0.184570 0.000000
0.317413 0.183685 0.000000
0.334747 0.183777 0.000000
0.352875 0.184692 0.000000
0.371704 0.186188 0.000000
0.391479 0.187866 0.000000
0.412476 0.189575 0.000000
0.432983 0.192200 0.000000
0.452698 0.196136 0.000000
0.472321 0.200806 0.000000
0.492462 0.205811 0.000000
0.513367 0.210632 0.000000
0.531311 0.218567 0.000000
0.549530 0.226715 0.000000
0.567780 0.235504 0.000000
0.584991 0.245636 0.000000
0.604065 0.255371 0.000000
0.623291 0.265625 0.000000
0.643646 0.275970 0.000000
0.666687 0.285004 0.000000
0.689636 0.294861 0.000000
0.097931 0.170776 0.000000
0.104156 0.170990 0.000000
0.111481 0.170990 0.000000
0.120422 0.171234 0.000000
0.130585 0.171936 0.000000
0.143127 0.172394 0.000000
0.155670 0.173767 0.000000
0.168182 0.175568 0.000000
0.186066 0.176483 0.000000
0.206085 0.176910 0.000000
0.230103 0.183167 0.000000
0.269379 0.198059 0.000000
0.306152 0.209290 0.000000
0.333649 0.212830 0.000000
0.350220 0.211060 0.000000
0.367432 0.210571 0.000000
0.385284 0.210938 0.000000
0.404358 0.211670 0.000000
0.423676 0.213104 0.000000
0.443665 0.214966 0.000000
0.463257 0.217834 0.000000
0.482300 0.221741 0.000000
0.501648 0.226196 0.000000
0.522766 0.230103 0.000000
0.541504 0.236053 0.000000
0.560638 0.242493 0.000000
0.578644 0.250702 0.000000
0.596924 0.259491 0.000000
0.613861 0.269958 0.000000
0.632935 0.279724 0.000000
0.654083 0.289032 0.000000
0.677643 0.297150 0.000000
0.700836 0.306396 0.000000
0.107147 0.193542 0.000000
0.113251 0.193726 0.000000
0.120392 0.193726 0.000000
0.129669 0.193939 0.000000
0.139435 0.194550 0.000000
0.151520 0.195160 0.000000
0.163879 0.196167 0.000000
0.177155 0.197540 0.000000
0.190674 0.199524 0.000000
0.209473 0.200500 0.000000
0.230774 0.200897 0.000000
0.252777 0.204285 0.000000
0.291626 0.219635 0.000000
0.329010 0.232269 0.000000
0.365875 0.241394 0.000000
0.383270 0.239258 0.000000
0.400269 0.238220 0.000000
0.417938 0.238190 0.000000
0.436859 0.238373 0.000000
0.455902 0.239532 0.000000
0.474884 0.241516 0.000000
0.494507 0.243927 0.000000
0.512573 0.248108 0.000000
0.531799 0.252167 0.000000
0.551117 0.256836 0.000000
0.571075 0.261902 0.000000
0.591187 0.267700 0.000000
0.608704 0.276215 0.000000
0.625946 0.285767 0.000000
0.644867 0.295166 0.000000
0.667175 0.302917 0.000000
0.688934 0.311859 0.000000
0.713287 0.319672 0.000000
0.116028 0.217468 0.000000
0.122711 0.217316 0.000000
0.128418 0.217651 0.000000
0.138000 0.217651 0.000000
0.148590 0.218018 0.000000
0.160461 0.218536 0.000000
0.173065 0.219421 0.000000
0.186066 0.220673 0.000000
0.200317 0.222229 0.000000
0.214050 0.224335 0.000000
0.231262 0.225861 0.000000
0.256073 0.225342 0.000000
0.276337 0.226715 0.000000
0.314301 0.241608 0.000000
0.351868 0.255035 0.000000
0.389008 0.265198 0.000000
0.416046 0.268127 0.000000
0.433350 0.266449 0.000000
0.451050 0.265900 0.000000
0.468445 0.266541 0.000000
0.487061 0.267487 0.000000
0.506592 0.268829 0.000000
0.525818 0.270935 0.000000
0.544098 0.274536 0.000000
0.562317 0.279114 0.000000
0.581085 0.284119 0.000000
0.600769 0.289429 0.000000
0.621155 0.295197 0.000000
0.639221 0.303558 0.000000
0.659485 0.311279 0.000000
0.680542 0.319305 0.000000
0.703308 0.326874 0.000000
0.725342 0.335602 0.000000
0.125916 0.241974 0.000000
0.132996 0.241821 0.000000
0.138306 0.242157 0.000000
0.146973 0.242157 0.000000
0.157196 0.242462 0.000000
0.169373 0.242767 0.000000
0.182220 0.243561 0.000000
0.195557 0.244507 0.000000
0.209290 0.245758 0.000000
0.223633 0.247467 0.000000
0.238647 0.249451 0.000000
0.253540 0.251892 0.000000
0.280640 0.250824 0.000000
0.302216 0.251587 0.000000
0.337189 0.264191 0.000000
0.375092 0.277893 0.000000
0.412079 0.288971 0.000000
0.448853 0.297638 0.000000
0.466278 0.295593 0.000000
0.483795 0.294586 0.000000
0.501587 0.294617 0.000000
0.519104 0.295715 0.000000
0.537537 0.297333 0.000000
0.556915 0.299225 0.000000
0.576355 0.302124 0.000000
0.594727 0.306488 0.000000
0.613678 0.311615 0.000000
0.633240 0.317230 0.000000
0.653748 0.323273 0.000000
0.674896 0.329712 0.000000
0.695679 0.337128 0.000000
0.717865 0.344360 0.000000
0.740723 0.351715 0.000000
0.137726 0.266510 0.000000
0.142822 0.266632 0.000000
0.148865 0.266785 0.000000
0.156677 0.266937 0.000000
0.166290 0.267212 0.000000
0.177826 0.267487 0.000000
0.192322 0.267639 0.000000
0.205505 0.268494 0.000000
0.219269 0.269592 0.000000
0.233246 0.271118 0.000000
0.247772 0.272919 0.000000
0.263214 0.274841 0.000000
0.278229 0.277435 0.000000
0.304504 0.276886 0.000000
0.328583 0.276886 0.000000
0.358124 0.288055 0.000000
0.398651 0.301086 0.000000
0.435608 0.312897 0.000000
0.472687 0.322662 0.000000
0.498871 0.325165 0.000000
0.516541 0.323792 0.000000
0.534668 0.323395 0.000000
0.552338 0.324249 0.000000
0.570587 0.325928 0.000000
0.589478 0.328125 0.000000
0.609863 0.330627 0.000000
0.628571 0.335052 0.000000
0.647797 0.340179 0.000000
0.667999 0.345612 0.000000
0.690643 0.350281 0.000000
0.712585 0.356232 0.000000
0.732941 0.363708 0.000000
0.755219 0.370605 0.000000
0.156433 0.290192 0.004730
0.159943 0.290436 0.001587
0.163879 0.290833 0.000000
0.169373 0.291351 0.000000
0.177582 0.291870 0.000000
0.188599 0.292114 0.000000
0.200897 0.292633 0.000000
0.215515 0.292999 0.000000
0.229767 0.293884 0.000000
0.244019 0.295013 0.000000
0.258270 0.296661 0.000000
0.273071 0.298523 0.000000
0.288635 0.300598 0.000000
0.304260 0.303192 0.000000
0.329010 0.303192 0.000000
0.354645 0.302826 0.000000
0.382507 0.310944 0.000000
0.422760 0.324463 0.000000
0.459473 0.336945 0.000000
0.496521 0.347412 0.000000
0.531860 0.355286 0.000000
0.549927 0.353668 0.000000
0.568329 0.352997 0.000000
0.586639 0.353607 0.000000
0.605133 0.355194 0.000000
0.624023 0.357697 0.000000
0.643951 0.360565 0.000000
0.663300 0.364807 0.000000
0.684418 0.368866 0.000000
0.705811 0.373474 0.000000
0.727448 0.378632 0.000000
0.750519 0.383606 0.000000
0.771271 0.390564 0.000000
0.176910 0.314026 0.014191
0.181335 0.314026 0.016541
0.186066 0.314026 0.019714
0.191681 0.314392 0.018127
0.197937 0.315063 0.012604
0.205688 0.315887 0.005524
0.214783 0.316925 0.000000
0.226379 0.317749 0.000000
0.240234 0.318542 0.000000
0.255188 0.319458 0.000000
0.269592 0.320709 0.000000
0.284088 0.322418 0.000000
0.299133 0.324432 0.000000
0.316010 0.326233 0.000000
0.331970 0.328674 0.000000
0.354523 0.329559 0.000000
0.381165 0.329132 0.000000
0.407745 0.334229 0.000000
0.447571 0.348450 0.000000
0.484711 0.361420 0.000000
0.521271 0.372681 0.000000
0.558685 0.381958 0.000000
0.584137 0.384308 0.000000
0.602997 0.383575 0.000000
0.622253 0.383789 0.000000
0.641022 0.385376 0.000000
0.660522 0.387604 0.000000
0.680359 0.390625 0.000000
0.701141 0.393951 0.000000
0.721649 0.398163 0.000000
0.743469 0.402344 0.000000
0.765442 0.406982 0.000000
0.788544 0.411682 0.000000
0.196747 0.338257 0.026001
0.200897 0.338257 0.028381
0.205139 0.338257 0.030731
0.211304 0.338348 0.033905
0.219269 0.338470 0.037842
0.227051 0.338989 0.035461
0.235382 0.339935 0.026001
0.243866 0.341339 0.012604
0.253540 0.342896 0.000000
0.266205 0.344177 0.000000
0.280518 0.345306 0.000000
0.295135 0.346863 0.000000
0.309540 0.348846 0.000000
0.324219 0.351074 0.000000
0.344696 0.352203 0.000000
0.360840 0.354828 0.000000
0.381165 0.356659 0.000000
0.408600 0.356354 0.000000
0.433716 0.358673 0.000000
0.473389 0.373444 0.000000
0.511322 0.386627 0.000000
0.547668 0.398560 0.000000
0.584839 0.408508 0.000000
0.618988 0.415771 0.000000
0.638306 0.414948 0.000000
0.658386 0.414886 0.000000
0.677582 0.416229 0.000000
0.697327 0.418243 0.000000
0.717834 0.420807 0.000000
0.738831 0.423798 0.000000
0.759552 0.427612 0.000000
0.781494 0.431519 0.000000
0.803192 0.436035 0.000000
0.213867 0.363190 0.032318
0.217285 0.363281 0.033905
0.221191 0.363373 0.035461
0.226715 0.363495 0.037048
0.233765 0.363678 0.040222
0.242310 0.363983 0.043243
0.251740 0.364471 0.044739
0.258728 0.366028 0.027618
0.267914 0.367554 0.011047
0.278107 0.369385 0.000000
0.291718 0.370728 0.000000
0.306213 0.372162 0.000000
0.321167 0.373871 0.000000
0.335999 0.376038 0.000000
0.350983 0.378571 0.000000
0.371490 0.379974 0.000000
0.390900 0.382080 0.000000
0.409180 0.384918 0.000000
0.437469 0.384827 0.000000
0.462524 0.386017 0.000000
0.500214 0.400085 0.000000
0.539093 0.413055 0.000000
0.575623 0.425232 0.000000
0.612122 0.435791 0.000000
0.648926 0.444763 0.000000
0.674194 0.446716 0.000000
0.694489 0.446472 0.000000
0.714539 0.447296 0.000000
0.734497 0.449127 0.000000
0.755249 0.451324 0.000000
0.776520 0.453949 0.000000
0.797333 0.457550 0.000000
0.819336 0.461121 0.000000
0.229095 0.389282 0.029968
0.232422 0.389465 0.030762
0.236053 0.389557 0.032349
0.241180 0.389740 0.034698
0.247742 0.389923 0.037079
0.256073 0.390198 0.040985
0.265656 0.390533 0.045441
0.276764 0.390991 0.049652
0.285400 0.392609 0.036285
0.293640 0.394745 0.012634
0.303802 0.396851 0.000000
0.318420 0.398254 0.000000
0.333405 0.399994 0.000000
0.348511 0.402069 0.000000
0.363678 0.404480 0.000000
0.379120 0.407318 0.000000
0.399048 0.409363 0.000000
0.420990 0.411133 0.000000
0.439178 0.414398 0.000000
0.467712 0.414551 0.000000
0.493958 0.415741 0.000000
0.525787 0.428558 0.000000
0.568024 0.440369 0.000000
0.604675 0.452454 0.000000
0.640747 0.463196 0.000000
0.677094 0.472473 0.000000
0.710297 0.478577 0.000000
0.731049 0.478088 0.000000
0.751617 0.478577 0.000000
0.771545 0.480225 0.000000
0.792480 0.482147 0.000000
0.813324 0.484802 0.000000
0.834717 0.487885 0.000000
0.251709 0.415070 0.055573
0.253540 0.415405 0.051666
0.255768 0.415833 0.048279
0.258728 0.416412 0.042511
0.262939 0.417145 0.035492
0.270844 0.417480 0.038635
0.280121 0.417908 0.043243
0.290833 0.418396 0.048279
0.302704 0.419037 0.053650
0.313568 0.420349 0.047577
0.322174 0.422821 0.021301
0.331635 0.425568 0.000000
0.345947 0.427399 0.000000
0.361725 0.429260 0.000000
0.376984 0.431641 0.000000
0.392426 0.434479 0.000000
0.408264 0.437531 0.000000
0.427643 0.440033 0.000000
0.450378 0.441864 0.000000
0.472076 0.444244 0.000000
0.498962 0.445251 0.000000
0.526062 0.446228 0.000000
0.556122 0.456238 0.000000
0.597595 0.468170 0.000000
0.634094 0.480225 0.000000
0.670044 0.490936 0.000000
0.706116 0.500366 0.000000
0.742462 0.508453 0.000000
0.767303 0.509918 0.000000
0.788513 0.510010 0.000000
0.808899 0.511292 0.000000
0.829590 0.513214 0.000000
0.850555 0.515594 0.000000
0.279968 0.440857 0.094666
0.281708 0.441193 0.092163
0.283691 0.441559 0.089600
0.286560 0.442108 0.086060
0.290192 0.442871 0.080536
0.294891 0.443878 0.073639
0.300476 0.445007 0.064514
0.307037 0.446472 0.052338
0.317627 0.447388 0.052979
0.330231 0.448212 0.058655
0.343018 0.449341 0.060455
0.352203 0.452057 0.032349
0.362091 0.455017 0.000000
0.375275 0.457458 0.000000
0.390625 0.459747 0.000000
0.406555 0.462219 0.000000
0.422638 0.465057 0.000000
0.438538 0.468292 0.000000
0.457092 0.471130 0.000000
0.480133 0.473053 0.000000
0.503113 0.475250 0.000000
0.529999 0.476288 0.000000
0.557953 0.477142 0.000000
0.587219 0.484253 0.000000
0.627319 0.496429 0.000000
0.664215 0.508148 0.000000
0.699829 0.518951 0.000000
0.735413 0.528442 0.000000
0.771484 0.536682 0.000000
0.803375 0.541870 0.000000
0.825348 0.541504 0.000000
0.845825 0.542633 0.000000
0.866669 0.544373 0.000000
0.306671 0.467865 0.122040
0.308960 0.468079 0.122711
0.311432 0.468292 0.123016
0.314728 0.468658 0.122711
0.318176 0.469360 0.118744
0.322632 0.470276 0.113617
0.327911 0.471436 0.107147
0.334137 0.472839 0.099121
0.341217 0.474457 0.088715
0.349121 0.476288 0.076141
0.358948 0.478119 0.065094
0.373199 0.479156 0.072083
0.382996 0.481934 0.046906
0.393219 0.485107 0.009460
0.405518 0.488037 0.000000
0.420837 0.490479 0.000000
0.436676 0.493164 0.000000
0.452728 0.496094 0.000000
0.468933 0.499420 0.000000
0.487335 0.502441 0.000000
0.511719 0.504089 0.000000
0.535156 0.506165 0.000000
0.561005 0.507721 0.000000
0.589996 0.508301 0.000000
0.618164 0.512756 0.000000
0.657501 0.524963 0.000000
0.694641 0.536346 0.000000
0.729919 0.547180 0.000000
0.765442 0.556641 0.000000
0.800934 0.565063 0.000000
0.836670 0.572449 0.000000
0.861511 0.573395 0.000000
0.882721 0.574188 0.000000
0.332733 0.495453 0.145599
0.334778 0.495636 0.145599
0.337067 0.495850 0.145874
0.340363 0.496185 0.146698
0.344788 0.496582 0.147522
0.350250 0.497040 0.148590
0.355438 0.498108 0.143951
0.361206 0.499359 0.137421
0.367950 0.500946 0.129639
0.375458 0.502716 0.120392
0.383820 0.504669 0.109344
0.392944 0.506958 0.095490
0.402954 0.509399 0.079590
0.414154 0.512024 0.060455
0.424591 0.515289 0.022095
0.435883 0.518768 0.000000
0.451080 0.521393 0.000000
0.466919 0.524139 0.000000
0.483368 0.527161 0.000000
0.499878 0.530487 0.000000
0.517120 0.533966 0.000000
0.543488 0.535095 0.000000
0.567505 0.537109 0.000000
0.592834 0.538849 0.000000
0.621857 0.539490 0.000000
0.649109 0.541504 0.000000
0.687531 0.553802 0.000000
0.725159 0.564789 0.000000
0.760437 0.575470 0.000000
0.795593 0.585052 0.000000
0.830872 0.593597 0.000000
0.866608 0.601044 0.000000
0.897705 0.605438 0.000000
0.359741 0.522888 0.173309
0.361511 0.523071 0.173309
0.363678 0.523315 0.173309
0.366608 0.523651 0.173309
0.370544 0.524078 0.173309
0.375458 0.524567 0.173065
0.381531 0.525238 0.173065
0.388367 0.526062 0.172852
0.394714 0.527527 0.166534
0.401825 0.529205 0.158691
0.409424 0.531219 0.148590
0.417786 0.533478 0.136536
0.426758 0.536011 0.122375
0.436432 0.538788 0.104919
0.446228 0.541962 0.083801
0.457092 0.545288 0.053650
0.468567 0.548859 0.009460
0.482147 0.552246 0.000000
0.498016 0.555145 0.000000
0.514252 0.558319 0.000000
0.531036 0.561676 0.000000
0.547852 0.565369 0.000000
0.574585 0.566437 0.000000
0.599945 0.568115 0.000000
0.624664 0.570068 0.000000
0.654053 0.570740 0.000000
0.681915 0.571960 0.000000
0.714478 0.584290 0.000000
0.756042 0.593689 0.000000
0.791443 0.604187 0.000000
0.826355 0.613831 0.000000
0.861664 0.622314 0.000000
0.897034 0.629913 0.000000
0.385376 0.550629 0.198120
0.387115 0.550781 0.197937
0.389008 0.551025 0.197723
0.391724 0.551331 0.197540
0.395264 0.551788 0.197144
0.399750 0.552368 0.196747
0.405182 0.553009 0.196136
0.411560 0.553864 0.195557
0.418945 0.554871 0.194763
0.426025 0.556366 0.188599
0.433289 0.558319 0.178711
0.441254 0.560486 0.168427
0.449921 0.562866 0.156433
0.459290 0.565521 0.142303
0.469208 0.568390 0.125610
0.479370 0.571625 0.105682
0.489655 0.575287 0.081024
0.501404 0.578979 0.043243
0.513611 0.582916 0.000000
0.529022 0.586151 0.000000
0.545441 0.589325 0.000000
0.562195 0.592773 0.000000
0.579346 0.596527 0.000000
0.605194 0.597992 0.000000
0.632629 0.599152 0.000000
0.656891 0.601501 0.000000
0.686951 0.602081 0.000000
0.715393 0.603271 0.000000
0.745544 0.613739 0.000000
0.787842 0.622650 0.000000
0.823059 0.633087 0.000000
0.857758 0.642731 0.000000
0.892548 0.651337 0.000000
0.409363 0.578644 0.218567
0.410950 0.578857 0.218384
0.412720 0.579102 0.218384
0.415222 0.579376 0.218018
0.418610 0.579803 0.217651
0.422974 0.580353 0.217316
0.428131 0.580994 0.216949
0.434143 0.581757 0.216400
0.441162 0.582672 0.215698
0.449036 0.583771 0.214966
0.457397 0.585175 0.212067
0.464966 0.587341 0.200500
0.473206 0.589691 0.187775
0.482208 0.592194 0.175812
0.491821 0.594940 0.161957
0.502045 0.597961 0.145630
0.512543 0.601318 0.126556
0.523010 0.605042 0.103790
0.534210 0.609009 0.073639
0.546692 0.613098 0.023651
0.560608 0.617035 0.000000
0.577057 0.620453 0.000000
0.593781 0.624054 0.000000
0.611145 0.627930 0.000000
0.636047 0.629852 0.000000
0.664276 0.630920 0.000000
0.690460 0.632782 0.000000
0.720154 0.633575 0.000000
0.749023 0.634735 0.000000
0.778564 0.642761 0.000000
0.819977 0.651825 0.000000
0.855011 0.662201 0.000000
0.889313 0.671783 0.000000
0.434692 0.606171 0.242615
0.435791 0.606506 0.241669
0.437134 0.606812 0.240570
0.438934 0.607269 0.238800
0.442017 0.607666 0.238159
0.446075 0.608185 0.237823
0.450989 0.608795 0.237518
0.456787 0.609589 0.236877
0.463440 0.610504 0.236389
0.470978 0.611511 0.235718
0.479431 0.612701 0.234924
0.488647 0.614014 0.234100
0.496765 0.616241 0.223480
0.505371 0.618805 0.210205
0.514587 0.621582 0.194946
0.524506 0.624512 0.181122
0.535034 0.627686 0.165100
0.545929 0.631104 0.146698
0.556641 0.635010 0.125275
0.567841 0.639130 0.098724
0.580017 0.643463 0.060455
0.593201 0.647919 0.000000
0.609375 0.651611 0.000000
0.626099 0.655457 0.000000
0.643219 0.659454 0.000000
0.667389 0.661713 0.000000
0.696106 0.662781 0.000000
0.724030 0.664154 0.000000
0.753601 0.665100 0.000000
0.782990 0.666107 0.000000
0.811798 0.671997 0.000000
0.852142 0.681213 0.000000
0.887177 0.691315 0.000000
0.463745 0.632721 0.275391
0.464813 0.633026 0.274445
0.465973 0.633331 0.273468
0.467712 0.633759 0.271973
0.470062 0.634338 0.270020
0.472961 0.635132 0.267487
0.476562 0.636047 0.264374
0.480743 0.637146 0.260468
0.486053 0.638367 0.257111
0.493286 0.639374 0.256531
0.501312 0.640533 0.255920
0.510223 0.641815 0.255188
0.519928 0.643280 0.254425
0.528992 0.645447 0.246216
0.537933 0.648163 0.232941
0.547516 0.651093 0.217651
0.557556 0.654297 0.200317
0.568390 0.657593 0.184570
0.579620 0.661163 0.166534
0.590546 0.665161 0.146179
0.601929 0.669434 0.121735
