Kodak Vision3 500T (5219) - Only color.cube
# Created by Benjamin (IWLTBAP) : http://luts.iwltbap.com
# Copyright: (C) Copyright 2010-2017 Triune Films and IWLTBAP SAS
# Cannot be resold, shared or otherwise redistributed
TITLE "Film Print Emulation LUTs Pack (Rec.709, sRGB, DCI-P3)"
LUT_3D_SIZE 33
0.001587 0.001587 0.000000
0.017822 0.001434 0.000000
0.033905 0.001282 0.000000
0.083252 0.000854 0.000000
0.119171 0.000549 0.000000
0.172455 0.000092 0.000000
0.228149 0.006897 0.006531
0.273529 0.026276 0.017944
0.310577 0.034454 0.012604
0.337402 0.046509 0.012909
0.356232 0.053925 0.006287
0.376099 0.060120 0.000000
0.401093 0.065216 0.000000
0.429535 0.067627 0.000000
0.455933 0.077057 0.000000
0.481354 0.082153 0.000000
0.505310 0.084625 0.000000
0.528503 0.092621 0.000000
0.551544 0.105225 0.000000
0.577301 0.100128 0.000000
0.597198 0.116547 0.000000
0.618347 0.115387 0.000000
0.639557 0.116486 0.000000
0.658691 0.121582 0.000000
0.679291 0.128845 0.000000
0.703735 0.137299 0.000000
0.734406 0.144958 0.000000
0.766876 0.154175 0.000000
0.800354 0.163635 0.000000
0.831390 0.174316 0.001190
0.861176 0.183655 0.001465
0.884491 0.193390 0.001801
0.899567 0.202545 0.002167
0.001587 0.001587 0.000000
0.013580 0.021301 0.000000
0.030884 0.030121 0.000000
0.083466 0.030243 0.000000
0.119843 0.032776 0.000000
0.173645 0.034485 0.003052
0.229919 0.044922 0.017883
0.276398 0.056549 0.026733
0.314117 0.065002 0.029327
0.340637 0.074249 0.027039
0.359436 0.080597 0.022247
0.380524 0.087097 0.006744
0.407043 0.090424 0.000000
0.436401 0.094086 0.000000
0.462219 0.098083 0.000000
0.486084 0.106140 0.000000
0.508545 0.114807 0.000000
0.534241 0.115540 0.000000
0.558472 0.123840 0.000000
0.579742 0.135864 0.000000
0.602753 0.135803 0.000000
0.623901 0.138611 0.000000
0.643982 0.145599 0.000000
0.663177 0.151978 0.000000
0.684418 0.159454 0.000000
0.708984 0.170410 0.000000
0.740997 0.176575 0.000000
0.774139 0.186462 0.000000
0.806458 0.195557 0.000000
0.836395 0.204315 0.001434
0.866364 0.213043 0.001740
0.885590 0.220886 0.002045
0.901917 0.230408 0.002411
0.001251 0.032379 0.009247
0.001251 0.040558 0.002808
0.026642 0.054810 0.000000
0.074738 0.056366 0.000000
0.112762 0.059845 0.000000
0.168671 0.062531 0.010010
0.226837 0.069183 0.027832
0.276276 0.079498 0.034149
0.317505 0.091583 0.043823
0.342743 0.100128 0.041626
0.362122 0.105255 0.033386
0.384033 0.111328 0.021210
0.412384 0.114868 0.002045
0.442596 0.119324 0.000000
0.468414 0.120758 0.000000
0.489319 0.129791 0.000000
0.513153 0.135345 0.000000
0.538452 0.138794 0.000000
0.562164 0.147522 0.000000
0.585876 0.152100 0.000000
0.607208 0.157623 0.000000
0.628174 0.163239 0.000000
0.646545 0.176147 0.000000
0.667358 0.179993 0.000000
0.689178 0.189697 0.000000
0.715240 0.196899 0.000000
0.747284 0.205627 0.000000
0.779572 0.214844 0.000000
0.811371 0.224396 0.000000
0.840759 0.232971 0.001709
0.869415 0.241211 0.001984
0.886688 0.250519 0.002350
0.903503 0.258636 0.002655
0.001038 0.055969 0.017609
0.000977 0.060638 0.020142
0.001007 0.074860 0.000000
0.069489 0.077820 0.000000
0.103729 0.080475 0.000000
0.160736 0.084564 0.000427
0.225708 0.093903 0.034027
0.277771 0.103058 0.041382
0.320190 0.115417 0.052094
0.345947 0.124542 0.053406
0.366486 0.129730 0.045349
0.390320 0.134033 0.032379
0.419373 0.137604 0.013947
0.449707 0.140747 0.000000
0.474365 0.143188 0.000000
0.495880 0.146454 0.000000
0.518097 0.155609 0.000000
0.543243 0.161285 0.000000
0.568726 0.165466 0.000000
0.589264 0.176758 0.000000
0.610138 0.182922 0.000000
0.630951 0.189301 0.000000
0.651611 0.195679 0.000000
0.671906 0.203003 0.000000
0.694427 0.211639 0.000000
0.721252 0.220978 0.000000
0.753296 0.230408 0.000000
0.784363 0.239777 0.000000
0.814636 0.248871 0.001678
0.842651 0.258240 0.001923
0.870850 0.266479 0.002228
0.886688 0.274628 0.002563
0.903717 0.282898 0.002869
0.000824 0.077484 0.022675
0.000793 0.081543 0.025146
0.000763 0.093445 0.014862
0.058136 0.102051 0.000000
0.099152 0.104248 0.000000
0.147369 0.107239 0.000000
0.220215 0.117310 0.036499
0.277618 0.126923 0.052002
0.321533 0.138062 0.061432
0.348969 0.147491 0.067047
0.370758 0.151611 0.054779
0.396698 0.155579 0.042023
0.426880 0.159180 0.025238
0.456207 0.162445 0.004333
0.479706 0.165619 0.000000
0.499817 0.170715 0.000000
0.523071 0.175415 0.000000
0.549103 0.180206 0.000000
0.573059 0.187164 0.000000
0.595184 0.194458 0.000000
0.615570 0.201019 0.000000
0.635834 0.208313 0.000000
0.655731 0.216888 0.000000
0.675934 0.226349 0.000000
0.698792 0.235382 0.000000
0.726379 0.245209 0.000000
0.758545 0.254395 0.000000
0.789124 0.263824 0.000000
0.818054 0.272278 0.000000
0.845459 0.280853 0.000000
0.872314 0.289398 0.000000
0.886719 0.297577 0.000000
0.903320 0.305450 0.000000
0.000702 0.095642 0.022736
0.000641 0.104645 0.022766
0.000580 0.112274 0.022797
0.053223 0.125427 0.000000
0.097595 0.131958 0.000000
0.135376 0.129730 0.000000
0.207550 0.139404 0.015594
0.276093 0.149506 0.063568
0.322357 0.159851 0.069061
0.349152 0.166229 0.066040
0.371735 0.171173 0.050201
0.398163 0.175171 0.033752
0.428650 0.178619 0.016632
0.458588 0.181763 0.000000
0.482178 0.185028 0.000000
0.501251 0.191803 0.000000
0.527069 0.197632 0.000000
0.551483 0.205475 0.000000
0.575012 0.212585 0.000000
0.598969 0.215057 0.000000
0.619415 0.222565 0.000000
0.639954 0.230682 0.000000
0.659485 0.240051 0.000000
0.679718 0.249329 0.000000
0.702484 0.258545 0.000000
0.730621 0.267517 0.000000
0.762726 0.276550 0.000000
0.791504 0.285919 0.000000
0.820343 0.293732 0.000000
0.846497 0.301941 0.000000
0.872620 0.309998 0.000000
0.886383 0.319031 0.000000
0.902679 0.326538 0.000000
0.000610 0.114990 0.015015
0.000519 0.124084 0.020355
0.000549 0.133575 0.003265
0.051025 0.147400 0.000000
0.098389 0.156891 0.000000
0.133820 0.158081 0.000000
0.190002 0.156433 0.000000
0.266113 0.171814 0.055603
0.321198 0.182251 0.078705
0.348785 0.187195 0.062836
0.371735 0.191315 0.045563
0.398773 0.195099 0.025269
0.429504 0.198151 0.004456
0.459503 0.201691 0.000000
0.482971 0.205994 0.000000
0.505768 0.211365 0.000000
0.531036 0.218445 0.000000
0.557098 0.223999 0.000000
0.579987 0.232239 0.000000
0.600800 0.240479 0.000000
0.622559 0.244965 0.000000
0.643066 0.254517 0.000000
0.662079 0.263947 0.000000
0.682129 0.272980 0.000000
0.706451 0.280579 0.000000
0.734589 0.289124 0.000000
0.765045 0.297607 0.000000
0.793365 0.305420 0.000000
0.821411 0.314240 0.000000
0.847198 0.322723 0.000000
0.873047 0.330994 0.000000
0.886627 0.339935 0.000000
0.901306 0.348297 0.000000
0.000549 0.137115 0.000641
0.000488 0.146576 0.000000
0.000427 0.155701 0.000000
0.053192 0.168457 0.000000
0.101288 0.179474 0.000000
0.140594 0.186371 0.000000
0.184296 0.185455 0.000000
0.255463 0.188202 0.006378
0.314789 0.203979 0.072144
0.346252 0.209290 0.062897
0.370758 0.211914 0.042114
0.397980 0.215668 0.016693
0.430237 0.218567 0.000000
0.460663 0.222107 0.000000
0.483154 0.227417 0.000000
0.509186 0.233063 0.000000
0.534790 0.239441 0.000000
0.560272 0.246094 0.000000
0.582458 0.254639 0.000000
0.604401 0.260376 0.000000
0.625885 0.266998 0.000000
0.646271 0.275635 0.000000
0.664795 0.285217 0.000000
0.685699 0.292908 0.000000
0.709229 0.301544 0.000000
0.737183 0.310120 0.000000
0.766815 0.318207 0.000000
0.794250 0.326477 0.000000
0.821838 0.334503 0.000000
0.847137 0.343170 0.000000
0.872620 0.351257 0.000000
0.886505 0.359467 0.000000
0.901550 0.367523 0.000000
0.000427 0.157898 0.000000
0.000336 0.167175 0.000000
0.000275 0.177155 0.000000
0.058014 0.187103 0.000000
0.098328 0.202423 0.000000
0.142151 0.211792 0.000000
0.190613 0.216827 0.000000
0.237732 0.209839 0.000000
0.305634 0.218079 0.021179
0.342255 0.231232 0.056030
0.367645 0.234802 0.038635
0.396210 0.238159 0.014282
0.429565 0.241608 0.000000
0.460327 0.244751 0.000000
0.485809 0.250977 0.000000
0.512054 0.256989 0.000000
0.537262 0.263733 0.000000
0.563568 0.268494 0.000000
0.586670 0.274597 0.000000
0.606628 0.283203 0.000000
0.628204 0.289886 0.000000
0.648743 0.297455 0.000000
0.667084 0.306671 0.000000
0.687103 0.315338 0.000000
0.711548 0.322479 0.000000
0.738770 0.330750 0.000000
0.767700 0.338806 0.000000
0.794312 0.347229 0.000000
0.820801 0.355652 0.000000
0.846069 0.363861 0.000000
0.871399 0.371979 0.000000
0.886017 0.379242 0.000000
0.900879 0.387848 0.000153
0.000275 0.179352 0.000000
0.000214 0.187744 0.000000
0.000153 0.196808 0.000000
0.063721 0.207062 0.000000
0.100372 0.223145 0.000000
0.141357 0.236267 0.000000
0.191711 0.245087 0.000000
0.239136 0.247406 0.000000
0.293427 0.236603 0.000000
0.336182 0.245422 0.000000
0.364197 0.257019 0.022888
0.392517 0.261597 0.000000
0.427368 0.264923 0.000000
0.459808 0.269257 0.000000
0.488770 0.274200 0.000000
0.514008 0.280884 0.000000
0.540466 0.286133 0.000000
0.566315 0.291504 0.000000
0.588715 0.298340 0.000000
0.609619 0.304993 0.000000
0.630310 0.313324 0.000000
0.650665 0.320007 0.000000
0.669434 0.328094 0.000000
0.689392 0.336914 0.000000
0.711395 0.345276 0.000000
0.739594 0.351685 0.000000
0.767883 0.359772 0.000000
0.794678 0.367462 0.000000
0.820251 0.375885 0.000000
0.845184 0.383606 0.000000
0.869995 0.391632 0.000000
0.885406 0.399536 0.000000
0.899933 0.407471 0.000305
0.000122 0.200836 0.000000
0.000061 0.207794 0.000000
0.003693 0.216034 0.000000
0.076080 0.228180 0.000000
0.103394 0.244354 0.000000
0.141357 0.259705 0.000000
0.190002 0.270874 0.000000
0.241730 0.276978 0.000000
0.285675 0.271301 0.000000
0.330719 0.263824 0.000000
0.359619 0.271332 0.000000
0.388916 0.281982 0.000000
0.421844 0.287384 0.000000
0.460510 0.293427 0.000000
0.490387 0.298676 0.000000
0.517090 0.304688 0.000000
0.544525 0.309418 0.000000
0.569702 0.315430 0.000000
0.592651 0.321564 0.000000
0.612885 0.328766 0.000000
0.633301 0.336517 0.000000
0.653046 0.343536 0.000000
0.671387 0.351410 0.000000
0.690735 0.359406 0.000000
0.713562 0.366577 0.000000
0.739258 0.374115 0.000000
0.766571 0.381561 0.000000
0.794281 0.388550 0.000000
0.819550 0.396271 0.000000
0.843842 0.403839 0.000000
0.868011 0.411346 0.000000
0.884674 0.419525 0.000153
0.898529 0.426758 0.000427
0.001099 0.223175 0.000000
0.003693 0.230438 0.000000
0.003662 0.238129 0.000000
0.084045 0.249573 0.000000
0.105530 0.263763 0.000000
0.143494 0.279694 0.000000
0.192932 0.293182 0.000000
0.243073 0.305542 0.000000
0.290436 0.307770 0.000000
0.322357 0.293549 0.000000
0.357117 0.291595 0.000000
0.384735 0.297729 0.000000
0.419861 0.307190 0.000000
0.460541 0.316101 0.000000
0.491486 0.322723 0.000000
0.518677 0.329102 0.000000
0.546356 0.334290 0.000000
0.571869 0.340973 0.000000
0.594696 0.348083 0.000000
0.615570 0.354309 0.000000
0.635529 0.362000 0.000000
0.654144 0.369232 0.000000
0.672241 0.376282 0.000000
0.691803 0.383026 0.000000
0.712799 0.390289 0.000000
0.739929 0.396332 0.000000
0.765961 0.404266 0.000000
0.793396 0.410187 0.000000
0.818359 0.417450 0.000000
0.842072 0.424530 0.000000
0.866394 0.431915 0.000000
0.883881 0.439087 0.000275
0.897186 0.446045 0.000580
0.007599 0.246185 0.000000
0.012787 0.253357 0.000000
0.021362 0.260315 0.000000
0.092499 0.270935 0.000000
0.110077 0.283295 0.000000
0.148865 0.298584 0.000000
0.195404 0.313782 0.000000
0.234497 0.328827 0.000000
0.295868 0.340668 0.000000
0.325806 0.334625 0.000000
0.352570 0.320007 0.000000
0.386139 0.319427 0.000000
0.422943 0.326111 0.000000
0.461304 0.335449 0.000000
0.491669 0.344604 0.000000
0.520569 0.351990 0.000000
0.548187 0.359192 0.000000
0.573975 0.366760 0.000000
0.597015 0.374359 0.000000
0.617340 0.381409 0.000000
0.637756 0.387512 0.000000
0.655701 0.394470 0.000000
0.673370 0.400848 0.000000
0.692352 0.407288 0.000000
0.714417 0.413269 0.000000
0.738617 0.420288 0.000000
0.766205 0.426086 0.000000
0.791138 0.432556 0.000000
0.815460 0.439392 0.000000
0.839874 0.446686 0.000000
0.865265 0.453247 0.000153
0.882904 0.459961 0.000427
0.895355 0.466797 0.000732
0.014862 0.269928 0.000000
0.021301 0.276825 0.000000
0.043762 0.283875 0.000000
0.096436 0.293884 0.000000
0.117920 0.303986 0.000000
0.156128 0.317688 0.000000
0.198303 0.334167 0.000000
0.235870 0.350189 0.000000
0.292999 0.365448 0.000000
0.333191 0.372528 0.000000
0.351685 0.362122 0.000000
0.384094 0.346161 0.000000
0.425415 0.347137 0.000000
0.463379 0.353912 0.000000
0.492523 0.363129 0.000000
0.520782 0.373077 0.000000
0.550232 0.382324 0.000000
0.575989 0.391022 0.000000
0.599304 0.398773 0.000000
0.618958 0.406158 0.000000
0.639069 0.412781 0.000000
0.656097 0.419159 0.000000
0.673187 0.425018 0.000000
0.691528 0.431122 0.000000
0.712830 0.436737 0.000000
0.738068 0.442688 0.000000
0.763245 0.449188 0.000000
0.790100 0.455017 0.000000
0.814606 0.462494 0.000000
0.837952 0.470551 0.000092
0.863831 0.476624 0.000336
0.881836 0.483490 0.000580
0.893036 0.490448 0.000885
0.025818 0.293732 0.000000
0.057892 0.300507 0.000000
0.078888 0.307800 0.000000
0.106964 0.315918 0.000000
0.126984 0.325836 0.000000
0.163727 0.337494 0.000000
0.204346 0.354767 0.000000
0.238892 0.372101 0.000000
0.290466 0.388062 0.000000
0.334167 0.399750 0.000000
0.359894 0.401672 0.000000
0.377808 0.386963 0.000000
0.425690 0.373505 0.000000
0.466095 0.374695 0.000000
0.495178 0.381927 0.000000
0.523773 0.391998 0.000000
0.551971 0.402283 0.000000
0.578400 0.412048 0.000000
0.600494 0.419800 0.000000
0.620422 0.427429 0.000000
0.639740 0.434357 0.000000
0.656555 0.440430 0.000000
0.673004 0.446838 0.000000
0.692596 0.452484 0.000000
0.711731 0.459259 0.000000
0.736267 0.465485 0.000000
0.763245 0.472473 0.000000
0.787872 0.479675 0.000000
0.813385 0.486206 0.000061
0.836212 0.493774 0.000275
0.862091 0.500427 0.000519
0.881042 0.507935 0.000763
0.891296 0.514709 0.001068
0.065460 0.317657 0.000000
0.081421 0.325256 0.000000
0.093964 0.331757 0.000000
0.116425 0.339966 0.000000
0.134277 0.348846 0.000000
0.175903 0.359955 0.000000
0.213898 0.376190 0.000000
0.244202 0.393219 0.000000
0.283691 0.409271 0.000000
0.334900 0.422852 0.000000
0.363983 0.431122 0.000000
0.388397 0.429138 0.000000
0.413727 0.414825 0.000000
0.465240 0.401367 0.000000
0.497986 0.403778 0.000000
0.526459 0.410706 0.000000
0.554779 0.420166 0.000000
0.580139 0.429413 0.000000
0.601837 0.437408 0.000000
0.621185 0.445038 0.002075
0.640228 0.452209 0.000000
0.656921 0.459534 0.000000
0.674042 0.466797 0.000000
0.692169 0.473938 0.000000
0.712646 0.480652 0.000000
0.737457 0.487946 0.000000
0.763000 0.496063 0.000000
0.788513 0.502869 0.000031
0.812866 0.509857 0.000244
0.836792 0.517670 0.000458
0.859589 0.524933 0.000671
0.881042 0.531128 0.000946
0.890747 0.537628 0.001221
0.083923 0.342590 0.000000
0.093933 0.349640 0.000000
0.106140 0.356323 0.000000
0.123322 0.364471 0.000000
0.150909 0.372925 0.000000
0.186829 0.383728 0.000000
0.219635 0.397247 0.000000
0.242462 0.414307 0.000000
0.285034 0.429047 0.000000
0.331360 0.443634 0.000000
0.366333 0.455322 0.000000
0.397919 0.461792 0.000000
0.427521 0.457336 0.000000
0.457001 0.443237 0.000000
0.498413 0.430786 0.000000
0.530060 0.431641 0.000000
0.557495 0.437012 0.000000
0.581390 0.444824 0.000000
0.603302 0.453613 0.002075
0.622498 0.461090 0.000000
0.641327 0.469116 0.000000
0.657928 0.477509 0.000000
0.674316 0.485168 0.000000
0.692749 0.493286 0.000000
0.713928 0.501099 0.000000
0.737396 0.509644 0.000000
0.763672 0.517792 0.000000
0.789490 0.525238 0.000214
0.813293 0.532349 0.000427
0.837982 0.539490 0.000641
0.863098 0.545471 0.000854
0.881561 0.551971 0.001129
0.893188 0.556732 0.001404
0.095673 0.367126 0.000000
0.095673 0.374359 0.000000
0.097168 0.381744 0.000000
0.116333 0.389496 0.000000
0.144226 0.397614 0.000000
0.185547 0.408447 0.000000
0.221313 0.418762 0.000000
0.245300 0.434357 0.000000
0.278320 0.449127 0.000000
0.327820 0.464142 0.000000
0.365997 0.479065 0.000000
0.401276 0.489258 0.000000
0.440643 0.493530 0.000000
0.465698 0.487152 0.000000
0.487762 0.472656 0.000000
0.526276 0.458557 0.000000
0.559875 0.457855 0.000000
0.584320 0.462555 0.002075
0.604340 0.469635 0.000000
0.623291 0.478180 0.000000
0.642273 0.486237 0.000000
0.659271 0.494263 0.000000
0.675842 0.502777 0.000000
0.694336 0.511810 0.000000
0.715759 0.520416 0.000000
0.740540 0.528503 0.000000
0.766296 0.537323 0.000153
0.791656 0.544830 0.000366
0.815491 0.552032 0.000580
0.840271 0.558105 0.000793
0.864594 0.564148 0.001007
0.882690 0.569855 0.001312
0.894043 0.574768 0.001556
0.083832 0.393188 0.000000
0.091400 0.400177 0.000000
0.100891 0.406860 0.000000
0.120575 0.414551 0.000000
0.157593 0.421692 0.000000
0.191681 0.431488 0.000000
0.227966 0.441498 0.000000
0.253021 0.455383 0.000000
0.271149 0.470337 0.000000
0.326050 0.486786 0.000000
0.366302 0.502228 0.000000
0.405548 0.513977 0.000000
0.446869 0.521942 0.000000
0.476562 0.526001 0.000000
0.496002 0.519440 0.000000
0.515472 0.504730 0.000000
0.549957 0.489075 0.000000
0.584106 0.485352 0.000000
0.605957 0.489166 0.000000
0.624725 0.495636 0.000000
0.643036 0.503967 0.000000
0.660004 0.511810 0.000000
0.677216 0.520569 0.000000
0.696228 0.529297 0.000000
0.718231 0.537903 0.000000
0.742676 0.545929 0.000061
0.768829 0.553802 0.000305
0.793060 0.561005 0.000488
0.817963 0.568207 0.000732
0.843567 0.574860 0.000946
0.866852 0.581360 0.001160
0.883301 0.586700 0.001465
0.896362 0.591064 0.001709
0.087891 0.417816 0.000000
0.100830 0.424072 0.000000
0.110565 0.430573 0.000000
0.137360 0.437775 0.000000
0.165833 0.445099 0.000000
0.209930 0.454620 0.000000
0.235626 0.465729 0.000000
0.256256 0.478302 0.000000
0.277588 0.493744 0.000000
0.324677 0.509827 0.000000
0.366730 0.525482 0.000000
0.408478 0.537811 0.000000
0.451263 0.547607 0.000000
0.483093 0.553894 0.000000
0.506439 0.557312 0.000000
0.525452 0.552155 0.000000
0.544098 0.539581 0.000000
0.571564 0.525299 0.000000
0.603851 0.515381 0.000000
0.625519 0.517029 0.000000
0.644287 0.522949 0.000000
0.661316 0.530579 0.000000
0.678436 0.538116 0.000000
0.697754 0.546082 0.000000
0.719849 0.553986 0.000000
0.744659 0.561737 0.000214
0.770935 0.569092 0.000427
0.796265 0.576477 0.000641
0.820374 0.583618 0.000854
0.845734 0.590118 0.001068
0.870087 0.596313 0.001312
0.884064 0.601990 0.001587
0.897552 0.606659 0.001862
0.104431 0.440643 0.000000
0.115479 0.447662 0.000000
0.135773 0.454010 0.000000
0.165131 0.461273 0.000000
0.196014 0.470276 0.000000
0.225555 0.481201 0.000000
0.250000 0.492188 0.000000
0.267212 0.502655 0.000000
0.292389 0.517914 0.000000
0.328491 0.533081 0.000000
0.369476 0.547546 0.000000
0.410614 0.559631 0.000000
0.456024 0.569092 0.000000
0.487854 0.576721 0.000000
0.513123 0.582336 0.000000
0.535522 0.584412 0.000000
0.554413 0.581207 0.000000
0.570251 0.571259 0.000000
0.592987 0.557526 0.000000
0.619659 0.546814 0.000000
0.644043 0.545837 0.000000
0.661865 0.550171 0.000000
0.679810 0.556122 0.000000
0.699432 0.562592 0.000000
0.721954 0.569702 0.000122
0.747772 0.576691 0.000336
0.774384 0.583832 0.000549
0.799713 0.590912 0.000763
0.824493 0.598083 0.001007
0.848846 0.604492 0.001221
0.873322 0.610168 0.001465
0.884857 0.615051 0.001740
0.899078 0.619263 0.002014
0.129028 0.465240 0.000000
0.147278 0.472595 0.000000
0.166504 0.480194 0.000000
0.195404 0.489105 0.000000
0.219177 0.498474 0.000000
0.244659 0.509521 0.000000
0.262726 0.519531 0.000000
0.278107 0.529388 0.000000
0.297333 0.541077 0.000000
0.334991 0.555237 0.000000
0.370972 0.567810 0.000000
0.421478 0.578979 0.000000
0.462738 0.589325 0.000000
0.494568 0.596985 0.000000
0.520782 0.603821 0.000000
0.544037 0.609192 0.000000
0.564362 0.610443 0.000000
0.581482 0.607605 0.000000
0.594879 0.599670 0.000000
0.611603 0.587280 0.000000
0.632507 0.578125 0.000000
0.657959 0.573029 0.000000
0.678864 0.575439 0.000000
0.699585 0.580719 0.000061
0.722839 0.586121 0.000244
0.750244 0.592621 0.000488
0.777374 0.599274 0.000702
0.803162 0.605743 0.000916
0.828400 0.611938 0.001160
0.853424 0.617615 0.001373
0.876862 0.622711 0.001617
0.886444 0.627563 0.001923
0.902069 0.632111 0.002167
0.165100 0.492188 0.000000
0.185516 0.501129 0.000000
0.203125 0.509186 0.000000
0.225555 0.517639 0.000000
0.243835 0.526367 0.000000
0.261169 0.535858 0.000000
0.274963 0.545135 0.000000
0.282043 0.553406 0.000000
0.317841 0.563690 0.000000
0.345734 0.575989 0.000000
0.379456 0.587006 0.000000
0.429901 0.597961 0.000000
0.473022 0.607727 0.000000
0.500183 0.615570 0.000000
0.528015 0.621826 0.000000
0.552032 0.627258 0.000000
0.573059 0.631927 0.000000
0.591217 0.633789 0.000000
0.605164 0.630951 0.000000
0.617889 0.624817 0.000000
0.630615 0.617401 0.000000
0.649017 0.607605 0.000000
0.666260 0.602173 0.000000
0.690796 0.601593 0.000153
0.720184 0.604523 0.000397
0.749390 0.609406 0.000610
0.777924 0.614441 0.000854
0.804718 0.619659 0.001068
0.830750 0.625031 0.001312
0.855804 0.630432 0.001526
0.878845 0.636261 0.001770
0.888000 0.641479 0.002075
0.904053 0.646606 0.005585
0.203125 0.520538 0.000000
0.220459 0.529480 0.000000
0.233704 0.537140 0.000000
0.250641 0.544769 0.000000
0.265808 0.551727 0.000000
0.278961 0.559845 0.000000
0.286896 0.567902 0.000000
0.310577 0.576630 0.000000
0.335266 0.585266 0.000000
0.363007 0.595917 0.000000
0.397125 0.606445 0.000000
0.443756 0.615997 0.000000
0.482727 0.624725 0.000000
0.509918 0.632202 0.000000
0.536652 0.639893 0.000000
0.561005 0.646759 0.000000
0.580963 0.654785 0.000092
0.598724 0.660797 0.000183
0.614929 0.663422 0.000275
0.629517 0.660004 0.000305
0.641296 0.651611 0.000275
0.652557 0.642578 0.000275
0.666382 0.633057 0.000275
0.683472 0.627747 0.000366
0.703339 0.626312 0.000488
0.734314 0.627136 0.000702
0.771240 0.630219 0.000946
0.800629 0.634827 0.001190
0.827850 0.640289 0.001404
0.855469 0.645996 0.001648
0.878387 0.652344 0.005249
0.888214 0.658997 0.005493
0.903748 0.665985 0.005707
0.233398 0.546997 0.000000
0.246674 0.554962 0.000000
0.257416 0.562134 0.000000
0.271942 0.568542 0.000000
0.283875 0.574890 0.000000
0.293762 0.582123 0.000000
0.304871 0.589447 0.000000
0.323578 0.597565 0.000000
0.355194 0.606537 0.000000
0.386536 0.614929 0.000000
0.420227 0.623810 0.000000
0.462341 0.632599 0.000000
0.491455 0.642212 0.000000
0.519257 0.651733 0.000000
0.544769 0.663757 0.000031
0.569702 0.673889 0.000183
0.589172 0.682678 0.000336
0.606506 0.691528 0.000458
0.622986 0.697418 0.000580
0.637878 0.698883 0.000641
0.651886 0.696472 0.000702
0.662964 0.688141 0.000702
0.672821 0.677490 0.000702
0.685944 0.667175 0.000702
0.704956 0.656677 0.000763
0.727814 0.653259 0.000885
0.755676 0.653473 0.001068
0.783386 0.656616 0.001251
0.816589 0.661285 0.001526
0.846161 0.667511 0.006653
0.871368 0.674530 0.005341
0.883606 0.681549 0.005585
0.896667 0.688232 0.005768
0.259247 0.570465 0.000000
0.271698 0.578583 0.000000
0.282898 0.585602 0.000000
0.292969 0.591248 0.000000
0.301514 0.597046 0.000000
0.307831 0.603485 0.000000
0.323151 0.610535 0.000000
0.351349 0.618469 0.000000
0.385101 0.625336 0.000000
0.427399 0.632690 0.000000
0.460907 0.641968 0.000000
0.482178 0.653046 0.000000
0.502563 0.665680 0.000000
0.528015 0.678070 0.000061
0.552765 0.689636 0.000244
0.574982 0.700897 0.000427
0.594391 0.709930 0.000549
0.611755 0.718597 0.000702
0.628113 0.726105 0.000824
0.643188 0.733307 0.000946
0.656830 0.734863 0.001038
0.669891 0.731995 0.001099
0.683716 0.724518 0.001160
0.695465 0.713867 0.001160
0.709351 0.704254 0.001160
0.731201 0.695312 0.001251
0.756866 0.690460 0.001373
0.781982 0.688171 0.001495
0.809052 0.690277 0.001709
0.835083 0.693939 0.001892
0.859497 0.699005 0.002106
0.879517 0.704437 0.002350
0.890930 0.710388 0.005829
0.284973 0.593140 0.000000
0.294220 0.600586 0.000000
0.302826 0.607605 0.000000
0.304565 0.612305 0.000000
0.304291 0.616760 0.000000
0.329712 0.623352 0.000000
0.355316 0.630371 0.000000
0.391174 0.637573 0.000000
0.430817 0.645599 0.000000
0.464783 0.654663 0.000000
0.482788 0.667511 0.000000
0.500336 0.680939 0.000000
0.517975 0.693207 0.000153
0.536987 0.705933 0.000336
0.559998 0.716766 0.000488
0.580475 0.727203 0.000641
0.597168 0.737885 0.000793
0.614288 0.746582 0.000916
0.631775 0.754639 0.001068
0.647064 0.762787 0.001190
0.659912 0.768127 0.001312
