Kodak 16mm - Look.cube
# Created by Benjamin (IWLTBAP) : http://luts.iwltbap.com
# Copyright: (C) Copyright 2010-2017 Triune Films and IWLTBAP SAS
# Cannot be resold, shared or otherwise redistributed
TITLE "Film Print Emulation LUTs Pack (Rec.709, sRGB, DCI-P3)"
LUT_3D_SIZE 5
0.031006 0.031006 0.019897
0.103912 0.029114 0.022095
0.221802 0.026459 0.032227
0.384277 0.026459 0.036469
0.530731 0.024597 0.053619
0.033295 0.100159 0.021729
0.137390 0.108002 0.022766
0.318359 0.111877 0.039978
0.498230 0.105103 0.060974
0.635254 0.100952 0.073273
0.048492 0.198853 0.020721
0.187714 0.252869 0.021820
0.406219 0.309326 0.046143
0.597931 0.316284 0.070129
0.744537 0.319763 0.087769
0.094086 0.341370 0.023804
0.253937 0.441101 0.029266
0.494629 0.511810 0.062653
0.688293 0.524750 0.085480
0.804352 0.532562 0.094482
0.142670 0.480316 0.027771
0.322174 0.603638 0.038391
0.565765 0.685150 0.070038
0.764130 0.699829 0.095276
0.847351 0.712799 0.100861
0.033081 0.041473 0.118011
0.126556 0.045807 0.146576
0.273529 0.044678 0.172394
0.448883 0.043854 0.183044
0.597290 0.043213 0.196777
0.049042 0.132996 0.156311
0.179657 0.163422 0.178375
0.378326 0.175537 0.218353
0.576355 0.168549 0.220978
0.727753 0.167267 0.246918
0.087677 0.269073 0.173187
0.232849 0.347839 0.203217
0.474945 0.391632 0.214447
0.683777 0.399536 0.223816
0.838226 0.397034 0.230255
0.142303 0.428101 0.189209
0.310028 0.551331 0.214081
0.570984 0.613525 0.212311
0.770660 0.631134 0.213867
0.867889 0.632996 0.217255
0.200958 0.588043 0.253601
0.384338 0.724487 0.246643
0.658325 0.812958 0.250122
0.816284 0.829468 0.248779
0.896179 0.835846 0.251923
0.044037 0.065491 0.265320
0.126831 0.069733 0.319916
0.281433 0.074371 0.376129
0.468964 0.075592 0.396576
0.628723 0.073578 0.416870
0.066315 0.168976 0.350250
0.172333 0.207916 0.416931
0.383514 0.230896 0.469269
0.590424 0.224304 0.475006
0.742981 0.224182 0.495117
0.105774 0.322998 0.390289
0.235535 0.400909 0.442413
0.480408 0.460968 0.494751
0.689453 0.462646 0.500732
0.853943 0.454590 0.492737
0.166168 0.488983 0.418427
0.306854 0.589325 0.467804
0.572754 0.673035 0.497955
0.780914 0.683685 0.490601
0.880737 0.687531 0.490387
0.216339 0.625641 0.485016
0.370941 0.764404 0.483276
0.635590 0.852051 0.528656
0.808929 0.855774 0.515594
0.896515 0.856110 0.515991
0.044037 0.086853 0.423584
0.119110 0.098419 0.490997
0.274658 0.107056 0.566559
0.468292 0.107330 0.595673
0.632690 0.109344 0.614014
0.070465 0.205292 0.547607
0.160339 0.249573 0.623535
0.366241 0.276733 0.681763
0.576172 0.277100 0.694977
0.723358 0.277313 0.702698
0.110870 0.366791 0.595764
0.223267 0.445831 0.648132
0.464081 0.493225 0.711731
0.663818 0.503845 0.728485
0.818542 0.488159 0.705597
0.174469 0.526550 0.625793
0.307465 0.625824 0.686615
0.547638 0.698853 0.725006
0.738892 0.714844 0.739990
0.860504 0.702026 0.702576
0.215363 0.643921 0.668854
0.349121 0.786285 0.666992
0.585266 0.857239 0.731903
0.791656 0.864624 0.731262
0.879181 0.860962 0.712646
0.039337 0.110107 0.581757
0.111176 0.129730 0.671387
0.268768 0.146515 0.754761
0.462769 0.151459 0.783478
0.624359 0.155975 0.810150
0.078735 0.243591 0.729004
0.143433 0.306824 0.781311
0.354523 0.330872 0.870697
0.559692 0.336060 0.884064
0.699036 0.336029 0.884094
0.115631 0.402374 0.765503
0.216766 0.470367 0.819397
0.422089 0.525055 0.884094
0.612579 0.538757 0.896027
0.762451 0.526733 0.885864
0.168793 0.543121 0.784637
0.280731 0.625031 0.841248
0.463928 0.700409 0.887299
0.685211 0.730896 0.893280
0.819244 0.713989 0.879700
0.196259 0.634460 0.795746
0.302795 0.752686 0.809052
0.473267 0.836121 0.872620
0.730682 0.866882 0.888702
0.853180 0.859070 0.873657
