Kodak Vision 500T (5279) - Only contrast.cube
# Created by Benjamin (IWLTBAP) : http://luts.iwltbap.com
# Copyright: (C) Copyright 2010-2017 Triune Films and IWLTBAP SAS
# Cannot be resold, shared or otherwise redistributed
TITLE "Film Print Emulation LUTs Pack (Rec.709, sRGB, DCI-P3)"
LUT_3D_SIZE 5
0.000702 0.000702 0.000702
0.169037 0.001068 0.001068
0.440460 0.000763 0.000763
0.730713 0.000336 0.000336
0.916260 0.000641 0.000641
0.001068 0.169037 0.001068
0.169250 0.169250 0.001465
0.441467 0.168762 0.001190
0.731232 0.168152 0.000763
0.915924 0.168274 0.001099
0.000763 0.440460 0.000763
0.168762 0.441467 0.001190
0.441772 0.441772 0.000885
0.731049 0.441956 0.000488
0.914886 0.442871 0.000824
0.000336 0.730713 0.000336
0.168152 0.731232 0.000763
0.441956 0.731049 0.000488
0.730774 0.730774 0.000092
0.913727 0.731201 0.000427
0.000641 0.916260 0.000641
0.168274 0.915924 0.001099
0.442871 0.914886 0.000824
0.731201 0.913727 0.000427
0.913269 0.913208 0.017822
0.001068 0.001068 0.169037
0.169250 0.001465 0.169250
0.441467 0.001190 0.168762
0.731232 0.000763 0.168152
0.915924 0.001099 0.168274
0.001465 0.169250 0.169250
0.169464 0.169464 0.169464
0.442505 0.168976 0.168976
0.731781 0.168396 0.168396
0.915619 0.168549 0.168549
0.001190 0.441467 0.168762
0.168976 0.442505 0.168976
0.442810 0.442810 0.168488
0.731598 0.442993 0.167908
0.914551 0.443909 0.168060
0.000763 0.731232 0.168152
0.168396 0.731781 0.168396
0.442993 0.731598 0.167908
0.731293 0.731293 0.167328
0.913422 0.731750 0.167511
0.001099 0.915924 0.168274
0.168549 0.915619 0.168549
0.443909 0.914551 0.168060
0.731750 0.913422 0.167511
0.912994 0.912994 0.167694
0.000763 0.000763 0.440460
0.168762 0.001190 0.441467
0.441772 0.000885 0.441772
0.731049 0.000488 0.441956
0.914886 0.000824 0.442871
0.001190 0.168762 0.441467
0.168976 0.168976 0.442505
0.442810 0.168488 0.442810
0.731598 0.167908 0.442993
0.914551 0.168060 0.443909
0.000885 0.441772 0.441772
0.168488 0.442810 0.442810
0.443085 0.443085 0.443085
0.731384 0.443268 0.443268
0.913483 0.444214 0.444214
0.000488 0.731049 0.441956
0.167908 0.731598 0.442993
0.443268 0.731384 0.443268
0.731079 0.731079 0.443481
0.912354 0.731537 0.444427
0.000824 0.914886 0.442871
0.168060 0.914551 0.443909
0.444214 0.913483 0.444214
0.731537 0.912354 0.444427
0.911926 0.911926 0.445374
0.000336 0.000336 0.730713
0.168152 0.000763 0.731232
0.441956 0.000488 0.731049
0.730774 0.000092 0.730774
0.913727 0.000427 0.731201
0.000763 0.168152 0.731232
0.168396 0.168396 0.731781
0.442993 0.167908 0.731598
0.731293 0.167328 0.731293
0.913422 0.167511 0.731750
0.000488 0.441956 0.731049
0.167908 0.442993 0.731598
0.443268 0.443268 0.731384
0.731079 0.443481 0.731079
0.912354 0.444427 0.731537
0.000092 0.730774 0.730774
0.167328 0.731293 0.731293
0.443481 0.731079 0.731079
0.730804 0.730804 0.730804
0.911194 0.731262 0.731262
0.000427 0.913727 0.731201
0.167511 0.913422 0.731750
0.444427 0.912354 0.731537
0.731262 0.911194 0.731262
0.910797 0.910797 0.731689
0.000641 0.000641 0.916229
0.168274 0.001099 0.915924
0.442871 0.000824 0.914886
0.731201 0.000427 0.913727
0.913300 0.000763 0.913300
0.001099 0.168274 0.915924
0.168549 0.168549 0.915619
0.443909 0.168060 0.914551
0.731750 0.167511 0.913422
0.912994 0.167694 0.912994
0.000824 0.442871 0.914886
0.168060 0.443909 0.914551
0.444214 0.444214 0.913483
0.731537 0.444427 0.912354
0.911926 0.445374 0.911926
0.000427 0.731201 0.913727
0.167511 0.731750 0.913422
0.444427 0.731537 0.912354
0.731262 0.731262 0.911194
0.910797 0.731689 0.910797
0.000763 0.913300 0.913300
0.167694 0.912994 0.912994
0.445374 0.911926 0.911926
0.731689 0.910797 0.910797
0.910431 0.910431 0.910431
