Kodak Vision 500T (5279) - Look.cube
# Created by Benjamin (IWLTBAP) : http://luts.iwltbap.com
# Copyright: (C) Copyright 2010-2017 Triune Films and IWLTBAP SAS
# Cannot be resold, shared or otherwise redistributed
TITLE "Film Print Emulation LUTs Pack (Rec.709, sRGB, DCI-P3)"
LUT_3D_SIZE 33
0.002136 0.000000 0.000000
0.027039 0.002960 0.001434
0.046082 0.006409 0.000000
0.059387 0.011139 0.001709
0.075287 0.015015 0.006989
0.092163 0.018158 0.013214
0.112274 0.021027 0.019165
0.131226 0.024719 0.021454
0.151184 0.028351 0.022247
0.171631 0.031616 0.022400
0.193115 0.035004 0.023529
0.215881 0.038239 0.026123
0.239105 0.041077 0.030334
0.265503 0.042145 0.035980
0.291138 0.043640 0.040131
0.317902 0.045685 0.043488
0.346222 0.047974 0.047577
0.376068 0.050598 0.051056
0.404907 0.052490 0.054504
0.434204 0.054077 0.058044
0.466156 0.056061 0.062103
0.498718 0.058594 0.066376
0.531677 0.063019 0.070984
0.564209 0.063416 0.075653
0.596313 0.061371 0.079926
0.628937 0.062164 0.083557
0.662384 0.068085 0.087158
0.697174 0.080322 0.091095
0.731201 0.088959 0.095642
0.763092 0.095917 0.100525
0.789825 0.098877 0.105896
0.814575 0.101837 0.111115
0.839020 0.103699 0.117096
0.002777 0.022949 0.003113
0.020111 0.025604 0.007050
0.043854 0.027252 0.007996
0.060669 0.030151 0.011749
0.077728 0.033112 0.015594
0.095398 0.035858 0.019775
0.114868 0.038574 0.023315
0.134338 0.041260 0.025024
0.154480 0.043854 0.026337
0.175110 0.046356 0.027649
0.197052 0.049011 0.029510
0.220306 0.051819 0.032684
0.244263 0.054352 0.036865
0.270264 0.056244 0.041107
0.296631 0.058136 0.044800
0.323242 0.060913 0.047394
0.352020 0.064484 0.050537
0.381622 0.067291 0.053833
0.411072 0.069244 0.057312
0.441162 0.070923 0.061035
0.473175 0.072754 0.065063
0.505676 0.075012 0.069244
0.538300 0.077637 0.073639
0.570892 0.078827 0.078186
0.603485 0.080292 0.082703
0.636505 0.083588 0.087311
0.670929 0.090454 0.091309
0.706390 0.101379 0.095306
0.738617 0.108154 0.099823
0.770477 0.113953 0.105255
0.798645 0.118073 0.110565
0.823730 0.124176 0.115570
0.848022 0.127899 0.121429
0.003723 0.040222 0.009186
0.016785 0.042603 0.012054
0.033295 0.043640 0.010193
0.058441 0.045319 0.015320
0.079468 0.047821 0.021393
0.096741 0.050232 0.024170
0.116394 0.052734 0.026855
0.136139 0.055237 0.028870
0.156433 0.057770 0.030579
0.177856 0.060425 0.032379
0.199982 0.062866 0.035095
0.223663 0.065552 0.038177
0.248413 0.068207 0.041718
0.274963 0.071136 0.045013
0.300720 0.073425 0.047943
0.327667 0.076233 0.050201
0.356354 0.079559 0.052856
0.385956 0.082733 0.056061
0.415955 0.084656 0.059723
0.446716 0.086945 0.063538
0.478790 0.088928 0.067719
0.511566 0.091400 0.072052
0.543854 0.094177 0.076202
0.576813 0.097748 0.080444
0.609955 0.099579 0.085419
0.643372 0.102814 0.090424
0.678314 0.110962 0.094910
0.712769 0.119934 0.099274
0.745422 0.127655 0.104401
0.777802 0.133270 0.109772
0.806488 0.137421 0.114929
0.831665 0.144501 0.120056
0.855743 0.150909 0.125366
0.004425 0.054749 0.014465
0.015320 0.056946 0.013763
0.028351 0.057892 0.011932
0.046204 0.059570 0.013519
0.076324 0.062012 0.022491
0.097412 0.064392 0.027557
0.117004 0.066711 0.030334
0.137238 0.069489 0.033051
0.157135 0.072052 0.034760
0.179596 0.074799 0.037109
0.202026 0.077057 0.039337
0.226593 0.079285 0.042969
0.251343 0.082001 0.045563
0.277985 0.085358 0.048370
0.304199 0.088226 0.050842
0.331177 0.091034 0.052887
0.360260 0.094452 0.055206
0.390106 0.097626 0.058319
0.420502 0.100311 0.061920
0.451202 0.102631 0.065826
0.483337 0.105164 0.070343
0.516876 0.108093 0.074982
0.549072 0.110748 0.079041
0.581726 0.114044 0.083038
0.615234 0.118591 0.087799
0.648865 0.121948 0.092621
0.684326 0.129883 0.098145
0.718536 0.138702 0.103058
0.750916 0.146393 0.108398
0.783539 0.151855 0.113831
0.812714 0.156769 0.119110
0.837921 0.164673 0.124359
0.861755 0.172089 0.129547
0.005676 0.068817 0.012543
0.015045 0.070984 0.010651
0.023315 0.072174 0.009033
0.037384 0.073547 0.011322
0.061981 0.076080 0.018188
0.092102 0.078583 0.027374
0.116699 0.080963 0.032318
0.137695 0.083862 0.036407
0.157501 0.086823 0.038666
0.180847 0.089417 0.041351
0.204346 0.091858 0.043518
0.228760 0.094177 0.046570
0.254089 0.096802 0.048981
0.280579 0.100128 0.051666
0.307312 0.103912 0.054169
0.334930 0.107025 0.056213
0.364532 0.110291 0.058197
0.394196 0.113098 0.061005
0.424255 0.115845 0.064240
0.455414 0.118591 0.068451
0.487457 0.121613 0.072845
0.520782 0.125092 0.077362
0.553986 0.129028 0.081818
0.586914 0.133301 0.085876
0.620575 0.138489 0.090515
0.654633 0.142792 0.095581
0.690033 0.150604 0.101532
0.724060 0.158203 0.106293
0.756744 0.165894 0.112091
0.789368 0.171753 0.117828
0.818268 0.177734 0.123322
0.843506 0.185944 0.128448
0.867126 0.193726 0.133484
0.005432 0.083862 0.015015
0.012451 0.085663 0.011688
0.021393 0.087677 0.012848
0.032196 0.089294 0.015533
0.051666 0.091492 0.021118
0.076813 0.094299 0.026703
0.107422 0.097656 0.031128
0.134674 0.100342 0.035339
0.157806 0.103302 0.040070
0.180542 0.105988 0.043030
0.204620 0.108337 0.045898
0.230286 0.110779 0.049438
0.255676 0.113220 0.052094
0.283020 0.116150 0.055023
0.310730 0.119598 0.057465
0.338928 0.123260 0.059357
0.368896 0.126923 0.061340
0.398621 0.129791 0.064056
0.428528 0.132721 0.067383
0.460144 0.136444 0.071594
0.492126 0.139862 0.076172
0.525177 0.143463 0.080627
0.558716 0.147614 0.085114
0.592224 0.152802 0.089142
0.626404 0.158325 0.094086
0.660828 0.164612 0.099426
0.695923 0.171234 0.105194
0.729675 0.178406 0.110138
0.762848 0.186096 0.115723
0.795868 0.193604 0.121857
0.823853 0.199646 0.127197
0.848846 0.207916 0.132355
0.872162 0.216064 0.137512
0.004639 0.100281 0.015137
0.010132 0.101715 0.014984
0.018280 0.104034 0.016968
0.027863 0.105927 0.019867
0.043060 0.107849 0.023804
0.066528 0.110474 0.028503
0.096191 0.113800 0.032715
0.126984 0.117157 0.034424
0.154327 0.119873 0.037415
0.181274 0.122437 0.043243
0.203735 0.125366 0.046356
0.229156 0.128082 0.050354
0.256409 0.131256 0.054535
0.284576 0.134308 0.057404
0.313538 0.137573 0.060150
0.342896 0.141083 0.062500
0.373291 0.145050 0.064667
0.403229 0.147858 0.067535
0.433533 0.150940 0.071289
0.465240 0.154663 0.075378
0.497314 0.158875 0.080170
0.530182 0.162659 0.084839
0.563690 0.167206 0.089142
0.597748 0.172638 0.093292
0.632172 0.179230 0.098358
0.667328 0.185669 0.104004
0.702667 0.191986 0.109009
0.736145 0.199219 0.114014
0.769104 0.207336 0.119659
0.802765 0.215607 0.125916
0.830414 0.223602 0.132172
0.854523 0.231171 0.137054
0.877197 0.239349 0.142242
0.004089 0.116699 0.017944
0.009247 0.118195 0.019409
0.016449 0.120209 0.021759
0.025940 0.122406 0.024414
0.036774 0.124115 0.026367
0.059204 0.126648 0.029877
0.088440 0.129913 0.034332
0.119904 0.133362 0.036224
0.148590 0.136810 0.037292
0.177307 0.139771 0.040894
0.205444 0.142761 0.046387
0.228333 0.146698 0.050018
0.254425 0.150116 0.054016
0.284271 0.153412 0.057983
0.314941 0.156036 0.061890
0.346283 0.159180 0.065735
0.378174 0.163269 0.069275
0.409485 0.167145 0.072388
0.440002 0.170074 0.076111
0.471313 0.173920 0.080261
0.503021 0.178711 0.084961
0.536316 0.183746 0.089783
0.570221 0.188477 0.093933
0.604553 0.194061 0.098358
0.638458 0.200531 0.103149
0.673553 0.207275 0.108185
0.709595 0.213928 0.113068
0.742645 0.221649 0.117828
0.775970 0.230591 0.123718
0.810120 0.240143 0.130646
0.837646 0.249084 0.137451
0.861542 0.257019 0.142883
0.883728 0.265289 0.148438
0.003815 0.134094 0.023529
0.008972 0.135193 0.024506
0.015442 0.136719 0.025970
0.023315 0.138611 0.027924
0.034332 0.140656 0.029907
0.054688 0.143311 0.032379
0.081329 0.146179 0.035004
0.113220 0.149658 0.038116
0.143219 0.153259 0.040405
0.171600 0.156952 0.042084
0.201813 0.160522 0.045929
0.231110 0.164459 0.050751
0.254944 0.168579 0.054260
0.283142 0.172363 0.058136
0.314941 0.175598 0.062622
0.347839 0.178436 0.067993
0.382111 0.181915 0.073303
0.414703 0.185883 0.077332
0.446075 0.189728 0.081177
0.477661 0.194153 0.085419
0.509674 0.199310 0.089935
0.543152 0.205170 0.094391
0.577454 0.211365 0.098969
0.611969 0.217346 0.103760
0.645355 0.223541 0.108124
0.680573 0.230774 0.112579
0.716980 0.238190 0.117615
0.750092 0.246368 0.122284
0.783539 0.255829 0.128326
0.818024 0.266785 0.136169
0.845490 0.276733 0.143707
0.868500 0.284760 0.149750
0.890076 0.293121 0.155426
0.001129 0.152679 0.028870
0.005951 0.153839 0.029938
0.011017 0.154938 0.030701
0.018036 0.156616 0.032135
0.028656 0.159241 0.034149
0.042694 0.161804 0.036285
0.069855 0.164825 0.038635
0.103912 0.168549 0.041779
0.137177 0.172150 0.044464
0.165649 0.175720 0.045654
0.195129 0.179779 0.048187
0.226593 0.183197 0.051270
0.257843 0.186615 0.054688
0.285004 0.191376 0.059021
0.315125 0.195129 0.063782
0.348145 0.198517 0.069244
0.383392 0.202179 0.075836
0.417664 0.206177 0.081573
0.450806 0.211548 0.086609
0.484589 0.216766 0.091644
0.517273 0.222473 0.096008
0.551117 0.228943 0.100159
0.584961 0.235870 0.104248
0.618896 0.242218 0.108521
0.652527 0.248505 0.113037
0.689117 0.256622 0.117920
0.725006 0.265472 0.122955
0.758209 0.274506 0.127930
0.791656 0.284546 0.134033
0.826202 0.295410 0.141968
0.852875 0.304932 0.149445
0.875916 0.313599 0.156403
0.897186 0.321472 0.162628
0.001587 0.172455 0.035095
0.004944 0.173553 0.035431
0.008331 0.174774 0.036499
0.012390 0.176147 0.037445
0.020996 0.178467 0.039276
0.031830 0.180969 0.041321
0.058167 0.184265 0.043793
0.093475 0.187836 0.046295
0.129242 0.191956 0.049316
0.159119 0.195343 0.050873
0.189545 0.199005 0.052277
0.220276 0.203217 0.054596
0.252563 0.207611 0.057770
0.288269 0.212067 0.061157
0.320068 0.217529 0.066101
0.349792 0.221466 0.071472
0.384216 0.225830 0.077728
0.418793 0.230560 0.084412
0.453308 0.235779 0.091034
0.488556 0.241821 0.096802
0.522552 0.247864 0.100800
0.557251 0.254456 0.103882
0.591095 0.262238 0.108093
0.625336 0.269623 0.112457
0.659882 0.276886 0.117218
0.697937 0.285309 0.121979
0.733368 0.294281 0.127838
0.766632 0.303802 0.133057
0.800232 0.313354 0.139160
0.833984 0.324066 0.147583
0.860016 0.332916 0.155029
0.882416 0.341248 0.162140
0.904053 0.349731 0.169250
0.001007 0.193359 0.041748
0.004181 0.194458 0.041809
0.007477 0.195648 0.042664
0.010803 0.196899 0.043854
0.015198 0.199066 0.045563
0.023285 0.201569 0.047699
0.043579 0.204681 0.050232
0.079895 0.208435 0.052704
0.118713 0.212433 0.054932
0.152557 0.216095 0.057190
0.184387 0.219818 0.058289
0.216278 0.224213 0.059662
0.248199 0.229248 0.062286
0.283997 0.233948 0.065430
0.320862 0.239532 0.069489
0.355042 0.244812 0.074127
0.386108 0.250732 0.079987
0.419983 0.256958 0.086578
0.454102 0.262848 0.093536
0.490509 0.269440 0.100006
0.525146 0.276367 0.104095
0.560883 0.283203 0.106750
0.596375 0.290466 0.110504
0.631683 0.297363 0.115997
0.667328 0.305389 0.120697
0.705322 0.314026 0.126221
0.741058 0.323395 0.132965
0.775330 0.332977 0.139343
0.808899 0.342834 0.145416
0.841431 0.353271 0.154083
0.867920 0.362610 0.162048
0.889648 0.370972 0.168945
0.910767 0.379913 0.176544
0.001404 0.214355 0.048004
0.004303 0.215546 0.048218
0.007233 0.217041 0.049377
0.010162 0.218506 0.050812
0.013275 0.219849 0.051636
0.020325 0.223206 0.054260
0.033813 0.226685 0.057007
0.066956 0.230499 0.058563
0.102936 0.234589 0.060760
0.142334 0.239075 0.063385
0.179077 0.243195 0.065033
0.211975 0.247803 0.066162
0.244690 0.252869 0.067474
0.281464 0.258942 0.070648
0.317596 0.264648 0.074554
0.355804 0.270752 0.078827
0.392181 0.277130 0.083069
0.422638 0.283905 0.088806
0.455627 0.291565 0.095520
0.491150 0.297821 0.101990
0.527374 0.304413 0.106476
0.563934 0.311340 0.109680
0.600677 0.318207 0.113495
0.636688 0.325439 0.117584
0.674011 0.333618 0.123718
0.713959 0.342743 0.131531
0.749603 0.352448 0.140137
0.783752 0.361786 0.147217
0.817688 0.371887 0.153961
0.848694 0.382751 0.162292
0.874786 0.392761 0.170166
0.897827 0.402527 0.178009
0.917480 0.410370 0.185089
0.001801 0.238586 0.053558
0.004730 0.239960 0.054718
0.007660 0.241638 0.056213
0.010620 0.243439 0.058044
0.013916 0.244995 0.059235
0.017731 0.246887 0.060547
0.027435 0.251160 0.063202
0.043457 0.255280 0.065674
0.075806 0.259186 0.065765
0.127106 0.264038 0.067230
0.168030 0.268097 0.069611
0.204773 0.272888 0.071747
0.239899 0.278076 0.073395
0.278412 0.283966 0.075745
0.316254 0.290497 0.079773
0.353241 0.296814 0.084564
0.391357 0.303162 0.088806
0.429565 0.309967 0.092377
0.459747 0.318329 0.097870
0.493317 0.325317 0.103729
0.529022 0.331970 0.108337
0.567017 0.338898 0.112762
0.604553 0.346039 0.117584
0.640717 0.354065 0.121887
0.678162 0.362823 0.127716
0.718597 0.372589 0.136292
0.754272 0.382355 0.145905
0.789215 0.391815 0.154419
0.824371 0.401611 0.162720
0.855743 0.412537 0.170197
0.881714 0.422882 0.178131
0.904266 0.431854 0.185822
0.922699 0.439301 0.193665
0.002228 0.264008 0.059784
0.005127 0.265289 0.060181
0.008026 0.267090 0.061920
0.010925 0.269043 0.064240
0.013824 0.270599 0.066010
0.017120 0.272156 0.067108
0.022491 0.275482 0.069214
0.034668 0.280060 0.071747
0.058746 0.285095 0.072693
0.104218 0.289368 0.072784
0.153259 0.293854 0.075134
0.195770 0.298523 0.077820
0.234619 0.304077 0.080444
0.274994 0.310211 0.082367
0.314728 0.315918 0.083710
0.351776 0.322327 0.088226
0.388245 0.328857 0.093384
0.427216 0.335968 0.098389
0.467804 0.343597 0.102905
0.498230 0.351288 0.106201
0.532654 0.359344 0.110291
0.570770 0.367126 0.116974
0.608490 0.375122 0.122650
0.646423 0.384583 0.128876
0.684784 0.393585 0.135376
0.722168 0.402527 0.141907
0.757294 0.412506 0.150665
0.793182 0.422241 0.159912
0.829102 0.431885 0.169250
0.860992 0.442230 0.178040
0.887604 0.452240 0.186340
0.909485 0.461609 0.194275
0.928253 0.469360 0.203217
0.002472 0.289978 0.066467
0.005341 0.291290 0.066132
0.008209 0.292816 0.067352
0.011078 0.294495 0.069305
0.013977 0.295898 0.071777
0.016876 0.297180 0.072754
0.021729 0.299774 0.074493
0.032227 0.304169 0.077057
0.047028 0.309296 0.080048
0.080139 0.314026 0.079926
0.136780 0.319244 0.080627
0.185394 0.324646 0.083466
0.227692 0.330322 0.087341
0.271423 0.336365 0.089661
0.312805 0.341919 0.090790
0.350586 0.347412 0.091614
0.387604 0.355072 0.097229
0.424255 0.362610 0.103241
0.464966 0.370026 0.108795
0.507416 0.377533 0.112640
0.541199 0.386658 0.115753
0.576569 0.395813 0.122131
0.613800 0.404755 0.128998
0.651550 0.414551 0.136566
0.689697 0.423889 0.143799
0.726166 0.433075 0.149872
0.761444 0.442841 0.157440
0.797882 0.452789 0.165802
0.832245 0.462494 0.174622
0.863800 0.472351 0.184814
0.890900 0.482452 0.195038
0.913940 0.491333 0.203094
0.932953 0.499268 0.212708
0.002625 0.316559 0.072937
0.005493 0.317993 0.072479
0.008301 0.319427 0.073395
0.011169 0.320953 0.075012
0.014130 0.322052 0.076080
0.016968 0.323120 0.076965
0.021301 0.325348 0.078705
0.028137 0.329376 0.081360
0.043915 0.334961 0.085144
0.076294 0.340546 0.086609
0.127594 0.345886 0.086517
0.173309 0.351746 0.089783
0.218933 0.357788 0.093445
0.267883 0.364136 0.096802
0.310181 0.369507 0.098236
0.349152 0.375092 0.099304
0.387421 0.382233 0.101654
0.425140 0.390503 0.107117
0.463867 0.398315 0.113403
0.505859 0.405670 0.119720
0.547729 0.414459 0.124207
0.584839 0.424530 0.129639
0.620300 0.434235 0.135986
0.656250 0.444427 0.143951
0.693054 0.453827 0.150970
0.730164 0.463470 0.158325
0.766083 0.473206 0.166351
0.801605 0.483246 0.174072
0.835297 0.493134 0.182373
0.866150 0.503815 0.193115
0.893616 0.513336 0.204681
0.917114 0.521240 0.215271
0.936676 0.528931 0.224426
0.002716 0.343536 0.078339
0.005585 0.344849 0.076843
0.008423 0.346252 0.077271
0.011261 0.347626 0.078522
0.014221 0.348816 0.079803
0.017181 0.349854 0.080719
0.020172 0.351257 0.081696
0.026337 0.355072 0.083801
0.040283 0.361603 0.088074
0.074738 0.367462 0.091705
0.118134 0.373199 0.091949
0.164551 0.379120 0.094818
0.213013 0.385651 0.098846
0.262787 0.392059 0.103119
0.308350 0.398254 0.106445
0.347595 0.403931 0.108124
0.387085 0.410828 0.110413
0.427338 0.419281 0.113190
0.465973 0.427032 0.118835
0.505432 0.435120 0.125916
0.547821 0.443726 0.133118
0.590149 0.453003 0.138336
0.629028 0.463165 0.144623
0.661682 0.473145 0.151367
0.697601 0.483551 0.158691
0.733490 0.493134 0.166199
0.770111 0.502716 0.174652
0.805359 0.512970 0.182770
0.838379 0.523529 0.191376
0.868958 0.533600 0.201965
0.896179 0.543518 0.214539
0.919189 0.551208 0.226257
0.938904 0.558105 0.236084
0.002747 0.370636 0.083008
0.005615 0.371582 0.082092
0.008453 0.372833 0.081696
0.011292 0.374146 0.082306
0.014160 0.375458 0.083130
0.017151 0.376770 0.084412
0.020203 0.378387 0.085754
0.023712 0.380463 0.087189
0.032776 0.386139 0.090302
0.057312 0.394104 0.096405
0.105194 0.400970 0.098236
0.156586 0.407562 0.100189
0.209076 0.413971 0.104889
0.258606 0.420685 0.109344
0.304413 0.426544 0.112823
0.347321 0.432861 0.115967
0.387299 0.439941 0.118774
0.427368 0.448212 0.121704
0.468445 0.457306 0.125763
0.507690 0.464935 0.131958
0.548126 0.473145 0.139862
0.590790 0.482239 0.147308
0.631622 0.491364 0.153137
0.670868 0.502136 0.160858
0.704041 0.512390 0.167084
0.737793 0.522247 0.173523
0.773499 0.531769 0.182007
0.808716 0.542542 0.191498
0.841095 0.552887 0.201263
0.871887 0.562897 0.212952
0.898773 0.572388 0.224243
0.920288 0.580505 0.236298
0.939697 0.587311 0.246185
0.002716 0.398010 0.087830
0.005585 0.398895 0.087311
0.008514 0.399963 0.087250
0.011383 0.401154 0.087555
0.014282 0.402588 0.087524
0.017212 0.404144 0.088654
0.020691 0.406036 0.089844
0.024170 0.408356 0.091522
0.029114 0.411774 0.093597
0.044678 0.419708 0.098999
0.079163 0.429474 0.107025
0.143158 0.437042 0.108185
0.200439 0.444031 0.112213
0.253693 0.450348 0.116028
0.299347 0.456299 0.119781
0.343750 0.462433 0.123260
0.387634 0.469208 0.126282
0.428040 0.477448 0.129700
0.469116 0.485809 0.133911
0.511017 0.494659 0.139526
0.550598 0.502502 0.146545
0.590942 0.510803 0.154419
0.632416 0.520752 0.162994
0.673676 0.530121 0.170135
0.713043 0.540375 0.176819
0.744629 0.550171 0.182831
0.778137 0.560577 0.190063
0.811554 0.570801 0.199768
0.843323 0.581268 0.211884
0.873657 0.590912 0.223877
0.900970 0.600250 0.235107
0.922241 0.608002 0.244965
0.939941 0.614471 0.253662
0.002594 0.426147 0.093292
0.005493 0.426758 0.091553
0.008453 0.427917 0.091980
0.011505 0.429382 0.092651
0.014465 0.431000 0.093689
0.017517 0.432922 0.094452
0.020599 0.434845 0.095764
0.024200 0.437164 0.097107
0.028137 0.440033 0.098694
0.037201 0.445343 0.100952
0.060547 0.455872 0.111481
0.117798 0.466003 0.117554
0.182434 0.473175 0.120026
0.242157 0.479858 0.123383
0.295959 0.486481 0.127625
0.341370 0.492737 0.131683
0.386841 0.499573 0.135040
0.428833 0.507111 0.138855
0.469727 0.515228 0.143768
0.511108 0.523651 0.149384
0.553131 0.532745 0.155975
0.593597 0.540771 0.163422
0.634094 0.549438 0.171234
0.674713 0.558990 0.179626
0.716919 0.568451 0.186737
0.753876 0.577759 0.193817
0.784973 0.588318 0.201172
0.815674 0.598724 0.210297
0.845581 0.608551 0.222168
0.875122 0.617767 0.234589
0.901978 0.626862 0.245026
0.923981 0.634430 0.253479
0.940613 0.640381 0.259216
0.002625 0.455200 0.102722
0.005615 0.456360 0.101868
0.008636 0.457672 0.101196
0.011719 0.459076 0.101562
0.014801 0.460724 0.102051
0.017883 0.462463 0.103668
0.021088 0.464478 0.105225
0.024933 0.466766 0.107025
0.029419 0.469635 0.108948
0.036041 0.473328 0.109406
0.055786 0.483002 0.117065
0.080994 0.494110 0.128204
0.147369 0.502289 0.128540
0.224548 0.509369 0.130676
0.285828 0.516541 0.135010
0.338715 0.523895 0.140106
0.384491 0.530457 0.144714
0.428436 0.538116 0.149780
0.471191 0.545868 0.156158
0.512299 0.553253 0.161652
0.554565 0.562164 0.168182
0.597137 0.571777 0.174774
0.637756 0.579681 0.181549
0.678467 0.588776 0.190247
0.717651 0.597351 0.198914
0.756989 0.605865 0.206055
0.791534 0.615509 0.215668
0.820740 0.625519 0.224060
0.848511 0.634521 0.232330
0.876465 0.643677 0.242554
0.903595 0.652832 0.252716
0.925323 0.660553 0.260162
0.942139 0.666534 0.264893
0.003204 0.484833 0.114410
0.006195 0.486084 0.114410
0.009186 0.487488 0.114655
0.012299 0.489014 0.114624
0.015381 0.490631 0.115265
0.018738 0.492065 0.115509
0.022186 0.493988 0.116486
0.026062 0.495972 0.117493
0.030365 0.498596 0.119476
0.035797 0.502106 0.120941
0.046997 0.507355 0.122711
0.075806 0.520111 0.134979
0.117065 0.530823 0.139343
0.198547 0.539062 0.141693
0.276550 0.547180 0.145966
0.332825 0.553864 0.150940
0.382355 0.561035 0.156647
0.427429 0.568237 0.162354
0.472931 0.576324 0.169495
0.516449 0.584229 0.175507
0.558105 0.592285 0.180939
0.600128 0.601196 0.185883
0.642426 0.610107 0.192291
0.681702 0.617432 0.200012
0.720795 0.625763 0.209808
0.757233 0.633728 0.218567
0.791840 0.641785 0.226074
0.822998 0.650604 0.236023
0.852295 0.660156 0.245117
0.878571 0.669708 0.252106
0.903992 0.679108 0.261414
0.925385 0.687164 0.268402
0.942017 0.693634 0.273499
0.003906 0.513763 0.125641
0.006836 0.515015 0.125641
0.009796 0.516418 0.126068
0.012848 0.517822 0.126495
0.015839 0.519470 0.127045
0.019012 0.521149 0.127747
0.022491 0.522827 0.127808
0.025818 0.524872 0.128662
0.030396 0.526978 0.129517
0.035919 0.529968 0.130249
0.046478 0.534760 0.132660
0.068298 0.544159 0.139069
0.099030 0.559235 0.150146
0.179352 0.568634 0.153137
0.261566 0.577271 0.157928
0.325134 0.583954 0.162506
0.379425 0.591034 0.168579
0.428986 0.599396 0.175354
0.476074 0.606842 0.181366
0.521118 0.614410 0.187500
0.562988 0.621765 0.192322
0.604187 0.630371 0.197601
0.645050 0.638306 0.201935
0.684723 0.645782 0.209991
0.723114 0.652832 0.221008
0.758850 0.660522 0.230591
0.791016 0.668457 0.241089
0.822571 0.676788 0.249176
0.852600 0.685516 0.257446
0.881226 0.695465 0.264740
0.905792 0.704102 0.271545
0.927429 0.711548 0.278564
0.945129 0.717316 0.284454
0.003815 0.541229 0.135468
0.006683 0.542358 0.135376
0.009644 0.543854 0.136139
0.012756 0.545746 0.137054
0.016022 0.547791 0.137848
0.019196 0.549622 0.138336
0.022614 0.551575 0.138855
0.026276 0.553589 0.139618
0.030975 0.555817 0.140900
0.036377 0.558594 0.141907
0.044403 0.561890 0.142487
0.060974 0.569153 0.147217
0.097351 0.586060 0.160461
0.168762 0.597626 0.164978
0.250122 0.605774 0.169220
0.316376 0.613525 0.175018
0.374878 0.620697 0.180725
0.430573 0.629364 0.187866
0.478699 0.636505 0.193329
0.524628 0.642944 0.197845
0.567535 0.649994 0.203003
0.608521 0.657867 0.209076
0.647217 0.665222 0.213745
0.686218 0.673218 0.220764
0.724060 0.680695 0.229614
0.759521 0.687866 0.240540
0.791321 0.694977 0.251526
0.821533 0.702179 0.261353
0.851715 0.709747 0.269409
0.880554 0.717896 0.276459
0.908966 0.726837 0.284485
0.930695 0.733826 0.290192
0.947998 0.739471 0.296234
0.003632 0.569580 0.148926
0.006500 0.570374 0.148163
0.009583 0.571747 0.148468
0.012878 0.573792 0.149475
0.016357 0.576111 0.150848
0.019928 0.578064 0.151703
0.023499 0.580048 0.152222
0.027527 0.582581 0.152863
0.031860 0.584747 0.153625
0.038879 0.587585 0.156006
0.046814 0.591034 0.157684
0.060516 0.596893 0.160980
0.086792 0.610901 0.170624
0.151337 0.624969 0.179474
0.233582 0.634949 0.182770
0.312622 0.643219 0.187531
0.374451 0.650757 0.192627
0.430206 0.658539 0.199127
0.480316 0.665619 0.206726
0.527557 0.671753 0.211304
0.570068 0.678040 0.215637
0.611176 0.684662 0.218933
0.649841 0.692200 0.225189
0.688019 0.699646 0.233948
0.725128 0.706635 0.242096
0.760529 0.713684 0.253052
0.792572 0.719879 0.263397
0.822418 0.726318 0.273163
0.851685 0.733185 0.282288
0.880493 0.740173 0.288696
0.908203 0.747284 0.295563
0.933655 0.754211 0.302338
0.950470 0.759369 0.306915
0.004730 0.599609 0.163727
0.007751 0.601196 0.164185
0.010834 0.602112 0.164429
0.014130 0.603516 0.165100
0.017487 0.605377 0.166077
0.021301 0.607697 0.167145
0.024719 0.609863 0.167847
0.029205 0.612732 0.169037
0.033997 0.615326 0.169708
0.041046 0.618317 0.171478
0.048676 0.621429 0.173126
0.060516 0.625885 0.174988
0.081940 0.637054 0.183075
0.131592 0.652588 0.195160
0.215363 0.664307 0.199249
0.303802 0.672699 0.200714
0.375671 0.680206 0.204803
0.431488 0.686951 0.209656
0.482452 0.693481 0.215759
0.529205 0.699249 0.222900
0.572632 0.705811 0.228333
