Kodak Eastman Color Negative 50T (5251) - Only color.cube
# Created by Benjamin (IWLTBAP) : http://luts.iwltbap.com
# Copyright: (C) Copyright 2010-2017 Triune Films and IWLTBAP SAS
# Cannot be resold, shared or otherwise redistributed
TITLE "Film Print Emulation LUTs Pack (Rec.709, sRGB, DCI-P3)"
LUT_3D_SIZE 33
0.000000 0.000000 0.000000
0.027954 0.000031 0.000031
0.056702 0.000092 0.000061
0.087250 0.000122 0.000061
0.119171 0.000122 0.000092
0.151886 0.000153 0.000092
0.185547 0.000153 0.000092
0.220612 0.000183 0.000092
0.256805 0.000153 0.000061
0.294067 0.000153 0.000031
0.332062 0.000122 0.000000
0.369843 0.000122 0.000000
0.407440 0.000092 0.000000
0.444244 0.000092 0.000000
0.480286 0.000061 0.000000
0.515289 0.000061 0.000000
0.548981 0.000061 0.000000
0.582001 0.000092 0.000000
0.614410 0.000092 0.000000
0.646667 0.000122 0.000000
0.678833 0.000122 0.000000
0.710510 0.000153 0.000000
0.740875 0.000183 0.000000
0.769867 0.000244 0.000000
0.797668 0.000275 0.000000
0.824310 0.000336 0.000000
0.849915 0.000427 0.000061
0.874908 0.000488 0.000122
0.900085 0.000549 0.000183
0.926086 0.000610 0.000244
0.953125 0.000671 0.000275
0.979370 0.000732 0.000336
1.000000 0.000793 0.000397
0.000000 0.034271 0.000000
0.027924 0.034302 0.000031
0.056671 0.034332 0.000061
0.087219 0.034332 0.000061
0.119171 0.034332 0.000092
0.151886 0.034332 0.000092
0.185547 0.034332 0.000092
0.220612 0.034332 0.000061
0.256836 0.034302 0.000061
0.294098 0.034271 0.000031
0.332092 0.034241 0.000000
0.369873 0.034180 0.000000
0.407440 0.034149 0.000000
0.444275 0.034119 0.000000
0.480316 0.034119 0.000000
0.515289 0.034088 0.000000
0.548981 0.034088 0.000000
0.581970 0.034088 0.000000
0.614380 0.034088 0.000000
0.646667 0.034088 0.000000
0.678802 0.034088 0.000000
0.710480 0.034088 0.000000
0.740845 0.034119 0.000000
0.769836 0.034149 0.000000
0.797638 0.034180 0.000000
0.824249 0.034210 0.000000
0.849854 0.034271 0.000061
0.874847 0.034302 0.000122
0.900055 0.034363 0.000183
0.926025 0.034424 0.000244
0.953094 0.034454 0.000275
0.979309 0.034485 0.000336
1.000000 0.034546 0.000397
0.000000 0.066010 0.000000
0.027893 0.066040 0.000031
0.056671 0.066040 0.000061
0.087219 0.066071 0.000061
0.119171 0.066040 0.000092
0.151886 0.066040 0.000092
0.185547 0.066040 0.000092
0.220642 0.066010 0.000092
0.256866 0.065979 0.000061
0.294128 0.065918 0.000031
0.332123 0.065887 0.000000
0.369904 0.065826 0.000000
0.407471 0.065796 0.000000
0.444305 0.065765 0.000000
0.480316 0.065735 0.000000
0.515289 0.065704 0.000000
0.548981 0.065674 0.000000
0.581970 0.065674 0.000000
0.614380 0.065674 0.000000
0.646667 0.065643 0.000000
0.678802 0.065643 0.000000
0.710480 0.065643 0.000000
0.740814 0.065643 0.000000
0.769806 0.065674 0.000000
0.797607 0.065704 0.000000
0.824188 0.065735 0.000031
0.849792 0.065765 0.000061
0.874786 0.065796 0.000122
0.899994 0.065857 0.000183
0.925995 0.065887 0.000244
0.953064 0.065918 0.000275
0.979248 0.065948 0.000336
1.000000 0.065979 0.000397
0.000000 0.097229 0.000000
0.027863 0.097229 0.000031
0.056641 0.097260 0.000061
0.087219 0.097260 0.000092
0.119171 0.097229 0.000092
0.151886 0.097229 0.000092
0.185577 0.097198 0.000092
0.220673 0.097168 0.000092
0.256897 0.097137 0.000061
0.294189 0.097076 0.000031
0.332184 0.097046 0.000000
0.369965 0.096985 0.000000
0.407532 0.096924 0.000000
0.444336 0.096893 0.000000
0.480377 0.096863 0.000000
0.515320 0.096832 0.000000
0.549011 0.096802 0.000000
0.582001 0.096771 0.000000
0.614410 0.096771 0.000000
0.646667 0.096741 0.000000
0.678833 0.096741 0.000000
0.710480 0.096741 0.000000
0.740814 0.096741 0.000000
0.769806 0.096741 0.000000
0.797577 0.096771 0.000000
0.824158 0.096802 0.000031
0.849762 0.096832 0.000092
0.874756 0.096863 0.000153
0.899963 0.096893 0.000214
0.925964 0.096924 0.000244
0.953033 0.096954 0.000305
0.979218 0.096985 0.000336
1.000000 0.097015 0.000397
0.000000 0.127350 0.000031
0.027863 0.127350 0.000061
0.056641 0.127350 0.000092
0.087219 0.127350 0.000122
0.119202 0.127350 0.000122
0.151917 0.127319 0.000122
0.185608 0.127289 0.000122
0.220703 0.127258 0.000122
0.256958 0.127228 0.000092
0.294220 0.127167 0.000061
0.332214 0.127136 0.000031
0.369995 0.127075 0.000000
0.407593 0.127014 0.000000
0.444366 0.126984 0.000000
0.480408 0.126923 0.000000
0.515350 0.126892 0.000000
0.549011 0.126862 0.000000
0.582001 0.126862 0.000000
0.614410 0.126831 0.000000
0.646698 0.126831 0.000000
0.678833 0.126831 0.000000
0.710480 0.126801 0.000000
0.740814 0.126801 0.000000
0.769775 0.126831 0.000000
0.797546 0.126831 0.000000
0.824127 0.126862 0.000061
0.849731 0.126892 0.000122
0.874725 0.126923 0.000153
0.899933 0.126953 0.000214
0.925934 0.126984 0.000275
0.953003 0.127014 0.000305
0.979187 0.127045 0.000366
1.000000 0.127075 0.000427
0.000000 0.158020 0.000031
0.027863 0.158051 0.000092
0.056641 0.158051 0.000092
0.087250 0.158081 0.000122
0.119202 0.158081 0.000122
0.151917 0.158051 0.000122
0.185638 0.158051 0.000122
0.220764 0.158020 0.000122
0.256989 0.157990 0.000122
0.294281 0.157928 0.000092
0.332275 0.157898 0.000061
0.370056 0.157837 0.000031
0.407623 0.157806 0.000000
0.444427 0.157745 0.000000
0.480438 0.157715 0.000000
0.515381 0.157715 0.000000
0.549042 0.157684 0.000000
0.582031 0.157684 0.000000
0.614410 0.157654 0.000000
0.646698 0.157654 0.000000
0.678833 0.157654 0.000000
0.710480 0.157654 0.000000
0.740814 0.157654 0.000000
0.769775 0.157684 0.000000
0.797516 0.157684 0.000031
0.824097 0.157715 0.000061
0.849701 0.157776 0.000122
0.874695 0.157806 0.000183
0.899902 0.157867 0.000244
0.925903 0.157898 0.000275
0.953003 0.157928 0.000336
0.979156 0.157959 0.000366
1.000000 0.157990 0.000458
0.000000 0.189453 0.000061
0.027832 0.189484 0.000092
0.056641 0.189484 0.000122
0.087219 0.189484 0.000122
0.119232 0.189484 0.000153
0.151947 0.189484 0.000153
0.185638 0.189453 0.000153
0.220795 0.189423 0.000153
0.257019 0.189392 0.000122
0.294312 0.189362 0.000092
0.332336 0.189301 0.000061
0.370087 0.189270 0.000031
0.407654 0.189209 0.000000
0.444458 0.189178 0.000000
0.480469 0.189148 0.000000
0.515411 0.189117 0.000000
0.549042 0.189117 0.000000
0.582031 0.189087 0.000000
0.614441 0.189087 0.000000
0.646698 0.189087 0.000000
0.678833 0.189087 0.000000
0.710480 0.189087 0.000000
0.740784 0.189087 0.000000
0.769745 0.189087 0.000000
0.797485 0.189117 0.000031
0.824066 0.189148 0.000092
0.849640 0.189178 0.000153
0.874634 0.189240 0.000183
0.899841 0.189270 0.000244
0.925873 0.189301 0.000305
0.952972 0.189331 0.000336
0.979095 0.189362 0.000397
1.000000 0.189423 0.000458
0.000000 0.220642 0.000061
0.027832 0.220642 0.000092
0.056610 0.220673 0.000122
0.087219 0.220673 0.000153
0.119232 0.220673 0.000153
0.151947 0.220673 0.000153
0.185669 0.220642 0.000153
0.220825 0.220612 0.000153
0.257080 0.220581 0.000122
0.294373 0.220551 0.000092
0.332367 0.220490 0.000061
0.370148 0.220459 0.000031
0.407715 0.220428 0.000000
0.444489 0.220367 0.000000
0.480499 0.220337 0.000000
0.515411 0.220306 0.000000
0.549072 0.220306 0.000000
0.582031 0.220306 0.000000
0.614441 0.220276 0.000000
0.646698 0.220276 0.000000
0.678833 0.220276 0.000000
0.710480 0.220276 0.000000
0.740784 0.220276 0.000000
0.769714 0.220306 0.000031
0.797485 0.220337 0.000061
0.824036 0.220367 0.000092
0.849609 0.220398 0.000153
0.874603 0.220428 0.000214
0.899811 0.220490 0.000275
0.925842 0.220520 0.000305
0.952942 0.220551 0.000366
0.979065 0.220581 0.000397
1.000000 0.220642 0.000458
0.000000 0.252167 0.000092
0.027802 0.252197 0.000122
0.056610 0.252197 0.000153
0.087219 0.252228 0.000153
0.119232 0.252197 0.000153
0.151947 0.252197 0.000183
0.185699 0.252197 0.000183
0.220856 0.252167 0.000183
0.257111 0.252136 0.000153
0.294403 0.252075 0.000122
0.332428 0.252045 0.000092
0.370178 0.251984 0.000061
0.407745 0.251953 0.000031
0.444519 0.251923 0.000000
0.480530 0.251892 0.000000
0.515442 0.251862 0.000000
0.549072 0.251831 0.000000
0.582062 0.251831 0.000000
0.614441 0.251831 0.000000
0.646729 0.251831 0.000000
0.678864 0.251831 0.000000
0.710480 0.251801 0.000000
0.740753 0.251831 0.000000
0.769714 0.251831 0.000031
0.797455 0.251862 0.000061
0.823975 0.251892 0.000122
0.849548 0.251953 0.000153
0.874542 0.251984 0.000214
0.899780 0.252014 0.000275
0.925812 0.252075 0.000336
0.952911 0.252106 0.000366
0.979034 0.252136 0.000427
1.000000 0.252167 0.000488
0.000000 0.283447 0.000092
0.027802 0.283478 0.000122
0.056580 0.283508 0.000153
0.087219 0.283508 0.000183
0.119232 0.283508 0.000183
0.151978 0.283478 0.000183
0.185730 0.283478 0.000183
0.220886 0.283447 0.000183
0.257141 0.283417 0.000153
0.294464 0.283386 0.000122
0.332458 0.283325 0.000092
0.370239 0.283295 0.000061
0.407776 0.283234 0.000031
0.444550 0.283203 0.000000
0.480560 0.283173 0.000000
0.515442 0.283142 0.000000
0.549072 0.283142 0.000000
0.582062 0.283112 0.000000
0.614441 0.283112 0.000000
0.646729 0.283112 0.000000
0.678864 0.283112 0.000000
0.710480 0.283112 0.000000
0.740753 0.283112 0.000000
0.769684 0.283142 0.000031
0.797424 0.283142 0.000092
0.823944 0.283203 0.000122
0.849518 0.283234 0.000183
0.874512 0.283264 0.000244
0.899719 0.283325 0.000305
0.925781 0.283356 0.000336
0.952881 0.283386 0.000397
0.978973 0.283417 0.000427
1.000000 0.283478 0.000488
0.000000 0.314972 0.000092
0.027771 0.315002 0.000153
0.056580 0.315002 0.000153
0.087219 0.315002 0.000183
0.119263 0.315002 0.000183
0.151978 0.315002 0.000183
0.185730 0.314972 0.000183
0.220917 0.314972 0.000183
0.257172 0.314911 0.000183
0.294495 0.314880 0.000153
0.332489 0.314850 0.000122
0.370270 0.314789 0.000092
0.407837 0.314758 0.000061
0.444580 0.314728 0.000031
0.480591 0.314697 0.000000
0.515472 0.314667 0.000000
0.549103 0.314636 0.000000
0.582062 0.314636 0.000000
0.614471 0.314636 0.000000
0.646729 0.314636 0.000000
0.678864 0.314606 0.000000
0.710449 0.314606 0.000000
0.740753 0.314636 0.000031
0.769653 0.314636 0.000061
0.797394 0.314667 0.000092
0.823914 0.314697 0.000122
0.849487 0.314728 0.000183
0.874451 0.314789 0.000244
0.899689 0.314819 0.000305
0.925751 0.314880 0.000366
0.952850 0.314911 0.000397
0.978943 0.314941 0.000458
1.000000 0.314972 0.000519
0.000000 0.346466 0.000122
0.027771 0.346466 0.000153
0.056580 0.346497 0.000183
0.087219 0.346497 0.000183
0.119263 0.346497 0.000214
0.151978 0.346497 0.000214
0.185760 0.346466 0.000214
0.220947 0.346436 0.000214
0.257233 0.346405 0.000183
0.294556 0.346375 0.000153
0.332550 0.346344 0.000122
0.370331 0.346283 0.000092
0.407867 0.346252 0.000061
0.444611 0.346222 0.000031
0.480621 0.346191 0.000000
0.515503 0.346161 0.000000
0.549103 0.346161 0.000000
0.582092 0.346130 0.000000
0.614471 0.346130 0.000000
0.646729 0.346130 0.000000
0.678864 0.346130 0.000000
0.710449 0.346130 0.000031
0.740723 0.346130 0.000031
0.769623 0.346161 0.000061
0.797363 0.346161 0.000092
0.823883 0.346222 0.000153
0.849426 0.346252 0.000214
0.874420 0.346283 0.000244
0.899628 0.346344 0.000305
0.925720 0.346375 0.000366
0.952820 0.346405 0.000427
0.978882 0.346436 0.000458
1.000000 0.346497 0.000519
0.000000 0.378082 0.000122
0.027740 0.378113 0.000153
0.056549 0.378113 0.000183
0.087219 0.378113 0.000214
0.119263 0.378113 0.000214
0.152008 0.378113 0.000214
0.185760 0.378113 0.000214
0.220947 0.378082 0.000214
0.257263 0.378052 0.000183
0.294586 0.377991 0.000153
0.332581 0.377960 0.000122
0.370361 0.377930 0.000092
0.407898 0.377869 0.000061
0.444641 0.377838 0.000031
0.480652 0.377808 0.000031
0.515503 0.377777 0.000000
0.549103 0.377777 0.000000
0.582092 0.377777 0.000000
0.614471 0.377777 0.000000
0.646729 0.377747 0.000000
0.678864 0.377747 0.000031
0.710449 0.377747 0.000031
0.740723 0.377777 0.000061
0.769623 0.377777 0.000061
0.797302 0.377808 0.000122
0.823822 0.377838 0.000153
0.849396 0.377899 0.000214
0.874359 0.377930 0.000275
0.899597 0.377991 0.000336
0.925690 0.378021 0.000366
0.952789 0.378052 0.000427
0.978851 0.378082 0.000488
1.000000 0.378143 0.000519
0.000000 0.409790 0.000153
0.027740 0.409790 0.000183
0.056549 0.409821 0.000183
0.087219 0.409821 0.000214
0.119263 0.409821 0.000214
0.152008 0.409821 0.000214
0.185791 0.409821 0.000244
0.220978 0.409790 0.000214
0.257294 0.409760 0.000214
0.294617 0.409729 0.000183
0.332642 0.409668 0.000153
0.370392 0.409637 0.000122
0.407928 0.409607 0.000092
0.444672 0.409576 0.000061
0.480652 0.409546 0.000031
0.515533 0.409515 0.000000
0.549133 0.409515 0.000000
0.582092 0.409515 0.000000
0.614471 0.409515 0.000000
0.646729 0.409485 0.000031
0.678864 0.409485 0.000031
0.710449 0.409515 0.000031
0.740692 0.409515 0.000061
0.769592 0.409546 0.000092
0.797272 0.409576 0.000122
0.823792 0.409607 0.000183
0.849335 0.409637 0.000214
0.874329 0.409698 0.000275
0.899567 0.409729 0.000336
0.925629 0.409790 0.000397
0.952759 0.409821 0.000427
0.978790 0.409851 0.000488
1.000000 0.409912 0.000549
0.000000 0.442047 0.000153
0.027710 0.442078 0.000183
0.056519 0.442108 0.000214
0.087219 0.442108 0.000214
0.119263 0.442108 0.000244
0.152008 0.442108 0.000244
0.185822 0.442108 0.000244
0.221008 0.442078 0.000244
0.257324 0.442078 0.000214
0.294678 0.442047 0.000183
0.332672 0.441986 0.000153
0.370453 0.441956 0.000122
0.407990 0.441925 0.000092
0.444702 0.441895 0.000061
0.480682 0.441864 0.000031
0.515533 0.441864 0.000031
0.549133 0.441864 0.000031
0.582092 0.441833 0.000031
0.614471 0.441833 0.000031
0.646729 0.441864 0.000031
0.678864 0.441864 0.000031
0.710449 0.441864 0.000031
0.740692 0.441864 0.000061
0.769562 0.441895 0.000092
0.797241 0.441925 0.000122
0.823730 0.441986 0.000183
0.849274 0.442017 0.000214
0.874268 0.442078 0.000275
0.899506 0.442139 0.000336
0.925598 0.442169 0.000397
0.952728 0.442200 0.000427
0.978760 0.442261 0.000488
1.000000 0.442322 0.000549
0.000000 0.474670 0.000153
0.027679 0.474701 0.000183
0.056488 0.474701 0.000214
0.087189 0.474731 0.000214
0.119263 0.474731 0.000244
0.152008 0.474731 0.000244
0.185822 0.474731 0.000244
0.221039 0.474701 0.000244
0.257355 0.474701 0.000214
0.294708 0.474670 0.000183
0.332703 0.474609 0.000153
0.370483 0.474579 0.000122
0.408020 0.474548 0.000092
0.444733 0.474518 0.000061
0.480713 0.474518 0.000031
0.515533 0.474487 0.000031
0.549133 0.474487 0.000031
0.582092 0.474487 0.000031
0.614471 0.474487 0.000031
0.646729 0.474487 0.000031
0.678864 0.474487 0.000031
0.710419 0.474518 0.000061
0.740662 0.474518 0.000061
0.769531 0.474548 0.000092
0.797211 0.474579 0.000122
0.823700 0.474640 0.000183
0.849243 0.474670 0.000214
0.874207 0.474731 0.000275
0.899445 0.474792 0.000336
0.925568 0.474854 0.000397
0.952698 0.474884 0.000427
0.978699 0.474915 0.000488
1.000000 0.474976 0.000549
0.000000 0.507568 0.000153
0.027649 0.507599 0.000183
0.056488 0.507629 0.000214
0.087189 0.507629 0.000214
0.119263 0.507660 0.000244
0.152008 0.507660 0.000244
0.185822 0.507629 0.000244
0.221039 0.507629 0.000244
0.257385 0.507599 0.000214
0.294739 0.507568 0.000183
0.332733 0.507538 0.000153
0.370514 0.507507 0.000122
0.408051 0.507446 0.000092
0.444763 0.507416 0.000061
0.480743 0.507416 0.000061
0.515564 0.507385 0.000031
0.549133 0.507385 0.000031
0.582092 0.507385 0.000031
0.614471 0.507385 0.000031
0.646729 0.507385 0.000031
0.678833 0.507385 0.000031
0.710419 0.507385 0.000061
0.740631 0.507416 0.000061
0.769501 0.507446 0.000092
0.797180 0.507477 0.000122
0.823639 0.507507 0.000183
0.849182 0.507568 0.000244
0.874176 0.507629 0.000275
0.899414 0.507660 0.000366
0.925507 0.507721 0.000397
0.952637 0.507751 0.000427
0.978638 0.507812 0.000488
1.000000 0.507843 0.000549
0.000000 0.539948 0.000153
0.027649 0.539978 0.000183
0.056458 0.539978 0.000214
0.087189 0.540009 0.000244
0.119263 0.539978 0.000244
0.152008 0.539978 0.000244
0.185852 0.539978 0.000244
0.221069 0.539948 0.000244
0.257416 0.539917 0.000214
0.294769 0.539886 0.000183
0.332794 0.539856 0.000153
0.370544 0.539795 0.000122
0.408081 0.539764 0.000092
0.444794 0.539734 0.000061
0.480743 0.539703 0.000061
0.515564 0.539673 0.000031
0.549133 0.539673 0.000031
0.582092 0.539673 0.000031
0.614471 0.539642 0.000031
0.646729 0.539642 0.000031
0.678833 0.539642 0.000031
0.710388 0.539642 0.000061
0.740601 0.539673 0.000061
0.769470 0.539673 0.000092
0.797119 0.539703 0.000153
0.823608 0.539764 0.000183
0.849121 0.539795 0.000244
0.874115 0.539856 0.000305
0.899353 0.539886 0.000366
0.925476 0.539917 0.000397
0.952606 0.539948 0.000458
0.978607 0.540009 0.000488
1.000000 0.540039 0.000549
0.000000 0.571381 0.000183
0.027618 0.571381 0.000214
0.056458 0.571411 0.000214
0.087189 0.571411 0.000244
0.119293 0.571381 0.000275
0.152039 0.571381 0.000275
0.185883 0.571350 0.000275
0.221100 0.571320 0.000244
0.257477 0.571289 0.000244
0.294830 0.571228 0.000214
0.332825 0.571198 0.000183
0.370575 0.571136 0.000153
0.408112 0.571106 0.000122
0.444824 0.571045 0.000092
0.480774 0.571014 0.000061
0.515594 0.570984 0.000061
0.549164 0.570984 0.000031
0.582092 0.570953 0.000031
0.614471 0.570953 0.000031
0.646729 0.570923 0.000061
0.678833 0.570923 0.000061
0.710388 0.570923 0.000061
0.740601 0.570923 0.000092
0.769440 0.570923 0.000122
0.797089 0.570953 0.000153
0.823578 0.570984 0.000183
0.849091 0.571014 0.000244
0.874054 0.571045 0.000305
0.899323 0.571106 0.000366
0.925446 0.571136 0.000427
0.952576 0.571136 0.000458
0.978546 0.571167 0.000519
1.000000 0.571228 0.000549
0.000000 0.601807 0.000183
0.027618 0.601837 0.000214
0.056427 0.601837 0.000244
0.087189 0.601837 0.000275
0.119293 0.601807 0.000275
0.152039 0.601807 0.000275
0.185913 0.601776 0.000275
0.221130 0.601746 0.000275
0.257507 0.601715 0.000244
0.294861 0.601654 0.000214
0.332886 0.601593 0.000183
0.370636 0.601532 0.000153
0.408173 0.601501 0.000122
0.444855 0.601440 0.000092
0.480804 0.601410 0.000092
0.515625 0.601379 0.000061
0.549164 0.601349 0.000061
0.582123 0.601349 0.000061
0.614502 0.601318 0.000061
0.646759 0.601318 0.000061
0.678864 0.601288 0.000061
0.710388 0.601288 0.000092
0.740601 0.601288 0.000092
0.769440 0.601288 0.000122
0.797089 0.601318 0.000183
0.823517 0.601318 0.000214
0.849060 0.601379 0.000275
0.874023 0.601410 0.000336
0.899292 0.601440 0.000366
0.925415 0.601471 0.000427
0.952545 0.601471 0.000488
0.978516 0.601501 0.000519
1.000000 0.601532 0.000580
0.000000 0.631897 0.000214
0.027618 0.631927 0.000244
0.056427 0.631927 0.000275
0.087189 0.631927 0.000275
0.119324 0.631897 0.000305
0.152069 0.631897 0.000305
0.185944 0.631866 0.000305
0.221191 0.631836 0.000305
0.257568 0.631775 0.000275
0.294922 0.631714 0.000244
0.332947 0.631683 0.000214
0.370697 0.631622 0.000183
0.408203 0.631561 0.000153
0.444885 0.631531 0.000122
0.480865 0.631470 0.000092
0.515656 0.631439 0.000092
0.549194 0.631409 0.000061
0.582123 0.631409 0.000092
0.614502 0.631378 0.000092
0.646759 0.631378 0.000092
0.678864 0.631348 0.000092
0.710419 0.631348 0.000092
0.740601 0.631348 0.000122
0.769409 0.631348 0.000153
0.797058 0.631348 0.000183
0.823517 0.631378 0.000244
0.849030 0.631409 0.000275
0.873993 0.631439 0.000336
0.899261 0.631470 0.000397
0.925385 0.631500 0.000458
0.952545 0.631531 0.000488
0.978485 0.631561 0.000549
1.000000 0.631592 0.000610
0.000000 0.661926 0.000244
0.027618 0.661957 0.000275
0.056427 0.661957 0.000275
0.087219 0.661957 0.000305
0.119324 0.661957 0.000305
0.152100 0.661926 0.000336
0.185974 0.661896 0.000336
0.221222 0.661865 0.000305
0.257599 0.661835 0.000305
0.294983 0.661774 0.000275
0.332977 0.661713 0.000244
0.370758 0.661652 0.000214
0.408264 0.661621 0.000183
0.444946 0.661560 0.000153
0.480896 0.661530 0.000122
0.515656 0.661499 0.000122
0.549225 0.661469 0.000092
0.582153 0.661438 0.000092
0.614532 0.661438 0.000092
0.646790 0.661407 0.000122
0.678894 0.661407 0.000122
0.710419 0.661407 0.000122
0.740601 0.661407 0.000153
0.769409 0.661407 0.000183
0.797028 0.661438 0.000214
0.823486 0.661438 0.000244
0.848999 0.661469 0.000305
0.873962 0.661530 0.000366
0.899231 0.661560 0.000427
0.925354 0.661591 0.000488
0.952515 0.661591 0.000519
0.978455 0.661621 0.000549
1.000000 0.661652 0.000610
0.000000 0.692261 0.000244
0.027588 0.692261 0.000275
0.056427 0.692261 0.000305
0.087219 0.692261 0.000336
0.119354 0.692261 0.000336
0.152100 0.692230 0.000366
0.186005 0.692230 0.000336
0.221252 0.692200 0.000336
0.257660 0.692139 0.000305
0.295044 0.692108 0.000275
0.333038 0.692047 0.000244
0.370789 0.691986 0.000214
0.408295 0.691956 0.000183
0.444977 0.691895 0.000153
0.480927 0.691864 0.000153
0.515686 0.691833 0.000122
0.549225 0.691803 0.000122
0.582153 0.691803 0.000122
0.614532 0.691772 0.000122
0.646790 0.691772 0.000122
0.678894 0.691772 0.000122
0.710419 0.691742 0.000153
0.740570 0.691742 0.000153
0.769409 0.691772 0.000183
0.797028 0.691803 0.000244
0.823425 0.691803 0.000275
0.848938 0.691864 0.000336
0.873932 0.691895 0.000397
0.899200 0.691925 0.000458
0.925354 0.691956 0.000488
0.952484 0.691986 0.000519
0.978424 0.692017 0.000580
1.000000 0.692047 0.000641
0.000000 0.722839 0.000275
0.027588 0.722839 0.000305
0.056427 0.722870 0.000336
0.087219 0.722870 0.000336
0.119354 0.722839 0.000366
0.152130 0.722839 0.000366
0.186035 0.722809 0.000366
0.221283 0.722778 0.000366
0.257690 0.722748 0.000336
0.295074 0.722687 0.000305
0.333099 0.722656 0.000275
0.370850 0.722595 0.000244
0.408356 0.722534 0.000214
0.445007 0.722504 0.000183
0.480957 0.722473 0.000153
0.515717 0.722443 0.000153
0.549255 0.722412 0.000153
0.582184 0.722412 0.000153
0.614532 0.722382 0.000153
0.646790 0.722382 0.000153
0.678894 0.722382 0.000153
0.710419 0.722382 0.000153
0.740570 0.722382 0.000183
0.769379 0.722382 0.000214
0.796997 0.722412 0.000244
0.823395 0.722443 0.000275
0.848907 0.722473 0.000336
0.873871 0.722504 0.000397
0.899139 0.722565 0.000458
0.925323 0.722595 0.000519
0.952484 0.722595 0.000549
0.978394 0.722626 0.000580
1.000000 0.722687 0.000641
0.000000 0.753571 0.000305
0.027588 0.753601 0.000305
0.056427 0.753601 0.000336
0.087219 0.753601 0.000366
0.119385 0.753601 0.000366
0.152130 0.753601 0.000397
0.186035 0.753571 0.000397
0.221344 0.753540 0.000366
0.257751 0.753510 0.000336
0.295135 0.753448 0.000305
0.333130 0.753418 0.000275
0.370880 0.753357 0.000244
0.408386 0.753326 0.000214
0.445068 0.753265 0.000183
0.480988 0.753235 0.000183
0.515747 0.753204 0.000153
0.549255 0.753204 0.000153
0.582184 0.753174 0.000153
0.614563 0.753174 0.000153
0.646820 0.753143 0.000183
0.678925 0.753143 0.000183
0.710419 0.753143 0.000183
0.740570 0.753143 0.000183
0.769348 0.753174 0.000214
0.796967 0.753174 0.000275
0.823364 0.753204 0.000305
0.848877 0.753265 0.000366
0.873840 0.753296 0.000427
0.899109 0.753326 0.000488
0.925293 0.753357 0.000519
0.952454 0.753387 0.000549
0.978333 0.753418 0.000610
1.000000 0.753479 0.000671
0.000000 0.784515 0.000305
0.027557 0.784546 0.000336
0.056396 0.784546 0.000366
0.087219 0.784576 0.000366
0.119385 0.784546 0.000397
0.152161 0.784546 0.000397
0.186066 0.784515 0.000397
0.221375 0.784485 0.000397
0.257782 0.784454 0.000366
0.295166 0.784424 0.000336
0.333191 0.784363 0.000305
0.370941 0.784302 0.000275
0.408447 0.784271 0.000244
0.445099 0.784241 0.000214
0.481018 0.784210 0.000183
0.515747 0.784180 0.000183
0.549286 0.784149 0.000183
0.582184 0.784149 0.000183
0.614563 0.784149 0.000183
0.646820 0.784119 0.000183
0.678925 0.784119 0.000183
0.710419 0.784119 0.000183
0.740570 0.784119 0.000214
0.769348 0.784149 0.000244
0.796936 0.784149 0.000275
0.823334 0.784210 0.000336
0.848816 0.784241 0.000366
0.873810 0.784271 0.000427
0.899078 0.784302 0.000488
0.925262 0.784363 0.000549
0.952423 0.784363 0.000580
0.978302 0.784424 0.000610
1.000000 0.784454 0.000671
0.000000 0.815735 0.000336
0.027557 0.815765 0.000336
0.056396 0.815796 0.000366
0.087219 0.815796 0.000397
0.119385 0.815796 0.000397
0.152161 0.815765 0.000427
0.186096 0.815765 0.000427
0.221405 0.815735 0.000397
0.257843 0.815704 0.000366
0.295227 0.815643 0.000336
0.333221 0.815613 0.000305
0.371002 0.815552 0.000275
0.408478 0.815521 0.000244
0.445129 0.815491 0.000214
0.481049 0.815460 0.000214
0.515778 0.815430 0.000183
0.549286 0.815430 0.000183
0.582214 0.815399 0.000183
0.614563 0.815399 0.000183
0.646820 0.815399 0.000183
0.678925 0.815399 0.000214
