Kodak Vision2 50D (5201) - Look.cube
# Created by Benjamin (IWLTBAP) : http://luts.iwltbap.com
# Copyright: (C) Copyright 2010-2017 Triune Films and IWLTBAP SAS
# Cannot be resold, shared or otherwise redistributed
TITLE "Film Print Emulation LUTs Pack (Rec.709, sRGB, DCI-P3)"
LUT_3D_SIZE 33
0.001190 0.003326 0.007111
0.002228 0.004272 0.015839
0.011200 0.004547 0.011749
0.030823 0.004120 0.006470
0.056427 0.003845 0.002563
0.081970 0.002991 0.000244
0.104553 0.002869 0.000000
0.130035 0.003571 0.000000
0.154510 0.004181 0.000000
0.178986 0.004211 0.000000
0.201141 0.004822 0.000000
0.220978 0.004547 0.000000
0.241028 0.004120 0.000000
0.260193 0.004089 0.000000
0.278503 0.005249 0.000000
0.295654 0.005798 0.000000
0.312195 0.006226 0.000000
0.326385 0.005798 0.000000
0.341614 0.005859 0.000000
0.356201 0.005737 0.000000
0.369720 0.005829 0.000000
0.382599 0.005249 0.000000
0.395935 0.005951 0.000000
0.410156 0.006409 0.000000
0.424683 0.006866 0.000000
0.439392 0.007233 0.000000
0.454254 0.008118 0.000000
0.468628 0.008667 0.000000
0.483063 0.008881 0.000000
0.497162 0.009399 0.000000
0.509949 0.011078 0.000000
0.522247 0.013123 0.000000
0.534027 0.015137 0.000000
0.003296 0.010925 0.018738
0.004456 0.014008 0.022491
0.013641 0.016022 0.020691
0.034241 0.016174 0.012848
0.061737 0.014130 0.004150
0.087860 0.012451 0.000916
0.108978 0.012909 0.000153
0.133698 0.013824 0.000031
0.160034 0.015381 0.000000
0.188446 0.013947 0.000000
0.215668 0.014404 0.000000
0.238098 0.012787 0.000000
0.259949 0.012604 0.000000
0.280212 0.012543 0.000000
0.300293 0.011627 0.000000
0.317688 0.011047 0.000000
0.333893 0.010406 0.000000
0.349670 0.010834 0.000000
0.365570 0.011261 0.000000
0.379608 0.010803 0.000000
0.392426 0.008484 0.000000
0.406464 0.008301 0.000000
0.421570 0.008728 0.000000
0.436707 0.009552 0.000000
0.451843 0.010864 0.000000
0.466614 0.011322 0.000000
0.481049 0.011383 0.000000
0.495544 0.011169 0.000000
0.508911 0.012238 0.000000
0.521576 0.013855 0.000000
0.532745 0.016571 0.000000
0.543213 0.019135 0.000000
0.553589 0.021667 0.000000
0.007416 0.024567 0.031097
0.009003 0.029236 0.034271
0.017334 0.033142 0.034149
0.039154 0.033691 0.021027
0.064728 0.031128 0.007446
0.090942 0.030945 0.002991
0.114716 0.031219 0.000946
0.140167 0.030762 0.000183
0.168243 0.029297 0.000031
0.199280 0.027710 0.000000
0.229797 0.027893 0.000000
0.253876 0.025574 0.000000
0.277008 0.023956 0.000000
0.299652 0.022186 0.000000
0.320709 0.020691 0.000000
0.339844 0.018799 0.000000
0.356995 0.017914 0.000000
0.373901 0.018219 0.000000
0.388550 0.017212 0.000000
0.403198 0.015167 0.000000
0.418121 0.013367 0.000000
0.433929 0.014008 0.000000
0.448090 0.014252 0.000000
0.463837 0.015564 0.000000
0.478546 0.015442 0.000000
0.492920 0.014679 0.000000
0.507355 0.014557 0.000000
0.519440 0.016388 0.000000
0.530945 0.018707 0.000000
0.541901 0.021301 0.000000
0.552063 0.023773 0.000000
0.562164 0.026123 0.000000
0.572601 0.028564 0.000000
0.013794 0.041901 0.048279
0.016022 0.046143 0.047577
0.024750 0.050720 0.043945
0.046631 0.055145 0.031250
0.068542 0.051086 0.014130
0.093323 0.050995 0.007782
0.120605 0.051056 0.003601
0.148254 0.049438 0.001099
0.177368 0.046509 0.000183
0.208984 0.044708 0.000031
0.240936 0.046173 0.000000
0.267181 0.043732 0.000000
0.291229 0.040619 0.000000
0.314697 0.038452 0.000000
0.336884 0.036133 0.000000
0.357208 0.033539 0.000000
0.375610 0.031525 0.000000
0.393127 0.029968 0.000000
0.410583 0.026978 0.000000
0.429504 0.024445 0.000000
0.445984 0.022552 0.000000
0.459167 0.022217 0.000000
0.473724 0.022095 0.000000
0.489319 0.023315 0.000000
0.503418 0.022400 0.000000
0.516693 0.022034 0.000000
0.528198 0.022858 0.000000
0.539642 0.024963 0.000000
0.550323 0.027374 0.000000
0.560394 0.029968 0.000000
0.570770 0.032684 0.000000
0.582153 0.035797 0.000000
0.593750 0.039001 0.000000
0.025146 0.063965 0.061188
0.028748 0.068817 0.057098
0.039185 0.072662 0.048523
0.060059 0.076477 0.035278
0.078918 0.074310 0.022125
0.100098 0.073334 0.015411
0.125580 0.073364 0.010345
0.154541 0.072174 0.005432
0.185974 0.070038 0.001709
0.218689 0.067871 0.000488
0.250671 0.068542 0.000122
0.277802 0.066315 0.000000
0.303589 0.062317 0.000000
0.328644 0.060577 0.000000
0.352386 0.057007 0.000000
0.373718 0.052948 0.000000
0.393951 0.050598 0.000000
0.413483 0.047913 0.000000
0.433289 0.043549 0.000000
0.452118 0.038818 0.000000
0.467804 0.036865 0.000000
0.482422 0.036102 0.000000
0.497101 0.033936 0.000000
0.512695 0.033875 0.000000
0.525757 0.033142 0.000000
0.537476 0.033508 0.000000
0.548553 0.034821 0.000000
0.559570 0.037292 0.000000
0.569702 0.039978 0.000000
0.579926 0.042114 0.000000
0.591248 0.045074 0.000000
0.603302 0.048340 0.000000
0.614410 0.051514 0.000000
0.038788 0.087402 0.064575
0.043121 0.092499 0.060638
0.054199 0.097107 0.051941
0.070923 0.101654 0.041779
0.091827 0.102386 0.031830
0.110992 0.101532 0.025635
0.132538 0.101318 0.020966
0.159485 0.100586 0.014465
0.190918 0.098541 0.007904
0.225464 0.095978 0.003235
0.259583 0.094604 0.001373
0.288147 0.091339 0.000305
0.313599 0.088104 0.000000
0.340057 0.086823 0.000000
0.366028 0.082031 0.000000
0.388916 0.076721 0.000000
0.410950 0.073120 0.000000
0.432800 0.069824 0.000000
0.454498 0.065735 0.000000
0.473602 0.062012 0.000000
0.489807 0.059906 0.000000
0.505341 0.058563 0.000000
0.519714 0.053650 0.000000
0.533752 0.051636 0.000000
0.545502 0.050812 0.000000
0.557495 0.051422 0.000000
0.569275 0.052917 0.000000
0.580444 0.054749 0.000000
0.590973 0.056641 0.000000
0.601715 0.058350 0.000000
0.613708 0.061310 0.000000
0.624115 0.063995 0.000000
0.633575 0.065735 0.000153
0.051422 0.110199 0.060150
0.056183 0.118896 0.062683
0.067902 0.126648 0.059174
0.081116 0.130585 0.051361
0.100464 0.133728 0.044067
0.122162 0.134827 0.038086
0.144562 0.134186 0.032593
0.169434 0.133087 0.025513
0.197052 0.130249 0.018066
0.229462 0.126617 0.011658
0.265900 0.123291 0.006409
0.296875 0.118835 0.002563
0.324982 0.116425 0.000885
0.352203 0.115784 0.000366
0.377502 0.112030 0.000031
0.401886 0.105011 0.000000
0.426544 0.100281 0.000000
0.449646 0.096008 0.000000
0.472961 0.092041 0.000000
0.493958 0.089050 0.000000
0.511322 0.085754 0.000000
0.526581 0.082855 0.000000
0.541565 0.079132 0.000000
0.554901 0.076202 0.000000
0.566803 0.073822 0.000000
0.579773 0.075592 0.000000
0.592041 0.077972 0.000000
0.603668 0.080109 0.000031
0.614502 0.081390 0.000092
0.624664 0.082214 0.000275
0.635254 0.083923 0.000519
0.644714 0.086243 0.000854
0.653015 0.087219 0.001556
0.063812 0.139954 0.064606
0.068481 0.152100 0.071198
0.078735 0.159332 0.070190
0.091644 0.162506 0.064789
0.109222 0.165863 0.057892
0.133209 0.168457 0.050781
0.159760 0.168854 0.043701
0.186768 0.168518 0.036133
0.211945 0.166412 0.029419
0.238342 0.162018 0.022919
0.271271 0.155945 0.015594
0.303711 0.150879 0.009308
0.334320 0.147369 0.005249
0.363037 0.147552 0.003052
0.388550 0.144348 0.001434
0.414001 0.137451 0.000305
0.439514 0.131439 0.000000
0.463928 0.126923 0.000000
0.488312 0.123138 0.000000
0.512390 0.118805 0.000000
0.531403 0.114655 0.000000
0.547211 0.112091 0.000000
0.563324 0.110687 0.000000
0.576813 0.107452 0.000000
0.589386 0.104340 0.000000
0.602203 0.106415 0.000000
0.614136 0.108276 0.000031
0.626129 0.109924 0.000244
0.637543 0.110748 0.000580
0.647644 0.111267 0.001312
0.656311 0.112305 0.002502
0.664490 0.114380 0.003998
0.672546 0.115295 0.005981
0.074036 0.173004 0.075623
0.079193 0.185120 0.082031
0.089752 0.192596 0.083313
0.105591 0.195648 0.077698
0.124390 0.197754 0.070129
0.149536 0.200439 0.061584
0.176086 0.200348 0.053131
0.203857 0.200439 0.045837
0.232300 0.200226 0.039795
0.258636 0.197632 0.033386
0.283264 0.192596 0.026031
0.310944 0.186523 0.019165
0.340637 0.181458 0.014587
0.370056 0.178864 0.009979
0.397949 0.176971 0.005646
0.425934 0.172516 0.002655
0.451965 0.165314 0.001038
0.475525 0.158752 0.000336
0.501678 0.155670 0.000122
0.526733 0.151886 0.000000
0.548981 0.147369 0.000000
0.567047 0.144745 0.000000
0.584320 0.144318 0.000000
0.598114 0.141632 0.000000
0.610657 0.139374 0.000061
0.621704 0.140137 0.000244
0.633087 0.141602 0.000610
0.645966 0.142761 0.001038
0.658081 0.143433 0.002045
0.668213 0.143951 0.003754
0.676147 0.144104 0.006134
0.683594 0.144104 0.009399
0.691467 0.143921 0.013000
0.086945 0.204559 0.085724
0.093781 0.215515 0.091400
0.104919 0.224182 0.094116
0.125763 0.227997 0.088531
0.146088 0.228302 0.078949
0.169037 0.228577 0.069641
0.193970 0.229675 0.061707
0.220703 0.230652 0.055298
0.250305 0.231537 0.049805
0.279236 0.231415 0.043610
0.304565 0.228973 0.035645
0.326172 0.224457 0.029236
0.350983 0.218445 0.024506
0.377777 0.211761 0.019409
0.406219 0.207947 0.013580
0.436890 0.205841 0.008789
0.464935 0.200592 0.005280
0.488312 0.192383 0.002472
0.512451 0.187286 0.000977
0.538849 0.184937 0.000610
0.563049 0.181335 0.000275
0.584076 0.177826 0.000061
0.601868 0.176361 0.000092
0.615967 0.174011 0.000549
0.627930 0.172699 0.001221
0.637512 0.172180 0.001801
0.647339 0.171967 0.002319
0.661743 0.172882 0.003967
0.674286 0.173615 0.006409
0.684448 0.173126 0.008789
0.692566 0.172333 0.011780
0.700531 0.171753 0.015930
0.709320 0.171600 0.021027
0.105804 0.234863 0.094421
0.114777 0.245361 0.099487
0.125427 0.256256 0.103729
0.151154 0.260986 0.096344
0.171600 0.260559 0.085541
0.191742 0.259583 0.076294
0.215240 0.261108 0.069153
0.240631 0.262543 0.064331
0.267151 0.263458 0.060028
0.295227 0.263855 0.054382
0.323151 0.263123 0.046326
0.346588 0.260773 0.038971
0.366272 0.255249 0.034180
0.389587 0.248718 0.029663
0.415527 0.241119 0.023529
0.445343 0.237274 0.017578
0.475830 0.233856 0.012360
0.501434 0.226532 0.008087
0.524658 0.220764 0.005493
0.549347 0.217163 0.003815
0.572449 0.212616 0.002380
0.594147 0.208527 0.002045
0.613403 0.205505 0.002319
0.628113 0.203278 0.002991
0.639832 0.202026 0.003784
0.649384 0.200989 0.004395
0.660065 0.200073 0.005341
0.675110 0.200409 0.008301
0.687866 0.200806 0.012085
0.697723 0.200165 0.015045
0.706726 0.199402 0.018402
0.716034 0.199310 0.023102
0.725372 0.199158 0.028503
0.131134 0.266602 0.101654
0.141907 0.277618 0.105957
0.154297 0.288422 0.109924
0.181213 0.294983 0.103058
0.200073 0.293030 0.092499
0.219055 0.292236 0.083374
0.239258 0.292145 0.077301
0.262146 0.291931 0.072449
0.285980 0.290924 0.067413
0.311188 0.291077 0.062042
0.338470 0.291870 0.055725
0.364655 0.291840 0.049591
0.386993 0.289825 0.045349
0.407501 0.283630 0.040527
0.430115 0.277039 0.034882
0.454285 0.269043 0.027191
0.482605 0.263428 0.020111
0.511230 0.258301 0.016144
0.537048 0.253906 0.013733
0.560974 0.250366 0.011200
0.581390 0.243927 0.008789
0.600952 0.237183 0.007233
0.621368 0.234314 0.007202
0.638519 0.232849 0.007965
0.651245 0.231934 0.008850
0.661987 0.230774 0.009705
0.673950 0.229218 0.011108
0.688416 0.227905 0.013977
0.700775 0.227600 0.018066
0.710022 0.227844 0.022797
0.720337 0.227844 0.027008
0.731018 0.228302 0.031952
0.740875 0.228271 0.036682
0.163055 0.299255 0.106781
0.175232 0.309998 0.110718
0.189484 0.320038 0.114624
0.211975 0.326874 0.113190
0.232727 0.323639 0.100037
0.248566 0.320862 0.092560
0.266541 0.319550 0.086243
0.285797 0.317902 0.079834
0.305878 0.315796 0.074036
0.328339 0.316010 0.069031
0.354034 0.318604 0.064453
0.380280 0.319855 0.060211
0.405487 0.319855 0.056641
0.428131 0.317047 0.051849
0.448761 0.312042 0.046631
0.469818 0.304199 0.039246
0.490936 0.294708 0.029999
0.518494 0.290039 0.025818
0.546265 0.286224 0.023315
0.571167 0.282196 0.019897
0.592102 0.276031 0.017609
0.610657 0.269012 0.015930
0.629333 0.263672 0.014343
0.648346 0.262939 0.015320
0.663666 0.262939 0.016998
0.676178 0.262360 0.018372
0.688751 0.259705 0.019836
0.701721 0.256531 0.022888
0.713104 0.255310 0.026978
0.722565 0.255798 0.031738
0.734161 0.257660 0.037628
0.745697 0.258728 0.042908
0.755920 0.258881 0.047668
0.199554 0.330048 0.111115
0.213165 0.339813 0.114594
0.225800 0.349609 0.119934
0.241241 0.359680 0.126617
0.261719 0.353394 0.114197
0.278717 0.349457 0.104767
0.295959 0.347839 0.096588
0.312836 0.345825 0.088959
0.330200 0.343903 0.082733
0.349731 0.344208 0.077972
0.372375 0.346680 0.073486
0.397308 0.348236 0.069977
0.421478 0.348358 0.066772
0.444489 0.347382 0.061676
0.468689 0.345825 0.057098
0.491455 0.339386 0.050415
0.508667 0.330017 0.041687
0.527771 0.324066 0.036652
0.552979 0.319000 0.033264
0.579468 0.312897 0.028473
0.602203 0.306946 0.026306
0.621613 0.301331 0.025543
0.639893 0.295776 0.023956
0.657227 0.292206 0.023132
0.673615 0.292297 0.024902
0.688263 0.292633 0.026917
0.701599 0.290344 0.028656
0.713409 0.286163 0.031830
0.723724 0.284088 0.036255
0.733978 0.285858 0.042419
0.746735 0.288025 0.049042
0.759460 0.289551 0.055359
0.769897 0.290192 0.060669
0.232086 0.357849 0.115936
0.243530 0.367218 0.120544
0.254547 0.376984 0.126892
0.266876 0.387207 0.135437
0.288391 0.387207 0.129089
0.306335 0.381042 0.116699
0.323303 0.378113 0.107727
0.339294 0.375488 0.099670
0.355103 0.374084 0.092926
0.373322 0.374054 0.087585
0.394348 0.375336 0.083221
0.416443 0.376709 0.078888
0.438232 0.375671 0.075928
0.458099 0.372986 0.069977
0.483948 0.373810 0.066193
0.509338 0.368988 0.059967
0.529694 0.362213 0.052185
0.542938 0.355743 0.046204
0.561188 0.349854 0.042023
0.587646 0.343384 0.037170
0.611023 0.336823 0.034546
0.631104 0.331726 0.034515
0.649170 0.327087 0.033539
0.666199 0.323059 0.032379
0.681671 0.320740 0.033142
0.696960 0.320496 0.034363
0.712219 0.319519 0.036530
0.725098 0.316498 0.040802
0.734711 0.314484 0.045868
0.744476 0.316467 0.051910
0.757965 0.319733 0.060547
0.771332 0.321106 0.067841
0.782928 0.321777 0.074188
0.258850 0.383545 0.122528
0.268585 0.393158 0.127747
0.278595 0.402832 0.135071
0.289886 0.413116 0.144470
0.309052 0.418060 0.145355
0.327789 0.408783 0.128448
0.344818 0.404449 0.117676
0.360535 0.402435 0.110382
0.377106 0.401062 0.104309
0.395294 0.400818 0.099365
0.415131 0.401764 0.094666
0.435425 0.402893 0.090088
0.455414 0.401123 0.084015
0.474945 0.398193 0.077881
0.497864 0.397675 0.074280
0.523987 0.393402 0.068878
0.545563 0.389618 0.061310
0.560181 0.383148 0.054382
0.573730 0.377502 0.049805
0.595032 0.372314 0.045959
0.617767 0.366577 0.043610
0.638306 0.360840 0.042969
0.656647 0.357086 0.042694
0.673920 0.353729 0.041687
0.689667 0.351166 0.042358
0.704285 0.349091 0.043610
0.719635 0.347290 0.044800
0.734344 0.345490 0.049225
0.745209 0.344269 0.054626
0.754700 0.346191 0.060699
0.768097 0.348877 0.070709
0.782410 0.351379 0.079376
0.794556 0.352539 0.084625
0.284393 0.409149 0.130157
0.292328 0.417816 0.135834
0.301544 0.427124 0.143707
0.311890 0.436951 0.153076
0.324127 0.445221 0.160034
0.344574 0.434265 0.141296
0.360901 0.427948 0.129181
0.378113 0.425293 0.121460
0.395721 0.424438 0.115448
0.414215 0.424957 0.110565
0.434204 0.426544 0.106415
0.453430 0.426910 0.100922
0.472351 0.425110 0.093170
0.492157 0.422089 0.087219
0.514191 0.419769 0.082611
0.538391 0.418335 0.077606
0.560455 0.414917 0.069305
0.576294 0.408752 0.062195
0.591980 0.404327 0.058929
0.607117 0.400269 0.055908
0.623260 0.395874 0.052765
0.643646 0.391296 0.051758
0.663727 0.386292 0.050873
0.681488 0.383362 0.050201
0.697815 0.380432 0.050293
0.712097 0.377808 0.052124
0.725861 0.374664 0.053711
0.740265 0.372070 0.057098
0.752899 0.371429 0.061951
0.764404 0.373718 0.067810
0.778809 0.376373 0.079224
0.793213 0.379395 0.090210
0.805756 0.381714 0.094727
0.308411 0.431885 0.138031
0.314575 0.439606 0.144104
0.323547 0.448486 0.152313
0.333649 0.457733 0.161285
0.343781 0.466980 0.170258
0.363403 0.461456 0.157684
0.377869 0.451172 0.141541
0.395325 0.447845 0.132965
0.413239 0.446838 0.125946
0.431610 0.446716 0.120148
0.450500 0.446777 0.115082
0.469360 0.447662 0.110779
0.488892 0.446899 0.104523
0.508484 0.444702 0.099060
0.530029 0.443115 0.094177
0.553070 0.442108 0.086609
0.574890 0.439697 0.077637
0.591949 0.434723 0.072754
0.609283 0.430725 0.070770
0.623291 0.427795 0.067566
0.634033 0.424286 0.062622
0.648651 0.420288 0.059418
0.669250 0.416290 0.059509
0.689240 0.411713 0.059235
0.705627 0.408936 0.059052
0.720062 0.405365 0.060028
0.732697 0.401703 0.061890
0.745911 0.398682 0.064758
0.759247 0.397369 0.068237
0.772400 0.399139 0.074127
0.787445 0.401337 0.085419
0.801941 0.404358 0.096924
0.814178 0.407837 0.102936
0.329895 0.452820 0.145691
0.336060 0.460205 0.151733
0.345215 0.468933 0.160248
0.354889 0.477814 0.169312
0.364532 0.486725 0.178406
0.382996 0.488953 0.176422
0.397888 0.476013 0.156433
0.413879 0.470459 0.145355
0.430359 0.466614 0.135590
0.447876 0.464691 0.128784
0.465912 0.464874 0.123718
0.484467 0.466431 0.119751
0.503876 0.465820 0.114197
0.523651 0.465424 0.110443
0.544312 0.465698 0.105438
0.566132 0.466095 0.097961
0.587738 0.463867 0.089600
0.605896 0.459503 0.085419
0.623322 0.455811 0.082947
0.636597 0.454163 0.079132
0.647736 0.451111 0.074036
0.659607 0.445770 0.069489
0.674988 0.441193 0.068390
0.694763 0.438660 0.069397
0.713226 0.436279 0.070099
0.728455 0.432495 0.069580
0.742126 0.428101 0.070190
0.754822 0.424866 0.072113
0.768402 0.423523 0.074829
0.781494 0.424225 0.080322
0.794586 0.425751 0.089539
0.808228 0.428192 0.099701
0.820770 0.431549 0.107208
0.351776 0.473480 0.153687
0.358032 0.480499 0.159607
0.366974 0.488861 0.168488
0.375549 0.496826 0.177643
0.384186 0.504852 0.186859
0.396118 0.510529 0.192719
0.417511 0.499847 0.172821
0.432953 0.492218 0.158569
0.447296 0.486572 0.146637
0.463165 0.484161 0.138641
0.480774 0.484314 0.133789
0.498566 0.485107 0.130219
0.517151 0.483856 0.124176
0.536469 0.483368 0.120087
0.557068 0.486237 0.116730
0.578766 0.489197 0.112091
0.598389 0.486267 0.104462
0.616394 0.481018 0.098114
0.634918 0.480042 0.095825
0.649750 0.479492 0.092468
0.661499 0.475647 0.087158
0.673248 0.469543 0.082855
0.685913 0.464172 0.080200
0.700562 0.461395 0.078552
0.718475 0.461731 0.079742
0.737152 0.460571 0.081635
0.752747 0.454681 0.079773
0.766296 0.450836 0.081085
0.778625 0.449219 0.083649
0.791199 0.449188 0.088776
0.802460 0.450043 0.096161
0.814514 0.451538 0.104370
0.826691 0.453613 0.112000
0.373993 0.493896 0.163025
0.379700 0.500702 0.168854
0.388000 0.508270 0.177979
0.395660 0.515076 0.186829
0.403381 0.521942 0.195709
0.410797 0.528076 0.204498
0.433380 0.520508 0.189331
0.449921 0.512573 0.173706
0.464081 0.507355 0.161377
0.478882 0.504913 0.152924
0.495178 0.504333 0.147308
0.511780 0.503204 0.141876
0.529602 0.501465 0.135040
0.548340 0.500610 0.130676
0.569702 0.505554 0.128357
0.590912 0.510071 0.125641
0.608673 0.506317 0.119141
0.626282 0.501007 0.112122
0.645508 0.502960 0.110016
0.662384 0.503937 0.108337
0.675751 0.499329 0.103210
0.687317 0.492493 0.098053
0.698639 0.486908 0.094055
0.711029 0.484406 0.091156
0.725555 0.484100 0.089508
0.742035 0.484131 0.091370
0.760132 0.481354 0.094269
0.775055 0.475830 0.093201
0.786621 0.473602 0.095490
0.798645 0.472351 0.100372
0.810089 0.472687 0.108002
0.821777 0.473877 0.115784
0.834045 0.475098 0.123016
0.394318 0.513306 0.172668
0.399811 0.519775 0.178833
0.407471 0.526337 0.187561
0.415039 0.532318 0.195892
0.422607 0.538269 0.204193
0.429626 0.543610 0.212341
0.447174 0.541351 0.206909
0.464264 0.532227 0.188904
0.479248 0.528687 0.178101
0.493652 0.526459 0.170319
0.509155 0.523712 0.162415
0.524902 0.520264 0.153351
0.542511 0.518585 0.146393
0.561371 0.518829 0.142151
0.581573 0.522644 0.140106
0.601288 0.526550 0.137756
0.619751 0.525116 0.132019
0.637726 0.521118 0.126251
0.655731 0.522736 0.124786
0.673584 0.524536 0.124237
0.689514 0.521759 0.121124
0.701935 0.515869 0.115753
0.711517 0.510071 0.109863
0.722870 0.507172 0.105530
0.735596 0.506042 0.103485
0.748230 0.504700 0.102753
0.762970 0.502258 0.104218
0.779114 0.499329 0.107666
0.792297 0.496094 0.109009
0.804779 0.494141 0.113434
0.817139 0.493866 0.120972
0.829529 0.494446 0.128113
0.841980 0.495453 0.135376
0.413330 0.531250 0.182312
0.419098 0.537262 0.188904
0.426605 0.543121 0.197113
0.433807 0.548553 0.204803
0.440979 0.553986 0.212494
0.447418 0.559326 0.220642
0.458344 0.561737 0.223358
0.478241 0.552094 0.203644
0.493469 0.548737 0.192444
0.507660 0.545685 0.184326
0.522522 0.541534 0.176178
0.538177 0.537415 0.166565
0.555695 0.534973 0.158264
0.573059 0.533478 0.152313
0.591827 0.535675 0.150238
0.611298 0.539307 0.148438
0.630768 0.541962 0.143555
0.648682 0.540588 0.139740
0.665710 0.541687 0.139099
0.683289 0.542480 0.138184
0.700714 0.540771 0.135529
0.714630 0.536987 0.131775
0.724548 0.532257 0.126373
0.734650 0.528564 0.120636
0.745911 0.526031 0.116821
0.757385 0.523804 0.114899
0.767883 0.520538 0.113312
0.782257 0.517548 0.115234
0.797180 0.515656 0.119507
0.810730 0.514801 0.125702
0.823242 0.515625 0.135498
0.835297 0.517242 0.145844
0.847321 0.519409 0.156433
0.432739 0.548157 0.191193
0.439545 0.553650 0.197632
0.446564 0.559082 0.205353
0.452515 0.564423 0.213318
0.458466 0.569794 0.221283
0.464844 0.575531 0.229614
0.470947 0.580841 0.237701
0.492645 0.572510 0.217041
0.508209 0.566498 0.203094
0.522217 0.561432 0.193787
0.536377 0.557434 0.186890
0.551147 0.554321 0.179840
0.568054 0.551392 0.171204
0.584900 0.548706 0.164124
0.602112 0.548431 0.160339
0.620941 0.552002 0.158539
0.640564 0.556061 0.154388
0.657349 0.557037 0.151520
0.673523 0.557404 0.150269
0.690979 0.557159 0.148621
0.708618 0.555817 0.146118
0.723389 0.553375 0.143463
0.735504 0.550629 0.139893
0.746094 0.547577 0.134949
0.756561 0.544373 0.129486
0.767181 0.541351 0.125610
0.777039 0.538788 0.125183
0.786377 0.535950 0.126312
0.799988 0.535248 0.133667
0.814117 0.535889 0.144287
0.826691 0.537842 0.157837
0.838684 0.540833 0.171112
0.850769 0.544922 0.182587
0.452759 0.563934 0.197906
0.459137 0.569122 0.204712
0.465027 0.574463 0.212677
0.469818 0.579468 0.221222
0.474731 0.584503 0.229645
0.480743 0.589691 0.237671
0.486603 0.594604 0.245209
0.504822 0.591003 0.232880
0.521881 0.583374 0.214233
0.535675 0.576935 0.203674
0.549438 0.572418 0.196320
0.563263 0.570038 0.190887
0.579163 0.567566 0.183441
0.595947 0.564148 0.175995
0.612732 0.563568 0.170746
0.630890 0.566132 0.167480
0.649109 0.569061 0.163544
0.664154 0.570312 0.161591
0.680359 0.571014 0.160461
0.698151 0.570862 0.158203
0.715820 0.570038 0.155914
0.730499 0.568756 0.154419
0.743652 0.568115 0.153839
0.754639 0.567383 0.153137
0.764038 0.565125 0.151093
0.773987 0.562012 0.148743
0.784241 0.559601 0.147644
0.793793 0.559418 0.151031
0.802948 0.558655 0.157104
0.815430 0.559357 0.170105
0.828400 0.561462 0.185181
0.840912 0.565002 0.199646
0.853394 0.569092 0.212708
0.471649 0.578796 0.203217
0.477112 0.583862 0.210968
0.481873 0.588837 0.219482
0.485779 0.593201 0.227692
0.490112 0.597626 0.235687
0.495880 0.602386 0.243042
0.500671 0.607330 0.250854
0.512054 0.608124 0.251526
0.533020 0.597443 0.225769
0.547791 0.590790 0.213257
0.561066 0.586212 0.206268
0.574341 0.583923 0.200806
0.589447 0.582672 0.194672
0.606445 0.580566 0.187653
0.623688 0.581146 0.182007
0.640442 0.580933 0.177307
0.656830 0.581818 0.173248
0.670563 0.583740 0.173004
0.685394 0.584808 0.173431
0.702881 0.585205 0.172760
0.719635 0.585510 0.172638
0.733521 0.586304 0.174438
0.746765 0.587189 0.177673
0.758423 0.589233 0.182190
0.767944 0.590454 0.186035
0.777100 0.590027 0.188812
0.785736 0.588593 0.190369
0.796051 0.587769 0.192230
0.806793 0.586945 0.195557
0.816833 0.584961 0.201202
0.829651 0.584015 0.212799
0.841919 0.587097 0.227051
0.854828 0.592285 0.241364
0.488586 0.592316 0.207916
0.492981 0.596680 0.215698
0.496887 0.601013 0.223907
0.499298 0.605621 0.232758
0.502258 0.610413 0.241425
0.506531 0.615448 0.249481
0.500793 0.619843 0.260651
0.487793 0.623779 0.274078
0.538330 0.613922 0.246063
0.554626 0.606415 0.231262
0.569244 0.601776 0.222900
0.582092 0.599365 0.217712
0.595917 0.598419 0.212646
0.612122 0.597504 0.206726
0.629181 0.598114 0.201233
0.645508 0.597290 0.196716
0.660583 0.598511 0.193451
0.673462 0.600372 0.194763
0.685791 0.601471 0.198700
0.701050 0.602936 0.202911
0.716003 0.604675 0.207214
