Kodak Vision 200T (5274) - Only color.cube
# Created by Benjamin (IWLTBAP) : http://luts.iwltbap.com
# Copyright: (C) Copyright 2010-2017 Triune Films and IWLTBAP SAS
# Cannot be resold, shared or otherwise redistributed
TITLE "Film Print Emulation LUTs Pack (Rec.709, sRGB, DCI-P3)"
LUT_3D_SIZE 33
0.000000 0.000000 0.000000
0.025757 0.003632 0.000000
0.055115 0.013428 0.000000
0.083862 0.023071 0.000000
0.113037 0.035736 0.000000
0.142181 0.045410 0.000000
0.168976 0.054291 0.000000
0.194794 0.063629 0.000000
0.218140 0.069550 0.000000
0.239777 0.075684 0.000000
0.259491 0.080353 0.000000
0.277710 0.084778 0.000000
0.294373 0.087982 0.000000
0.309479 0.092102 0.000000
0.323029 0.097473 0.000000
0.335083 0.102631 0.000000
0.346069 0.108826 0.000000
0.356110 0.114319 0.000000
0.365662 0.119568 0.000000
0.374451 0.124603 0.000000
0.382599 0.129456 0.000000
0.390198 0.132690 0.000000
0.397522 0.136932 0.000000
0.404602 0.139984 0.000000
0.411713 0.143677 0.000000
0.418518 0.147247 0.000000
0.425293 0.150726 0.000000
0.432129 0.153809 0.000000
0.439270 0.156250 0.000000
0.446777 0.157440 0.000000
0.454376 0.158630 0.000000
0.462006 0.159210 0.000000
0.469513 0.159821 0.000000
0.000000 0.020325 0.000000
0.033234 0.032013 0.000000
0.065765 0.042694 0.000000
0.095886 0.054199 0.000000
0.127106 0.064911 0.000000
0.157043 0.072601 0.000000
0.185760 0.080292 0.000000
0.212646 0.087402 0.000000
0.236664 0.094513 0.000000
0.258911 0.100281 0.000000
0.278900 0.104828 0.000000
0.297363 0.110931 0.000000
0.313934 0.115540 0.000000
0.328949 0.120728 0.000000
0.342590 0.126465 0.000000
0.354858 0.131958 0.000000
0.366241 0.136902 0.000000
0.376709 0.142303 0.000000
0.386505 0.146576 0.000000
0.395721 0.151306 0.000000
0.404236 0.154388 0.000000
0.412384 0.158020 0.000000
0.420013 0.160950 0.000000
0.427582 0.164398 0.000000
0.435089 0.167511 0.000000
0.442535 0.170563 0.000000
0.449799 0.173523 0.000000
0.457306 0.175934 0.000000
0.465118 0.177795 0.000000
0.473022 0.179077 0.000000
0.481140 0.180115 0.000000
0.489044 0.180389 0.000000
0.497009 0.180389 0.000000
0.003784 0.045288 0.003174
0.039978 0.055664 0.003082
0.073883 0.066833 0.000000
0.105621 0.077362 0.000000
0.138184 0.087341 0.000000
0.169800 0.097382 0.000000
0.200775 0.104797 0.000000
0.228729 0.112183 0.000000
0.253998 0.118713 0.000000
0.276764 0.124542 0.000000
0.297485 0.130127 0.000000
0.315918 0.136169 0.000000
0.332336 0.142303 0.000000
0.347748 0.147827 0.000000
0.361542 0.153168 0.000000
0.374420 0.157990 0.000000
0.386230 0.163239 0.000000
0.397308 0.167511 0.000000
0.407532 0.171631 0.000000
0.417328 0.174866 0.000000
0.426361 0.178284 0.000000
0.435089 0.180878 0.000000
0.443481 0.183960 0.000000
0.451569 0.186462 0.000000
0.459595 0.189423 0.000000
0.467651 0.192322 0.000000
0.475616 0.194946 0.000000
0.483856 0.197296 0.000000
0.492188 0.198700 0.000000
0.500610 0.199646 0.000000
0.508972 0.200562 0.000000
0.517334 0.200775 0.000000
0.525574 0.201233 0.000000
0.003815 0.064819 0.007965
0.042816 0.075531 0.007965
0.076691 0.087280 0.002991
0.111023 0.098755 0.000000
0.145721 0.109558 0.000000
0.180664 0.120636 0.000000
0.213318 0.129364 0.000000
0.243134 0.136841 0.000000
0.269836 0.143585 0.000000
0.293457 0.149719 0.000000
0.314392 0.156189 0.000000
0.333008 0.162079 0.000000
0.350006 0.168030 0.000000
0.365631 0.173523 0.000000
0.380127 0.178558 0.000000
0.393707 0.183441 0.000000
0.406158 0.188171 0.000000
0.417816 0.192322 0.000000
0.428986 0.195648 0.000000
0.439270 0.198700 0.000000
0.449249 0.201447 0.000000
0.458740 0.204163 0.000000
0.467804 0.206635 0.000000
0.476715 0.208862 0.000000
0.485535 0.211029 0.000000
0.494232 0.213623 0.000000
0.502960 0.215759 0.000000
0.511749 0.217651 0.000000
0.520813 0.218903 0.000000
0.529755 0.219940 0.000000
0.538513 0.220551 0.000000
0.547119 0.220764 0.000000
0.555573 0.221191 0.000000
0.003845 0.084564 0.017303
0.042816 0.095856 0.012726
0.078094 0.107361 0.002930
0.113953 0.120605 0.002869
0.150970 0.132568 0.000000
0.188324 0.144196 0.000000
0.223450 0.153717 0.000000
0.255280 0.162048 0.000000
0.283752 0.169128 0.000000
0.308624 0.175903 0.000000
0.330139 0.181885 0.000000
0.349396 0.187653 0.000000
0.367004 0.193726 0.000000
0.383240 0.199371 0.000000
0.398560 0.204163 0.000000
0.412811 0.208832 0.000000
0.426270 0.212524 0.000000
0.438873 0.216370 0.000000
0.450867 0.219513 0.000000
0.462219 0.222168 0.000000
0.473083 0.224609 0.000000
0.483551 0.226837 0.000000
0.493561 0.228821 0.000000
0.503296 0.230988 0.000000
0.512878 0.232941 0.000000
0.522369 0.235046 0.000000
0.532074 0.236755 0.000000
0.541534 0.238068 0.000000
0.551086 0.239563 0.000000
0.560547 0.240326 0.000000
0.569580 0.240692 0.000000
0.578308 0.241058 0.000000
0.586914 0.241241 0.000000
0.003876 0.104675 0.025055
0.039917 0.116180 0.017273
0.076691 0.129272 0.007965
0.115234 0.142181 0.002838
0.153168 0.154877 0.000000
0.193176 0.167419 0.000000
0.230927 0.178223 0.000000
0.265259 0.186890 0.000000
0.295959 0.194916 0.000000
0.322296 0.201874 0.000000
0.345093 0.208160 0.000000
0.365417 0.213806 0.000000
0.383881 0.219269 0.000000
0.401031 0.224396 0.000000
0.417236 0.229004 0.000000
0.432587 0.232910 0.000000
0.446991 0.236725 0.000000
0.460632 0.239929 0.000000
0.473724 0.242889 0.000000
0.486237 0.245056 0.000000
0.498138 0.247406 0.000000
0.509583 0.249207 0.000000
0.520569 0.250793 0.000000
0.531281 0.252533 0.000000
0.541748 0.254272 0.000000
0.552032 0.256195 0.000000
0.562378 0.257568 0.000000
0.572601 0.258911 0.000000
0.582550 0.260284 0.000000
0.592346 0.261108 0.000000
0.601715 0.261444 0.000000
0.610748 0.261780 0.000000
0.619446 0.261780 0.000000
0.000122 0.126282 0.027863
0.037659 0.136719 0.021515
0.075256 0.148956 0.012726
0.113922 0.161987 0.007965
0.154358 0.175842 0.002747
0.196411 0.189819 0.000000
0.236450 0.201843 0.000000
0.273499 0.212067 0.000000
0.306702 0.220490 0.000000
0.335052 0.227600 0.000000
0.359711 0.233856 0.000000
0.381439 0.239349 0.000000
0.401215 0.244141 0.000000
0.419342 0.248657 0.000000
0.436615 0.252716 0.000000
0.452942 0.256500 0.000000
0.468536 0.259735 0.000000
0.483398 0.262756 0.000000
0.497467 0.265259 0.000000
0.511078 0.267395 0.000000
0.524109 0.269318 0.000000
0.536591 0.270935 0.000000
0.548553 0.272705 0.000000
0.560089 0.274292 0.000000
0.571350 0.275879 0.000000
0.582336 0.277435 0.000000
0.593262 0.278839 0.000000
0.604004 0.280060 0.000000
0.614441 0.281128 0.000000
0.624481 0.281921 0.000000
0.634094 0.282532 0.000000
0.643341 0.282684 0.000000
0.652069 0.282684 0.000000
0.000153 0.145721 0.032227
0.035400 0.156036 0.027832
0.072357 0.167908 0.017212
0.112946 0.181274 0.007965
0.154846 0.196014 0.002716
0.198669 0.210938 0.000000
0.240936 0.224365 0.000000
0.280426 0.236115 0.000000
0.316101 0.245209 0.000000
0.347198 0.253052 0.000000
0.374207 0.258881 0.000000
0.397736 0.264069 0.000000
0.418915 0.268494 0.000000
0.438385 0.272217 0.000000
0.456604 0.275848 0.000000
0.474152 0.279114 0.000000
0.490723 0.281891 0.000000
0.506439 0.284607 0.000000
0.521667 0.287018 0.000000
0.536194 0.289093 0.000000
0.550232 0.290863 0.000000
0.563568 0.292603 0.000000
0.576508 0.294342 0.000000
0.588837 0.295776 0.000000
0.600861 0.297363 0.000000
0.612457 0.298920 0.000000
0.623749 0.300323 0.000000
0.634949 0.301727 0.000000
0.645691 0.302582 0.000000
0.655975 0.303284 0.000000
0.665619 0.303680 0.000000
0.674866 0.303833 0.000000
0.683716 0.303833 0.000000
0.000153 0.164795 0.034454
0.033142 0.174683 0.029999
0.070374 0.186035 0.021423
0.111938 0.199493 0.012726
0.154816 0.215210 0.002686
0.200317 0.231079 0.000000
0.244598 0.245911 0.000000
0.286560 0.258698 0.000000
0.324890 0.268982 0.000000
0.358704 0.276764 0.000000
0.388306 0.283081 0.000000
0.414062 0.288055 0.000000
0.436859 0.292023 0.000000
0.457672 0.295349 0.000000
0.477112 0.298615 0.000000
0.495483 0.301300 0.000000
0.512878 0.304230 0.000000
0.529510 0.306427 0.000000
0.545471 0.308716 0.000000
0.560791 0.310608 0.000000
0.575592 0.312469 0.000000
0.589813 0.314209 0.000000
0.603516 0.315918 0.000000
0.616608 0.317474 0.000000
0.629120 0.318909 0.000000
0.641174 0.320587 0.000000
0.652924 0.321991 0.000000
0.664154 0.323120 0.000000
0.674988 0.324158 0.000000
0.685425 0.324768 0.000000
0.695404 0.325165 0.000000
0.704895 0.325287 0.000000
0.714081 0.325287 0.000000
0.000183 0.183258 0.038849
0.030884 0.192871 0.032227
0.068817 0.203796 0.024933
0.109924 0.217712 0.017151
0.154785 0.233582 0.007935
0.201599 0.250366 0.002594
0.247742 0.266357 0.000000
0.291809 0.280029 0.000000
0.332733 0.291290 0.000000
0.369263 0.300018 0.000000
0.401642 0.306396 0.000000
0.429779 0.311279 0.000000
0.454468 0.314972 0.000000
0.476837 0.318237 0.000000
0.497253 0.321075 0.000000
0.516327 0.323486 0.000000
0.534454 0.325897 0.000000
0.551666 0.328125 0.000000
0.568207 0.330231 0.000000
0.584198 0.332184 0.000000
0.599548 0.334015 0.000000
0.614563 0.335815 0.000000
0.628906 0.337494 0.000000
0.642517 0.339172 0.000000
0.655457 0.340698 0.000000
0.667786 0.342224 0.000000
0.679596 0.343536 0.000000
0.691223 0.344696 0.000000
0.702362 0.345612 0.000000
0.713165 0.346191 0.000000
0.723511 0.346558 0.000000
0.733368 0.346680 0.000000
0.742889 0.346558 0.000000
0.000214 0.201721 0.040924
0.030853 0.210632 0.034454
0.067261 0.221405 0.027771
0.108917 0.235107 0.017120
0.154297 0.251221 0.007935
0.202515 0.268768 0.002594
0.249969 0.285614 0.000000
0.296295 0.300446 0.000000
0.339355 0.312744 0.000000
0.378784 0.322113 0.000000
0.413635 0.329132 0.000000
0.444153 0.334137 0.000000
0.470947 0.337982 0.000000
0.494781 0.340820 0.000000
0.516266 0.343414 0.000000
0.536194 0.345734 0.000000
0.554840 0.347778 0.000000
0.572601 0.349854 0.000000
0.589539 0.351898 0.000000
0.605988 0.353790 0.000000
0.622040 0.355682 0.000000
0.637390 0.357452 0.000000
0.652100 0.359222 0.000000
0.666077 0.360870 0.000000
0.679413 0.362488 0.000000
0.692047 0.364014 0.000000
0.704346 0.365204 0.000000
0.716248 0.366394 0.000000
0.727905 0.367126 0.000000
0.739044 0.367554 0.000000
0.749664 0.367889 0.000000
0.759888 0.367889 0.000000
0.769623 0.367767 0.000000
0.000214 0.219330 0.042969
0.027832 0.228058 0.036682
0.065674 0.238678 0.029938
0.107574 0.252258 0.021332
0.153809 0.268585 0.007935
0.202881 0.286377 0.002563
0.251709 0.303925 0.000000
0.299530 0.319672 0.000000
0.344666 0.333069 0.000000
0.386383 0.343292 0.000000
0.423767 0.350983 0.000000
0.456757 0.356689 0.000000
0.485687 0.360657 0.000000
0.510956 0.363678 0.000000
0.533783 0.366058 0.000000
0.554474 0.368164 0.000000
0.573730 0.370087 0.000000
0.591949 0.371857 0.000000
0.609406 0.373718 0.000000
0.626251 0.375580 0.000000
0.642578 0.377441 0.000000
0.658264 0.379395 0.000000
0.673218 0.381195 0.000000
0.687500 0.382935 0.000000
0.701172 0.384430 0.000000
0.714325 0.385925 0.000000
0.727081 0.387207 0.000000
0.739410 0.388306 0.000000
0.751373 0.388885 0.000000
0.762817 0.389404 0.000000
0.773773 0.389587 0.000000
0.784241 0.389587 0.000000
0.794403 0.389313 0.000000
0.000244 0.236938 0.044922
0.025574 0.245087 0.038818
0.062408 0.255890 0.032166
0.105499 0.269226 0.021332
0.152588 0.285583 0.012695
0.202515 0.303619 0.002563
0.252319 0.321838 0.000000
0.301727 0.338470 0.000000
0.348328 0.352570 0.000000
0.392151 0.363800 0.000000
0.431763 0.372406 0.000000
0.466980 0.378693 0.000000
0.497803 0.383240 0.000000
0.524872 0.386627 0.000000
0.549103 0.389069 0.000000
0.570831 0.391022 0.000000
0.590820 0.392792 0.000000
0.609528 0.394531 0.000000
0.627472 0.396240 0.000000
0.644592 0.398071 0.000000
0.661163 0.399963 0.000000
0.676971 0.401672 0.000000
0.692261 0.403534 0.000000
0.706970 0.405304 0.000000
0.721130 0.406891 0.000000
0.734711 0.408264 0.000000
0.747833 0.409454 0.000000
0.760590 0.410461 0.000000
0.772888 0.411102 0.000000
0.784637 0.411469 0.000000
0.795898 0.411560 0.000000
0.806763 0.411377 0.000000
0.817200 0.411102 0.000000
0.000244 0.254120 0.042938
0.025574 0.262634 0.038818
0.060181 0.272888 0.032166
0.103027 0.286194 0.024841
0.150848 0.302490 0.012665
0.201202 0.320801 0.002533
0.252014 0.339172 0.000000
0.302216 0.356384 0.000000
0.350220 0.371155 0.000000
0.395691 0.383545 0.000000
0.437103 0.393188 0.000000
0.474457 0.400452 0.000000
0.507324 0.405701 0.000000
0.536346 0.409454 0.000000
0.561890 0.412170 0.000000
0.584930 0.414246 0.000000
0.605804 0.416046 0.000000
0.625305 0.417572 0.000000
0.643585 0.419159 0.000000
0.660919 0.420837 0.000000
0.677704 0.422607 0.000000
0.693939 0.424438 0.000000
0.709564 0.426086 0.000000
0.724731 0.427734 0.000000
0.739288 0.429352 0.000000
0.753265 0.430817 0.000000
0.766785 0.432007 0.000000
0.779877 0.432861 0.000000
0.792480 0.433472 0.000000
0.804596 0.433716 0.000000
0.816254 0.433716 0.000000
0.827271 0.433563 0.000000
0.838074 0.433228 0.000000
0.000275 0.271423 0.042938
0.022552 0.279907 0.038788
0.058441 0.290161 0.032135
0.100861 0.303314 0.024811
0.148621 0.319366 0.012665
0.199738 0.337616 0.002533
0.250824 0.356140 0.000000
0.301483 0.373749 0.000000
0.350220 0.389587 0.000000
0.396759 0.402832 0.000000
0.439728 0.413208 0.000000
0.478943 0.421387 0.000000
0.513733 0.427551 0.000000
0.544647 0.432007 0.000000
0.572083 0.435059 0.000000
0.596405 0.437317 0.000000
0.618561 0.439209 0.000000
0.638794 0.440887 0.000000
0.657654 0.442383 0.000000
0.675446 0.443939 0.000000
0.692444 0.445648 0.000000
0.709106 0.447357 0.000000
0.725250 0.449066 0.000000
0.740723 0.450836 0.000000
0.755737 0.452271 0.000000
0.770020 0.453613 0.000000
0.783936 0.454895 0.000000
0.797363 0.455688 0.000000
0.810364 0.456177 0.000000
0.822784 0.456482 0.000000
0.834656 0.456482 0.000000
0.846069 0.456024 0.000000
0.857025 0.455627 0.000000
0.000305 0.288513 0.040894
0.020294 0.297089 0.036621
0.054932 0.307404 0.032135
0.098297 0.320526 0.024811
0.146362 0.336426 0.012665
0.197296 0.354370 0.002502
0.248596 0.372925 0.000000
0.299408 0.391083 0.000000
0.348328 0.407288 0.000000
0.395508 0.421143 0.000000
0.439514 0.432465 0.000000
0.480164 0.441559 0.000000
0.516998 0.448578 0.000000
0.549774 0.453857 0.000000
0.579041 0.457642 0.000000
0.605133 0.460388 0.000000
0.628540 0.462646 0.000000
0.649963 0.464325 0.000000
0.669464 0.466034 0.000000
0.687897 0.467499 0.000000
0.705536 0.469025 0.000000
0.722626 0.470703 0.000000
0.739166 0.472504 0.000000
0.755127 0.474091 0.000000
0.770386 0.475525 0.000000
0.785126 0.476959 0.000000
0.799438 0.477997 0.000000
0.813232 0.478821 0.000000
0.826569 0.479340 0.000000
0.839325 0.479431 0.000000
0.851471 0.479340 0.000000
0.862946 0.479065 0.000000
0.874084 0.478546 0.000000
0.000305 0.305756 0.036621
0.020294 0.314484 0.034363
0.053101 0.324951 0.032104
0.094543 0.338074 0.024780
0.143280 0.353790 0.016998
0.193848 0.371368 0.007935
0.245148 0.390106 0.000000
0.295685 0.408112 0.000000
0.344666 0.424469 0.000000
0.391907 0.438843 0.000000
0.436646 0.450928 0.000000
0.478516 0.460846 0.000000
0.517029 0.468872 0.000000
0.551758 0.475067 0.000000
0.582947 0.479706 0.000000
0.610870 0.483215 0.000000
0.635956 0.485931 0.000000
0.658539 0.488098 0.000000
0.679077 0.489777 0.000000
0.698456 0.491425 0.000000
0.716797 0.492950 0.000000
0.734558 0.494659 0.000000
0.751617 0.496368 0.000000
0.767883 0.497986 0.000000
0.783569 0.499481 0.000000
0.798706 0.500732 0.000000
0.813385 0.501862 0.000000
0.827576 0.502625 0.000000
0.841217 0.503052 0.000000
0.854187 0.503204 0.000000
0.866486 0.502991 0.000000
0.878143 0.502502 0.000000
0.889496 0.501892 0.000000
0.000305 0.323181 0.032135
0.017273 0.332245 0.032104
0.048706 0.342773 0.029877
0.090637 0.355804 0.024780
0.138550 0.371338 0.016998
0.189178 0.388916 0.007935
0.240417 0.407288 0.000000
0.290527 0.425079 0.000000
0.339142 0.441589 0.000000
0.386200 0.456177 0.000000
0.431305 0.468811 0.000000
0.474030 0.479462 0.000000
0.513824 0.488495 0.000000
0.550507 0.495728 0.000000
0.583618 0.501434 0.000000
0.613617 0.505890 0.000000
0.640594 0.509247 0.000000
0.664642 0.511902 0.000000
0.686584 0.513947 0.000000
0.707092 0.515839 0.000000
0.726532 0.517609 0.000000
0.744873 0.519348 0.000000
0.762482 0.520874 0.000000
0.779236 0.522491 0.000000
0.795380 0.523926 0.000000
0.810944 0.525269 0.000000
0.825958 0.526245 0.000000
0.840485 0.526978 0.000000
0.854279 0.527313 0.000000
0.867462 0.527374 0.000000
0.879974 0.527191 0.000000
0.891937 0.526672 0.000000
0.903442 0.526001 0.000000
0.000336 0.340881 0.027679
0.014343 0.350128 0.029877
0.044708 0.360962 0.029846
0.086578 0.374146 0.024750
0.133118 0.389801 0.016968
0.183594 0.407013 0.007935
0.234070 0.424927 0.002472
0.283722 0.442413 0.000000
0.331879 0.458710 0.000000
0.378632 0.473358 0.000000
0.423645 0.486542 0.000000
0.467010 0.497803 0.000000
0.507874 0.507538 0.000000
0.546234 0.515839 0.000000
0.581512 0.522736 0.000000
0.613525 0.528137 0.000000
0.642487 0.532288 0.000000
0.668427 0.535767 0.000000
0.692047 0.538452 0.000000
0.713928 0.540619 0.000000
0.734436 0.542725 0.000000
0.753784 0.544434 0.000000
0.771942 0.546112 0.000000
0.789307 0.547760 0.000000
0.805908 0.549072 0.000000
0.821930 0.550293 0.000000
0.837311 0.551300 0.000000
0.852051 0.552002 0.000000
0.866089 0.552368 0.000000
0.879425 0.552368 0.000000
0.892212 0.551941 0.000000
0.904297 0.551331 0.000000
0.916138 0.550568 0.000000
0.000336 0.359192 0.021301
0.012207 0.368561 0.024780
0.039764 0.379791 0.027649
0.079681 0.393280 0.024750
0.126007 0.408936 0.016968
0.175903 0.425781 0.007935
0.226349 0.443085 0.002441
0.275635 0.460114 0.000000
0.323090 0.476074 0.000000
0.369293 0.490814 0.000000
0.414124 0.504028 0.000000
0.457642 0.515930 0.000000
0.499603 0.526428 0.000000
0.539398 0.535645 0.000000
0.576477 0.543396 0.000000
0.610809 0.549896 0.000000
0.641907 0.555267 0.000000
0.669952 0.559631 0.000000
0.695343 0.563019 0.000000
0.718842 0.565918 0.000000
0.740723 0.568237 0.000000
0.761078 0.570282 0.000000
0.780151 0.572113 0.000000
0.798096 0.573669 0.000000
0.815216 0.575012 0.000000
0.831635 0.576202 0.000000
0.847412 0.576965 0.000000
0.862396 0.577606 0.000000
0.876587 0.577911 0.000000
0.890198 0.577728 0.000000
0.903168 0.577393 0.000000
0.915588 0.576630 0.000000
0.927948 0.575928 0.000000
0.000336 0.378357 0.012634
0.009369 0.388184 0.021240
0.032990 0.399597 0.021240
0.073700 0.413391 0.021210
0.118500 0.428894 0.016968
0.167450 0.445465 0.007935
0.217499 0.462219 0.002441
0.265900 0.478607 0.000000
0.313110 0.494202 0.000000
0.358734 0.508667 0.000000
0.403198 0.521973 0.000000
0.446625 0.534119 0.000000
0.489288 0.545105 0.000000
0.530304 0.555176 0.000000
0.569305 0.563873 0.000000
0.605713 0.571503 0.000000
0.639282 0.577972 0.000000
0.669403 0.583252 0.000000
0.696686 0.587677 0.000000
0.721954 0.591278 0.000000
0.745361 0.594177 0.000000
0.766876 0.596527 0.000000
0.786926 0.598541 0.000000
0.805634 0.600220 0.000000
0.823395 0.601562 0.000000
0.840302 0.602661 0.000000
0.856262 0.603577 0.000000
0.871521 0.604004 0.000000
0.886017 0.604126 0.000000
0.899841 0.603973 0.000000
0.913025 0.603485 0.000000
0.926025 0.602692 0.000000
0.938995 0.601929 0.000000
0.000366 0.398560 0.007874
0.009369 0.408539 0.012604
0.027740 0.420227 0.016998
0.065613 0.434143 0.016968
0.109833 0.449829 0.012634
0.158051 0.466095 0.007935
0.207550 0.482178 0.002441
0.255249 0.498108 0.000000
0.302124 0.513123 0.000000
0.347107 0.527252 0.000000
0.391388 0.540466 0.000000
0.434723 0.552673 0.000000
0.477661 0.564117 0.000000
0.519623 0.574646 0.000000
0.560333 0.584351 0.000000
0.598755 0.593079 0.000000
0.634460 0.600403 0.000000
0.666931 0.606934 0.000000
0.696259 0.612213 0.000000
0.723267 0.616547 0.000000
0.748291 0.620026 0.000000
0.771149 0.622833 0.000000
0.792328 0.625244 0.000000
0.811981 0.627014 0.000000
0.830353 0.628448 0.000000
0.847717 0.629517 0.000000
0.863953 0.630188 0.000000
0.879578 0.630493 0.000000
0.894379 0.630524 0.000000
0.908417 0.630249 0.000000
0.922028 0.629669 0.000000
0.935577 0.628998 0.000000
0.948730 0.628235 0.000000
0.000366 0.419800 0.002563
0.006409 0.429871 0.007843
0.025482 0.441895 0.012604
0.058411 0.456024 0.016937
0.100800 0.471771 0.012604
0.148071 0.488007 0.007935
0.196716 0.503693 0.002441
0.244263 0.518646 0.000000
0.290680 0.533112 0.000000
0.335388 0.546722 0.000000
0.379120 0.559662 0.000000
0.422577 0.571991 0.000000
0.465607 0.583618 0.000000
0.508484 0.594666 0.000000
0.550354 0.604950 0.000000
0.590454 0.614380 0.000000
0.628235 0.622711 0.000000
0.662842 0.630096 0.000000
0.694153 0.636108 0.000000
0.723083 0.641174 0.000000
0.749603 0.645416 0.000000
0.773895 0.648804 0.000000
0.796234 0.651489 0.000000
0.816833 0.653656 0.000000
0.835968 0.655151 0.000000
0.853760 0.656219 0.000000
0.870605 0.656921 0.000000
0.886475 0.657166 0.000000
0.901550 0.657166 0.000000
0.915924 0.656769 0.000000
0.930145 0.656189 0.000000
0.944000 0.655579 0.000000
0.955994 0.654694 0.000000
0.000397 0.442139 0.000000
0.006409 0.452576 0.002502
0.022461 0.464661 0.007874
0.053040 0.479126 0.012604
0.091766 0.495178 0.012604
0.137177 0.511261 0.012604
0.185608 0.526459 0.007935
0.232941 0.540649 0.002411
0.279114 0.554291 0.000000
0.323792 0.567383 0.000000
0.367340 0.579987 0.000000
0.410706 0.592133 0.000000
0.453857 0.603912 0.000000
0.497162 0.615143 0.000000
0.539886 0.625732 0.000000
0.581421 0.635712 0.000000
0.620850 0.644623 0.000000
0.657593 0.652740 0.000000
0.690735 0.659790 0.000000
0.721344 0.665619 0.000000
0.749481 0.670532 0.000000
0.775177 0.674438 0.000000
0.798676 0.677551 0.000000
0.820374 0.679962 0.000000
0.840271 0.681793 0.000000
0.858765 0.682922 0.000000
0.876038 0.683563 0.000000
0.892242 0.683899 0.000000
0.907684 0.683807 0.000000
0.922516 0.683380 0.000000
0.937164 0.682892 0.000000
0.951111 0.682190 0.000000
0.959167 0.681488 0.000000
0.000427 0.465729 0.000000
0.006409 0.476257 0.002502
0.020203 0.488770 0.007874
0.046692 0.503540 0.012604
0.083588 0.519745 0.012604
0.127747 0.535919 0.016846
0.174225 0.550690 0.012573
0.221710 0.564209 0.007965
0.267883 0.576904 0.002411
0.312653 0.589386 0.000000
0.356018 0.601715 0.000000
0.399414 0.613586 0.000000
0.442657 0.625061 0.000000
0.486206 0.636169 0.000000
0.529602 0.647003 0.000000
0.572174 0.657135 0.000000
0.613068 0.666748 0.000000
0.651306 0.675446 0.000000
0.686279 0.683167 0.000000
0.718414 0.689728 0.000000
0.748108 0.695282 0.000000
0.775177 0.699677 0.000000
0.799896 0.703186 0.000000
0.822540 0.705841 0.000000
0.843353 0.707794 0.000000
0.862488 0.709167 0.000000
0.880249 0.709961 0.002380
0.897064 0.710175 0.002380
0.912811 0.710144 0.002380
0.928223 0.709839 0.002380
0.943176 0.709290 0.002380
0.955841 0.708710 0.002411
0.959869 0.708069 0.002472
0.000458 0.490875 0.000000
0.006378 0.501831 0.000000
0.017212 0.514435 0.002472
0.042572 0.529358 0.012573
0.077850 0.545807 0.016876
0.118469 0.561890 0.021057
0.163605 0.576447 0.021027
0.211090 0.589325 0.012512
0.256836 0.601410 0.007965
0.301880 0.613007 0.002380
0.345551 0.624603 0.000000
0.388916 0.636047 0.000000
0.432404 0.647186 0.000000
0.476105 0.658203 0.000000
0.519836 0.669006 0.000000
0.563080 0.679382 0.000000
0.605103 0.689148 0.000000
0.644775 0.698242 0.000000
0.681152 0.706390 0.000000
0.714691 0.713501 0.000000
0.745789 0.719513 0.000000
0.774170 0.724487 0.000000
0.800018 0.728455 0.000000
0.823730 0.731445 0.002350
0.845398 0.733673 0.002350
0.865265 0.735229 0.002380
0.883636 0.736115 0.002380
0.900848 0.736511 0.002380
0.917023 0.736420 0.007629
0.932953 0.736115 0.007629
0.948181 0.735565 0.007629
0.958252 0.734985 0.007629
0.959229 0.734528 0.007721
0.000488 0.517731 0.000000
0.006378 0.528839 0.000000
0.017212 0.541504 0.002441
0.039703 0.556549 0.012573
0.072235 0.572998 0.021057
0.109802 0.589355 0.027527
0.153748 0.603943 0.027496
0.200256 0.616211 0.020996
0.246521 0.627197 0.012482
0.291962 0.638000 0.002380
0.335846 0.648865 0.000000
0.379333 0.659790 0.000000
0.423004 0.670685 0.000000
0.466888 0.681488 0.000000
0.511017 0.692078 0.000000
0.554810 0.702301 0.000000
0.597382 0.712036 0.000000
0.638092 0.721252 0.000000
0.675751 0.729736 0.000000
0.710541 0.737244 0.000000
0.742798 0.743683 0.000000
