Kodak Vision2 500T (5260) - Look variant.cube
# Created by Benjamin (IWLTBAP) : http://luts.iwltbap.com
# Copyright: (C) Copyright 2010-2017 Triune Films and IWLTBAP SAS
# Cannot be resold, shared or otherwise redistributed
TITLE "Film Print Emulation LUTs Pack (Rec.709, sRGB, DCI-P3)"
LUT_3D_SIZE 33
0.000000 0.000000 0.000000
0.033936 0.000702 0.000702
0.083710 0.005798 0.001312
0.117828 0.025787 0.003021
0.148590 0.040680 0.007141
0.186554 0.047424 0.009125
0.227295 0.050110 0.015106
0.266968 0.052277 0.021820
0.305634 0.055481 0.023071
0.344482 0.061249 0.017883
0.382050 0.064484 0.024902
0.417084 0.065399 0.035370
0.453186 0.061066 0.048462
0.484894 0.061340 0.055450
0.515656 0.063568 0.058533
0.544342 0.068939 0.062836
0.572601 0.073700 0.066040
0.599243 0.077148 0.069733
0.624207 0.079041 0.072388
0.650024 0.080383 0.076141
0.673492 0.081696 0.079224
0.697571 0.083527 0.083527
0.722778 0.085327 0.087677
0.746368 0.088135 0.091675
0.770996 0.092407 0.094604
0.794495 0.096069 0.097748
0.817078 0.099884 0.100586
0.838135 0.104309 0.103851
0.859528 0.108398 0.107269
0.881104 0.111053 0.109955
0.901062 0.114624 0.111969
0.921265 0.119232 0.114655
0.933472 0.125092 0.118622
0.000366 0.001129 0.000000
0.023804 0.017609 0.000702
0.069336 0.024475 0.001678
0.103058 0.032959 0.002289
0.134827 0.046265 0.005157
0.169464 0.054260 0.007874
0.211395 0.058105 0.011902
0.251770 0.061432 0.020569
0.291351 0.064972 0.024384
0.329865 0.071808 0.021729
0.372101 0.076141 0.023621
0.409149 0.078644 0.034851
0.445557 0.076019 0.046509
0.480988 0.075684 0.055450
0.513000 0.079315 0.058197
0.542877 0.084686 0.061859
0.572021 0.090332 0.065399
0.599792 0.093506 0.068817
0.626495 0.095642 0.072388
0.652374 0.097534 0.076141
0.677063 0.098907 0.080048
0.701660 0.100739 0.083771
0.726624 0.103729 0.087646
0.750366 0.106628 0.091675
0.774902 0.110840 0.094849
0.797974 0.114349 0.097748
0.820068 0.118683 0.099884
0.841705 0.122345 0.102692
0.862915 0.126404 0.104767
0.883545 0.129608 0.106812
0.903320 0.131775 0.108643
0.922546 0.135986 0.110474
0.933533 0.141815 0.114014
0.002228 0.017578 0.000732
0.007904 0.025696 0.001099
0.052521 0.042511 0.001678
0.088226 0.048309 0.002655
0.121002 0.056122 0.005188
0.153381 0.064209 0.008331
0.195221 0.068634 0.011444
0.239166 0.072571 0.019958
0.278076 0.077179 0.023102
0.318848 0.083221 0.023712
0.360870 0.089691 0.022339
0.401123 0.090912 0.034332
0.439117 0.090088 0.046112
0.476044 0.090790 0.054749
0.508759 0.095673 0.057495
0.540253 0.100403 0.060852
0.570892 0.106110 0.064758
0.599670 0.109863 0.068481
0.627594 0.112671 0.071777
0.654236 0.114990 0.075836
0.678955 0.117340 0.079193
0.704620 0.119659 0.083771
0.730072 0.123260 0.087646
0.753326 0.126404 0.091156
0.777924 0.130402 0.094116
0.800537 0.134369 0.096039
0.822662 0.138092 0.098907
0.843872 0.141571 0.101501
0.865082 0.145691 0.103577
0.885620 0.149200 0.104980
0.904510 0.152100 0.105927
0.923035 0.155334 0.108215
0.934448 0.159088 0.111359
0.003662 0.029358 0.002930
0.002563 0.032288 0.002563
0.030609 0.052887 0.001709
0.075928 0.064575 0.002289
0.108521 0.071198 0.003662
0.140564 0.077667 0.013062
0.183197 0.081818 0.018127
0.228821 0.086060 0.023193
0.269836 0.091125 0.025726
0.310699 0.097473 0.025665
0.353333 0.105347 0.022369
0.396088 0.105957 0.034882
0.434204 0.107513 0.044891
0.472595 0.108337 0.055115
0.505188 0.113373 0.058197
0.538300 0.118042 0.061157
0.570435 0.123535 0.065369
0.599915 0.127289 0.068481
0.628296 0.130585 0.072662
0.655731 0.133270 0.076416
0.681061 0.135498 0.079987
0.707123 0.138336 0.084015
0.732239 0.142365 0.087616
0.755768 0.145203 0.090881
0.780243 0.148651 0.093842
0.802948 0.152496 0.096252
0.825043 0.156281 0.098419
0.845490 0.160522 0.100067
0.866852 0.164459 0.102631
0.887512 0.168457 0.104492
0.906464 0.171570 0.106354
0.923889 0.173798 0.107758
0.935455 0.177307 0.110443
0.002899 0.042938 0.005524
0.003662 0.043793 0.004761
0.007019 0.058899 0.002502
0.057190 0.077667 0.003052
0.095520 0.088501 0.005554
0.130615 0.094788 0.011536
0.171173 0.100037 0.021942
0.218597 0.103485 0.026428
0.261383 0.108215 0.028229
0.303894 0.114502 0.026337
0.346405 0.121704 0.025635
0.391815 0.122284 0.037415
0.432190 0.123535 0.048859
0.470184 0.126434 0.055450
0.503082 0.132660 0.058868
0.536835 0.137360 0.061829
0.570282 0.142181 0.065338
0.600494 0.146393 0.069366
0.629120 0.149994 0.072937
0.657288 0.152954 0.076935
0.683044 0.155701 0.081085
0.709412 0.158783 0.084503
0.734497 0.162933 0.088348
0.758057 0.166199 0.091095
0.782532 0.169891 0.093079
0.805237 0.173279 0.096008
0.827423 0.176758 0.097687
0.848083 0.180176 0.100281
0.868622 0.184296 0.102386
0.889130 0.187897 0.104492
0.908173 0.191132 0.106567
0.924927 0.193115 0.108643
0.936523 0.195984 0.111115
0.003601 0.054718 0.007050
0.003967 0.054352 0.005890
0.003967 0.063568 0.004730
0.027008 0.085876 0.003113
0.080780 0.103790 0.007172
0.117889 0.113190 0.014679
0.158997 0.119995 0.023254
0.207672 0.124176 0.028900
0.253418 0.128326 0.031219
0.296478 0.134460 0.028809
0.340851 0.140930 0.028107
0.387268 0.143097 0.037415
0.428680 0.144318 0.049225
0.467773 0.147552 0.055420
0.501434 0.152710 0.059174
0.535828 0.157410 0.062134
0.569855 0.162170 0.065643
0.600922 0.166565 0.070251
0.630188 0.170227 0.074066
0.658722 0.173584 0.077484
0.685028 0.176514 0.081848
0.712036 0.179871 0.085785
0.736847 0.183960 0.088593
0.760559 0.187347 0.091064
0.785309 0.190674 0.094025
0.808105 0.193970 0.096466
0.829803 0.197235 0.098389
0.850098 0.201172 0.100037
0.870636 0.205139 0.102142
0.891083 0.208740 0.105621
0.910370 0.211914 0.107910
0.925812 0.214233 0.110413
0.937653 0.217499 0.112213
0.004303 0.068726 0.009064
0.004333 0.066498 0.006622
0.004700 0.070557 0.007019
0.007355 0.092010 0.003906
0.053986 0.114441 0.007202
0.101013 0.131042 0.015259
0.144806 0.141235 0.025848
0.196625 0.147614 0.031860
0.243744 0.151611 0.032928
0.288605 0.156311 0.031158
0.335724 0.161285 0.031067
0.383362 0.164093 0.038818
0.425262 0.166687 0.048828
0.464935 0.170441 0.055756
0.499634 0.175140 0.059845
0.534821 0.179504 0.062439
0.569763 0.183899 0.065948
0.601227 0.188324 0.070251
0.630707 0.192535 0.074371
0.659760 0.196045 0.078308
0.686646 0.199219 0.082642
0.714172 0.202637 0.086029
0.739105 0.206512 0.089081
0.763519 0.209747 0.091553
0.787903 0.213104 0.094025
0.810883 0.216034 0.096191
0.832031 0.219269 0.097870
0.852539 0.222687 0.100708
0.873322 0.226440 0.103516
0.893463 0.230591 0.106506
0.912537 0.234222 0.109467
0.926910 0.237946 0.112396
0.938782 0.241364 0.114410
0.003540 0.083221 0.014252
0.003540 0.081024 0.009491
0.003540 0.083221 0.009918
0.003510 0.099548 0.006165
0.018188 0.122437 0.005280
0.075653 0.144135 0.013580
0.126495 0.160919 0.025208
0.180054 0.170868 0.035675
0.233093 0.177155 0.035614
0.280914 0.180817 0.033417
0.332031 0.183319 0.036469
0.380188 0.187012 0.041046
0.422485 0.189758 0.049561
0.462006 0.194397 0.055359
0.497437 0.198639 0.060150
0.534027 0.202759 0.063416
0.569366 0.207184 0.066254
0.601776 0.211487 0.070801
0.632141 0.215698 0.075470
0.660919 0.219910 0.079407
0.688019 0.223358 0.083160
0.716003 0.226868 0.087311
0.741211 0.230927 0.090302
0.766083 0.234741 0.092285
0.790588 0.238403 0.094727
0.813599 0.241486 0.097137
0.834686 0.244415 0.099030
0.854980 0.247864 0.101379
0.875854 0.251190 0.104858
0.895447 0.255127 0.107849
0.914551 0.258911 0.110992
0.928314 0.262207 0.113892
0.941010 0.265747 0.116577
0.003845 0.099091 0.018219
0.004242 0.094757 0.012726
0.003845 0.096436 0.011261
0.004578 0.105347 0.010345
0.005280 0.128845 0.006073
0.036255 0.153351 0.010620
0.096436 0.177429 0.025818
0.159821 0.190826 0.035675
0.218231 0.199677 0.037659
0.273621 0.205536 0.036072
0.325836 0.208374 0.038391
0.375916 0.210938 0.043610
0.418182 0.214630 0.049133
0.458099 0.218964 0.054260
0.494843 0.222931 0.058777
0.531860 0.227051 0.062744
0.568878 0.231445 0.066223
0.601990 0.236359 0.070801
0.632843 0.241211 0.075165
0.662292 0.246002 0.079620
0.689178 0.250458 0.083893
0.717438 0.254059 0.087769
0.743317 0.257751 0.091522
0.768555 0.261505 0.094208
0.792877 0.265015 0.096130
0.815826 0.267578 0.097565
0.836639 0.270020 0.099945
0.857056 0.272919 0.102509
0.877777 0.276306 0.105042
0.897156 0.279907 0.108246
0.916382 0.283356 0.111633
0.929382 0.286163 0.114746
0.942688 0.289917 0.117859
0.003784 0.114197 0.024506
0.004181 0.109833 0.018219
0.003815 0.110931 0.015869
0.003082 0.113983 0.015289
0.003021 0.135376 0.008087
0.012573 0.160675 0.010193
0.052429 0.189362 0.023193
0.131653 0.210541 0.030701
0.197510 0.221497 0.035645
0.259979 0.228363 0.036072
0.318939 0.233826 0.039764
0.370117 0.237488 0.044830
0.413452 0.241516 0.050262
0.453796 0.246338 0.053131
0.491272 0.250397 0.057678
0.529480 0.254395 0.062347
0.567841 0.258484 0.066772
0.601715 0.263367 0.071045
0.632935 0.268188 0.075958
0.662720 0.272797 0.081207
0.690063 0.277313 0.085175
0.718445 0.281555 0.089996
0.744690 0.284790 0.093231
0.770416 0.288330 0.095398
0.795044 0.291290 0.097046
0.817780 0.293762 0.098724
0.838531 0.296112 0.100616
0.859039 0.299011 0.102692
0.879395 0.301941 0.105713
0.898682 0.305481 0.108429
0.918091 0.308899 0.111359
0.930237 0.312744 0.115173
0.943359 0.317017 0.118073
0.003357 0.129089 0.033539
0.003387 0.124939 0.026428
0.003021 0.124725 0.020050
0.003387 0.127838 0.019409
0.003326 0.141235 0.016418
0.004761 0.169189 0.012543
0.021881 0.198700 0.023834
0.087128 0.226044 0.028290
0.170166 0.244843 0.032349
0.241882 0.254974 0.036560
0.304749 0.262054 0.040649
0.362335 0.267303 0.047607
0.408203 0.271210 0.051697
0.450378 0.275085 0.053070
0.488586 0.278748 0.057281
0.526978 0.282379 0.062286
0.566162 0.285919 0.067688
0.601807 0.290039 0.073975
0.633759 0.294891 0.079041
0.663330 0.300690 0.082245
0.691040 0.305939 0.085663
0.719452 0.310608 0.089203
0.745239 0.314819 0.092926
0.771576 0.318085 0.094849
0.796478 0.320923 0.097229
0.819305 0.323486 0.099152
0.840118 0.326141 0.101013
0.860535 0.329163 0.102875
0.880402 0.332153 0.104736
0.899597 0.335266 0.107483
0.918549 0.338776 0.110870
0.931122 0.343170 0.112244
0.943939 0.347504 0.114929
0.003998 0.143829 0.041138
0.003662 0.139038 0.032990
0.003326 0.137024 0.026428
0.003693 0.139648 0.025146
0.003296 0.148346 0.023834
0.003571 0.176270 0.016937
0.014587 0.206421 0.025116
0.038696 0.238403 0.030029
0.134888 0.264893 0.030029
0.217255 0.279999 0.034454
0.284821 0.288940 0.043243
0.347015 0.295807 0.047974
0.401764 0.301086 0.053497
0.446350 0.305054 0.056610
0.486298 0.308380 0.060303
0.524963 0.312347 0.065521
0.564758 0.316193 0.071930
0.601044 0.320557 0.077942
0.633606 0.325714 0.081451
0.663849 0.331635 0.083557
0.691925 0.337097 0.085052
0.720215 0.342041 0.085785
0.746033 0.345764 0.089081
0.772278 0.348938 0.092804
0.797424 0.351257 0.096222
0.820587 0.353363 0.098846
0.841003 0.355927 0.100494
0.861481 0.357910 0.102844
0.881165 0.360474 0.104004
0.899292 0.363739 0.105865
0.917603 0.367249 0.108368
0.931549 0.371246 0.109314
0.944458 0.376282 0.110016
0.003571 0.160706 0.050171
0.003601 0.154694 0.041565
0.003632 0.151123 0.032410
0.003265 0.153687 0.030060
0.003632 0.159332 0.030060
0.003906 0.182587 0.026367
0.005371 0.213348 0.025085
0.026978 0.248901 0.033478
0.088287 0.280304 0.029419
0.181427 0.303772 0.031677
0.259460 0.317169 0.041046
0.324402 0.325958 0.049866
0.386597 0.332275 0.053802
0.440186 0.336609 0.059998
0.482727 0.340027 0.064575
0.522797 0.342987 0.069244
0.562988 0.346741 0.075134
0.599396 0.351044 0.080963
0.631927 0.356110 0.082794
0.663177 0.361145 0.083496
0.691711 0.366119 0.083405
0.720764 0.370392 0.083069
0.746307 0.374115 0.086456
0.772644 0.377472 0.089752
0.797699 0.379944 0.094727
0.820587 0.381958 0.096893
0.841187 0.384064 0.099762
0.861755 0.385986 0.101868
0.881531 0.388092 0.104431
0.898529 0.391846 0.104919
0.915436 0.395874 0.105621
0.930786 0.399750 0.105652
0.944855 0.404633 0.106354
0.004211 0.177979 0.060852
0.003906 0.171387 0.050568
0.003906 0.168304 0.040649
0.003937 0.169403 0.036224
0.003906 0.174286 0.037750
0.003845 0.191254 0.035645
0.004547 0.221466 0.030609
0.019287 0.256866 0.034546
0.043518 0.293518 0.033966
0.140533 0.323547 0.028748
0.229675 0.342712 0.038818
0.302399 0.352844 0.047943
0.364990 0.359863 0.054138
0.423706 0.365906 0.058960
0.477386 0.369080 0.068665
0.519012 0.372711 0.074615
0.561005 0.375854 0.079620
0.598022 0.380310 0.084137
0.630585 0.385345 0.085144
0.662079 0.390472 0.085052
0.691162 0.395081 0.084686
0.720825 0.399231 0.084351
0.747070 0.402588 0.086151
0.773346 0.405701 0.089966
0.798370 0.408142 0.093689
0.821045 0.410675 0.096375
0.841675 0.412567 0.098999
0.861053 0.415009 0.100647
0.880768 0.417053 0.103455
0.897705 0.420593 0.103729
0.914429 0.424500 0.104187
0.931763 0.427643 0.102844
0.945374 0.431915 0.103333
0.004517 0.195190 0.071716
0.004578 0.188416 0.059845
0.003845 0.185455 0.049774
0.003876 0.186066 0.044556
0.004608 0.190216 0.042847
0.004211 0.201263 0.043671
0.004883 0.228790 0.041473
0.007599 0.264709 0.035583
0.030518 0.305389 0.039978
0.089203 0.339752 0.031677
0.198242 0.363647 0.036407
0.272705 0.378571 0.046356
0.341766 0.386841 0.053772
0.403748 0.393433 0.057556
0.460785 0.398712 0.066437
0.514801 0.401367 0.078003
0.556366 0.406128 0.084198
0.595673 0.409760 0.084930
0.629364 0.414398 0.086395
0.661194 0.419312 0.087860
0.691040 0.423950 0.088562
0.721436 0.427826 0.090515
0.748108 0.430969 0.090698
0.774750 0.433777 0.091675
0.799866 0.436340 0.094147
0.822144 0.438995 0.095581
0.842377 0.441040 0.098236
0.861511 0.443634 0.100128
0.879822 0.446045 0.101562
0.896637 0.449066 0.101807
0.913422 0.452240 0.102783
0.931152 0.454895 0.101624
0.945892 0.457672 0.101440
0.005615 0.211792 0.082031
0.004883 0.205902 0.072021
0.004913 0.202454 0.060516
0.004547 0.202850 0.054230
0.004913 0.207092 0.050507
0.004913 0.214020 0.052734
0.005615 0.237793 0.048553
0.006317 0.274841 0.040039
0.023682 0.316254 0.041321
0.050964 0.353516 0.039429
0.155457 0.381866 0.036926
0.245728 0.401825 0.039124
0.316895 0.414093 0.046204
0.382996 0.421204 0.055786
0.441162 0.427063 0.059845
0.495422 0.431885 0.072784
0.553131 0.434845 0.087067
0.591003 0.440186 0.086731
0.626953 0.443726 0.087158
0.660522 0.447601 0.092377
0.691071 0.451508 0.095032
0.722107 0.455048 0.097137
0.748688 0.458099 0.098511
0.775635 0.460693 0.097992
0.800629 0.463318 0.097260
0.822235 0.466064 0.096039
0.841827 0.468323 0.097015
0.860657 0.471069 0.097473
0.878693 0.473389 0.098907
0.895538 0.475922 0.099426
0.912140 0.478577 0.099915
0.930847 0.480499 0.101837
0.944092 0.482513 0.102570
0.006348 0.230103 0.095154
0.005585 0.226013 0.085266
0.005219 0.222321 0.072601
0.005219 0.221649 0.064789
0.005219 0.225281 0.059448
0.005219 0.231934 0.061798
0.005951 0.249420 0.060089
0.006653 0.285736 0.055145
0.012665 0.325775 0.044739
0.036987 0.367859 0.044617
0.100861 0.400116 0.044128
0.212189 0.423920 0.038239
0.292938 0.439789 0.040314
0.358093 0.449951 0.043610
0.420288 0.455627 0.053894
0.475159 0.460693 0.062439
0.531464 0.465546 0.078430
0.587555 0.468018 0.090027
0.622040 0.473389 0.088409
0.658661 0.476044 0.093597
0.690613 0.479126 0.100983
0.721985 0.482605 0.105072
0.749298 0.485779 0.107056
0.776245 0.488739 0.106567
0.801300 0.491364 0.104065
0.822510 0.494141 0.101959
0.841583 0.496857 0.099091
0.860474 0.499512 0.098145
0.878784 0.501373 0.099335
0.895752 0.503448 0.100067
0.913055 0.505188 0.101990
0.931915 0.506866 0.104797
0.944122 0.507782 0.108704
0.007050 0.253967 0.109985
0.006683 0.249298 0.100433
0.006317 0.244659 0.087616
0.005951 0.244324 0.075806
0.005920 0.246613 0.071350
0.005890 0.254791 0.071014
0.006256 0.266327 0.071899
0.007416 0.299896 0.066589
0.008209 0.340088 0.051392
0.030426 0.382446 0.050140
0.050446 0.418396 0.056641
0.165924 0.444672 0.047241
0.266418 0.463470 0.038513
0.336060 0.476257 0.041046
0.395386 0.485413 0.045502
0.450684 0.490906 0.058319
0.507690 0.495758 0.071136
0.567505 0.500244 0.085876
0.621979 0.501099 0.098022
0.654633 0.506561 0.098633
0.690002 0.509125 0.106232
0.721893 0.512207 0.113312
0.749298 0.515503 0.116119
0.776428 0.518341 0.116943
0.800598 0.521332 0.115631
0.822174 0.523804 0.113190
0.841675 0.526306 0.110291
0.861206 0.528351 0.106689
0.880219 0.529480 0.105347
0.897797 0.530640 0.106720
0.915131 0.531738 0.109009
0.934540 0.532654 0.113739
0.944946 0.532867 0.116241
0.007812 0.278381 0.126587
0.007874 0.272339 0.114349
0.007050 0.268188 0.099670
0.006653 0.267395 0.090637
0.006653 0.270508 0.083588
0.006622 0.278992 0.081940
0.007416 0.288910 0.085938
0.008240 0.316223 0.083771
0.009064 0.352264 0.069611
0.020325 0.393738 0.058105
0.044495 0.435303 0.065369
0.101715 0.463318 0.058990
0.243561 0.484192 0.044617
0.317932 0.500580 0.043549
0.378052 0.512939 0.052734
0.429840 0.520966 0.059662
0.484772 0.526337 0.075562
0.546265 0.531097 0.087158
0.600891 0.534729 0.098450
0.655945 0.534607 0.108734
0.685913 0.539886 0.110199
0.720673 0.542328 0.118073
0.749542 0.544891 0.124115
0.776398 0.547882 0.126648
0.800964 0.550507 0.127075
0.822815 0.552795 0.126007
0.842987 0.554810 0.125366
0.863281 0.556702 0.125153
0.882599 0.557098 0.123688
0.900604 0.557404 0.122864
0.918121 0.557922 0.123535
0.938049 0.558594 0.125763
0.946289 0.557983 0.127106
0.009064 0.302887 0.143341
0.008667 0.296417 0.130341
0.008240 0.293518 0.113434
0.007843 0.293243 0.103394
0.007812 0.295868 0.094574
0.007812 0.303345 0.092804
0.008209 0.314240 0.096710
0.009064 0.334015 0.096924
0.009949 0.367615 0.084747
0.011383 0.406219 0.063812
0.040131 0.451569 0.067871
0.063660 0.481476 0.069092
0.213867 0.505096 0.059113
0.302002 0.524017 0.059906
0.361694 0.538605 0.071594
0.416473 0.549377 0.080139
0.467560 0.556274 0.082764
0.522430 0.561737 0.093964
0.581024 0.566101 0.097717
0.631653 0.569031 0.107361
0.687469 0.568268 0.118103
0.717010 0.572998 0.119781
0.746765 0.575287 0.126221
0.776306 0.577026 0.133820
0.801392 0.579437 0.137146
0.823730 0.581482 0.137787
0.844574 0.583069 0.140289
0.865173 0.584625 0.141144
0.883911 0.585022 0.142029
0.902374 0.585266 0.140839
0.920959 0.586121 0.137970
0.938904 0.586578 0.137604
0.947510 0.585052 0.133484
0.010406 0.326141 0.157990
0.009979 0.321320 0.149139
0.009064 0.318848 0.133209
0.009064 0.320129 0.117279
0.008636 0.321991 0.105621
0.008606 0.328094 0.102631
0.009033 0.337128 0.105347
0.009949 0.351135 0.104675
0.010895 0.383026 0.095154
0.012421 0.423950 0.072540
0.036316 0.468903 0.075409
0.055756 0.500946 0.079071
0.162598 0.526581 0.077820
0.280945 0.547455 0.080109
0.346680 0.562988 0.086670
0.404602 0.575592 0.094147
0.457855 0.585266 0.096741
0.507721 0.592163 0.096619
0.559845 0.597778 0.105408
0.614014 0.601654 0.110229
0.665039 0.603790 0.119598
0.714386 0.603882 0.131714
0.743988 0.607117 0.130432
0.772400 0.609497 0.136047
0.801453 0.610016 0.145416
0.824524 0.611755 0.149109
0.845337 0.613220 0.151154
0.865784 0.614380 0.152985
0.884460 0.615173 0.153442
0.901794 0.615570 0.152893
0.920349 0.616333 0.149750
0.939240 0.617188 0.146362
0.948334 0.614868 0.140350
0.011383 0.345947 0.171478
0.010864 0.345062 0.163330
0.010406 0.342682 0.150726
0.009949 0.343353 0.134003
0.009949 0.344421 0.121490
0.009949 0.350952 0.111389
0.010406 0.359131 0.114197
0.010895 0.371643 0.118896
0.011871 0.400635 0.108459
0.013489 0.442078 0.089325
0.032043 0.487579 0.092010
0.053192 0.521698 0.091431
0.107086 0.548004 0.096558
0.256165 0.569611 0.099945
0.333618 0.587036 0.101654
0.395905 0.601532 0.104095
0.453369 0.613647 0.105835
0.510437 0.621216 0.107758
0.559509 0.626617 0.112091
0.603577 0.631958 0.126556
0.652588 0.635162 0.131989
0.698730 0.637268 0.138977
0.739441 0.637665 0.147217
0.772217 0.639008 0.147186
0.797974 0.640991 0.150085
0.823425 0.641876 0.157410
0.844910 0.642578 0.159698
0.864929 0.643890 0.160461
0.882996 0.645050 0.159576
0.899689 0.646057 0.158295
0.916046 0.647430 0.155670
0.931458 0.648254 0.151978
0.948212 0.645416 0.144928
0.012390 0.366608 0.185608
0.012390 0.365417 0.177673
0.011871 0.365601 0.164093
0.011902 0.365509 0.150726
0.010895 0.367462 0.132538
0.010895 0.372711 0.121033
0.011383 0.380585 0.122711
0.011871 0.394348 0.127716
0.012939 0.419128 0.117157
0.014618 0.460144 0.108368
0.027893 0.504730 0.110718
0.051300 0.541260 0.105957
0.080841 0.568420 0.115417
0.230103 0.591431 0.115295
0.321960 0.610870 0.114258
0.395874 0.625336 0.116730
0.461273 0.637939 0.119476
0.519073 0.648743 0.125183
0.566437 0.654907 0.131470
0.603912 0.659515 0.142212
0.644806 0.664551 0.156860
0.691437 0.667084 0.157776
0.730499 0.668732 0.160919
0.766541 0.669525 0.160370
0.797913 0.670288 0.156555
0.819916 0.673035 0.156189
0.841614 0.673798 0.158325
0.863037 0.674103 0.161713
0.881622 0.674896 0.160645
0.898163 0.676483 0.159760
0.914185 0.678589 0.157349
0.930328 0.679962 0.154114
0.947754 0.676941 0.146729
0.014038 0.385651 0.197052
0.013489 0.385498 0.191559
0.013489 0.386322 0.178802
0.012939 0.387756 0.163910
0.012421 0.388611 0.143097
0.012421 0.392303 0.135590
0.012390 0.401794 0.130859
0.012909 0.416687 0.134766
0.014038 0.436737 0.132294
0.015778 0.475525 0.127686
0.024719 0.519684 0.125305
0.049713 0.558502 0.121857
0.065643 0.587311 0.131073
0.187897 0.612000 0.131073
0.317749 0.631622 0.131134
0.402985 0.647308 0.125763
0.466492 0.661346 0.126953
0.524445 0.674072 0.135681
0.571991 0.681549 0.152008
0.608887 0.685516 0.162750
0.644379 0.690063 0.175079
0.684021 0.694611 0.178223
0.722656 0.697235 0.172791
0.757812 0.698608 0.169739
0.791534 0.699249 0.167328
0.821960 0.699493 0.161072
0.839752 0.702698 0.157135
0.860229 0.703522 0.157349
0.879944 0.704071 0.159088
0.897583 0.704834 0.159332
0.913361 0.706818 0.157867
0.929596 0.708557 0.155426
0.948944 0.707336 0.148956
0.014587 0.403168 0.207764
0.014587 0.404419 0.203125
0.014008 0.406647 0.192017
0.014038 0.407349 0.174164
0.013489 0.408051 0.158173
0.013489 0.413330 0.143677
0.014069 0.423004 0.137421
0.014038 0.437469 0.142670
0.015167 0.456879 0.143463
0.016327 0.490326 0.144867
0.020752 0.531006 0.134033
0.048126 0.574860 0.138702
0.064941 0.605560 0.143341
0.162354 0.630402 0.147461
0.322296 0.650787 0.143311
0.408264 0.668091 0.134155
0.471588 0.682922 0.138641
0.528809 0.695923 0.158508
0.577820 0.706024 0.177765
0.614838 0.710785 0.186981
0.648560 0.713745 0.191620
0.684540 0.718628 0.195282
0.718323 0.722473 0.191498
0.752075 0.724731 0.183502
0.784363 0.726501 0.176971
0.812897 0.727417 0.171204
0.842499 0.726624 0.165924
0.859772 0.729462 0.159027
0.878784 0.730713 0.156586
0.896179 0.731781 0.156464
0.913361 0.732880 0.157074
0.930206 0.734222 0.155029
0.951294 0.733612 0.150574
0.015167 0.418823 0.217926
0.015167 0.420807 0.212341
0.015167 0.423187 0.200531
0.014587 0.424683 0.187592
0.014618 0.426544 0.166473
0.014038 0.431488 0.149902
0.014618 0.440247 0.143890
0.015167 0.454041 0.148895
0.015747 0.472870 0.154053
0.016937 0.502106 0.151855
0.017487 0.540405 0.139954
0.046478 0.587463 0.151001
0.064240 0.619812 0.154968
0.166199 0.645508 0.160278
0.322632 0.666931 0.154602
0.410187 0.684875 0.151367
0.474976 0.700348 0.155670
0.531158 0.713806 0.176849
0.580750 0.724701 0.195892
0.619812 0.730865 0.204651
0.653687 0.734253 0.205292
0.686829 0.738556 0.204254
0.716675 0.743347 0.207092
0.747650 0.746857 0.197357
0.779724 0.748901 0.189301
0.808044 0.750366 0.182190
0.834290 0.751282 0.176147
0.859772 0.751831 0.168823
0.879364 0.753937 0.158691
0.896606 0.755615 0.153320
0.913727 0.756958 0.149750
0.931946 0.757874 0.148224
0.952454 0.757660 0.145844
0.016357 0.433014 0.226532
0.016357 0.436432 0.222137
0.015747 0.438965 0.209503
0.015778 0.439453 0.194977
0.015167 0.442261 0.174316
0.015198 0.447235 0.156433
0.015198 0.455292 0.150482
0.015747 0.467834 0.158752
0.016327 0.485596 0.163116
0.016907 0.509705 0.165863
0.018097 0.548615 0.147003
0.044006 0.596741 0.161896
0.062866 0.629761 0.164703
0.147186 0.656219 0.172638
0.309937 0.678284 0.168091
0.405243 0.697510 0.166565
0.473206 0.714264 0.169281
0.529938 0.727814 0.189819
0.579712 0.739258 0.207733
0.621490 0.748535 0.217285
0.656952 0.754059 0.217224
