Kodak Vision 250D (5246) - Only color.cube
# Created by Benjamin (IWLTBAP) : http://luts.iwltbap.com
# Copyright: (C) Copyright 2010-2017 Triune Films and IWLTBAP SAS
# Cannot be resold, shared or otherwise redistributed
TITLE "Film Print Emulation LUTs Pack (Rec.709, sRGB, DCI-P3)"
LUT_3D_SIZE 33
0.000000 0.001617 0.001038
0.039001 0.001343 0.000763
0.080139 0.001068 0.000488
0.119141 0.000824 0.000275
0.155579 0.000641 0.000092
0.193298 0.000427 0.000000
0.245605 0.000153 0.000000
0.292633 0.000000 0.000000
0.324768 0.000000 0.000000
0.363464 0.000000 0.000000
0.402069 0.000000 0.000000
0.429901 0.000000 0.000000
0.453125 0.000000 0.000000
0.478790 0.000000 0.000000
0.507935 0.000000 0.000000
0.539673 0.000000 0.000000
0.572266 0.000000 0.000000
0.605011 0.000000 0.000000
0.637848 0.000000 0.000000
0.670624 0.000000 0.000000
0.702148 0.000000 0.000000
0.732544 0.000000 0.000000
0.762390 0.000000 0.000000
0.791321 0.000000 0.000000
0.819427 0.000000 0.000000
0.846954 0.000000 0.000000
0.875153 0.000000 0.000000
0.903778 0.000000 0.000000
0.933014 0.000000 0.000000
0.964355 0.000000 0.000000
0.998596 0.000000 0.000000
1.000000 0.000000 0.000000
1.000000 0.000000 0.000000
0.000000 0.032562 0.004150
0.034149 0.012604 0.000702
0.080139 0.002106 0.000488
0.119141 0.002075 0.000275
0.155579 0.002075 0.000061
0.193298 0.002075 0.000000
0.245605 0.002014 0.000000
0.292664 0.001923 0.000000
0.324768 0.001862 0.000000
0.363495 0.001770 0.000000
0.402069 0.001648 0.000000
0.429932 0.001587 0.000000
0.453156 0.001556 0.000000
0.478790 0.001526 0.000000
0.507935 0.001465 0.000000
0.539673 0.001465 0.000000
0.572266 0.001434 0.000000
0.605011 0.001434 0.000000
0.637848 0.001434 0.000000
0.670654 0.001404 0.000000
0.702148 0.001404 0.000000
0.732574 0.001434 0.000000
0.762390 0.001434 0.000000
0.791321 0.001434 0.000000
0.819458 0.001434 0.000000
0.846954 0.001434 0.000000
0.875183 0.001465 0.000000
0.903778 0.001495 0.000000
0.933014 0.001526 0.000000
0.964355 0.001556 0.000000
0.998596 0.001617 0.000000
1.000000 0.001648 0.000000
1.000000 0.001648 0.000000
0.000000 0.057922 0.005035
0.019806 0.060181 0.006256
0.066467 0.061737 0.000183
0.118958 0.059937 0.000000
0.155396 0.060120 0.000000
0.193115 0.060303 0.000000
0.245605 0.060425 0.000000
0.292633 0.060394 0.000000
0.324799 0.060394 0.000000
0.363617 0.060333 0.000000
0.402161 0.060272 0.000000
0.429993 0.060211 0.000000
0.453186 0.060181 0.000000
0.478821 0.060181 0.000000
0.507935 0.060150 0.000000
0.539673 0.060150 0.000000
0.572266 0.060120 0.000000
0.605011 0.060120 0.000000
0.637848 0.060089 0.000000
0.670654 0.060089 0.000000
0.702148 0.060089 0.000000
0.732574 0.060059 0.000000
0.762390 0.060059 0.000000
0.791351 0.060028 0.000000
0.819489 0.059998 0.000000
0.846985 0.059967 0.000000
0.875153 0.059967 0.000000
0.903778 0.059967 0.000000
0.933014 0.059937 0.000000
0.964325 0.059937 0.000000
0.998535 0.059937 0.000000
1.000000 0.059937 0.000000
1.000000 0.059937 0.000000
0.000000 0.083496 0.009827
0.015808 0.085815 0.011475
0.039825 0.090759 0.007721
0.103027 0.102234 0.000000
0.153839 0.105927 0.000000
0.192993 0.106628 0.000000
0.245605 0.106750 0.000000
0.292633 0.106750 0.000000
0.324951 0.106750 0.000000
0.363739 0.106720 0.000000
0.402252 0.106659 0.000000
0.430084 0.106598 0.000000
0.453217 0.106598 0.000000
0.478851 0.106567 0.000000
0.507965 0.106567 0.000000
0.539673 0.106567 0.000000
0.572266 0.106567 0.000000
0.605011 0.106567 0.000000
0.637848 0.106567 0.000000
0.670654 0.106567 0.000000
0.702148 0.106567 0.000000
0.732574 0.106567 0.000000
0.762421 0.106567 0.000000
0.791382 0.106567 0.000000
0.819519 0.106537 0.000000
0.846985 0.106537 0.000000
0.875153 0.106537 0.000000
0.903778 0.106537 0.000000
0.933014 0.106537 0.000000
0.964325 0.106537 0.000000
0.998505 0.106567 0.000000
1.000000 0.106567 0.000000
1.000000 0.106567 0.000000
0.000000 0.105957 0.017212
0.015137 0.108429 0.018951
0.036804 0.113983 0.022095
0.080322 0.127808 0.002106
0.144104 0.140869 0.000000
0.188293 0.147949 0.000000
0.245575 0.149872 0.000000
0.292633 0.149872 0.000000
0.324982 0.149872 0.000000
0.363953 0.149811 0.000000
0.402344 0.149750 0.000000
0.430145 0.149719 0.000000
0.453247 0.149719 0.000000
0.478851 0.149689 0.000000
0.507965 0.149689 0.000000
0.539703 0.149689 0.000000
0.572266 0.149689 0.000000
0.605011 0.149689 0.000000
0.637848 0.149689 0.000000
0.670654 0.149689 0.000000
0.702179 0.149689 0.000000
0.732574 0.149689 0.000000
0.762421 0.149689 0.000000
0.791412 0.149689 0.000000
0.819550 0.149658 0.000000
0.847015 0.149658 0.000000
0.875153 0.149658 0.000000
0.903809 0.149658 0.000000
0.933044 0.149658 0.000000
0.964294 0.149658 0.000000
0.998444 0.149689 0.000000
1.000000 0.149689 0.000000
1.000000 0.149689 0.000000
0.000000 0.129669 0.026642
0.013885 0.132904 0.026764
0.037445 0.137604 0.028931
0.066101 0.144379 0.035156
0.135925 0.163757 0.007721
0.180786 0.179230 0.000000
0.235504 0.187683 0.000000
0.292633 0.190460 0.000000
0.325012 0.190460 0.000000
0.364044 0.190399 0.000000
0.402405 0.190338 0.000000
0.430206 0.190308 0.000000
0.453278 0.190308 0.000000
0.478882 0.190277 0.000000
0.507965 0.190277 0.000000
0.539703 0.190277 0.000000
0.572266 0.190277 0.000000
0.605011 0.190277 0.000000
0.637848 0.190277 0.000000
0.670654 0.190277 0.000000
0.702179 0.190277 0.000000
0.732574 0.190277 0.000000
0.762421 0.190277 0.000000
0.791443 0.190247 0.000000
0.819550 0.190247 0.000000
0.847107 0.190247 0.000000
0.875153 0.190247 0.000000
0.903809 0.190247 0.000000
0.933044 0.190247 0.000000
0.964294 0.190247 0.000000
0.998413 0.190247 0.000000
1.000000 0.190277 0.000000
1.000000 0.190277 0.000000
0.000000 0.152039 0.031677
0.015533 0.155853 0.033844
0.040161 0.161224 0.037018
0.072815 0.168671 0.044250
0.130219 0.178314 0.054657
0.179077 0.204224 0.023895
0.228271 0.219391 0.000000
0.287140 0.226379 0.000000
0.322968 0.229309 0.000000
0.364136 0.229706 0.000000
0.402557 0.229645 0.000000
0.430237 0.229614 0.000000
0.453308 0.229584 0.000000
0.478882 0.229584 0.000000
0.507996 0.229584 0.000000
0.539703 0.229584 0.000000
0.572266 0.229584 0.000000
0.605011 0.229584 0.000000
0.637848 0.229584 0.000000
0.670654 0.229584 0.000000
0.702179 0.229584 0.000000
0.732605 0.229584 0.000000
0.762421 0.229584 0.000000
0.791473 0.229553 0.000000
0.819580 0.229553 0.000000
0.847107 0.229523 0.000000
0.875153 0.229523 0.000000
0.903809 0.229553 0.000000
0.933044 0.229553 0.000000
0.964294 0.229553 0.000000
0.998352 0.229553 0.000000
1.000000 0.229553 0.000000
1.000000 0.229553 0.000000
0.000000 0.174591 0.038727
0.020416 0.178253 0.040894
0.043427 0.184692 0.045074
0.082764 0.193146 0.056244
0.136414 0.202393 0.073853
0.182800 0.222443 0.070160
0.230164 0.245514 0.036285
0.285126 0.257568 0.002808
0.319031 0.264191 0.000000
0.360809 0.267212 0.000000
0.402618 0.267700 0.000000
0.430389 0.267670 0.000000
0.453339 0.267670 0.000000
0.478912 0.267639 0.000000
0.507996 0.267639 0.000000
0.539703 0.267639 0.000000
0.572266 0.267639 0.000000
0.605011 0.267639 0.000000
0.637848 0.267639 0.000000
0.670654 0.267639 0.000000
0.702179 0.267639 0.000000
0.732605 0.267639 0.000000
0.762451 0.267639 0.000000
0.791473 0.267609 0.000000
0.819611 0.267609 0.000000
0.847107 0.267609 0.000000
0.875122 0.267609 0.000000
0.903870 0.267609 0.000000
0.933044 0.267609 0.000000
0.964264 0.267609 0.000000
0.998322 0.267609 0.000000
1.000000 0.267639 0.000000
1.000000 0.267639 0.000000
0.000000 0.196136 0.045746
0.024841 0.200989 0.048950
0.045258 0.208679 0.053101
0.091980 0.217194 0.067871
0.144440 0.227234 0.085815
0.192505 0.239197 0.106049
0.240967 0.267151 0.083466
0.287048 0.285126 0.048401
0.318634 0.295868 0.018433
0.358459 0.302032 0.000000
0.400208 0.304596 0.000000
0.430084 0.305206 0.000000
0.453339 0.305023 0.000000
0.478912 0.305023 0.000000
0.507996 0.305023 0.000000
0.539703 0.305023 0.000000
0.572266 0.305023 0.000000
0.605011 0.305023 0.000000
0.637848 0.305023 0.000000
0.670685 0.305023 0.000000
0.702179 0.305023 0.000000
0.732605 0.305023 0.000000
0.762451 0.304993 0.000000
0.791504 0.304993 0.000000
0.819641 0.304993 0.000000
0.847137 0.304962 0.000000
0.875122 0.304962 0.000000
0.903870 0.304962 0.000000
0.933105 0.304962 0.000000
0.964264 0.304962 0.000000
0.998291 0.304993 0.000000
1.000000 0.304993 0.000000
1.000000 0.304993 0.000000
0.000031 0.217896 0.052826
0.025696 0.222900 0.055878
0.053375 0.230103 0.063324
0.099854 0.240173 0.078217
0.152039 0.251312 0.097229
0.202484 0.264221 0.117401
0.259705 0.284180 0.126892
0.292969 0.308685 0.094513
0.321838 0.323914 0.061035
0.359985 0.333923 0.031403
0.400360 0.339600 0.000000
0.429352 0.342010 0.000000
0.452850 0.342407 0.000000
0.478943 0.342102 0.000000
0.507996 0.342102 0.000000
0.539703 0.342102 0.000000
0.572266 0.342102 0.000000
0.605011 0.342102 0.000000
0.637848 0.342102 0.000000
0.670685 0.342102 0.000000
0.702179 0.342102 0.000000
0.732605 0.342102 0.000000
0.762451 0.342102 0.000000
0.791534 0.342072 0.000000
0.819641 0.342072 0.000000
0.847137 0.342072 0.000000
0.875122 0.342041 0.000000
0.903870 0.342072 0.000000
0.933105 0.342041 0.000000
0.964264 0.342072 0.000000
0.998260 0.342072 0.000000
1.000000 0.342072 0.000000
1.000000 0.342072 0.000000
0.002411 0.239014 0.060333
0.026947 0.244415 0.064026
0.062531 0.251404 0.072571
0.106537 0.262512 0.088318
0.158722 0.274689 0.107025
0.213623 0.288544 0.128326
0.276764 0.306061 0.146942
0.301727 0.327515 0.135681
0.328461 0.348541 0.104553
0.365295 0.362793 0.073761
0.402435 0.372009 0.042419
0.430359 0.377075 0.011719
0.453156 0.379333 0.000000
0.478394 0.379700 0.000000
0.508087 0.379425 0.000000
0.539703 0.379425 0.000000
0.572266 0.379425 0.000000
0.605011 0.379425 0.000000
0.637878 0.379425 0.000000
0.670685 0.379395 0.000000
0.702179 0.379395 0.000000
0.732605 0.379395 0.000000
0.762451 0.379395 0.000000
0.791534 0.379364 0.000000
0.819672 0.379364 0.000000
0.847137 0.379333 0.000000
0.875122 0.379333 0.000000
0.903870 0.379333 0.000000
0.933105 0.379333 0.000000
0.964233 0.379333 0.000000
0.998199 0.379364 0.000000
1.000000 0.379364 0.000000
1.000000 0.379364 0.000000
0.004974 0.260040 0.067291
0.033112 0.264984 0.071564
0.071899 0.272156 0.081757
0.113861 0.284882 0.096954
0.164856 0.297882 0.116089
0.225647 0.312012 0.137939
0.286865 0.330048 0.158264
0.312805 0.344574 0.170654
0.338470 0.369202 0.144379
0.373718 0.388733 0.113770
0.406921 0.401764 0.084991
0.432739 0.409790 0.053467
0.454834 0.413879 0.023376
0.479340 0.415436 0.000000
0.507782 0.415863 0.000000
0.539459 0.415710 0.000000
0.572296 0.415588 0.000000
0.605042 0.415558 0.000000
0.637878 0.415527 0.000000
0.670715 0.415466 0.000000
0.702209 0.415436 0.000000
0.732635 0.415405 0.000000
0.762482 0.415344 0.000000
0.791595 0.415314 0.000000
0.819702 0.415253 0.000000
0.847168 0.415222 0.000000
0.875153 0.415192 0.000000
0.903900 0.415161 0.000000
0.933136 0.415100 0.000000
0.964233 0.415070 0.000000
0.998199 0.415070 0.000000
1.000000 0.415070 0.000000
1.000000 0.415070 0.000000
0.009949 0.280762 0.073792
0.043304 0.285339 0.080109
0.079468 0.293152 0.090210
0.121063 0.306183 0.105591
0.171417 0.320099 0.125092
0.236603 0.335205 0.146484
0.294769 0.353210 0.168396
0.321960 0.368286 0.181458
0.351624 0.385468 0.183502
0.383545 0.409760 0.152130
0.412476 0.425018 0.122375
0.435455 0.435150 0.095245
0.457703 0.441772 0.063782
0.481964 0.445465 0.032501
0.509399 0.446869 0.000000
0.539673 0.447327 0.000000
0.571838 0.447388 0.000000
0.605072 0.447174 0.000000
0.637939 0.447144 0.000000
0.670746 0.447113 0.000000
0.702271 0.447052 0.000000
0.732697 0.447021 0.000000
0.762543 0.446991 0.000000
0.791656 0.446960 0.000000
0.819794 0.446899 0.000000
0.847229 0.446869 0.000000
0.875183 0.446838 0.000000
0.903931 0.446808 0.000000
0.933197 0.446747 0.000000
0.964294 0.446716 0.000000
0.998199 0.446716 0.000000
1.000000 0.446716 0.000000
1.000000 0.446716 0.000000
0.024414 0.300568 0.082153
0.052765 0.305328 0.087982
0.085876 0.313049 0.096802
0.127563 0.327026 0.113098
0.176361 0.341553 0.132538
0.243896 0.357025 0.153320
0.301117 0.374847 0.176849
0.329315 0.389954 0.189941
0.361755 0.403473 0.201721
0.392609 0.423340 0.189575
0.417786 0.442566 0.157928
0.438538 0.456604 0.129517
0.459930 0.466278 0.102844
0.484253 0.472382 0.072266
0.511963 0.476013 0.041595
0.541321 0.477600 0.011292
0.572205 0.478363 0.000000
0.604553 0.478668 0.000000
0.637787 0.478699 0.000000
0.670807 0.478668 0.000000
0.702301 0.478607 0.000000
0.732727 0.478577 0.000000
0.762604 0.478516 0.000000
0.791718 0.478485 0.000000
0.819855 0.478424 0.000000
0.847290 0.478394 0.000000
0.875214 0.478333 0.000000
0.903992 0.478302 0.000000
0.933228 0.478271 0.000000
0.964325 0.478210 0.000000
0.998199 0.478180 0.000000
1.000000 0.478180 0.000000
1.000000 0.478180 0.000000
0.034790 0.320404 0.089905
0.060059 0.324829 0.094696
0.091675 0.332489 0.103027
0.132599 0.346680 0.119110
0.179626 0.361298 0.139130
0.246857 0.377350 0.157440
0.306213 0.394958 0.183197
0.334167 0.408813 0.196106
0.367035 0.420227 0.207184
0.399200 0.432312 0.220978
0.421417 0.454651 0.191589
0.440155 0.472748 0.162354
0.461182 0.485687 0.134888
0.485474 0.494659 0.107697
0.513275 0.500519 0.079376
0.542908 0.503967 0.047729
0.573303 0.505768 0.020660
0.604614 0.506836 0.000000
0.636963 0.507477 0.000000
0.670288 0.507874 0.000000
0.702393 0.507935 0.000000
0.732819 0.507874 0.000000
0.762665 0.507812 0.000000
0.791809 0.507721 0.000000
0.819946 0.507660 0.000000
0.847351 0.507599 0.000000
0.875275 0.507538 0.000000
0.904053 0.507477 0.000000
0.933289 0.507416 0.000000
0.964355 0.507355 0.000000
0.998230 0.507294 0.000000
1.000000 0.507294 0.000000
1.000000 0.507294 0.000000
0.042755 0.340088 0.096497
0.067047 0.344208 0.101044
0.096619 0.351471 0.108948
0.136658 0.365814 0.124878
0.181519 0.380219 0.144104
0.249908 0.395660 0.162231
0.309845 0.412384 0.188293
0.337982 0.424255 0.201172
0.370331 0.434875 0.211945
0.401276 0.446655 0.224854
0.424164 0.461975 0.224579
0.441742 0.483765 0.192627
0.461670 0.500000 0.164734
0.484894 0.511353 0.138702
0.513458 0.519562 0.111237
0.543427 0.525452 0.084625
0.574188 0.529449 0.054840
0.605164 0.531952 0.027802
0.636688 0.533630 0.000000
0.669281 0.534882 0.000000
0.701447 0.535736 0.000000
0.732880 0.536255 0.000000
0.762756 0.536194 0.000000
0.791901 0.536133 0.000000
0.820038 0.536072 0.000000
0.847443 0.536011 0.000000
0.875336 0.535950 0.000000
0.904144 0.535919 0.000000
0.933380 0.535858 0.000000
0.964417 0.535797 0.000000
0.998260 0.535767 0.000000
1.000000 0.535767 0.000000
1.000000 0.535767 0.000000
0.049438 0.359375 0.102753
0.072815 0.363098 0.106476
0.101166 0.370148 0.114044
0.139557 0.384430 0.129395
0.181183 0.398315 0.147614
0.249176 0.411804 0.165375
0.307129 0.428223 0.191315
0.340393 0.438354 0.204865
0.372040 0.448608 0.215698
0.402100 0.459930 0.227020
0.424927 0.470856 0.239197
0.442627 0.490234 0.223816
0.461700 0.509583 0.193359
0.484375 0.523987 0.167145
0.511444 0.536346 0.141541
0.542542 0.545868 0.115265
0.573914 0.553070 0.089661
0.605469 0.558044 0.060608
0.636749 0.561371 0.033936
0.668640 0.563782 0.008087
0.700256 0.565613 0.000000
0.731445 0.566986 0.000000
0.762360 0.567932 0.000000
0.791992 0.568237 0.000000
0.820129 0.568176 0.000000
0.847504 0.568115 0.000000
0.875397 0.568085 0.000000
0.904205 0.568024 0.000000
0.933441 0.567993 0.000000
0.964478 0.567963 0.000000
0.998291 0.567932 0.000000
1.000000 0.567932 0.000000
1.000000 0.567932 0.000000
0.055206 0.378296 0.108124
0.077972 0.381989 0.111664
0.104462 0.388214 0.118408
0.141052 0.402222 0.133759
0.179932 0.414368 0.150208
0.242310 0.425964 0.166931
0.300690 0.441986 0.189331
0.340637 0.450958 0.206696
0.371887 0.461151 0.217987
0.400970 0.471466 0.228363
0.423706 0.481873 0.239471
0.441711 0.492188 0.250702
0.460449 0.514465 0.221985
0.482025 0.533356 0.193115
0.508759 0.549713 0.167969
0.538635 0.563324 0.143890
0.571259 0.573822 0.118073
0.603973 0.581970 0.093781
0.636383 0.587738 0.066071
0.668243 0.591614 0.040070
0.699371 0.594574 0.016815
0.730072 0.597015 0.000000
0.760803 0.598724 0.000000
0.791077 0.600098 0.000000
0.820190 0.600952 0.000000
0.847565 0.600922 0.000000
0.875458 0.600861 0.000000
0.904266 0.600830 0.000000
0.933502 0.600800 0.000000
0.964539 0.600739 0.000000
0.998291 0.600708 0.000000
1.000000 0.600708 0.000000
1.000000 0.600708 0.000000
0.060974 0.397247 0.113800
0.081726 0.400116 0.116669
0.106995 0.405853 0.122650
0.141815 0.417328 0.136627
0.178192 0.428284 0.152344
0.232452 0.439148 0.167694
0.293396 0.453033 0.185669
0.332825 0.463501 0.205811
0.370514 0.472839 0.219147
0.398499 0.482025 0.229187
0.421112 0.491364 0.238525
0.439056 0.500824 0.249298
0.457458 0.515137 0.247437
0.478882 0.538055 0.218994
0.504059 0.558960 0.192200
0.533691 0.576385 0.168427
0.565643 0.590515 0.145294
0.599884 0.601868 0.120819
0.633942 0.610779 0.097778
0.667236 0.617157 0.072021
0.698486 0.621765 0.045166
0.728912 0.625366 0.022125
0.759277 0.628357 0.000000
0.789612 0.630676 0.000000
0.818756 0.632416 0.000000
0.847321 0.633942 0.000000
0.875519 0.634186 0.000000
0.904327 0.634125 0.000000
0.933563 0.634094 0.000000
0.964569 0.634064 0.000000
0.998322 0.634033 0.000000
1.000000 0.634033 0.000000
1.000000 0.634033 0.000000
0.065430 0.414368 0.118195
0.085480 0.416595 0.120972
0.109161 0.420990 0.126251
0.141479 0.430817 0.138947
0.175446 0.441315 0.153168
0.221649 0.451752 0.168091
0.286133 0.462494 0.183289
0.320190 0.475128 0.200012
0.368011 0.483124 0.218597
0.396027 0.492126 0.229218
0.418243 0.500214 0.238037
0.436127 0.508759 0.247192
0.453522 0.517395 0.257996
0.474396 0.538635 0.243622
0.499329 0.564087 0.216522
0.527832 0.585541 0.191620
0.559875 0.603363 0.169281
0.593903 0.618225 0.147125
0.629150 0.630554 0.123535
0.664276 0.640320 0.101013
0.697296 0.647552 0.076874
0.727875 0.652863 0.051300
0.758026 0.657043 0.028259
0.788025 0.660553 0.003357
0.817322 0.663330 0.000000
0.845581 0.665405 0.000000
0.874664 0.667267 0.000000
0.904388 0.668335 0.000000
0.933624 0.668304 0.000000
0.964600 0.668243 0.000000
0.998322 0.668213 0.000000
1.000000 0.668213 0.000000
1.000000 0.668213 0.000000
0.069824 0.429657 0.122955
0.088928 0.431366 0.125153
0.111176 0.435211 0.129761
0.141418 0.444397 0.140808
0.173309 0.454376 0.154449
0.213074 0.464081 0.168091
0.275421 0.473328 0.180878
0.311249 0.484222 0.195618
0.351196 0.494110 0.213531
0.393829 0.501923 0.228973
0.415527 0.508850 0.237549
0.433472 0.516449 0.246246
0.450104 0.525146 0.255737
0.469543 0.536194 0.264648
0.493805 0.565155 0.240448
0.522400 0.591095 0.214874
0.553955 0.612854 0.192017
0.587738 0.631531 0.171234
0.623474 0.647369 0.149384
0.659485 0.660461 0.126678
0.694611 0.670685 0.104767
0.726746 0.678345 0.081543
0.756989 0.684082 0.056335
0.786621 0.688660 0.033356
0.815704 0.692444 0.012451
0.844208 0.695557 0.000000
0.872803 0.697845 0.000000
0.902740 0.699951 0.000000
0.933685 0.701935 0.000000
0.964661 0.701874 0.000000
0.998322 0.701874 0.000000
1.000000 0.701874 0.000000
1.000000 0.701874 0.000000
0.072754 0.444489 0.127075
0.092072 0.446259 0.129181
0.113525 0.449615 0.133179
0.142822 0.458466 0.143982
0.173279 0.467926 0.156921
0.210022 0.477081 0.169250
0.268311 0.485168 0.181244
0.304962 0.493866 0.193726
0.339081 0.504028 0.207703
0.389404 0.511658 0.228241
0.413513 0.517731 0.237091
0.431183 0.524963 0.245544
0.447357 0.533813 0.254120
0.466492 0.544037 0.264893
0.488495 0.563507 0.262695
0.517059 0.593384 0.238525
0.548340 0.619171 0.214966
0.582123 0.641724 0.193085
0.617157 0.661194 0.173523
0.654602 0.677399 0.151581
0.690582 0.690582 0.129791
0.724579 0.700745 0.107819
0.755951 0.708527 0.085266
0.785614 0.714325 0.062042
0.814056 0.719330 0.039459
0.842590 0.723389 0.018433
0.871246 0.726685 0.000000
0.900818 0.729187 0.000000
0.931335 0.731720 0.000000
0.963959 0.734039 0.000000
0.998352 0.734955 0.000000
1.000000 0.734955 0.000000
1.000000 0.734955 0.000000
0.074738 0.459351 0.131042
0.093994 0.460724 0.132629
0.115845 0.464142 0.136993
0.144287 0.472473 0.147095
0.174072 0.481354 0.158966
0.209473 0.490112 0.171143
0.265442 0.497742 0.182678
0.300049 0.504639 0.193420
0.333282 0.512939 0.205933
0.376160 0.522156 0.223694
0.411987 0.527252 0.236603
0.429504 0.534729 0.245087
0.445129 0.543213 0.253693
0.463928 0.553589 0.263123
0.484833 0.565063 0.275024
0.511963 0.592590 0.261169
0.543427 0.622406 0.237823
0.576660 0.648834 0.215607
0.611816 0.671600 0.195435
0.648804 0.690979 0.174683
0.686035 0.707153 0.154205
0.721069 0.720093 0.131836
0.754303 0.730408 0.110809
0.784363 0.738037 0.089569
0.812683 0.744049 0.066559
0.840759 0.749146 0.043549
0.869507 0.753326 0.022522
0.899048 0.756683 0.000000
0.929260 0.759521 0.000000
0.961365 0.762299 0.000000
0.996918 0.764984 0.000000
1.000000 0.767090 0.000000
1.000000 0.767090 0.000000
0.076904 0.473541 0.134430
0.095856 0.475037 0.136444
0.116943 0.478180 0.140259
0.144531 0.485687 0.149689
0.174042 0.493958 0.160980
0.208221 0.502136 0.172272
0.262421 0.509216 0.184082
0.295959 0.514893 0.193146
0.328583 0.521545 0.204468
0.364380 0.531525 0.217926
0.405426 0.538269 0.235107
0.427979 0.544891 0.244629
0.443115 0.553101 0.252991
0.461212 0.563293 0.262238
0.482117 0.574890 0.273560
0.506287 0.589264 0.281891
0.538086 0.622253 0.259857
0.571045 0.652740 0.238159
0.606079 0.678955 0.217102
0.642059 0.701416 0.197723
0.680511 0.720490 0.176575
0.716370 0.736481 0.155945
0.751068 0.749115 0.133850
0.782898 0.759216 0.114288
0.811371 0.766510 0.093689
0.839020 0.772736 0.070862
0.867432 0.777985 0.047668
0.897247 0.782318 0.026642
0.927246 0.785828 0.003326
0.959045 0.789185 0.000000
0.994354 0.792267 0.000000
1.000000 0.795227 0.000000
1.000000 0.798157 0.000000
0.078613 0.487335 0.137756
0.097076 0.488708 0.139709
0.117798 0.491486 0.143005
0.143616 0.498108 0.151428
0.172150 0.505432 0.162201
0.205780 0.512695 0.173035
0.257660 0.519684 0.184113
0.291962 0.525116 0.192841
0.321136 0.531464 0.202972
0.355988 0.540253 0.214539
0.393982 0.549561 0.229675
0.426239 0.554779 0.243408
0.441467 0.563385 0.252075
0.458710 0.573059 0.261353
0.479187 0.584534 0.271393
0.502686 0.596405 0.283997
0.531952 0.619293 0.280914
0.565491 0.653229 0.259491
0.600037 0.683228 0.238983
0.635803 0.708710 0.219421
0.673645 0.730743 0.199066
0.710815 0.749634 0.178802
0.746857 0.765106 0.157654
0.780457 0.777740 0.137238
0.809967 0.787201 0.116547
0.837585 0.794464 0.096375
0.865387 0.800720 0.074188
0.895294 0.806000 0.050751
0.925171 0.810333 0.028717
0.956604 0.814209 0.008118
0.991638 0.817749 0.000000
1.000000 0.821167 0.000000
1.000000 0.824463 0.000000
0.079895 0.500610 0.140991
0.098114 0.501801 0.142456
0.118652 0.504211 0.145691
0.142670 0.509369 0.152710
0.169586 0.515686 0.162231
0.202179 0.522797 0.173065
0.251343 0.530182 0.183807
0.288849 0.536285 0.192871
0.315216 0.542297 0.201782
0.349304 0.549103 0.211670
0.383514 0.559540 0.223511
0.418091 0.566925 0.240234
0.440125 0.574036 0.251648
0.456696 0.583374 0.260681
0.476440 0.594330 0.270752
0.499786 0.606323 0.282562
0.526306 0.618683 0.295441
0.559784 0.651001 0.280792
0.594238 0.684998 0.260254
0.630219 0.713654 0.241058
0.667053 0.738861 0.222290
0.705261 0.760193 0.200714
0.742188 0.778809 0.180634
0.777222 0.793793 0.159729
0.808075 0.805634 0.140076
0.836121 0.814331 0.119324
0.863464 0.821655 0.099030
0.893066 0.828033 0.076660
0.923279 0.833313 0.052826
0.954071 0.837799 0.031830
0.988678 0.841888 0.011230
1.000000 0.845947 0.000000
1.000000 0.849762 0.000000
0.081573 0.512756 0.143707
0.099030 0.513702 0.145172
0.118378 0.515625 0.147919
0.140503 0.519379 0.153137
0.165588 0.525482 0.161835
0.197540 0.533051 0.172333
0.242920 0.540985 0.182800
0.284882 0.547424 0.192261
0.309814 0.553406 0.200867
0.340881 0.559570 0.209961
0.377472 0.569153 0.221344
0.410706 0.578766 0.235962
0.439240 0.585114 0.251190
0.455414 0.594452 0.260498
0.474701 0.604828 0.270569
0.497559 0.616882 0.281525
0.523682 0.629639 0.294891
0.554138 0.647369 0.301239
0.589539 0.684265 0.282135
0.625580 0.716797 0.262390
0.662354 0.745026 0.244598
