Kodak Vision2 100T (5212) - Only color.cube
# Created by Benjamin (IWLTBAP) : http://luts.iwltbap.com
# Copyright: (C) Copyright 2010-2017 Triune Films and IWLTBAP SAS
# Cannot be resold, shared or otherwise redistributed
TITLE "Film Print Emulation LUTs Pack (Rec.709, sRGB, DCI-P3)"
LUT_3D_SIZE 9
0.000000 0.000000 0.000000
0.113373 0.000031 0.004913
0.219238 0.000092 0.010529
0.305298 0.000153 0.016357
0.384796 0.000214 0.022491
0.462677 0.000275 0.028107
0.543457 0.000336 0.034546
0.632080 0.000397 0.041290
0.726471 0.000458 0.048584
0.006073 0.143372 0.000000
0.165039 0.106964 0.000000
0.273407 0.086426 0.000000
0.382782 0.045654 0.010223
0.402740 0.045685 0.025238
0.464355 0.045685 0.028778
0.544922 0.045715 0.035217
0.633423 0.045715 0.041901
0.727661 0.045776 0.048553
0.063782 0.260040 0.054932
0.144501 0.254150 0.014893
0.292053 0.230347 0.000000
0.378082 0.209625 0.000000
0.439178 0.215698 0.000000
0.577515 0.165588 0.000000
0.728363 0.090302 0.007812
0.723938 0.090363 0.056274
0.730804 0.090363 0.049103
0.148743 0.378021 0.136749
0.201019 0.370605 0.131378
0.284851 0.367737 0.100098
0.412781 0.350739 0.020020
0.498993 0.325684 0.000000
0.566467 0.330963 0.000000
0.638275 0.334351 0.000000
0.771118 0.302002 0.000000
0.888092 0.271179 0.000000
0.238861 0.501007 0.222839
0.271667 0.494141 0.229523
0.329681 0.493469 0.178284
0.411560 0.480804 0.193787
0.526825 0.468140 0.102203
0.621765 0.458435 0.000000
0.700287 0.441895 0.000000
0.773285 0.446533 0.000000
0.846313 0.448761 0.000000
0.316437 0.629395 0.296509
0.339539 0.623871 0.301086
0.385498 0.618561 0.278870
0.449951 0.615784 0.221802
0.533752 0.593658 0.266113
0.649719 0.584961 0.149994
0.753510 0.574646 0.000000
0.831848 0.549652 0.000000
0.903015 0.553864 0.000000
0.380615 0.750854 0.357758
0.398529 0.746338 0.361176
0.438599 0.738434 0.357391
0.491425 0.737061 0.297516
0.565918 0.724152 0.285400
0.660004 0.704102 0.292175
0.775085 0.698181 0.149933
0.888672 0.661438 0.000000
0.959717 0.655029 0.000000
0.434021 0.865387 0.408844
0.449097 0.861572 0.411499
0.485443 0.852448 0.417267
0.533661 0.850830 0.368683
0.600891 0.849731 0.296478
0.683624 0.826294 0.333893
0.787323 0.812164 0.279907
0.904633 0.808868 0.033264
0.996094 0.767914 0.000000
0.481018 0.982910 0.453156
0.494324 0.979706 0.455170
0.527069 0.971954 0.459839
0.575134 0.968170 0.428223
0.635620 0.968414 0.354828
0.713715 0.956421 0.330505
0.805450 0.931061 0.353943
0.923218 0.926758 0.114990
0.985931 0.903412 0.000000
0.000183 0.052429 0.135284
0.085175 0.030884 0.069794
0.227264 0.000153 0.053375
0.304565 0.000214 0.063141
0.384338 0.000275 0.068726
0.462341 0.000305 0.074432
0.543121 0.000366 0.080170
0.631744 0.000427 0.086731
0.726166 0.000519 0.093262
0.000183 0.159637 0.083588
0.131104 0.130890 0.112915
0.285370 0.092102 0.046967
0.391937 0.046478 0.046967
0.417236 0.045715 0.073547
0.464020 0.045715 0.074371
0.544586 0.045746 0.080536
0.633087 0.045776 0.086700
0.727386 0.045807 0.093567
0.040161 0.276855 0.100952
0.140350 0.257874 0.122070
0.282013 0.245239 0.088623
0.382050 0.223480 0.046814
0.440033 0.217682 0.046783
0.573242 0.172455 0.046753
0.737366 0.090363 0.046753
0.736145 0.090393 0.103302
0.730560 0.090393 0.093903
0.141632 0.387451 0.167114
0.197693 0.377136 0.177979
0.285278 0.375122 0.149109
0.413208 0.355438 0.109589
0.489685 0.349915 0.057251
0.566986 0.332062 0.046661
0.638916 0.335663 0.046600
0.769043 0.305054 0.046600
0.886841 0.274170 0.046600
0.235229 0.508301 0.240662
0.268707 0.501343 0.247498
0.329590 0.496429 0.224426
0.412292 0.486084 0.233673
0.531403 0.470428 0.168915
0.618530 0.465942 0.080627
0.701538 0.442932 0.046539
0.773682 0.447357 0.046509
0.846741 0.449707 0.046478
0.313843 0.635040 0.309052
0.337158 0.629547 0.313812
0.385132 0.621033 0.306396
0.450134 0.619659 0.250977
0.534210 0.597504 0.301544
0.650391 0.586884 0.213165
0.750641 0.581177 0.072632
0.834595 0.551086 0.046417
0.903168 0.554504 0.046417
0.378540 0.755249 0.367432
0.396484 0.750702 0.370941
0.438110 0.740265 0.376648
0.491302 0.738647 0.325470
0.566101 0.727570 0.311554
0.659698 0.706329 0.333710
0.775543 0.699707 0.212006
0.888672 0.680878 0.046356
0.962402 0.656555 0.046356
0.432281 0.868988 0.417206
0.447357 0.865234 0.419922
0.483795 0.855957 0.426147
0.533264 0.852173 0.389374
0.600739 0.850891 0.326019
0.683624 0.829010 0.361267
0.787109 0.813751 0.323334
0.904785 0.809967 0.123474
0.998810 0.769897 0.046326
0.479340 0.985901 0.460724
0.492645 0.982758 0.462891
0.525391 0.974945 0.467651
0.574615 0.969116 0.445099
0.635193 0.969299 0.378418
0.713593 0.958923 0.352753
0.805267 0.933533 0.383942
0.922577 0.927979 0.199982
0.988098 0.905975 0.046295
0.000336 0.098907 0.271729
0.004608 0.117462 0.223145
0.173004 0.066742 0.142303
0.256317 0.050262 0.142517
0.397186 0.000305 0.108276
0.461273 0.000366 0.118408
0.542206 0.000427 0.124237
0.630920 0.000488 0.130341
0.725403 0.000580 0.136963
0.000336 0.184204 0.209503
0.000366 0.199615 0.237854
0.207031 0.157501 0.189056
0.319397 0.132568 0.136780
0.405884 0.045746 0.101562
0.462952 0.045746 0.118652
0.543671 0.045776 0.124481
0.632263 0.045807 0.130310
0.726624 0.045837 0.136902
0.000366 0.307648 0.182678
0.087219 0.292938 0.196320
0.259644 0.259369 0.231232
0.385132 0.243469 0.172913
0.496429 0.216187 0.091431
0.566559 0.184601 0.091431
0.724976 0.112213 0.091400
0.766144 0.090424 0.138367
0.729797 0.090424 0.137390
0.079224 0.424774 0.216644
0.171814 0.403259 0.231934
0.285065 0.385101 0.254303
0.404755 0.369446 0.233124
0.498840 0.356232 0.199341
0.554718 0.356018 0.178192
0.640411 0.338745 0.091278
0.763672 0.312561 0.091248
0.883606 0.281677 0.091248
0.222046 0.527527 0.278473
0.260925 0.518738 0.286377
0.328583 0.504913 0.300568
0.413818 0.498535 0.284363
0.540802 0.476349 0.247528
0.614899 0.472931 0.225098
0.691132 0.469543 0.147705
0.774719 0.449463 0.091187
0.847717 0.451935 0.091156
0.307190 0.648773 0.338196
0.330963 0.643188 0.343262
0.382233 0.630402 0.352478
0.449921 0.624756 0.319611
0.535339 0.606964 0.347717
0.654510 0.591583 0.286987
0.746582 0.586060 0.212524
0.830414 0.575470 0.091095
0.904877 0.556152 0.091095
0.373169 0.766083 0.390625
0.391541 0.761566 0.394287
0.433899 0.750519 0.402405
0.490540 0.742798 0.378540
0.566528 0.735840 0.347412
0.658478 0.711914 0.392273
0.776733 0.703369 0.289337
0.880371 0.697662 0.144348
0.969635 0.660217 0.091034
0.427765 0.877869 0.437653
0.442932 0.874054 0.440521
0.479645 0.864807 0.447144
0.532318 0.855408 0.433594
0.600159 0.853699 0.377838
0.683807 0.835754 0.397583
0.786407 0.817719 0.384644
0.905273 0.812836 0.233337
1.000000 0.774994 0.091003
0.475311 0.993378 0.479553
0.488586 0.990265 0.481873
0.521301 0.982391 0.487061
0.573425 0.971558 0.484497
0.634094 0.971436 0.423950
0.713257 0.965027 0.383606
0.804932 0.939545 0.424530
0.921356 0.930939 0.297791
0.993561 0.912537 0.090973
0.000488 0.137207 0.400757
0.000488 0.138763 0.389374
0.197266 0.129974 0.194244
0.251862 0.107941 0.211151
0.321747 0.075867 0.212097
0.388458 0.080109 0.201752
0.563751 0.000488 0.160034
0.629364 0.000549 0.171936
0.723969 0.000610 0.177979
0.000458 0.211853 0.335663
0.000488 0.218628 0.352539
0.177185 0.204590 0.273285
0.279388 0.194031 0.249634
0.351654 0.177429 0.249481
0.390076 0.126282 0.204712
0.576508 0.045776 0.139465
0.630768 0.045807 0.171906
0.725220 0.045868 0.178131
0.000458 0.323151 0.283844
0.015991 0.338989 0.300140
0.178650 0.310608 0.335999
0.328217 0.288239 0.305695
0.450134 0.270782 0.253632
0.592163 0.232422 0.135101
0.764557 0.125305 0.135132
0.813660 0.090454 0.152252
0.761047 0.090454 0.182465
0.060150 0.451111 0.290924
0.126190 0.442047 0.300812
0.241638 0.423096 0.323059
0.387329 0.386963 0.350769
0.501678 0.374695 0.311676
0.618134 0.357422 0.238464
0.730408 0.338226 0.136505
0.772186 0.310944 0.135010
0.877747 0.294373 0.135010
0.131287 0.584320 0.323761
0.197357 0.568512 0.334564
0.312469 0.533508 0.359680
0.414642 0.512451 0.372559
0.531433 0.493317 0.355438
0.626831 0.481873 0.329803
0.686401 0.481018 0.320770
0.785034 0.467682 0.224579
0.851196 0.454559 0.134918
0.267151 0.685516 0.377808
0.304871 0.673401 0.385162
0.373230 0.651886 0.399475
0.449158 0.633453 0.412933
0.536743 0.622742 0.401520
0.665771 0.599091 0.362854
0.742645 0.594910 0.337891
0.818085 0.590515 0.286743
0.917145 0.559265 0.134857
0.360870 0.785858 0.427917
0.382812 0.779602 0.432495
0.425903 0.768463 0.441437
0.488068 0.751801 0.451569
0.566467 0.746277 0.410461
0.658020 0.723541 0.454437
0.778412 0.709900 0.380615
0.874176 0.704254 0.297882
0.964172 0.696472 0.134796
0.420227 0.892883 0.471619
0.435547 0.889038 0.474823
0.472565 0.879700 0.482117
0.528442 0.865112 0.489899
0.598999 0.858795 0.453857
0.683899 0.847107 0.443451
0.784698 0.824799 0.463837
0.906158 0.817780 0.339752
1.000000 0.808563 0.134796
0.468506 1.000000 0.511566
0.481903 1.000000 0.514099
0.514648 0.995056 0.519958
0.567871 0.982147 0.526855
0.632324 0.975220 0.494873
0.712219 0.974518 0.428223
0.804291 0.949646 0.475525
0.919312 0.936340 0.401154
1.000000 0.932739 0.198425
0.000610 0.182281 0.516022
0.000610 0.177795 0.516724
0.000580 0.237640 0.440033
0.277405 0.183319 0.264648
0.327026 0.159729 0.278137
0.379944 0.107178 0.267883
0.451965 0.112274 0.268799
0.537628 0.110321 0.239166
0.735718 0.026184 0.176605
0.000610 0.245453 0.458832
0.000610 0.242279 0.458435
0.000610 0.290924 0.458038
0.302612 0.239105 0.295898
0.353851 0.236725 0.313354
0.417358 0.215912 0.312103
0.453308 0.157013 0.271118
0.527313 0.160522 0.254303
0.720978 0.087128 0.176575
0.000580 0.344513 0.385498
0.000610 0.364105 0.400177
0.007568 0.393677 0.456268
0.327179 0.324219 0.373505
0.397552 0.325195 0.367706
0.466858 0.319397 0.369659
0.579773 0.290558 0.301331
0.702148 0.236511 0.180145
0.710663 0.148315 0.176544
0.022064 0.482300 0.384613
0.092499 0.475098 0.396729
0.213287 0.459442 0.416718
0.338898 0.433044 0.450439
0.454285 0.416107 0.429443
0.586945 0.396790 0.366241
0.730011 0.369293 0.276581
0.884460 0.323425 0.176453
0.999969 0.244843 0.176483
0.144501 0.602112 0.401428
0.190430 0.595490 0.408630
0.272522 0.580688 0.422791
0.383606 0.551208 0.449829
0.514313 0.513947 0.471771
0.627014 0.499969 0.436493
0.744293 0.484589 0.371918
0.861633 0.464905 0.288727
0.974518 0.439697 0.176392
0.175171 0.747833 0.424500
0.222717 0.735474 0.432465
0.314514 0.706604 0.450043
0.437195 0.661163 0.479889
0.537231 0.639008 0.485321
0.659332 0.615417 0.466187
0.751678 0.605316 0.444305
0.811951 0.603455 0.436249
0.920776 0.585571 0.340363
0.294739 0.838562 0.470428
0.324829 0.828827 0.476501
0.393280 0.805328 0.490570
0.478668 0.774872 0.510864
0.565277 0.755463 0.519653
0.658966 0.741394 0.515839
0.789276 0.718445 0.466827
0.868774 0.714111 0.432495
0.949097 0.707764 0.370331
0.380859 0.930023 0.514099
0.404449 0.921844 0.519073
0.460449 0.901947 0.530792
0.519226 0.885315 0.542999
0.596985 0.866516 0.554779
0.683655 0.862549 0.501617
0.780762 0.835938 0.559875
0.907196 0.825043 0.451691
1.000000 0.819366 0.341461
0.451172 1.000000 0.555603
0.471375 1.000000 0.559692
0.505890 1.000000 0.566406
0.558990 0.999725 0.575378
0.628540 0.983124 0.582794
0.709869 0.979401 0.530792
0.802917 0.963776 0.535461
0.915894 0.944122 0.514496
1.000000 0.939148 0.375916
0.000732 0.241974 0.636963
0.000732 0.238556 0.637360
0.000732 0.263977 0.630981
0.186371 0.286102 0.443481
0.361725 0.245575 0.342102
0.409241 0.223663 0.353546
0.440186 0.145111 0.326874
0.519867 0.150391 0.336243
0.588684 0.160583 0.331299
0.000732 0.292297 0.592834
0.000732 0.289429 0.592529
0.000763 0.313202 0.641876
0.177521 0.330536 0.499481
0.383301 0.292084 0.368317
0.432159 0.284790 0.382782
0.488068 0.260986 0.380249
0.521149 0.193237 0.337830
0.589691 0.202576 0.333221
0.000732 0.386566 0.512177
0.000702 0.384644 0.511108
0.000763 0.422943 0.583099
0.170197 0.415466 0.566498
0.424042 0.363770 0.417572
0.472595 0.366241 0.433380
0.538208 0.356537 0.435211
0.598907 0.337891 0.420258
0.618774 0.274078 0.359314
0.000763 0.505920 0.483917
0.000763 0.527496 0.500763
0.042114 0.549042 0.527863
0.223053 0.514191 0.584045
0.460541 0.451630 0.499390
0.523865 0.453766 0.494720
0.592896 0.449677 0.495758
0.721497 0.423004 0.424835
0.856995 0.381531 0.318604
0.138733 0.626984 0.499420
0.185516 0.621887 0.508453
0.268677 0.609802 0.525909
0.367157 0.588531 0.549896
0.474640 0.560486 0.577454
0.582092 0.542694 0.558624
0.720398 0.520142 0.484406
0.862122 0.493408 0.401459
1.000000 0.455566 0.288849
0.225525 0.749512 0.514984
0.254944 0.744385 0.520569
0.314819 0.732208 0.532440
0.397644 0.711334 0.551758
0.508423 0.677521 0.576935
0.639679 0.639343 0.596008
0.751373 0.623566 0.559174
0.869202 0.607697 0.491699
0.994537 0.584198 0.402069
0.242889 0.886597 0.532959
0.264099 0.882599 0.536896
0.313629 0.871643 0.546387
0.421234 0.832001 0.571930
0.553925 0.782776 0.602020
0.659180 0.760071 0.603271
0.786133 0.734253 0.577972
0.872742 0.726135 0.561432
0.940979 0.721527 0.539734
0.310059 0.988220 0.566162
0.334778 0.980103 0.571320
0.392609 0.960510 0.583496
0.481079 0.926819 0.604279
0.586975 0.890900 0.626862
0.681915 0.871460 0.631622
0.779785 0.855316 0.634064
0.913635 0.834137 0.567749
0.999298 0.829926 0.510925
0.391510 1.000000 0.605743
0.411255 1.000000 0.609985
0.459259 1.000000 0.620026
0.538849 1.000000 0.636078
0.618347 1.000000 0.650757
0.706787 0.985992 0.658386
0.800690 0.982117 0.602875
0.909088 0.955414 0.642303
1.000000 0.947723 0.521576
0.000793 0.323578 0.767456
0.000793 0.320709 0.767944
0.000793 0.313202 0.769409
0.000824 0.393219 0.713013
0.349457 0.337463 0.475098
0.453064 0.313293 0.428833
0.500183 0.292664 0.439697
0.538666 0.244934 0.426880
0.591217 0.193054 0.405212
0.000824 0.362885 0.739410
0.000824 0.360382 0.739624
0.000824 0.355835 0.749146
0.000854 0.429321 0.726959
0.343750 0.376495 0.522766
0.470734 0.353027 0.450775
0.519409 0.342407 0.463593
0.569122 0.316010 0.460480
0.592957 0.231140 0.406433
0.000854 0.443604 0.679688
0.000854 0.441650 0.679138
0.000854 0.455139 0.708435
0.000885 0.507446 0.755951
0.337006 0.446808 0.618713
0.506927 0.416412 0.495117
0.556366 0.414032 0.509521
0.615601 0.401093 0.511108
0.673859 0.370789 0.491852
0.000885 0.554810 0.617279
0.000885 0.556152 0.618317
0.000916 0.594177 0.663025
0.041321 0.616455 0.728821
0.333771 0.543610 0.703888
0.554871 0.492584 0.553589
0.602509 0.495544 0.566986
0.666687 0.488220 0.568359
0.733032 0.472992 0.557617
0.000977 0.701599 0.615326
0.000977 0.714966 0.625671
0.106750 0.704865 0.645721
0.238159 0.686188 0.669342
0.370117 0.646027 0.722107
0.581757 0.583435 0.645416
0.652191 0.582428 0.628204
0.718872 0.578094 0.627258
0.839935 0.552399 0.564117
0.234192 0.773102 0.626068
0.261108 0.769196 0.632355
0.317413 0.759735 0.645691
0.395782 0.744293 0.663666
0.488983 0.719238 0.687714
0.595673 0.690582 0.712616
0.707611 0.669983 0.689178
0.834839 0.649353 0.621948
0.979553 0.620300 0.534119
0.306458 0.882599 0.638855
0.326050 0.878662 0.643188
0.371338 0.869171 0.652802
0.438171 0.853943 0.666718
0.522675 0.830139 0.687622
0.624969 0.803284 0.707428
0.761993 0.761841 0.726257
0.877502 0.744385 0.680847
1.000000 0.725494 0.605255
0.320831 1.000000 0.654572
0.336029 1.000000 0.657654
0.371918 0.998749 0.665009
0.427399 0.986725 0.675934
0.522583 0.953461 0.699158
0.664337 0.903137 0.728027
0.778931 0.876190 0.731140
0.913269 0.849335 0.692017
0.993500 0.843536 0.683136
0.331421 1.000000 0.672791
0.349548 1.000000 0.676666
0.395630 1.000000 0.686462
0.470520 1.000000 0.702454
0.573395 1.000000 0.725830
0.697144 1.000000 0.748474
0.797333 0.990906 0.752197
0.901428 0.974792 0.749481
0.999786 0.958069 0.678284
0.000854 0.446686 0.870911
0.000854 0.444275 0.870544
0.000854 0.438232 0.869659
0.000854 0.458099 0.916687
0.121368 0.490723 0.822540
0.477814 0.411224 0.556915
0.558807 0.393402 0.534363
0.606903 0.374207 0.545441
0.649841 0.335785 0.537445
0.000885 0.476196 0.859955
0.000885 0.473999 0.859467
0.000885 0.468231 0.858307
0.000885 0.486755 0.940979
0.122437 0.521332 0.834229
0.473663 0.443115 0.593567
0.572174 0.425507 0.550934
0.620850 0.413086 0.563019
0.667450 0.386169 0.559814
0.000916 0.543518 0.834137
0.000916 0.541534 0.833527
0.000916 0.536530 0.831848
0.000916 0.563599 0.928864
0.129303 0.584808 0.859283
0.466431 0.502533 0.671661
0.601074 0.478302 0.586578
0.649658 0.472168 0.599243
0.699982 0.456238 0.601166
0.000977 0.643494 0.792328
0.000977 0.641876 0.791473
0.000977 0.645721 0.803680
0.001007 0.681366 0.876617
0.147430 0.671234 0.892853
0.460297 0.582733 0.775940
0.641327 0.546875 0.635956
0.688721 0.545959 0.648468
0.744110 0.535889 0.651031
0.001068 0.758118 0.755859
0.001068 0.763306 0.759888
0.001099 0.786499 0.777802
0.082520 0.787079 0.821503
0.247253 0.750275 0.874817
0.457489 0.682495 0.848694
0.688538 0.624603 0.693085
0.733551 0.627747 0.704132
0.792389 0.621460 0.705200
0.098053 0.867554 0.757355
0.129150 0.864227 0.763031
0.197083 0.855927 0.775818
0.282990 0.842224 0.793884
0.380432 0.818481 0.818390
0.491760 0.780487 0.864990
0.692078 0.720032 0.804108
0.781158 0.712463 0.762115
0.842377 0.708618 0.760712
0.325226 0.913849 0.765472
0.340942 0.911194 0.769379
0.378143 0.904633 0.778656
0.435425 0.893372 0.792542
0.509979 0.874969 0.811218
0.600952 0.851196 0.831360
0.704651 0.822723 0.857971
0.829926 0.796844 0.820221
0.926422 0.784546 0.782135
0.420868 0.995667 0.777924
0.433411 0.993042 0.780792
0.463989 0.986511 0.787659
0.514404 0.975372 0.798492
0.582001 0.958282 0.814056
0.664703 0.936981 0.831604
0.759674 0.914307 0.847778
0.880890 0.880890 0.863220
0.999634 0.859833 0.796265
0.478424 1.000000 0.805084
0.486328 1.000000 0.806702
0.505768 1.000000 0.810669
0.539337 1.000000 0.817078
0.585754 1.000000 0.826996
0.647308 1.000000 0.838318
0.768066 0.999756 0.859406
0.896179 0.995209 0.871368
0.998657 0.971741 0.819122
0.000977 0.637115 0.999695
0.000977 0.633881 0.999664
0.000977 0.625458 0.999664
0.000946 0.610138 0.999664
0.000977 0.640137 0.999695
0.320068 0.570557 0.903717
0.602600 0.497345 0.660767
0.672455 0.481079 0.650543
0.720184 0.462524 0.662170
0.000977 0.658203 0.999695
0.000977 0.655029 0.999695
0.000977 0.646912 0.999695
0.000977 0.633057 0.999664
0.000977 0.661743 0.999695
0.321045 0.592712 0.926117
0.599640 0.524170 0.686523
0.681671 0.508545 0.662018
0.729309 0.494781 0.673859
0.001038 0.708038 0.999725
0.001007 0.705109 0.999725
0.001007 0.697662 0.999695
0.001007 0.687775 0.999695
0.001038 0.713776 0.999725
0.323547 0.641205 0.957031
0.593842 0.573242 0.744415
0.703064 0.553192 0.688385
0.750397 0.544312 0.700470
0.001099 0.787231 0.981873
0.001099 0.784698 0.980286
0.001068 0.778076 0.976044
0.001068 0.775116 0.999725
0.001099 0.794769 0.999756
0.331238 0.714600 0.984314
0.588562 0.642120 0.828461
0.735809 0.613403 0.728271
0.781921 0.609039 0.740051
0.001190 0.890869 0.932861
0.001190 0.888519 0.932037
0.001190 0.885040 0.935120
0.034821 0.880432 0.967651
0.151794 0.857544 0.999817
0.348328 0.800262 0.999786
0.587738 0.723053 0.925507
0.776306 0.683594 0.777100
0.820496 0.683319 0.788086
0.199615 0.938690 0.896576
0.205414 0.937805 0.898804
0.223511 0.935242 0.905609
0.258270 0.928284 0.924896
0.313904 0.912811 0.963379
0.418518 0.876312 0.999847
0.592102 0.818481 0.981934
0.809875 0.762482 0.843353
0.863495 0.761932 0.840302
0.391205 0.970886 0.895294
0.398590 0.970032 0.898193
0.417450 0.967865 0.905548
0.443115 0.964417 0.916260
0.475677 0.959259 0.930817
0.533752 0.938995 0.960114
0.629700 0.907593 0.999268
0.807220 0.853851 0.951904
0.908234 0.841370 0.893280
0.513611 1.000000 0.879211
0.520935 1.000000 0.881989
0.539276 1.000000 0.888977
0.571045 0.998871 0.900970
0.615631 0.993774 0.918030
0.670685 0.982941 0.942139
0.736267 0.971527 0.967194
0.820221 0.948669 0.998322
0.953003 0.919708 0.945740
0.564667 1.000000 0.872284
0.573212 1.000000 0.874725
0.594360 1.000000 0.880890
0.630707 0.999969 0.891510
0.682129 0.999878 0.906494
0.743042 0.999542 0.928772
0.818298 0.998871 0.952423
0.904510 0.997894 0.976685
0.996826 0.996826 0.996857
