Kodak Vision 500T (5263) - Look.cube
# Created by Benjamin (IWLTBAP) : http://luts.iwltbap.com
# Copyright: (C) Copyright 2010-2017 Triune Films and IWLTBAP SAS
# Cannot be resold, shared or otherwise redistributed
TITLE "Film Print Emulation LUTs Pack (Rec.709, sRGB, DCI-P3)"
LUT_3D_SIZE 33
0.000000 0.000000 0.000000
0.015717 0.000000 0.000000
0.040833 0.000000 0.000000
0.072693 0.000000 0.000000
0.102173 0.000031 0.000000
0.128693 0.000031 0.000000
0.151337 0.004761 0.000000
0.171997 0.013397 0.000000
0.193420 0.022034 0.000000
0.216095 0.027557 0.005066
0.238800 0.033813 0.011292
0.261169 0.040863 0.017670
0.284088 0.047424 0.020691
0.306976 0.054688 0.023651
0.329742 0.061890 0.026489
0.352295 0.069061 0.028656
0.375061 0.076172 0.030853
0.397827 0.083221 0.032410
0.420746 0.090179 0.033966
0.443756 0.097534 0.036011
0.466827 0.105103 0.038025
0.489807 0.113251 0.040955
0.513031 0.121460 0.043793
0.536377 0.129791 0.046997
0.559967 0.138153 0.050568
0.583984 0.146851 0.054840
0.607819 0.157227 0.060577
0.632050 0.167847 0.066376
0.656372 0.178406 0.072296
0.681030 0.189148 0.078278
0.705811 0.199982 0.084290
0.730164 0.210724 0.090729
0.751221 0.223236 0.097992
0.000000 0.018860 0.016449
0.000000 0.022003 0.035431
0.048065 0.018097 0.015228
0.074188 0.022034 0.000000
0.102936 0.022034 0.000000
0.129272 0.022827 0.000000
0.152100 0.028320 0.000000
0.173096 0.036133 0.000000
0.195343 0.040833 0.000000
0.218140 0.045990 0.003632
0.240173 0.051453 0.011292
0.262268 0.056549 0.018311
0.284607 0.062469 0.023651
0.307434 0.068542 0.026489
0.330139 0.074188 0.028656
0.352783 0.080444 0.030304
0.375397 0.086334 0.032410
0.398224 0.092682 0.033997
0.421143 0.099457 0.035522
0.444122 0.106201 0.037537
0.467255 0.113220 0.040009
0.490326 0.120514 0.042389
0.513550 0.128265 0.045197
0.536835 0.136169 0.048798
0.560455 0.144165 0.052307
0.584503 0.152740 0.056519
0.608398 0.162720 0.062134
0.632507 0.172974 0.067902
0.656891 0.183228 0.073730
0.681549 0.193878 0.079987
0.706268 0.204254 0.085968
0.730988 0.214569 0.091949
0.752258 0.226196 0.098877
0.000000 0.043823 0.011322
0.013367 0.045258 0.014587
0.032227 0.046692 0.018341
0.064728 0.048767 0.013306
0.099884 0.048096 0.005096
0.128662 0.049438 0.000000
0.151581 0.053375 0.000000
0.174866 0.056519 0.000000
0.197632 0.059540 0.000000
0.219849 0.063019 0.002930
0.241669 0.066895 0.010651
0.263611 0.071655 0.017700
0.285706 0.076630 0.024231
0.307983 0.081390 0.028656
0.330566 0.086334 0.030853
0.353180 0.091858 0.032410
0.375916 0.097107 0.033966
0.398743 0.102875 0.035522
0.421539 0.108704 0.037537
0.444550 0.115265 0.039490
0.467651 0.121460 0.041443
0.490906 0.128265 0.044281
0.514099 0.135620 0.047424
0.537445 0.143097 0.050568
0.561035 0.150696 0.054413
0.585022 0.159149 0.058563
0.608978 0.168732 0.064117
0.633148 0.178589 0.069763
0.657471 0.188721 0.075836
0.682129 0.198853 0.081696
0.706787 0.209137 0.087555
0.731354 0.219025 0.093475
0.753448 0.229736 0.099762
0.000000 0.070129 0.012634
0.000000 0.073700 0.015808
0.020447 0.074188 0.019531
0.054657 0.074707 0.024200
0.085480 0.076660 0.030823
0.123749 0.076172 0.013306
0.151337 0.076630 0.001404
0.175751 0.078064 0.000000
0.199371 0.080414 0.000000
0.221680 0.082733 0.002197
0.243652 0.085846 0.010010
0.265411 0.089325 0.017120
0.287323 0.093506 0.023682
0.309113 0.097504 0.029785
0.331207 0.101746 0.033966
0.353851 0.106201 0.035034
0.376556 0.110809 0.036530
0.399323 0.115936 0.038025
0.422150 0.121155 0.039978
0.445129 0.126770 0.041901
0.468292 0.132721 0.044250
0.491638 0.138977 0.046967
0.514893 0.145508 0.050110
0.538239 0.152496 0.053558
0.561798 0.159851 0.057312
0.585876 0.167816 0.061737
0.609833 0.177094 0.067139
0.633911 0.186493 0.072662
0.658356 0.196167 0.078278
0.682953 0.206055 0.084351
0.707550 0.215790 0.090088
0.731812 0.225372 0.095612
0.755005 0.234497 0.101196
0.000000 0.093567 0.023621
0.000000 0.096771 0.023621
0.017303 0.096771 0.025909
0.047394 0.096771 0.029724
0.081390 0.096375 0.034973
0.108063 0.099487 0.039886
0.146942 0.099487 0.020721
0.175323 0.100250 0.009308
0.199188 0.102112 0.009308
0.222687 0.104340 0.010010
0.245575 0.106903 0.012695
0.267426 0.109406 0.018982
0.289185 0.112183 0.024841
0.310822 0.115601 0.030334
0.332550 0.118896 0.035522
0.354523 0.122437 0.039001
0.377258 0.126770 0.039978
0.400085 0.131256 0.041901
0.422943 0.136169 0.043304
0.445953 0.141205 0.045654
0.469116 0.146301 0.047913
0.492340 0.151978 0.050995
0.515808 0.157928 0.054016
0.539246 0.164368 0.057312
0.563019 0.171204 0.060944
0.587036 0.179016 0.065247
0.610901 0.187500 0.070831
0.635071 0.196533 0.076202
0.659454 0.205688 0.081696
0.684021 0.215240 0.087555
0.708557 0.224365 0.093201
0.732361 0.233368 0.098572
0.755585 0.242310 0.104065
0.000000 0.113647 0.026978
0.008667 0.114319 0.026978
0.030670 0.114319 0.029724
0.055908 0.114319 0.032898
0.078583 0.115326 0.036957
0.104401 0.115997 0.040375
0.131958 0.119293 0.042786
0.167511 0.123108 0.034973
0.198059 0.124023 0.019562
0.222382 0.126190 0.020752
0.246185 0.128296 0.021362
0.269440 0.130676 0.021362
0.291138 0.132721 0.027069
0.312836 0.135345 0.031921
0.334503 0.137878 0.036560
0.356232 0.140930 0.040466
0.377991 0.143921 0.044708
0.400909 0.148132 0.046539
0.423798 0.152222 0.048370
0.446808 0.156952 0.050568
0.470001 0.162018 0.052734
0.493378 0.167114 0.055664
0.516785 0.172516 0.058929
0.540466 0.178162 0.062134
0.564514 0.184662 0.065643
0.588348 0.192078 0.070099
0.612305 0.200134 0.075500
0.636475 0.208557 0.080658
0.660797 0.217316 0.086273
0.685333 0.226135 0.091644
0.709869 0.234924 0.097137
0.733093 0.243347 0.102386
0.756348 0.251862 0.107697
0.007904 0.131073 0.029175
0.024384 0.131073 0.031281
0.041595 0.131348 0.033386
0.060730 0.131958 0.035950
0.082306 0.133972 0.037964
0.103668 0.135712 0.040863
0.128052 0.136841 0.045563
0.155121 0.139069 0.042328
0.189056 0.145599 0.043243
0.220367 0.147400 0.030853
0.245148 0.149475 0.028717
0.269043 0.151489 0.029266
0.292725 0.154022 0.030334
0.314972 0.156250 0.033478
0.336670 0.158203 0.038055
0.358337 0.160583 0.042389
0.380035 0.163208 0.046967
0.401886 0.166229 0.051422
0.424652 0.170074 0.053986
0.447693 0.174286 0.056488
0.470886 0.178589 0.058929
0.494232 0.183411 0.061737
0.517761 0.188507 0.064453
0.541748 0.194031 0.067902
0.566101 0.199951 0.071228
0.590027 0.207123 0.075836
0.613953 0.214722 0.080994
0.638092 0.222504 0.085938
0.662506 0.230804 0.091309
0.686920 0.238922 0.096527
0.710876 0.247040 0.101807
0.733948 0.254852 0.106873
0.757172 0.262939 0.111786
0.019684 0.149567 0.033875
0.033020 0.149048 0.034424
0.048096 0.148773 0.035950
0.065277 0.149292 0.038452
0.084137 0.150055 0.041351
0.105133 0.152344 0.043243
0.127441 0.155853 0.045563
0.151581 0.158051 0.049561
0.178101 0.160461 0.047821
0.210693 0.166534 0.043732
0.241699 0.169922 0.040894
0.267578 0.172363 0.036987
0.291748 0.174316 0.037506
0.315521 0.176483 0.038025
0.338531 0.178833 0.040466
0.360718 0.181366 0.044250
0.382324 0.183624 0.049225
0.404114 0.186310 0.054413
0.425964 0.189117 0.059753
0.448578 0.192688 0.063690
0.471863 0.196747 0.066010
0.495270 0.201080 0.068634
0.518860 0.205841 0.071228
0.543121 0.211029 0.074463
0.567566 0.216614 0.077911
0.592773 0.222992 0.081329
0.616943 0.230164 0.085968
0.640564 0.237854 0.091644
0.664398 0.245697 0.097412
0.688690 0.253265 0.102356
0.711945 0.260590 0.107178
0.734985 0.268066 0.112091
0.758087 0.275574 0.117096
0.029907 0.170898 0.038879
0.043854 0.170441 0.039856
0.056549 0.169769 0.040863
0.071686 0.168854 0.041809
0.088074 0.167725 0.043701
0.105865 0.167938 0.046478
0.126526 0.170441 0.049164
0.148743 0.174225 0.051331
0.173767 0.178528 0.054291
0.199921 0.181274 0.053467
0.230194 0.187012 0.046021
0.263123 0.191193 0.045105
0.289825 0.194672 0.045593
0.314209 0.196777 0.046509
0.338104 0.199036 0.047424
0.361755 0.201477 0.049225
0.384064 0.204224 0.053986
0.406433 0.206940 0.058533
0.428436 0.209625 0.063690
0.450378 0.212463 0.069366
0.472809 0.215759 0.074066
0.496338 0.219666 0.076202
0.520386 0.224335 0.078949
0.544617 0.229034 0.082001
0.569336 0.234589 0.084961
0.594666 0.240753 0.088501
0.620209 0.247162 0.091644
0.644867 0.253967 0.096222
0.668365 0.261261 0.101807
0.691315 0.268311 0.107178
0.713745 0.275299 0.112610
0.736145 0.282440 0.117859
0.759186 0.289764 0.122681
0.042389 0.193024 0.045044
0.054047 0.192047 0.045502
0.065308 0.191437 0.046448
0.079071 0.190643 0.047791
0.094757 0.189667 0.049133
0.110870 0.188446 0.050903
0.127747 0.187042 0.053040
0.146912 0.188263 0.055573
0.169067 0.192627 0.058441
0.194000 0.197632 0.061615
0.220001 0.200836 0.062439
0.244568 0.205963 0.056824
0.283630 0.212372 0.054749
0.311737 0.216339 0.055603
0.336609 0.219391 0.057251
0.360809 0.221893 0.058502
0.384888 0.224365 0.060120
0.407562 0.227142 0.064423
0.430115 0.230011 0.069000
0.452667 0.233032 0.074066
0.475250 0.236145 0.079285
0.497833 0.239380 0.084930
0.521973 0.243622 0.087524
0.546295 0.248199 0.090088
0.571350 0.253693 0.093170
0.596680 0.259460 0.096191
0.622253 0.265503 0.099457
0.647919 0.271637 0.102631
0.672546 0.277863 0.106628
0.694733 0.284180 0.111542
0.717072 0.290710 0.116821
0.739441 0.297424 0.122192
0.761841 0.304443 0.127625
0.054688 0.215759 0.051270
0.064758 0.214874 0.052155
0.074707 0.213837 0.053009
0.087219 0.212616 0.054291
0.101807 0.211548 0.055573
0.116974 0.210327 0.057220
0.133087 0.208893 0.059265
0.149506 0.207275 0.061615
0.167480 0.207123 0.063995
0.190033 0.211914 0.066620
0.214539 0.217468 0.070374
0.240936 0.221497 0.072876
0.264465 0.224792 0.068909
0.303680 0.233429 0.065887
0.333405 0.238220 0.066650
0.358948 0.241577 0.068176
0.383667 0.244690 0.070038
0.408051 0.247345 0.071503
0.431396 0.250244 0.075104
0.454193 0.253143 0.079956
0.477264 0.256531 0.085266
0.500427 0.260162 0.090363
0.523834 0.264008 0.095886
0.548279 0.268463 0.099182
0.573456 0.273590 0.101776
0.598877 0.279144 0.104919
0.624420 0.284668 0.107697
0.649811 0.290344 0.110718
0.674255 0.295624 0.113373
0.698578 0.301178 0.116577
0.720795 0.307281 0.121674
0.743042 0.313568 0.126892
0.765320 0.320038 0.132141
0.065308 0.237885 0.059204
0.074219 0.236938 0.059998
0.083252 0.235870 0.060822
0.094757 0.234436 0.061615
0.108032 0.232574 0.063202
0.123413 0.232086 0.064758
0.139343 0.230835 0.066284
0.155090 0.229218 0.068512
0.171509 0.227631 0.070740
0.188629 0.226654 0.073273
0.210999 0.231476 0.075714
0.235229 0.237549 0.079529
0.262543 0.243164 0.083191
0.284637 0.244202 0.080872
0.323120 0.254089 0.076782
0.355042 0.259827 0.077820
0.381317 0.263794 0.079224
0.406525 0.267273 0.081268
0.431641 0.270874 0.083618
0.455872 0.273987 0.086517
0.479218 0.277222 0.091614
0.502472 0.280548 0.097046
0.526306 0.284546 0.102325
0.551239 0.289856 0.107666
0.576141 0.294800 0.111511
0.601196 0.299530 0.113953
0.626434 0.304626 0.116547
0.650818 0.309296 0.118866
0.675232 0.314331 0.121643
0.699768 0.319489 0.124390
0.724304 0.324860 0.127106
0.746979 0.330658 0.131927
0.769104 0.336731 0.137024
0.076202 0.260193 0.066986
0.084167 0.259369 0.067749
0.092316 0.258392 0.068481
0.102936 0.256989 0.069611
0.115326 0.255280 0.070709
0.128967 0.252991 0.072540
0.144531 0.252014 0.073975
0.161377 0.251587 0.076111
0.177643 0.250275 0.078186
0.193756 0.248383 0.080536
0.209930 0.246613 0.083191
0.232544 0.251862 0.085480
0.256256 0.257965 0.088684
0.284485 0.264832 0.093658
0.306427 0.265503 0.092102
0.341461 0.273834 0.087433
0.376434 0.281616 0.089050
0.404144 0.286591 0.090942
0.430115 0.290497 0.093109
0.455750 0.294464 0.095551
0.481018 0.298248 0.098511
0.504608 0.301636 0.103760
0.529510 0.306458 0.108765
0.554504 0.311554 0.114166
0.579620 0.316742 0.119598
0.604279 0.321411 0.123932
0.628021 0.325043 0.125885
0.651886 0.328949 0.127838
0.676300 0.333618 0.130493
0.700836 0.338531 0.132843
0.725342 0.343536 0.135651
0.749878 0.348785 0.138367
0.773163 0.354218 0.142181
0.088562 0.282990 0.075348
0.095184 0.282227 0.076050
0.102570 0.281342 0.076752
0.112274 0.280060 0.077454
0.124054 0.278412 0.078857
0.136841 0.276367 0.080200
0.151062 0.273895 0.082214
0.166321 0.272217 0.083893
0.183105 0.271820 0.085815
0.200256 0.271423 0.088074
0.216553 0.269836 0.090576
0.232544 0.267975 0.093353
0.254547 0.272583 0.096069
0.278412 0.278931 0.099030
0.306183 0.285950 0.103363
0.329559 0.287903 0.103363
0.358826 0.293335 0.098755
0.397858 0.303436 0.100830
0.427673 0.309906 0.103119
0.454193 0.314148 0.105408
0.480408 0.318390 0.108185
0.507599 0.324310 0.111481
0.532867 0.328949 0.115723
0.557861 0.333618 0.120880
0.582123 0.337799 0.125885
0.606323 0.342346 0.130707
0.630646 0.346893 0.135834
0.654480 0.350616 0.137909
0.678314 0.354370 0.139954
0.702148 0.358368 0.142181
0.726410 0.362793 0.144409
0.750824 0.367706 0.147003
0.775208 0.372803 0.149567
0.101074 0.307526 0.083496
0.107361 0.306641 0.084137
0.113983 0.305481 0.084808
0.122803 0.303986 0.085785
0.133698 0.302155 0.087097
0.145844 0.300049 0.088379
0.159241 0.297821 0.090302
0.173279 0.295197 0.092133
0.188416 0.292938 0.094299
0.205231 0.292572 0.096100
0.222626 0.292236 0.098450
0.239960 0.291992 0.101074
0.255829 0.290039 0.103943
0.277252 0.294006 0.106995
0.301208 0.300507 0.110046
0.328400 0.307526 0.113800
0.353485 0.311340 0.115143
0.372559 0.313416 0.111969
0.419006 0.325012 0.113037
0.452118 0.334076 0.115936
0.480408 0.339966 0.118805
0.508240 0.345917 0.122131
0.534973 0.351196 0.124878
0.560028 0.355316 0.128021
0.584076 0.359009 0.132111
0.608368 0.363312 0.136993
0.632660 0.367737 0.141968
0.657013 0.372314 0.147217
0.681000 0.376251 0.150208
0.704773 0.379883 0.152100
0.728577 0.383759 0.154175
0.752350 0.387756 0.156433
0.776123 0.391846 0.158691
0.113983 0.332855 0.092072
0.119629 0.332031 0.092407
0.125946 0.330994 0.093048
0.134277 0.329620 0.094238
0.144257 0.327728 0.095184
0.156067 0.325531 0.096710
0.168610 0.322754 0.098480
0.182068 0.319733 0.100525
0.196259 0.317017 0.102539
0.211151 0.314178 0.104828
0.228027 0.313965 0.107056
0.245361 0.313721 0.109528
0.262756 0.313507 0.112213
0.279907 0.312958 0.115112
0.300507 0.316040 0.118500
0.324982 0.323059 0.122070
0.352020 0.330658 0.126007
0.378265 0.335693 0.127960
0.399017 0.339233 0.126007
0.443512 0.350372 0.126801
0.479218 0.361023 0.129700
0.506714 0.366211 0.132324
0.533936 0.371399 0.134888
0.560791 0.376678 0.137665
0.586609 0.381378 0.140808
0.610596 0.384949 0.144409
0.634735 0.388824 0.148499
0.659027 0.393250 0.153564
0.683350 0.397705 0.158691
0.707397 0.401947 0.162689
0.731079 0.405457 0.164429
0.754700 0.409119 0.166382
0.778229 0.412903 0.168457
0.127777 0.359161 0.101074
0.133118 0.358307 0.101654
0.138824 0.357452 0.102234
0.146393 0.356140 0.103088
0.155823 0.354401 0.104248
0.166992 0.352203 0.105652
0.179352 0.349701 0.107330
0.192383 0.346649 0.109283
0.206146 0.343292 0.111450
0.220123 0.339630 0.113831
0.234711 0.336456 0.116180
0.251648 0.336151 0.118774
0.269104 0.336151 0.121338
0.286804 0.336151 0.124298
0.304657 0.336243 0.127502
0.325195 0.339294 0.131104
0.350372 0.347046 0.134827
0.377441 0.355255 0.138733
0.406860 0.363708 0.142761
0.429108 0.366638 0.141205
0.467010 0.375153 0.140106
0.504028 0.386017 0.142792
0.532623 0.392181 0.145447
0.559631 0.397034 0.148071
0.586700 0.402435 0.150818
0.613281 0.407623 0.153748
0.637238 0.411102 0.157257
0.661255 0.414673 0.160889
0.685272 0.418640 0.165222
0.709473 0.423004 0.170197
0.733521 0.427490 0.175262
0.756989 0.430847 0.176910
0.780365 0.434235 0.178711
0.142670 0.385406 0.110870
0.147461 0.384918 0.111145
0.152863 0.384399 0.111938
0.159973 0.383606 0.112762
0.168823 0.382019 0.113831
0.179352 0.380005 0.115143
0.191010 0.377625 0.116730
0.203766 0.374878 0.118774
0.217224 0.371735 0.120819
0.231232 0.368195 0.123352
0.245361 0.364349 0.125824
0.259583 0.360138 0.128723
0.276306 0.359497 0.131348
0.293945 0.359772 0.134155
0.312225 0.360413 0.137146
0.330658 0.361145 0.140320
0.350922 0.363831 0.143616
0.375916 0.371460 0.147125
0.402557 0.379639 0.150970
0.431824 0.388153 0.154938
0.457489 0.393738 0.155731
0.489929 0.399567 0.153534
0.528717 0.411133 0.156006
0.559235 0.418884 0.158661
0.585327 0.422760 0.161469
0.612427 0.428070 0.164246
0.639191 0.433350 0.167145
0.663727 0.437164 0.170380
0.687622 0.440582 0.173950
0.711426 0.444275 0.177643
0.735168 0.448120 0.181824
0.759003 0.452454 0.186707
0.782379 0.455872 0.189484
0.160217 0.414551 0.121796
0.164246 0.413666 0.122314
0.168854 0.412811 0.122559
0.174835 0.411591 0.123077
0.182709 0.409760 0.123840
0.192596 0.408325 0.125061
0.203583 0.405975 0.126556
0.215851 0.403107 0.128510
0.228821 0.399994 0.130432
0.242523 0.396667 0.132782
0.256775 0.393311 0.135315
0.271057 0.389587 0.138062
0.285522 0.385529 0.141235
0.302429 0.384583 0.143890
0.320557 0.385193 0.146729
0.338837 0.385956 0.149933
0.357330 0.386810 0.153290
0.377167 0.388885 0.156799
0.401642 0.395905 0.159607
0.427551 0.403992 0.163208
0.456696 0.412537 0.167114
0.485657 0.421173 0.170532
0.513947 0.425659 0.167145
0.553192 0.436310 0.169617
0.585754 0.445496 0.172089
0.611816 0.449402 0.174896
0.637909 0.453766 0.177643
0.664520 0.458923 0.180359
0.689667 0.463135 0.183563
0.713318 0.466370 0.186920
0.736847 0.469818 0.190369
0.760284 0.473236 0.193939
0.783997 0.477234 0.198395
0.177887 0.443512 0.132996
0.181671 0.442780 0.133240
0.185791 0.441925 0.133698
0.191406 0.440735 0.134186
0.198761 0.439178 0.134888
0.207611 0.437256 0.135803
0.217590 0.434967 0.136749
0.228821 0.432037 0.138092
0.241608 0.429230 0.140137
0.255066 0.426331 0.142395
0.269073 0.423096 0.145020
0.283417 0.419617 0.147827
0.297974 0.415863 0.150818
0.312408 0.411865 0.154144
0.329041 0.410370 0.157013
0.347382 0.410919 0.159637
0.365753 0.411621 0.162842
0.384277 0.412506 0.166351
0.403259 0.413757 0.169983
0.427551 0.420502 0.172638
0.453125 0.428436 0.175781
0.481842 0.436859 0.179596
0.511230 0.445831 0.183380
0.534821 0.451996 0.181763
0.577454 0.461243 0.183197
0.611969 0.471771 0.185516
0.638092 0.475739 0.188110
0.663483 0.479492 0.191071
0.689423 0.484070 0.193756
0.714996 0.488678 0.196625
0.738556 0.491882 0.199890
0.762146 0.495239 0.203461
0.785492 0.498566 0.207092
0.196106 0.473389 0.143646
0.199524 0.472687 0.144104
0.203247 0.471954 0.144562
0.208679 0.470856 0.144989
0.215363 0.469360 0.145660
0.223785 0.467590 0.146515
0.233307 0.465393 0.147614
0.243866 0.462830 0.148712
0.255493 0.459839 0.150208
0.268158 0.456055 0.152069
0.281647 0.452576 0.154388
0.295715 0.449219 0.157013
0.310181 0.445679 0.160065
0.324829 0.441864 0.163452
0.339417 0.437805 0.166748
0.355682 0.435883 0.170013
0.374176 0.436462 0.172638
0.392670 0.437286 0.175964
0.411255 0.438171 0.179443
0.429962 0.439178 0.183380
0.453827 0.445557 0.186005
0.478973 0.452972 0.188629
0.507111 0.461273 0.192383
0.536224 0.470093 0.195923
0.562866 0.479187 0.197449
0.601929 0.486755 0.196930
0.636505 0.496399 0.199097
0.663818 0.501617 0.201508
0.689087 0.505280 0.204102
0.714111 0.509094 0.207123
0.740173 0.514038 0.209778
0.763611 0.517120 0.213196
0.786743 0.520172 0.216553
0.214355 0.503479 0.154755
0.217590 0.502777 0.154968
0.221130 0.502075 0.155396
0.226105 0.501007 0.155823
0.232513 0.499695 0.156616
0.240265 0.497986 0.157440
0.249176 0.495941 0.158447
0.259430 0.493500 0.159668
0.270538 0.490723 0.161072
0.282410 0.487610 0.162689
0.295349 0.483734 0.164642
0.308716 0.479462 0.166779
0.322662 0.475494 0.169464
0.337189 0.471985 0.172852
0.351837 0.468109 0.176208
0.366547 0.464050 0.179840
0.382599 0.461670 0.183197
0.401184 0.462372 0.186218
0.419861 0.463043 0.189331
0.438446 0.463959 0.192902
0.457092 0.464966 0.196777
0.480286 0.470581 0.199585
0.505035 0.477661 0.201996
0.532227 0.485687 0.205200
0.561096 0.494354 0.208710
0.590485 0.504700 0.211975
0.626617 0.512512 0.210571
0.660431 0.520630 0.212738
0.689240 0.527374 0.215057
0.714539 0.530975 0.217621
0.739258 0.534515 0.220459
0.763885 0.538269 0.223114
0.787659 0.541656 0.226044
0.232239 0.533508 0.165558
0.235352 0.532928 0.165802
0.238586 0.532288 0.166168
0.243286 0.531281 0.166748
0.249207 0.529907 0.167328
0.256653 0.528320 0.168304
0.265320 0.526428 0.169281
0.274994 0.524109 0.170624
0.285767 0.521454 0.171936
0.297394 0.518555 0.173615
0.309479 0.515259 0.175262
0.322571 0.511292 0.177460
0.336060 0.506958 0.179840
0.349701 0.502258 0.182343
0.364136 0.498199 0.185699
0.378906 0.494354 0.189331
0.393646 0.490295 0.193268
0.409393 0.487488 0.196930
0.428040 0.488129 0.199890
0.446838 0.488922 0.203003
0.465515 0.489685 0.206482
0.484192 0.490662 0.210419
0.506531 0.495483 0.213226
0.531036 0.502380 0.215637
0.557251 0.509827 0.218231
0.585754 0.518219 0.221375
0.614532 0.527588 0.224457
0.650513 0.537811 0.224335
0.684265 0.545258 0.226349
0.714020 0.552490 0.228363
0.738953 0.555817 0.230804
0.763336 0.559143 0.233307
0.787262 0.562347 0.235840
0.250092 0.561890 0.177643
0.252991 0.561554 0.177643
0.255951 0.561249 0.177856
0.260406 0.560669 0.178009
0.266022 0.559906 0.178192
0.272919 0.558411 0.179138
0.281158 0.556580 0.180023
0.290436 0.554382 0.181305
0.300781 0.551910 0.182739
0.311951 0.549103 0.184326
0.323944 0.546021 0.186066
0.336456 0.542603 0.187988
0.349701 0.538605 0.190247
0.363281 0.534119 0.192932
0.377106 0.529358 0.195618
0.391022 0.524353 0.198608
0.405731 0.520325 0.202515
0.420624 0.516266 0.206512
0.436188 0.513123 0.210571
0.454742 0.513733 0.213501
0.473419 0.514404 0.216736
0.492249 0.515137 0.220001
0.510834 0.515991 0.224030
0.532440 0.520111 0.227081
0.556732 0.526764 0.229218
0.582001 0.533722 0.231384
0.610046 0.541687 0.234222
0.638428 0.550598 0.237396
0.673279 0.562408 0.238098
0.707764 0.570068 0.239746
0.737610 0.576843 0.241364
0.762207 0.579895 0.243530
0.786133 0.582825 0.245789
0.267792 0.588806 0.190399
0.270447 0.588470 0.190552
0.273346 0.588165 0.190735
0.277344 0.587585 0.190887
0.282684 0.586975 0.191101
0.289246 0.586060 0.191406
0.296936 0.585022 0.191772
0.305878 0.583771 0.192261
0.315735 0.581818 0.193298
0.326508 0.579193 0.194824
0.337982 0.576233 0.196655
0.350281 0.572998 0.198456
0.363007 0.569427 0.200592
0.376404 0.565399 0.203186
0.390167 0.560760 0.205902
0.404175 0.555969 0.208893
0.418121 0.550934 0.212189
0.432281 0.545990 0.215668
0.447205 0.541901 0.219879
0.462524 0.538422 0.224182
0.481049 0.538879 0.227234
0.499664 0.539520 0.230377
0.518402 0.540161 0.233765
0.537018 0.540894 0.237396
0.557800 0.544159 0.240570
0.581848 0.550598 0.242767
0.606659 0.557556 0.244904
0.633789 0.565094 0.247314
0.661652 0.573303 0.250061
0.691833 0.585663 0.252167
0.730194 0.593689 0.252563
0.759674 0.599731 0.253967
0.783661 0.602356 0.255524
0.285309 0.615234 0.203186
0.287781 0.614960 0.203339
0.290466 0.614563 0.203491
0.294220 0.614136 0.203644
0.299194 0.613495 0.203827
0.305328 0.612640 0.204132
0.312653 0.611633 0.204468
0.321106 0.610504 0.204956
0.330505 0.609131 0.205444
0.340912 0.607635 0.206085
0.352142 0.605804 0.207001
0.363953 0.602631 0.208923
0.376312 0.599274 0.210938
0.389221 0.595612 0.213257
0.402649 0.591461 0.215851
0.416534 0.586823 0.218872
0.430603 0.581909 0.221985
0.444641 0.576813 0.225342
0.458679 0.571472 0.228973
0.473206 0.566895 0.233215
0.488281 0.563110 0.237701
0.506714 0.563568 0.240723
0.525391 0.564056 0.243958
0.544128 0.564636 0.247314
0.562836 0.565369 0.251007
0.583008 0.568024 0.254364
0.606659 0.574219 0.256439
0.630920 0.580780 0.258362
0.657074 0.587555 0.260101
0.684113 0.595184 0.262512
0.711487 0.605896 0.264618
0.750732 0.615479 0.264618
0.779236 0.620453 0.265076
0.303040 0.641418 0.216156
0.305328 0.641144 0.216309
0.307861 0.640808 0.216309
0.311340 0.640381 0.216614
0.315979 0.639771 0.216766
0.321747 0.638916 0.217041
0.328644 0.637970 0.217377
0.336700 0.636841 0.217834
0.345612 0.635529 0.218414
0.355530 0.634094 0.219025
0.366272 0.632477 0.219635
0.377838 0.630737 0.220367
0.390015 0.628662 0.221405
0.402649 0.625183 0.223755
0.415619 0.621399 0.226227
0.429108 0.617279 0.228973
0.443054 0.612549 0.232117
0.457062 0.607483 0.235474
0.471100 0.602356 0.238922
0.485077 0.596954 0.242645
0.499146 0.591614 0.246643
