Kodak Vision 200T (5274) - Only contrast.cube
# Created by Benjamin (IWLTBAP) : http://luts.iwltbap.com
# Copyright: (C) Copyright 2010-2017 Triune Films and IWLTBAP SAS
# Cannot be resold, shared or otherwise redistributed
TITLE "Film Print Emulation LUTs Pack (Rec.709, sRGB, DCI-P3)"
LUT_3D_SIZE 5
0.000000 0.000000 0.000000
0.173248 0.000000 0.000000
0.445709 0.000000 0.000000
0.678009 0.000000 0.000000
0.944061 0.000000 0.000000
0.000000 0.173248 0.000000
0.173981 0.173981 0.000000
0.446167 0.174042 0.000000
0.678436 0.174377 0.000000
0.944824 0.174469 0.000000
0.000000 0.445709 0.000000
0.174042 0.446167 0.000000
0.445953 0.445953 0.000000
0.678253 0.446014 0.000000
0.944977 0.445862 0.000000
0.000000 0.678009 0.000000
0.174377 0.678436 0.000000
0.446014 0.678253 0.000000
0.678314 0.678314 0.000000
0.945374 0.678131 0.000000
0.000000 0.944061 0.000000
0.174469 0.944824 0.000000
0.445862 0.944977 0.000000
0.678131 0.945374 0.000000
0.945679 0.945496 0.000000
0.000000 0.000000 0.173248
0.173981 0.000000 0.173981
0.446167 0.000000 0.174042
0.678436 0.000000 0.174377
0.944824 0.000000 0.174469
0.000000 0.173981 0.173981
0.174683 0.174683 0.174683
0.446594 0.174744 0.174744
0.678864 0.175079 0.175079
0.945587 0.175171 0.175171
0.000000 0.446167 0.174042
0.174744 0.446594 0.174744
0.446381 0.446381 0.174805
0.678650 0.446442 0.175140
0.945709 0.446228 0.175232
0.000000 0.678436 0.174377
0.175079 0.678864 0.175079
0.446442 0.678650 0.175140
0.678711 0.678711 0.175446
0.946106 0.678528 0.175537
0.000000 0.944824 0.174469
0.175171 0.945587 0.175171
0.446228 0.945709 0.175232
0.678528 0.946106 0.175537
0.946259 0.946259 0.175629
0.000000 0.000000 0.445709
0.174042 0.000000 0.446167
0.445953 0.000000 0.445953
0.678253 0.000000 0.446014
0.944977 0.000000 0.445862
0.000000 0.174042 0.446167
0.174744 0.174744 0.446594
0.446381 0.174805 0.446381
0.678650 0.175140 0.446442
0.945709 0.175232 0.446228
0.000000 0.445953 0.445953
0.174805 0.446381 0.446381
0.446167 0.446167 0.446167
0.678467 0.446198 0.446198
0.945862 0.446014 0.446014
0.000000 0.678253 0.446014
0.175140 0.678650 0.446442
0.446198 0.678467 0.446198
0.678528 0.678528 0.446259
0.946259 0.678345 0.446045
0.000000 0.944977 0.445862
0.175232 0.945709 0.446228
0.446014 0.945862 0.446014
0.678345 0.946259 0.446045
0.946411 0.946411 0.445862
0.000000 0.000000 0.678009
0.174377 0.000000 0.678436
0.446014 0.000000 0.678253
0.678314 0.000000 0.678314
0.945374 0.000000 0.678131
0.000000 0.174377 0.678436
0.175079 0.175079 0.678864
0.446442 0.175140 0.678650
0.678711 0.175446 0.678711
0.946106 0.175537 0.678528
0.000000 0.446014 0.678253
0.175140 0.446442 0.678650
0.446198 0.446198 0.678467
0.678528 0.446259 0.678528
0.946259 0.446045 0.678345
0.000000 0.678314 0.678314
0.175446 0.678711 0.678711
0.446259 0.678528 0.678528
0.678589 0.678589 0.678589
0.946655 0.678406 0.678406
0.000000 0.945374 0.678131
0.175537 0.946106 0.678528
0.446045 0.946259 0.678345
0.678406 0.946655 0.678406
0.946808 0.946808 0.678223
0.000000 0.000000 0.943970
0.174469 0.000000 0.944824
0.445862 0.000000 0.944977
0.678131 0.000000 0.945374
0.945557 0.000000 0.945557
0.000000 0.174469 0.944824
0.175171 0.175171 0.945587
0.446228 0.175232 0.945709
0.678528 0.175537 0.946106
0.946259 0.175629 0.946259
0.000000 0.445862 0.944977
0.175232 0.446228 0.945709
0.446014 0.446014 0.945862
0.678345 0.446045 0.946259
0.946411 0.445862 0.946411
0.000000 0.678131 0.945374
0.175537 0.678528 0.946106
0.446045 0.678345 0.946259
0.678406 0.678406 0.946655
0.946808 0.678223 0.946808
0.000000 0.945557 0.945557
0.175629 0.946259 0.946259
0.445862 0.946411 0.946411
0.678223 0.946808 0.946808
0.946960 0.946960 0.946960
