Kodak Vision2 100T (5212) - Look.cube
# Created by Benjamin (IWLTBAP) : http://luts.iwltbap.com
# Copyright: (C) Copyright 2010-2017 Triune Films and IWLTBAP SAS
# Cannot be resold, shared or otherwise redistributed
TITLE "Film Print Emulation LUTs Pack (Rec.709, sRGB, DCI-P3)"
LUT_3D_SIZE 33
0.000000 0.000000 0.000000
0.019501 0.000000 0.000854
0.039764 0.000000 0.001801
0.060547 0.000000 0.002777
0.081299 0.000000 0.003723
0.102051 0.000000 0.004700
0.122833 0.000000 0.005676
0.143585 0.000000 0.006653
0.164368 0.000000 0.007629
0.185181 0.000000 0.008606
0.205994 0.000000 0.009583
0.226807 0.000000 0.010590
0.247681 0.000000 0.011566
0.268555 0.000000 0.012543
0.289490 0.000000 0.013519
0.310547 0.000000 0.014526
0.331726 0.000000 0.015503
0.353119 0.000000 0.016541
0.374603 0.000000 0.017548
0.396240 0.000000 0.018585
0.417969 0.000000 0.019623
0.439850 0.000000 0.020691
0.461823 0.000000 0.021759
0.483887 0.000000 0.022827
0.506378 0.000000 0.023926
0.529419 0.000000 0.024994
0.553009 0.000000 0.026123
0.577026 0.000000 0.027283
0.601440 0.000000 0.028473
0.626190 0.000000 0.029694
0.651215 0.000000 0.030914
0.676575 0.000000 0.032166
0.702362 0.000000 0.033447
0.000000 0.021637 0.000000
0.032043 0.018127 0.000000
0.054565 0.015503 0.000000
0.086304 0.008026 0.000641
0.101013 0.008026 0.005890
0.116791 0.008026 0.006195
0.131531 0.008026 0.006531
0.145172 0.008026 0.006775
0.165253 0.008026 0.007690
0.185944 0.008026 0.008667
0.206665 0.008026 0.009644
0.227417 0.008026 0.010620
0.248230 0.008026 0.011627
0.269073 0.008026 0.012573
0.289948 0.008026 0.013550
0.310974 0.008026 0.014557
0.332123 0.008026 0.015533
0.353485 0.008026 0.016571
0.374939 0.008026 0.017578
0.396576 0.008026 0.018616
0.418304 0.008026 0.019653
0.440155 0.008026 0.020721
0.462097 0.008026 0.021790
0.484161 0.008026 0.022858
0.506622 0.008026 0.023926
0.529694 0.008026 0.025024
0.553253 0.008026 0.026154
0.577271 0.008026 0.027313
0.601685 0.008026 0.028503
0.626434 0.008026 0.029724
0.651459 0.008026 0.030945
0.676819 0.008026 0.032196
0.702576 0.008026 0.033478
0.000000 0.045654 0.000000
0.025940 0.042908 0.000000
0.061401 0.037292 0.000000
0.088593 0.031921 0.000000
0.107849 0.030731 0.000000
0.141144 0.022064 0.000000
0.166473 0.016052 0.004578
0.178040 0.016052 0.010406
0.190430 0.016052 0.010315
0.201630 0.016052 0.010223
0.211487 0.016052 0.010101
0.228119 0.016052 0.010681
0.248840 0.016052 0.011658
0.269623 0.016052 0.012634
0.290466 0.016052 0.013611
0.311432 0.016052 0.014587
0.332581 0.016052 0.015594
0.353912 0.016052 0.016602
0.375336 0.016052 0.017609
0.396942 0.016052 0.018646
0.418640 0.016052 0.019684
0.440491 0.016052 0.020721
0.462433 0.016052 0.021820
0.484467 0.016052 0.022888
0.506927 0.016052 0.023956
0.529999 0.016052 0.025055
0.553558 0.016052 0.026184
0.577545 0.016052 0.027344
0.601959 0.016052 0.028534
0.626678 0.016052 0.029724
0.651703 0.016052 0.030975
0.677063 0.016052 0.032227
0.702850 0.016052 0.033508
0.000000 0.075104 0.000000
0.025909 0.068146 0.000000
0.050690 0.065125 0.000000
0.090393 0.056793 0.000000
0.122864 0.048523 0.000000
0.142029 0.047363 0.000000
0.161469 0.045990 0.000000
0.193909 0.037659 0.000000
0.231323 0.026367 0.000000
0.246887 0.024078 0.007904
0.256500 0.024078 0.015381
0.266754 0.024078 0.014923
0.274048 0.024078 0.014221
0.279694 0.024078 0.013611
0.291199 0.024078 0.013672
0.312134 0.024078 0.014648
0.333221 0.024078 0.015625
0.354523 0.024078 0.016632
0.375916 0.024078 0.017639
0.397461 0.024078 0.018677
0.419159 0.024078 0.019714
0.440948 0.024078 0.020782
0.462891 0.024078 0.021851
0.484894 0.024078 0.022919
0.507385 0.024078 0.023987
0.530426 0.024078 0.025085
0.553955 0.024078 0.026215
0.577972 0.024078 0.027374
0.602356 0.024078 0.028534
0.627075 0.024078 0.029755
0.652100 0.024078 0.030975
0.677429 0.024078 0.032227
0.703186 0.024078 0.033508
0.004150 0.103333 0.000000
0.028320 0.096313 0.000000
0.049194 0.092468 0.000000
0.079102 0.086273 0.000000
0.119843 0.076416 0.000000
0.157532 0.065155 0.000000
0.176453 0.064056 0.000000
0.195892 0.062836 0.000000
0.215363 0.061462 0.000000
0.246155 0.054047 0.000000
0.276855 0.046295 0.000000
0.311340 0.036133 0.000000
0.329529 0.032104 0.007660
0.337067 0.032104 0.018097
0.345367 0.032104 0.019867
0.350708 0.032104 0.018707
0.351532 0.032104 0.017456
0.355316 0.032104 0.016693
0.376678 0.032104 0.017700
0.398193 0.032104 0.018738
0.419830 0.032104 0.019775
0.441589 0.032104 0.020813
0.463501 0.032104 0.021881
0.485504 0.032104 0.022949
0.507965 0.032104 0.024017
0.530975 0.032104 0.025116
0.554535 0.032104 0.026245
0.578522 0.032104 0.027405
0.602905 0.032104 0.028595
0.627594 0.032104 0.029785
0.652588 0.032104 0.031036
0.677917 0.032104 0.032288
0.703674 0.032104 0.033569
0.013672 0.127045 0.008331
0.033295 0.122162 0.004364
0.050598 0.118927 0.000000
0.073456 0.116943 0.000000
0.104614 0.112030 0.000000
0.150055 0.096497 0.000000
0.189819 0.083832 0.000000
0.211395 0.081238 0.000000
0.230774 0.080200 0.000000
0.248535 0.079987 0.000000
0.260620 0.082458 0.000000
0.284454 0.078674 0.000000
0.317200 0.070038 0.000000
0.352875 0.059448 0.000000
0.394226 0.045441 0.000000
0.413513 0.040161 0.009277
0.419556 0.040161 0.021271
0.426117 0.040161 0.025055
0.430664 0.040161 0.023560
0.428162 0.040161 0.021667
0.421478 0.040161 0.019897
0.442413 0.040161 0.020874
0.464264 0.040161 0.021942
0.486237 0.040161 0.023010
0.508698 0.040161 0.024078
0.531708 0.040161 0.025177
0.555237 0.040161 0.026306
0.579224 0.040161 0.027466
0.603577 0.040161 0.028625
0.628265 0.040161 0.029846
0.653259 0.040161 0.031067
0.678558 0.040161 0.032318
0.704315 0.040161 0.033600
0.023590 0.151276 0.017548
0.040192 0.146393 0.018005
0.054840 0.144623 0.006165
0.074677 0.143829 0.000000
0.098755 0.140839 0.006378
0.132111 0.136353 0.000000
0.177856 0.120911 0.000000
0.220795 0.104340 0.000000
0.247040 0.099030 0.000000
0.261169 0.100616 0.000000
0.273071 0.103607 0.000000
0.285461 0.106232 0.000000
0.298248 0.108521 0.000000
0.322754 0.104675 0.000000
0.360107 0.094055 0.000000
0.400452 0.081543 0.000000
0.441956 0.067963 0.000000
0.484772 0.053070 0.000000
0.502502 0.048187 0.010437
0.507477 0.048187 0.023529
0.511810 0.048187 0.030701
0.515198 0.048187 0.028870
0.511108 0.048187 0.026520
0.497192 0.048187 0.024048
0.509613 0.048187 0.024139
0.532623 0.048187 0.025238
0.556122 0.048187 0.026367
0.580078 0.048187 0.027527
0.604431 0.048187 0.028687
0.629089 0.048187 0.029907
0.654053 0.048187 0.031128
0.679352 0.048187 0.032379
0.705078 0.048187 0.033661
0.033905 0.176178 0.027252
0.048126 0.171722 0.029175
0.061157 0.169647 0.021393
0.078156 0.169586 0.007843
0.099823 0.168732 0.003906
0.124786 0.164307 0.018433
0.160522 0.160126 0.004303
0.204437 0.147278 0.000000
0.248932 0.127441 0.000000
0.274323 0.122467 0.000000
0.285706 0.125458 0.000000
0.298126 0.128723 0.000000
0.311066 0.131744 0.000000
0.324341 0.134521 0.000000
0.340637 0.135620 0.000000
0.370026 0.129822 0.000000
0.409668 0.118469 0.000000
0.450256 0.106262 0.000000
0.491791 0.093140 0.000000
0.534393 0.078857 0.000000
0.578247 0.063263 0.000000
0.599976 0.056213 0.009430
0.603607 0.056213 0.024017
0.604858 0.056213 0.036804
0.607208 0.056213 0.035004
0.602417 0.056213 0.032257
0.583008 0.056213 0.028992
0.581116 0.056213 0.027588
0.605438 0.056213 0.028778
0.630066 0.056213 0.029968
0.654999 0.056213 0.031189
0.680267 0.056213 0.032440
0.705994 0.056213 0.033722
0.045166 0.202118 0.037872
0.057465 0.198456 0.039764
0.069550 0.195923 0.036591
0.084564 0.194977 0.025238
0.104095 0.196533 0.010590
0.127014 0.193726 0.017792
0.152618 0.189545 0.031738
0.190796 0.185547 0.010376
0.234070 0.174408 0.000000
0.278961 0.157471 0.000000
0.300110 0.149750 0.000000
0.311737 0.152588 0.000000
0.324432 0.155884 0.000000
0.337769 0.159210 0.000000
0.355560 0.160187 0.000000
0.373657 0.160858 0.000000
0.391998 0.161255 0.000000
0.420807 0.156067 0.000000
0.460754 0.144958 0.000000
0.501495 0.133118 0.000000
0.543091 0.120392 0.000000
0.585632 0.106689 0.000000
0.629150 0.091827 0.000000
0.673767 0.075592 0.000000
0.704529 0.064240 0.006226
0.706787 0.064240 0.022522
0.708221 0.064240 0.032440
0.705688 0.064240 0.040771
0.699738 0.064240 0.038757
0.679596 0.064240 0.034882
0.656097 0.064240 0.031281
0.681366 0.064240 0.032532
0.707062 0.064240 0.033813
0.058533 0.230347 0.050629
0.069366 0.227264 0.052429
0.080658 0.224274 0.053070
0.094208 0.222992 0.043640
0.111481 0.224060 0.030060
0.132568 0.224915 0.018280
0.156219 0.220673 0.032928
0.182098 0.216370 0.046326
0.222656 0.212463 0.017456
0.265533 0.202881 0.000000
0.308533 0.187744 0.000000
0.328522 0.182129 0.000000
0.338928 0.181427 0.000000
0.353149 0.183807 0.000000
0.370941 0.185272 0.000000
0.389191 0.186584 0.000000
0.407684 0.187653 0.000000
0.426331 0.188446 0.000000
0.445099 0.188965 0.000000
0.473114 0.184509 0.000000
0.513214 0.173584 0.000000
0.554047 0.161896 0.000000
0.595642 0.149414 0.000000
0.638062 0.136047 0.000000
0.681213 0.121704 0.000000
0.725311 0.106232 0.000000
0.766144 0.091614 0.000000
0.797058 0.081024 0.000000
0.821136 0.072266 0.002136
0.821564 0.072266 0.012848
0.817566 0.072266 0.023376
0.806519 0.072266 0.034241
0.783783 0.072266 0.041199
0.073364 0.260132 0.064819
0.083008 0.257538 0.066559
0.093323 0.254669 0.068329
0.106018 0.253052 0.062286
0.121490 0.253174 0.050446
0.140625 0.254608 0.035919
0.162689 0.253296 0.035065
0.187012 0.249084 0.049072
0.213470 0.244659 0.060822
0.256012 0.240875 0.025665
0.298706 0.232971 0.000000
0.336731 0.220795 0.000000
0.358246 0.216003 0.000000
0.371155 0.210175 0.000000
0.387451 0.211273 0.000000
0.405121 0.212769 0.000000
0.423584 0.214233 0.000000
0.442261 0.215485 0.000000
0.461060 0.216522 0.000000
0.479919 0.217346 0.000000
0.498871 0.217957 0.000000
0.526031 0.214081 0.000000
0.566315 0.203217 0.000000
0.607239 0.191650 0.000000
0.648834 0.179382 0.000000
0.691040 0.166321 0.000000
0.733948 0.152374 0.000000
0.768005 0.142365 0.000000
0.799316 0.133087 0.000000
0.828766 0.123901 0.000000
0.856506 0.114624 0.000000
0.882507 0.104950 0.000000
0.906891 0.094482 0.000000
0.089874 0.291718 0.080688
0.098541 0.289459 0.082336
0.107910 0.286987 0.084045
0.119995 0.284760 0.081909
0.134216 0.284027 0.072083
0.151367 0.285339 0.057953
0.171783 0.286560 0.042877
0.194366 0.282990 0.052673
0.218994 0.278625 0.066010
0.248047 0.274139 0.069336
0.290344 0.270142 0.034485
0.332214 0.264160 0.000305
0.365479 0.254761 0.000000
0.388367 0.249817 0.000000
0.399750 0.248810 0.000000
0.422485 0.239685 0.000000
0.439758 0.241028 0.000000
0.458344 0.242645 0.000000
0.477142 0.244049 0.000000
0.496063 0.245270 0.000000
0.515076 0.246307 0.000000
0.534149 0.247070 0.000000
0.553223 0.247650 0.000000
0.579437 0.244324 0.000000
0.619873 0.233459 0.000000
0.660828 0.222046 0.000000
0.702332 0.209991 0.000000
0.740631 0.199127 0.000000
0.774414 0.190125 0.000000
0.806213 0.181580 0.000000
0.836182 0.173370 0.000000
0.864410 0.165344 0.000000
0.891022 0.157318 0.000000
0.107269 0.324280 0.097443
0.115082 0.322266 0.098969
0.123596 0.320068 0.100586
0.135162 0.317261 0.101898
0.148376 0.316284 0.093506
0.163879 0.317017 0.080475
0.182495 0.318085 0.065674
0.203705 0.317810 0.056915
0.226746 0.313263 0.070526
0.251556 0.308685 0.083313
0.283234 0.304169 0.078339
0.325348 0.299988 0.043610
0.362640 0.295258 0.014313
0.394775 0.289276 0.000000
0.418915 0.283997 0.000000
0.431824 0.283264 0.000000
0.458099 0.268860 0.000000
0.474976 0.269928 0.000000
0.493286 0.271484 0.000000
0.512207 0.273041 0.000000
0.531250 0.274445 0.000000
0.550415 0.275635 0.000000
0.569611 0.276642 0.000000
0.588928 0.277374 0.000000
0.608246 0.277893 0.000000
0.633453 0.275208 0.000000
0.673920 0.264465 0.000000
0.714081 0.253601 0.000000
0.750397 0.244354 0.000000
0.784637 0.235809 0.000000
0.816925 0.227814 0.000000
0.847443 0.220276 0.000000
0.876282 0.213043 0.000000
0.125275 0.357544 0.114807
0.132385 0.355743 0.116241
0.140167 0.353790 0.117737
0.150940 0.351013 0.119751
0.163544 0.349518 0.114532
0.177887 0.349396 0.103333
0.194763 0.350311 0.088776
0.214478 0.351135 0.073395
0.236176 0.348572 0.075378
0.259583 0.343872 0.088379
0.284515 0.339050 0.100769
0.318817 0.334503 0.087494
0.358673 0.330841 0.054962
0.393433 0.326782 0.028473
0.424469 0.323334 0.004578
0.449799 0.318542 0.000000
0.465179 0.317017 0.000000
0.487549 0.309418 0.000000
0.510742 0.299500 0.000000
0.528503 0.300873 0.000000
0.547546 0.302551 0.000000
0.566711 0.304077 0.000000
0.585999 0.305450 0.000000
0.605438 0.306580 0.000000
0.624939 0.307556 0.000000
0.644440 0.308380 0.000000
0.663940 0.308960 0.000000
0.688019 0.306976 0.000000
0.726959 0.297180 0.000000
0.763611 0.288269 0.000000
0.798218 0.280029 0.000000
0.830963 0.272400 0.000000
0.861938 0.265289 0.000000
0.143646 0.391235 0.132568
0.150146 0.389618 0.133881
0.157318 0.387848 0.135284
0.167267 0.385345 0.137207
0.179474 0.383148 0.135590
0.193146 0.382385 0.126526
0.208435 0.383209 0.112213
0.226593 0.383911 0.097015
0.247162 0.384521 0.081177
0.269196 0.379730 0.093933
0.292908 0.374878 0.106415
0.317963 0.369781 0.118561
0.354279 0.365509 0.097534
0.391388 0.362518 0.067688
0.424683 0.358795 0.042908
0.454742 0.355713 0.020264
0.481140 0.353577 0.000000
0.499420 0.350861 0.000000
0.520905 0.344849 0.000000
0.547058 0.329742 0.000000
0.564392 0.330902 0.000000
0.583252 0.332642 0.000000
0.602631 0.334320 0.000000
0.622131 0.335815 0.000000
0.641693 0.337128 0.000000
0.661285 0.338287 0.000000
0.680878 0.339233 0.000000
0.700470 0.339966 0.000000
0.720001 0.340515 0.000000
0.742523 0.339294 0.000000
0.779358 0.330505 0.000000
0.814209 0.322449 0.000000
0.847260 0.315002 0.000000
0.162567 0.425415 0.150757
0.168549 0.423950 0.151978
0.175171 0.422333 0.153320
0.184357 0.420074 0.155151
0.196198 0.417267 0.156830
0.209198 0.416443 0.148926
0.223419 0.416718 0.136017
0.240112 0.417328 0.121033
0.259308 0.417847 0.105347
0.280365 0.416321 0.100006
0.302856 0.411316 0.112732
0.326843 0.406311 0.124817
0.351990 0.401031 0.136688
0.389221 0.397400 0.109039
0.424530 0.394836 0.080963
0.456512 0.391418 0.057648
0.485657 0.388672 0.036072
0.513947 0.386475 0.011566
0.534485 0.385010 0.000000
0.555573 0.379608 0.000000
0.583954 0.360657 0.000000
0.600983 0.361664 0.000000
0.619324 0.363129 0.000000
0.638763 0.364807 0.000000
0.658295 0.366333 0.000000
0.677826 0.367676 0.000000
0.697388 0.368835 0.000000
0.716980 0.369812 0.000000
0.736603 0.370636 0.000000
0.756195 0.371277 0.000000
0.775757 0.371704 0.000000
0.797150 0.371033 0.000000
0.832245 0.363129 0.000000
0.182068 0.460175 0.169525
0.187622 0.458862 0.170685
0.193756 0.457397 0.171967
0.202362 0.455353 0.173706
0.213501 0.452637 0.175903
0.226105 0.451263 0.171112
0.239777 0.450989 0.160339
0.255066 0.451508 0.145569
0.272888 0.451935 0.130005
0.292847 0.452240 0.113831
0.314240 0.448395 0.119446
0.337036 0.443207 0.131653
0.361145 0.437988 0.143341
0.387268 0.432648 0.151520
0.423981 0.429565 0.120880
0.457642 0.427277 0.094177
0.488373 0.424072 0.072113
0.516602 0.421600 0.051361
0.547699 0.419159 0.020416
0.569580 0.418671 0.000000
0.590576 0.413483 0.000000
0.614685 0.402740 0.000000
0.637726 0.392334 0.000000
0.655334 0.393402 0.000000
0.674591 0.395020 0.000000
0.694092 0.396515 0.000000
0.713654 0.397888 0.000000
0.733246 0.399109 0.000000
0.752838 0.400177 0.000000
0.772461 0.401062 0.000000
0.792114 0.401794 0.000000
0.811737 0.402313 0.000000
0.831390 0.402679 0.000000
0.201904 0.495300 0.188629
0.207031 0.494110 0.189697
0.212769 0.492767 0.190887
0.220764 0.490845 0.192505
0.231201 0.488312 0.194580
0.243500 0.486206 0.193176
0.256897 0.485443 0.184662
0.270782 0.485779 0.169983
0.287201 0.486023 0.154480
0.305847 0.486176 0.138336
0.326324 0.485474 0.126007
0.347931 0.480103 0.138275
0.370941 0.474731 0.149963
0.395172 0.469238 0.161346
0.423279 0.464203 0.161407
0.458160 0.461456 0.132477
0.490387 0.459381 0.107056
0.520050 0.456512 0.085938
0.550385 0.453918 0.059784
0.581421 0.451599 0.028137
0.604736 0.451019 0.004181
0.625702 0.446625 0.000000
0.649323 0.436798 0.000000
0.674316 0.422821 0.000000
0.691559 0.423676 0.000000
0.710175 0.425018 0.000000
0.729675 0.426544 0.000000
0.749207 0.427917 0.000000
0.768799 0.429138 0.000000
0.788391 0.430206 0.000000
0.808014 0.431152 0.000000
0.827667 0.431885 0.000000
0.847321 0.432495 0.000000
0.221313 0.530090 0.207275
0.226074 0.528931 0.208282
0.231415 0.527679 0.209381
0.238922 0.525848 0.210907
0.248718 0.523468 0.212830
0.260712 0.520660 0.214569
0.273499 0.519897 0.206818
0.286804 0.519806 0.193939
0.301971 0.519958 0.178558
0.319366 0.520020 0.162506
0.338745 0.519989 0.145844
0.359497 0.516937 0.144714
0.381470 0.511383 0.156555
0.404724 0.505859 0.167816
0.429047 0.500153 0.178955
0.458679 0.495636 0.171234
0.491913 0.493256 0.143738
0.522858 0.491333 0.119476
0.553040 0.488525 0.095886
0.584198 0.485992 0.066956
0.615082 0.483765 0.034546
0.639862 0.482910 0.007416
0.660980 0.478912 0.000000
0.684631 0.468994 0.000000
0.710693 0.453125 0.000000
0.727661 0.453766 0.000000
0.745514 0.454773 0.000000
0.764893 0.456207 0.000000
0.784393 0.457550 0.000000
0.803925 0.458740 0.000000
0.823486 0.459808 0.000000
0.843109 0.460693 0.000000
0.862732 0.461456 0.000000
0.240387 0.564514 0.225616
0.244843 0.563446 0.226532
0.249847 0.562256 0.227570
0.256866 0.560547 0.228973
0.266113 0.558319 0.230804
0.277527 0.555511 0.233032
0.289978 0.554138 0.228149
0.303131 0.553619 0.217529
0.317108 0.553680 0.202271
0.333344 0.553650 0.186279
0.351562 0.553528 0.169678
0.371521 0.553314 0.152527
0.392487 0.547913 0.162811
0.414764 0.542206 0.174225
0.438202 0.536469 0.185150
0.462646 0.530579 0.196014
0.493347 0.526794 0.180725
0.525146 0.524689 0.154419
0.555634 0.522797 0.129578
0.586853 0.520020 0.102570
0.617828 0.517609 0.072662
0.648529 0.515503 0.039154
0.674896 0.514374 0.008301
0.696228 0.510101 0.000000
0.720520 0.499268 0.000000
0.746674 0.482971 0.000000
0.763428 0.483398 0.000000
0.780762 0.484131 0.000000
0.799622 0.485352 0.000000
0.819061 0.486633 0.000000
0.838593 0.487793 0.000000
0.858154 0.488861 0.000000
0.877747 0.489807 0.000000
0.259003 0.598541 0.243530
0.263184 0.597534 0.244385
0.267883 0.596405 0.245331
0.274506 0.594788 0.246643
0.283203 0.592651 0.248352
0.294006 0.589966 0.250427
0.306274 0.587860 0.248779
0.319489 0.587006 0.240509
0.332336 0.586975 0.225372
0.347443 0.586853 0.209473
0.364563 0.586639 0.192902
0.383484 0.586365 0.175781
0.403778 0.584076 0.168640
0.425110 0.578217 0.180115
0.447632 0.572357 0.191040
0.471252 0.566437 0.201721
0.495819 0.560333 0.212341
0.527222 0.557465 0.189575
0.558075 0.555573 0.163544
0.589355 0.553650 0.135773
0.620392 0.551056 0.107697
0.651215 0.548737 0.076569
0.681854 0.546753 0.041718
0.709839 0.545410 0.006287
0.731628 0.540070 0.000000
0.757324 0.526947 0.000000
0.782166 0.512299 0.000000
0.798798 0.512573 0.000000
0.815826 0.513092 0.000000
0.833954 0.514069 0.000000
0.853424 0.515320 0.000000
0.872894 0.516541 0.000000
0.892456 0.517609 0.000000
0.276947 0.631897 0.260742
0.280884 0.630951 0.261536
0.285309 0.629852 0.262390
0.291565 0.628326 0.263641
0.299774 0.626282 0.265228
0.309998 0.623749 0.267151
0.322083 0.620880 0.268524
0.334686 0.620087 0.260620
0.347443 0.619690 0.247681
0.361511 0.619507 0.231873
0.377625 0.619232 0.215393
0.395538 0.618896 0.198273
0.415100 0.618500 0.180634
0.435638 0.613800 0.185455
0.457336 0.607849 0.196564
0.480194 0.601868 0.207184
0.504059 0.595825 0.217651
0.529358 0.589935 0.224731
0.560669 0.587830 0.197510
0.591888 0.586060 0.169250
0.622955 0.584198 0.140503
0.653870 0.581757 0.111176
0.684631 0.579620 0.078613
0.715240 0.577728 0.041992
0.745056 0.576172 0.000641
0.767609 0.568604 0.000000
0.797363 0.548157 0.000000
0.817352 0.541321 0.000000
0.833862 0.541443 0.000000
0.850708 0.541809 0.000000
0.868225 0.542511 0.000000
0.887421 0.543762 0.000000
0.906921 0.544952 0.000000
0.294189 0.664612 0.277222
0.297913 0.663696 0.277985
0.302094 0.662659 0.278778
0.308014 0.661194 0.279938
0.315796 0.659271 0.281433
0.325531 0.656830 0.283264
0.337189 0.653870 0.285400
0.349579 0.652557 0.279907
0.362488 0.651917 0.269348
0.375580 0.651703 0.253662
0.390747 0.651428 0.237274
0.407776 0.651062 0.220215
0.426453 0.650635 0.202606
0.446472 0.649048 0.190430
0.467377 0.643036 0.201630
0.489471 0.636993 0.212433
0.512604 0.630920 0.222748
0.536682 0.624756 0.233032
0.563477 0.619751 0.231171
0.594574 0.617859 0.202820
0.625610 0.616272 0.173431
0.656555 0.614502 0.143585
0.687408 0.612213 0.112671
0.718140 0.610199 0.078308
0.748718 0.608429 0.039276
0.779175 0.605560 0.000000
0.804565 0.595062 0.000000
0.835968 0.570160 0.000000
0.852173 0.569946 0.000000
0.868622 0.569977 0.000000
0.885284 0.570251 0.000000
0.902466 0.570801 0.000000
0.921143 0.571838 0.000000
0.310852 0.696838 0.293213
0.314392 0.695953 0.293884
0.318390 0.694977 0.294678
0.324005 0.693573 0.295746
0.331451 0.691742 0.297150
0.340729 0.689392 0.298889
0.351898 0.686584 0.300903
0.364166 0.684570 0.298523
0.377289 0.683716 0.290070
0.389679 0.683472 0.274811
0.403961 0.683197 0.258514
0.420105 0.682831 0.241547
0.437958 0.682434 0.223969
0.457306 0.681946 0.205811
0.477661 0.677887 0.206268
0.498993 0.671814 0.217194
0.521423 0.665680 0.227631
0.544861 0.659515 0.237732
0.569183 0.653229 0.247772
0.597473 0.649323 0.236023
0.628418 0.647614 0.206482
0.659332 0.646179 0.175812
0.690186 0.644501 0.144562
0.721008 0.642395 0.111786
0.751770 0.640503 0.075012
0.782410 0.638855 0.032501
0.813080 0.633667 0.000000
0.843506 0.617554 0.000000
0.870514 0.598541 0.000000
0.886627 0.598267 0.000000
0.902924 0.598206 0.000000
0.919525 0.598389 0.000000
0.936554 0.598785 0.000000
0.326935 0.728607 0.308655
0.330322 0.727783 0.309296
0.334106 0.726837 0.310028
0.339478 0.725525 0.311035
0.346619 0.723755 0.312378
0.355499 0.721527 0.313995
0.366211 0.718811 0.315918
0.378479 0.716064 0.316467
0.391113 0.715302 0.308289
0.403717 0.714813 0.295319
0.417175 0.714569 0.279114
0.432526 0.714233 0.262238
0.449554 0.713837 0.244690
0.468140 0.713379 0.226532
0.488068 0.712402 0.210449
0.508728 0.706268 0.221466
0.530518 0.700104 0.232086
0.553314 0.693909 0.242157
0.577087 0.687653 0.252045
0.601654 0.681244 0.261810
0.631439 0.678619 0.239136
0.662262 0.677124 0.208282
0.693085 0.675873 0.176056
0.723938 0.674286 0.143036
0.754791 0.672333 0.107819
0.785614 0.670593 0.067657
0.816467 0.669067 0.020050
0.847412 0.659546 0.000000
0.877075 0.633026 0.000000
0.903717 0.627014 0.000000
0.920624 0.626251 0.000000
0.936920 0.626099 0.000000
0.953491 0.626160 0.000000
0.342468 0.759918 0.323547
0.345703 0.759125 0.324158
0.349335 0.758240 0.324829
0.354492 0.756989 0.325775
0.361298 0.755280 0.327026
0.369843 0.753143 0.328583
0.380157 0.750580 0.330414
0.392181 0.747528 0.332489
0.404572 0.746460 0.325775
0.417542 0.745758 0.315186
0.430267 0.745544 0.299072
0.444885 0.745239 0.282227
0.461182 0.744843 0.264709
0.479065 0.744446 0.246582
0.498352 0.743958 0.227814
0.518616 0.740387 0.225189
0.539764 0.734192 0.235931
0.561981 0.727966 0.246185
0.585175 0.721741 0.255951
0.609253 0.715363 0.265564
0.634613 0.709259 0.271423
0.665344 0.707733 0.240204
0.696136 0.706451 0.207733
0.726929 0.705383 0.173615
0.757843 0.703857 0.138336
0.788818 0.702087 0.099701
0.819855 0.700500 0.054688
0.851044 0.698792 0.000000
0.882202 0.680450 0.000000
0.909637 0.661346 0.000000
0.936218 0.655304 0.000000
0.954315 0.653839 0.000000
0.970612 0.653625 0.000000
0.357483 0.790863 0.337891
0.360565 0.790100 0.338440
0.364044 0.789246 0.339081
0.368988 0.788025 0.339996
0.375519 0.786407 0.341187
0.383759 0.784363 0.342651
0.393677 0.781891 0.344360
0.405273 0.778992 0.346313
0.417664 0.777222 0.342590
0.430878 0.776428 0.333740
0.443207 0.776154 0.318329
0.457123 0.775879 0.301544
0.472748 0.775574 0.284058
0.489960 0.775177 0.265900
0.508606 0.774750 0.247101
0.528564 0.774170 0.228363
0.549133 0.768005 0.239166
0.570801 0.761749 0.249573
0.593445 0.755493 0.259491
0.617004 0.749146 0.268921
0.641449 0.742676 0.278198
