Kodak Vision3 500T (5230) - Only color.cube
# Created by Benjamin (IWLTBAP) : http://luts.iwltbap.com
# Copyright: (C) Copyright 2010-2017 Triune Films and IWLTBAP SAS
# Cannot be resold, shared or otherwise redistributed
TITLE "Film Print Emulation LUTs Pack (Rec.709, sRGB, DCI-P3)"
LUT_3D_SIZE 5
0.001587 0.000000 0.000000
0.257965 0.013092 0.000000
0.446503 0.041962 0.000000
0.627441 0.063232 0.000000
0.841492 0.075928 0.000000
0.027344 0.169586 0.000000
0.225769 0.209869 0.000000
0.477325 0.270447 0.000000
0.679291 0.281982 0.000000
0.905640 0.283722 0.000000
0.132568 0.320343 0.000000
0.295715 0.354553 0.000000
0.464783 0.401184 0.000000
0.718292 0.465363 0.000000
0.988373 0.485657 0.023895
0.246429 0.471436 0.000000
0.396667 0.517700 0.000000
0.557922 0.562683 0.000000
0.704254 0.599426 0.039276
0.957092 0.666260 0.033051
0.368927 0.649872 0.055908
0.492737 0.704895 0.070801
0.632050 0.736267 0.102631
0.778870 0.753876 0.138458
0.905640 0.789917 0.162964
0.000061 0.028320 0.158966
0.182068 0.032990 0.169769
0.436462 0.024109 0.222443
0.630646 0.026611 0.219269
0.861145 0.039703 0.212067
0.000000 0.171082 0.194000
0.269653 0.247864 0.231659
0.490112 0.277191 0.246246
0.702820 0.285553 0.247131
0.938049 0.284302 0.239502
0.068665 0.314636 0.193939
0.315155 0.383331 0.207855
0.490540 0.425476 0.204193
0.761963 0.497040 0.272858
1.000000 0.505829 0.281982
0.227325 0.460938 0.208649
0.393799 0.541534 0.248749
0.571350 0.589203 0.269775
0.714874 0.621460 0.263397
0.987946 0.703064 0.287476
0.300385 0.633057 0.254944
0.470825 0.710236 0.308716
0.626465 0.755676 0.336945
0.771423 0.767151 0.337524
0.902893 0.806946 0.340424
0.000000 0.092926 0.275604
0.027863 0.088104 0.340637
0.348755 0.095276 0.308655
0.556793 0.099518 0.345428
0.890442 0.041412 0.404572
0.000000 0.205414 0.317169
0.106964 0.263367 0.390961
0.448273 0.291199 0.372528
0.643677 0.307434 0.408295
0.951843 0.287781 0.428467
0.000000 0.318359 0.334015
0.063446 0.373077 0.376709
0.551086 0.502167 0.447998
0.759644 0.523590 0.468628
1.000000 0.508301 0.473846
0.000000 0.448364 0.358521
0.229431 0.514679 0.392670
0.556458 0.605194 0.440155
0.692139 0.634705 0.446045
1.000000 0.759338 0.505188
0.211761 0.591949 0.386475
0.393616 0.677338 0.416962
0.602051 0.762299 0.481293
0.754486 0.783600 0.501190
0.894775 0.824890 0.499573
0.000000 0.147858 0.377075
0.000000 0.152069 0.418976
0.324554 0.161377 0.491791
0.502625 0.142487 0.447021
0.686554 0.158600 0.437897
0.000000 0.243652 0.416382
0.000000 0.288666 0.485626
0.383728 0.316101 0.547180
0.608917 0.330322 0.518036
0.793945 0.342102 0.511536
0.000000 0.335449 0.422791
0.000000 0.387177 0.483551
0.475677 0.508850 0.619324
0.718231 0.542145 0.617371
0.886780 0.549896 0.637329
0.000000 0.455444 0.464569
0.144379 0.510162 0.515259
0.468353 0.573883 0.558502
0.789551 0.756531 0.704285
0.973267 0.786377 0.729187
0.002197 0.561646 0.478699
0.209442 0.625427 0.523987
0.534668 0.735596 0.602081
0.733032 0.787231 0.644958
0.862335 0.811157 0.661713
0.000000 0.188690 0.466492
0.002594 0.211090 0.513885
0.259491 0.206543 0.628540
0.492676 0.228119 0.663971
0.650848 0.185089 0.608856
0.002747 0.275085 0.513153
0.013214 0.308228 0.580719
0.318176 0.342621 0.695099
0.551910 0.357941 0.716003
0.744385 0.354889 0.685394
0.008545 0.365875 0.538574
0.019287 0.411530 0.603302
0.433533 0.532410 0.772614
0.623444 0.529175 0.759460
0.836212 0.546722 0.766754
0.010040 0.455994 0.544159
0.060608 0.502899 0.609741
0.427582 0.595154 0.706573
0.735504 0.753296 0.831085
0.930450 0.788666 0.868103
0.019592 0.574829 0.598511
0.209839 0.632599 0.648163
0.467712 0.693756 0.695984
0.687500 0.783905 0.765564
0.994568 0.999969 0.999939
