Kodak 16mm - Only contrast.cube
# Created by Benjamin (IWLTBAP) : http://luts.iwltbap.com
# Copyright: (C) Copyright 2010-2017 Triune Films and IWLTBAP SAS
# Cannot be resold, shared or otherwise redistributed
TITLE "Film Print Emulation LUTs Pack (Rec.709, sRGB, DCI-P3)"
LUT_3D_SIZE 33
0.027283 0.027283 0.027283
0.036469 0.027283 0.027283
0.045044 0.027283 0.027283
0.055054 0.027283 0.027283
0.068726 0.027252 0.027252
0.085541 0.027191 0.027191
0.110565 0.027100 0.027100
0.140259 0.026947 0.026947
0.172028 0.026794 0.026794
0.207367 0.026611 0.026611
0.242981 0.026428 0.026428
0.281311 0.026215 0.026215
0.323029 0.026001 0.026001
0.362640 0.025787 0.025787
0.402649 0.025574 0.025574
0.440613 0.025391 0.025391
0.477020 0.025177 0.025177
0.512543 0.024994 0.024994
0.546265 0.024841 0.024841
0.581299 0.024658 0.024658
0.614594 0.024506 0.024506
0.645416 0.024353 0.024353
0.678070 0.024170 0.024170
0.705353 0.024048 0.024048
0.732269 0.023926 0.023926
0.757660 0.023804 0.023804
0.782776 0.023712 0.023712
0.803131 0.023621 0.023621
0.820404 0.023560 0.023560
0.837189 0.023529 0.023529
0.849335 0.023499 0.023499
0.859955 0.023499 0.023499
0.869598 0.023499 0.023499
0.027283 0.036469 0.027283
0.036469 0.036469 0.027283
0.045044 0.036469 0.027283
0.055084 0.036438 0.027283
0.068756 0.036407 0.027252
0.085602 0.036377 0.027191
0.110687 0.036255 0.027100
0.140411 0.036102 0.026947
0.172211 0.035950 0.026794
0.207550 0.035767 0.026611
0.243164 0.035583 0.026428
0.281525 0.035370 0.026215
0.323273 0.035156 0.026001
0.362854 0.034943 0.025787
0.402863 0.034729 0.025574
0.440826 0.034515 0.025391
0.477203 0.034332 0.025177
0.512726 0.034149 0.024994
0.546448 0.033997 0.024841
0.581482 0.033813 0.024658
0.614746 0.033630 0.024475
0.645569 0.033478 0.024353
0.678223 0.033325 0.024170
0.705475 0.033203 0.024048
0.732391 0.033081 0.023926
0.757782 0.032959 0.023804
0.782898 0.032837 0.023712
0.803162 0.032776 0.023621
0.820465 0.032715 0.023560
0.837250 0.032654 0.023529
0.849335 0.032623 0.023499
0.859985 0.032623 0.023499
0.869598 0.032623 0.023499
0.027283 0.045044 0.027283
0.036469 0.045044 0.027283
0.045044 0.045044 0.027283
0.055084 0.045044 0.027283
0.068817 0.045013 0.027252
0.085693 0.044952 0.027191
0.110840 0.044830 0.027100
0.140564 0.044708 0.026947
0.172363 0.044525 0.026794
0.207733 0.044342 0.026611
0.243347 0.044159 0.026428
0.281769 0.043976 0.026215
0.323486 0.043732 0.026001
0.363068 0.043518 0.025787
0.403076 0.043304 0.025574
0.441010 0.043121 0.025391
0.477386 0.042938 0.025177
0.512909 0.042755 0.024994
0.546600 0.042572 0.024841
0.581665 0.042389 0.024658
0.614929 0.042236 0.024506
0.645721 0.042084 0.024353
0.678375 0.041901 0.024170
0.705566 0.041779 0.024048
0.732513 0.041656 0.023926
0.757874 0.041565 0.023804
0.782990 0.041443 0.023712
0.803223 0.041382 0.023621
0.820526 0.041321 0.023560
0.837280 0.041260 0.023529
0.849365 0.041229 0.023499
0.859985 0.041229 0.023499
0.869598 0.041229 0.023499
0.027283 0.055054 0.027283
0.036438 0.055084 0.027283
0.045044 0.055084 0.027283
0.055115 0.055115 0.027283
0.068848 0.055084 0.027252
0.085754 0.055054 0.027191
0.110962 0.054962 0.027100
0.140686 0.054810 0.026947
0.172546 0.054688 0.026794
0.207916 0.054504 0.026611
0.243530 0.054352 0.026428
0.281982 0.054169 0.026215
0.323700 0.053955 0.026001
0.363281 0.053741 0.025787
0.403290 0.053558 0.025574
0.441193 0.053375 0.025360
0.477570 0.053192 0.025177
0.513092 0.053040 0.024994
0.546783 0.052887 0.024841
0.581848 0.052734 0.024658
0.615082 0.052582 0.024475
0.645844 0.052460 0.024323
0.678558 0.052307 0.024170
0.705688 0.052216 0.024048
0.732635 0.052094 0.023926
0.757996 0.052002 0.023804
0.783112 0.051910 0.023712
0.803253 0.051849 0.023621
0.820587 0.051819 0.023560
0.837311 0.051788 0.023499
0.849365 0.051788 0.023499
0.859985 0.051819 0.023468
0.869568 0.051849 0.023468
0.027252 0.068726 0.027252
0.036407 0.068756 0.027252
0.045013 0.068817 0.027252
0.055084 0.068848 0.027252
0.068848 0.068848 0.027222
0.085815 0.068848 0.027161
0.111084 0.068756 0.027039
0.140808 0.068665 0.026917
0.172699 0.068542 0.026764
0.208069 0.068420 0.026581
0.243683 0.068268 0.026398
0.282166 0.068115 0.026184
0.323883 0.067932 0.025970
0.363464 0.067749 0.025757
0.403473 0.067566 0.025543
0.441345 0.067413 0.025330
0.477722 0.067261 0.025146
0.513245 0.067139 0.024963
0.546906 0.067017 0.024780
0.581970 0.066864 0.024628
0.615204 0.066742 0.024445
0.645966 0.066620 0.024292
0.678680 0.066498 0.024139
0.705750 0.066437 0.024017
0.732727 0.066345 0.023895
0.758057 0.066284 0.023773
0.783173 0.066223 0.023651
0.803253 0.066162 0.023590
0.820618 0.066162 0.023529
0.837311 0.066162 0.023468
0.849335 0.066162 0.023468
0.859955 0.066193 0.023438
0.869537 0.066254 0.023438
0.027191 0.085541 0.027191
0.036377 0.085602 0.027191
0.044952 0.085693 0.027191
0.055054 0.085754 0.027191
0.068848 0.085815 0.027161
0.085815 0.085815 0.027100
0.111145 0.085785 0.027008
0.140900 0.085724 0.026855
0.172821 0.085663 0.026703
0.208191 0.085541 0.026520
0.243805 0.085449 0.026337
0.282318 0.085327 0.026123
0.324066 0.085175 0.025909
0.363617 0.085052 0.025696
0.403625 0.084930 0.025482
0.441498 0.084808 0.025269
0.477844 0.084717 0.025085
0.513367 0.084625 0.024902
0.546997 0.084534 0.024719
0.582092 0.084442 0.024567
0.615295 0.084351 0.024384
0.646057 0.084290 0.024231
0.678772 0.084229 0.024078
0.705811 0.084167 0.023956
0.732788 0.084137 0.023834
0.758118 0.084137 0.023712
0.783234 0.084106 0.023590
0.803223 0.084106 0.023529
0.820618 0.084137 0.023468
0.837280 0.084198 0.023407
0.849304 0.084259 0.023407
0.859894 0.084351 0.023376
0.869476 0.084442 0.023376
0.027100 0.110565 0.027100
0.036255 0.110687 0.027100
0.044830 0.110840 0.027100
0.054962 0.110962 0.027100
0.068756 0.111084 0.027039
0.085785 0.111145 0.027008
0.111176 0.111176 0.026886
0.140961 0.111176 0.026733
0.172882 0.111145 0.026581
0.208252 0.111115 0.026398
0.243866 0.111053 0.026215
0.282440 0.110992 0.026001
0.324158 0.110901 0.025787
0.363708 0.110840 0.025574
0.403717 0.110779 0.025360
0.441559 0.110718 0.025146
0.477936 0.110657 0.024963
0.513428 0.110626 0.024780
0.547058 0.110596 0.024628
0.582184 0.110535 0.024445
0.615326 0.110504 0.024261
0.646088 0.110504 0.024109
0.678833 0.110474 0.023956
0.705780 0.110504 0.023834
0.732788 0.110504 0.023712
0.758087 0.110535 0.023590
0.783234 0.110565 0.023468
0.803131 0.110626 0.023407
0.820557 0.110718 0.023346
0.837189 0.110809 0.023285
0.849182 0.110931 0.023285
0.859802 0.111053 0.023254
0.869354 0.111206 0.023254
0.026947 0.140259 0.026947
0.036102 0.140411 0.026947
0.044708 0.140564 0.026947
0.054810 0.140686 0.026947
0.068665 0.140808 0.026917
0.085724 0.140900 0.026855
0.111176 0.140961 0.026733
0.140961 0.140961 0.026581
0.172913 0.140961 0.026428
0.208313 0.140930 0.026245
0.243896 0.140900 0.026062
0.282501 0.140839 0.025879
0.324249 0.140778 0.025635
0.363770 0.140717 0.025421
0.403809 0.140656 0.025208
0.441620 0.140625 0.025024
0.477966 0.140564 0.024811
0.513458 0.140533 0.024628
0.547089 0.140533 0.024475
0.582214 0.140503 0.024292
0.615356 0.140503 0.024109
0.646088 0.140503 0.023987
0.678833 0.140472 0.023804
0.705750 0.140503 0.023682
0.732758 0.140533 0.023560
0.758057 0.140594 0.023438
0.783203 0.140625 0.023346
0.803040 0.140686 0.023254
0.820496 0.140808 0.023193
0.837097 0.140900 0.023132
0.849060 0.141022 0.023132
0.859650 0.141174 0.023102
0.869202 0.141327 0.023102
0.026794 0.172028 0.026794
0.035950 0.172211 0.026794
0.044525 0.172363 0.026794
0.054688 0.172546 0.026794
0.068542 0.172699 0.026764
0.085663 0.172821 0.026703
0.111145 0.172882 0.026581
0.140961 0.172913 0.026428
0.172943 0.172943 0.026276
0.208344 0.172943 0.026093
0.243927 0.172943 0.025909
0.282562 0.172913 0.025696
0.324310 0.172852 0.025482
0.363831 0.172852 0.025269
0.403839 0.172821 0.025055
0.441650 0.172791 0.024841
0.477997 0.172791 0.024658
0.513489 0.172791 0.024475
0.547089 0.172791 0.024323
0.582245 0.172791 0.024139
0.615356 0.172821 0.023956
0.646088 0.172852 0.023804
0.678833 0.172882 0.023651
0.705719 0.172943 0.023529
0.732727 0.173004 0.023407
0.758026 0.173065 0.023285
0.783142 0.173157 0.023163
0.802917 0.173248 0.023102
0.820374 0.173370 0.023041
0.836945 0.173523 0.022980
0.848907 0.173676 0.022949
0.859497 0.173859 0.022949
0.869049 0.174042 0.022949
0.026611 0.207367 0.026611
0.035767 0.207550 0.026611
0.044342 0.207733 0.026611
0.054504 0.207916 0.026611
0.068420 0.208069 0.026581
0.085541 0.208191 0.026520
0.111115 0.208252 0.026398
0.140930 0.208313 0.026245
0.172943 0.208344 0.026093
0.208344 0.208344 0.025909
0.243927 0.208344 0.025726
0.282593 0.208313 0.025513
0.324341 0.208282 0.025299
0.363861 0.208252 0.025085
0.403870 0.208221 0.024872
0.441650 0.208191 0.024658
0.477997 0.208191 0.024475
0.513489 0.208191 0.024292
0.547089 0.208221 0.024139
0.582245 0.208221 0.023956
0.615326 0.208252 0.023773
0.646027 0.208282 0.023621
0.678833 0.208282 0.023468
0.705627 0.208344 0.023346
0.732666 0.208405 0.023224
0.757935 0.208496 0.023102
0.783081 0.208557 0.022980
0.802765 0.208679 0.022919
0.820251 0.208801 0.022858
0.836823 0.208923 0.022797
0.848724 0.209106 0.022797
0.859314 0.209259 0.022766
0.868866 0.209442 0.022766
0.026428 0.242981 0.026428
0.035583 0.243164 0.026428
0.044159 0.243347 0.026428
0.054352 0.243530 0.026428
0.068268 0.243683 0.026398
0.085449 0.243805 0.026337
0.111053 0.243866 0.026215
0.140900 0.243896 0.026062
0.172943 0.243927 0.025909
0.208344 0.243927 0.025726
0.243927 0.243927 0.025543
0.282623 0.243927 0.025330
0.324371 0.243866 0.025116
0.363892 0.243866 0.024902
0.403900 0.243835 0.024689
0.441650 0.243805 0.024475
0.477997 0.243805 0.024292
0.513458 0.243805 0.024109
0.547058 0.243805 0.023956
0.582214 0.243835 0.023773
0.615295 0.243835 0.023590
0.645996 0.243866 0.023438
0.678802 0.243896 0.023285
0.705566 0.243958 0.023163
0.732605 0.244019 0.023041
0.757874 0.244110 0.022919
0.782990 0.244171 0.022797
0.802612 0.244293 0.022736
0.820160 0.244415 0.022675
0.836670 0.244568 0.022614
0.848572 0.244720 0.022614
0.859161 0.244904 0.022583
0.868683 0.245087 0.022583
0.026215 0.281311 0.026215
0.035370 0.281525 0.026215
0.043976 0.281769 0.026215
0.054169 0.281982 0.026215
0.068115 0.282166 0.026184
0.085327 0.282318 0.026123
0.110992 0.282440 0.026001
0.140839 0.282501 0.025879
0.172913 0.282562 0.025696
0.208313 0.282593 0.025513
0.243927 0.282623 0.025330
0.282654 0.282654 0.025116
0.324402 0.282654 0.024902
0.363892 0.282654 0.024689
0.403900 0.282654 0.024475
0.441650 0.282684 0.024292
0.477966 0.282715 0.024078
0.513458 0.282745 0.023895
0.547028 0.282806 0.023743
0.582214 0.282837 0.023560
0.615234 0.282898 0.023376
0.645935 0.282959 0.023224
0.678772 0.283020 0.023071
0.705475 0.283112 0.022949
0.732544 0.283234 0.022827
0.757782 0.283325 0.022705
0.782898 0.283447 0.022583
0.802460 0.283600 0.022522
0.820007 0.283752 0.022461
0.836487 0.283936 0.022400
0.848358 0.284119 0.022400
0.858948 0.284332 0.022369
0.868469 0.284546 0.022369
0.026001 0.323029 0.026001
0.035156 0.323273 0.026001
0.043732 0.323486 0.026001
0.053955 0.323700 0.026001
0.067932 0.323883 0.025970
0.085175 0.324066 0.025909
0.110901 0.324158 0.025787
0.140778 0.324249 0.025635
0.172852 0.324310 0.025482
0.208282 0.324341 0.025299
0.243866 0.324371 0.025116
0.282654 0.324402 0.024902
0.324371 0.324371 0.024689
0.363892 0.324402 0.024475
0.403900 0.324402 0.024261
0.441620 0.324402 0.024048
0.477936 0.324432 0.023865
0.513397 0.324493 0.023682
0.546967 0.324524 0.023499
0.582153 0.324554 0.023315
0.615173 0.324615 0.023163
0.645874 0.324677 0.023010
0.678680 0.324738 0.022858
0.705353 0.324829 0.022736
0.732422 0.324921 0.022583
0.757660 0.325012 0.022491
0.782776 0.325104 0.022369
0.802246 0.325256 0.022308
0.819855 0.325409 0.022247
0.836304 0.325562 0.022186
0.848145 0.325775 0.022156
0.858734 0.325958 0.022156
0.868256 0.326172 0.022156
0.025787 0.362640 0.025787
0.034943 0.362854 0.025787
0.043518 0.363068 0.025787
0.053741 0.363281 0.025787
0.067749 0.363464 0.025757
0.085052 0.363617 0.025696
0.110840 0.363708 0.025574
0.140717 0.363770 0.025421
0.172852 0.363831 0.025269
0.208252 0.363861 0.025085
0.243866 0.363892 0.024902
0.282654 0.363892 0.024689
0.324402 0.363892 0.024475
0.363892 0.363892 0.024261
0.403900 0.363892 0.024048
0.441589 0.363892 0.023834
0.477905 0.363922 0.023651
0.513367 0.363953 0.023468
0.546936 0.363983 0.023285
0.582123 0.364014 0.023102
0.615112 0.364075 0.022949
0.645813 0.364136 0.022797
0.678650 0.364197 0.022644
0.705261 0.364288 0.022522
0.732361 0.364380 0.022400
0.757568 0.364471 0.022278
0.782684 0.364563 0.022156
0.802094 0.364716 0.022095
0.819702 0.364868 0.022034
0.836121 0.365021 0.021973
0.847961 0.365234 0.021942
0.858521 0.365417 0.021942
0.868042 0.365631 0.021942
0.025574 0.402649 0.025574
0.034729 0.402863 0.025574
0.043304 0.403076 0.025574
0.053558 0.403290 0.025574
0.067566 0.403473 0.025543
0.084930 0.403625 0.025482
0.110779 0.403717 0.025360
0.140656 0.403809 0.025208
0.172821 0.403839 0.025055
0.208221 0.403870 0.024872
0.243835 0.403900 0.024689
0.282654 0.403900 0.024475
0.324402 0.403900 0.024261
0.363892 0.403900 0.024048
0.403900 0.403900 0.023834
0.441559 0.403931 0.023621
0.477905 0.403931 0.023438
0.513336 0.403961 0.023254
0.546906 0.404022 0.023071
0.582092 0.404053 0.022888
0.615051 0.404083 0.022736
0.645752 0.404144 0.022583
0.678589 0.404205 0.022430
0.705139 0.404297 0.022308
0.732269 0.404388 0.022156
0.757446 0.404480 0.022064
0.782593 0.404572 0.021942
0.801910 0.404724 0.021881
0.819550 0.404877 0.021820
0.835938 0.405029 0.021759
0.847748 0.405212 0.021729
0.858337 0.405426 0.021729
0.867828 0.405609 0.021729
0.025391 0.440613 0.025391
0.034515 0.440826 0.025391
0.043121 0.441010 0.025391
0.053375 0.441193 0.025360
0.067413 0.441345 0.025330
0.084808 0.441498 0.025269
0.110718 0.441559 0.025146
0.140625 0.441620 0.025024
0.172791 0.441650 0.024841
0.208191 0.441650 0.024658
0.243805 0.441650 0.024475
0.282684 0.441650 0.024292
0.324402 0.441620 0.024048
0.363892 0.441589 0.023834
0.403931 0.441559 0.023621
0.441559 0.441559 0.023438
0.477875 0.441559 0.023224
0.513306 0.441559 0.023041
0.546875 0.441589 0.022888
0.582092 0.441589 0.022705
0.615021 0.441620 0.022522
0.645691 0.441681 0.022400
0.678558 0.441711 0.022217
0.705048 0.441772 0.022095
0.732178 0.441833 0.021973
0.757355 0.441925 0.021851
0.782501 0.441986 0.021759
0.801758 0.442108 0.021667
0.819397 0.442261 0.021606
0.835785 0.442383 0.021576
0.847565 0.442566 0.021545
0.858154 0.442749 0.021545
0.867615 0.442932 0.021545
0.025177 0.477020 0.025177
0.034332 0.477203 0.025177
0.042938 0.477386 0.025177
0.053192 0.477570 0.025177
0.067261 0.477722 0.025146
0.084717 0.477844 0.025085
0.110657 0.477936 0.024963
0.140564 0.477966 0.024811
0.172791 0.477997 0.024658
0.208191 0.477997 0.024475
0.243805 0.477997 0.024292
0.282715 0.477966 0.024078
0.324432 0.477936 0.023865
0.363922 0.477905 0.023651
0.403931 0.477905 0.023438
0.441559 0.477875 0.023224
0.477875 0.477875 0.023041
0.513306 0.477875 0.022858
0.546844 0.477905 0.022705
0.582062 0.477905 0.022522
0.614990 0.477936 0.022339
0.645660 0.477966 0.022186
0.678528 0.477997 0.022034
0.704987 0.478058 0.021912
0.732117 0.478119 0.021790
0.757294 0.478180 0.021667
0.782410 0.478271 0.021576
0.801605 0.478394 0.021484
0.819275 0.478516 0.021423
0.835632 0.478638 0.021393
0.847412 0.478821 0.021362
0.857971 0.479004 0.021362
0.867432 0.479187 0.021332
0.024994 0.512543 0.024994
0.034149 0.512726 0.024994
0.042755 0.512909 0.024994
0.053040 0.513092 0.024994
0.067139 0.513245 0.024963
0.084625 0.513367 0.024902
0.110626 0.513428 0.024780
0.140533 0.513458 0.024628
0.172791 0.513489 0.024475
0.208191 0.513489 0.024292
0.243805 0.513458 0.024109
0.282745 0.513458 0.023895
0.324493 0.513397 0.023682
0.363953 0.513367 0.023468
0.403961 0.513336 0.023254
0.441559 0.513306 0.023041
0.477875 0.513306 0.022858
0.513306 0.513306 0.022675
0.546844 0.513306 0.022522
0.582062 0.513306 0.022339
0.614960 0.513336 0.022156
0.645630 0.513367 0.022003
0.678497 0.513367 0.021851
0.704926 0.513428 0.021729
0.732056 0.513489 0.021606
0.757233 0.513550 0.021484
0.782349 0.513611 0.021393
0.801483 0.513733 0.021301
0.819183 0.513855 0.021240
0.835480 0.513977 0.021210
0.847229 0.514130 0.021179
0.857788 0.514313 0.021179
0.867249 0.514465 0.021149
0.024841 0.546265 0.024841
0.033997 0.546448 0.024841
0.042572 0.546600 0.024841
0.052887 0.546783 0.024841
0.067017 0.546906 0.024780
0.084534 0.546997 0.024719
0.110596 0.547058 0.024628
0.140533 0.547089 0.024475
0.172791 0.547089 0.024323
0.208221 0.547089 0.024139
0.243805 0.547058 0.023956
0.282806 0.547028 0.023743
0.324524 0.546967 0.023499
0.363983 0.546936 0.023285
0.404022 0.546906 0.023071
0.441589 0.546875 0.022888
0.477905 0.546844 0.022705
0.513306 0.546844 0.022522
0.546844 0.546844 0.022339
0.582092 0.546844 0.022156
0.614960 0.546844 0.022003
0.645599 0.546844 0.021851
0.678497 0.546875 0.021667
0.704865 0.546906 0.021545
0.732025 0.546967 0.021423
0.757172 0.547028 0.021332
0.782288 0.547089 0.021210
0.801331 0.547180 0.021149
0.819061 0.547302 0.021088
0.835327 0.547424 0.021027
0.847076 0.547577 0.020996
0.857635 0.547729 0.020996
0.867096 0.547913 0.020996
0.024658 0.581299 0.024658
0.033813 0.581482 0.024658
0.042389 0.581665 0.024658
0.052734 0.581848 0.024658
0.066864 0.581970 0.024628
0.084442 0.582092 0.024567
0.110535 0.582184 0.024445
0.140503 0.582214 0.024292
0.172791 0.582245 0.024139
0.208221 0.582245 0.023956
0.243835 0.582214 0.023773
0.282837 0.582214 0.023560
0.324554 0.582153 0.023315
0.364014 0.582123 0.023102
0.404053 0.582092 0.022888
0.441589 0.582092 0.022705
0.477905 0.582062 0.022522
0.513306 0.582062 0.022339
0.546844 0.582092 0.022156
0.582062 0.582062 0.021973
0.614929 0.582092 0.021820
0.645569 0.582123 0.021667
0.678467 0.582123 0.021484
0.704803 0.582184 0.021393
0.731964 0.582245 0.021240
0.757080 0.582306 0.021149
0.782227 0.582367 0.021027
0.801208 0.582489 0.020966
0.818939 0.582611 0.020905
0.835205 0.582733 0.020844
0.846893 0.582886 0.020844
0.857452 0.583038 0.020813
0.866913 0.583221 0.020813
0.024506 0.614594 0.024506
0.033630 0.614746 0.024475
0.042236 0.614929 0.024506
0.052582 0.615082 0.024475
0.066742 0.615204 0.024445
0.084351 0.615295 0.024384
0.110504 0.615326 0.024261
0.140503 0.615356 0.024109
0.172821 0.615356 0.023956
0.208252 0.615326 0.023773
0.243835 0.615295 0.023590
0.282898 0.615234 0.023376
0.324615 0.615173 0.023163
0.364075 0.615112 0.022949
0.404083 0.615051 0.022736
0.441620 0.615021 0.022522
0.477936 0.614990 0.022339
0.513336 0.614960 0.022156
0.546844 0.614960 0.022003
0.582092 0.614929 0.021820
0.614929 0.614929 0.021637
0.645569 0.614929 0.021484
0.678467 0.614929 0.021332
0.704742 0.614960 0.021210
0.731903 0.614990 0.021088
0.757050 0.615051 0.020966
0.782166 0.615082 0.020874
0.801086 0.615173 0.020782
0.818848 0.615265 0.020721
0.835052 0.615387 0.020691
0.846741 0.615509 0.020660
0.857300 0.615662 0.020660
0.866730 0.615814 0.020660
0.024353 0.645416 0.024353
0.033478 0.645569 0.024353
0.042084 0.645721 0.024353
0.052460 0.645844 0.024323
0.066620 0.645966 0.024292
0.084290 0.646057 0.024231
0.110504 0.646088 0.024109
0.140503 0.646088 0.023987
0.172852 0.646088 0.023804
0.208282 0.646027 0.023621
0.243866 0.645996 0.023438
0.282959 0.645935 0.023224
0.324677 0.645874 0.023010
0.364136 0.645813 0.022797
0.404144 0.645752 0.022583
0.441681 0.645691 0.022400
0.477966 0.645660 0.022186
0.513367 0.645630 0.022003
0.546844 0.645599 0.021851
0.582123 0.645569 0.021667
0.614929 0.645569 0.021484
0.645569 0.645569 0.021362
0.678467 0.645538 0.021179
0.704712 0.645569 0.021057
0.731873 0.645599 0.020935
0.756989 0.645630 0.020813
0.782135 0.645691 0.020721
0.800964 0.645752 0.020660
0.818756 0.645844 0.020599
0.834930 0.645966 0.020538
0.846619 0.646088 0.020508
0.857147 0.646240 0.020508
0.866577 0.646362 0.020508
0.024170 0.678070 0.024170
0.033325 0.678223 0.024170
0.041901 0.678375 0.024170
0.052307 0.678558 0.024170
0.066498 0.678680 0.024139
0.084229 0.678772 0.024078
0.110474 0.678833 0.023956
0.140472 0.678833 0.023804
0.172882 0.678833 0.023651
0.208282 0.678833 0.023468
0.243896 0.678802 0.023285
0.283020 0.678772 0.023071
0.324738 0.678680 0.022858
0.364197 0.678650 0.022644
0.404205 0.678589 0.022430
0.441711 0.678558 0.022217
0.477997 0.678528 0.022034
0.513367 0.678497 0.021851
0.546875 0.678497 0.021667
0.582123 0.678467 0.021484
0.614929 0.678467 0.021332
0.645538 0.678467 0.021179
0.678436 0.678436 0.021027
0.704651 0.678497 0.020905
0.731842 0.678497 0.020782
0.756958 0.678558 0.020660
0.782074 0.678589 0.020538
0.800842 0.678680 0.020477
0.818665 0.678772 0.020416
0.834808 0.678864 0.020386
0.846466 0.678986 0.020355
0.856995 0.679138 0.020355
0.866425 0.679260 0.020325
0.024048 0.705353 0.024048
0.033203 0.705475 0.024048
0.041779 0.705566 0.024048
0.052216 0.705688 0.024048
0.066437 0.705750 0.024017
0.084167 0.705811 0.023956
0.110504 0.705780 0.023834
0.140503 0.705750 0.023682
0.172943 0.705719 0.023529
0.208344 0.705627 0.023346
0.243958 0.705566 0.023163
0.283112 0.705475 0.022949
0.324829 0.705353 0.022736
0.364288 0.705261 0.022522
0.404297 0.705139 0.022308
0.441772 0.705048 0.022095
0.478058 0.704987 0.021912
0.513428 0.704926 0.021729
0.546906 0.704865 0.021545
0.582184 0.704803 0.021393
0.614960 0.704742 0.021210
0.645569 0.704712 0.021057
0.678497 0.704651 0.020905
0.704651 0.704651 0.020782
0.731842 0.704651 0.020660
0.756927 0.704651 0.020538
0.782074 0.704651 0.020447
0.800781 0.704681 0.020355
0.818604 0.704742 0.020294
0.834717 0.704803 0.020264
0.846375 0.704926 0.020233
0.856903 0.705017 0.020233
0.866302 0.705139 0.020233
0.023926 0.732269 0.023926
0.033081 0.732391 0.023926
0.041656 0.732513 0.023926
0.052094 0.732635 0.023926
0.066345 0.732727 0.023895
0.084137 0.732788 0.023834
0.110504 0.732788 0.023712
0.140533 0.732758 0.023560
0.173004 0.732727 0.023407
0.208405 0.732666 0.023224
0.244019 0.732605 0.023041
0.283234 0.732544 0.022827
0.324921 0.732422 0.022583
0.364380 0.732361 0.022400
0.404388 0.732269 0.022156
0.441833 0.732178 0.021973
0.478119 0.732117 0.021790
0.513489 0.732056 0.021606
0.546967 0.732025 0.021423
0.582245 0.731964 0.021240
0.614990 0.731903 0.021088
0.645599 0.731873 0.020935
0.678497 0.731842 0.020782
0.704651 0.731842 0.020660
0.731842 0.731842 0.020538
0.756927 0.731842 0.020416
0.782043 0.731842 0.020294
0.800690 0.731903 0.020233
0.818542 0.731964 0.020172
0.834625 0.732025 0.020142
0.846252 0.732147 0.020111
0.856781 0.732239 0.020111
0.866180 0.732361 0.020111
0.023804 0.757660 0.023804
0.032959 0.757782 0.023804
0.041565 0.757874 0.023804
0.052002 0.757996 0.023804
0.066284 0.758057 0.023773
0.084137 0.758118 0.023712
0.110535 0.758087 0.023590
0.140594 0.758057 0.023438
0.173065 0.758026 0.023285
0.208496 0.757935 0.023102
0.244110 0.757874 0.022919
0.283325 0.757782 0.022705
0.325012 0.757660 0.022491
0.364471 0.757568 0.022278
0.404480 0.757446 0.022064
0.441925 0.757355 0.021851
0.478180 0.757294 0.021667
0.513550 0.757233 0.021484
0.547028 0.757172 0.021332
0.582306 0.757080 0.021149
0.615051 0.757050 0.020966
0.645630 0.756989 0.020813
0.678558 0.756958 0.020660
0.704651 0.756927 0.020538
0.731842 0.756927 0.020416
0.756927 0.756927 0.020294
0.782043 0.756927 0.020203
0.800629 0.756958 0.020142
0.818481 0.757019 0.020081
0.834564 0.757080 0.020020
0.846161 0.757172 0.019989
0.856689 0.757263 0.019989
0.866058 0.757385 0.019989
0.023712 0.782776 0.023712
0.032837 0.782898 0.023712
0.041443 0.782990 0.023712
0.051910 0.783112 0.023712
0.066223 0.783173 0.023651
0.084106 0.783234 0.023590
0.110565 0.783234 0.023468
0.140625 0.783203 0.023346
0.173157 0.783142 0.023163
0.208557 0.783081 0.022980
0.244171 0.782990 0.022797
0.283447 0.782898 0.022583
0.325104 0.782776 0.022369
0.364563 0.782684 0.022156
0.404572 0.782593 0.021942
0.441986 0.782501 0.021759
0.478271 0.782410 0.021576
0.513611 0.782349 0.021393
0.547089 0.782288 0.021210
0.582367 0.782227 0.021027
0.615082 0.782166 0.020874
