Kodak Eastman Color Negative 50T (5251) - Look.cube
# Created by Benjamin (IWLTBAP) : http://luts.iwltbap.com
# Copyright: (C) Copyright 2010-2017 Triune Films and IWLTBAP SAS
# Cannot be resold, shared or otherwise redistributed
TITLE "Film Print Emulation LUTs Pack (Rec.709, sRGB, DCI-P3)"
LUT_3D_SIZE 5
0.000000 0.000000 0.000000
0.137665 0.000000 0.000000
0.283936 0.000671 0.000000
0.427734 0.001221 0.000000
0.577637 0.001129 0.000000
0.000000 0.156799 0.006012
0.193756 0.181183 0.005493
0.383667 0.179443 0.000000
0.525574 0.157990 0.000000
0.647980 0.142273 0.000000
0.003174 0.344055 0.026947
0.277374 0.402435 0.062561
0.538971 0.429443 0.056671
0.677582 0.403778 0.000000
0.770477 0.364136 0.000000
0.026306 0.525574 0.065613
0.320160 0.573517 0.099365
0.647400 0.646210 0.151489
0.889252 0.663269 0.176270
0.988373 0.628845 0.141266
0.117859 0.689087 0.097534
0.381500 0.725677 0.137238
0.731842 0.846802 0.235046
0.900513 0.902008 0.282654
0.997650 0.892426 0.282410
0.000000 0.000000 0.145172
0.143646 0.000000 0.153717
0.308807 0.001068 0.153229
0.464172 0.000916 0.132385
0.611786 0.000946 0.092987
0.000763 0.181458 0.182434
0.184662 0.188446 0.186554
0.400085 0.177826 0.173492
0.544586 0.151764 0.124359
0.664124 0.136017 0.093994
0.005005 0.391815 0.221710
0.231445 0.416992 0.222107
0.533600 0.443756 0.216248
0.689514 0.417877 0.176361
0.786133 0.372345 0.097351
0.014618 0.569916 0.240173
0.271667 0.591461 0.240479
0.629120 0.662842 0.287720
0.894043 0.688965 0.321106
0.989532 0.658051 0.292389
0.102966 0.720947 0.259460
0.336823 0.741638 0.271851
0.692261 0.860901 0.357574
0.896912 0.928711 0.409363
0.997131 0.935333 0.421326
0.000000 0.001526 0.282990
0.144043 0.001343 0.297852
0.352753 0.000610 0.313629
0.520477 0.000000 0.306427
0.655090 0.000000 0.282532
0.000244 0.189056 0.333954
0.159180 0.185333 0.340851
0.415955 0.168304 0.345459
0.577881 0.143616 0.316162
0.693207 0.124176 0.279572
0.002991 0.431396 0.405487
0.162079 0.446350 0.409119
0.504822 0.464111 0.406128
0.695007 0.442078 0.365326
0.805511 0.388275 0.315887
0.005585 0.630249 0.461365
0.207214 0.644073 0.460724
0.575073 0.684753 0.460571
0.883575 0.722839 0.490265
0.986023 0.698639 0.471100
0.107147 0.793304 0.504272
0.313080 0.810852 0.504791
0.607666 0.872803 0.509308
0.889832 0.954468 0.561615
0.996399 0.970154 0.592896
0.000000 0.002594 0.410187
0.131592 0.001129 0.424988
0.357941 0.000214 0.450165
0.543701 0.000000 0.451874
0.680756 0.000000 0.436676
0.000000 0.173981 0.461792
0.119263 0.166473 0.466583
0.382812 0.161163 0.487549
0.591583 0.139923 0.476135
0.714661 0.115356 0.447968
0.000793 0.439667 0.559662
0.111237 0.455688 0.570923
0.426361 0.484985 0.594727
0.679749 0.470184 0.558258
0.812225 0.413055 0.503418
0.043243 0.679474 0.671997
0.269012 0.721527 0.713318
0.524841 0.743652 0.718262
0.788269 0.743927 0.688782
0.974670 0.722504 0.662689
0.188202 0.889923 0.749878
0.378998 0.946594 0.809326
0.568359 0.949158 0.794250
0.829498 0.960571 0.764404
0.996155 0.978333 0.786621
0.000000 0.003113 0.530518
0.108032 0.001129 0.542267
0.326294 0.000183 0.568329
0.533020 0.000000 0.576843
0.679718 0.000000 0.570526
0.000000 0.156342 0.573730
0.093842 0.146851 0.576019
0.315796 0.154724 0.604919
0.578796 0.145111 0.610046
0.720245 0.126984 0.590240
0.000000 0.434357 0.681824
0.098450 0.450714 0.693604
0.338776 0.489349 0.730743
0.650482 0.492737 0.719360
0.817322 0.466492 0.683350
0.066467 0.692017 0.838837
0.295837 0.751129 0.921417
0.520386 0.773956 0.946136
0.730011 0.774078 0.908813
0.923920 0.767853 0.880219
0.235840 0.938568 1.000000
0.430511 0.980133 1.000000
0.612946 0.983643 1.000000
0.803162 0.993256 1.000000
1.000000 1.000000 0.995667
