Kodak Vision3 250D (5207) - Only contrast.cube
# Created by Benjamin (IWLTBAP) : http://luts.iwltbap.com
# Copyright: (C) Copyright 2010-2017 Triune Films and IWLTBAP SAS
# Cannot be resold, shared or otherwise redistributed
TITLE "Film Print Emulation LUTs Pack (Rec.709, sRGB, DCI-P3)"
LUT_3D_SIZE 33
0.000305 0.000305 0.000305
0.009430 0.000305 0.000305
0.020386 0.000305 0.000305
0.035553 0.000244 0.000244
0.054565 0.000183 0.000183
0.076691 0.000092 0.000092
0.100647 0.000000 0.000000
0.125397 0.000000 0.000000
0.150726 0.000000 0.000000
0.176270 0.000000 0.000000
0.202423 0.000000 0.000000
0.229034 0.000000 0.000000
0.256226 0.000000 0.000000
0.283936 0.000000 0.000000
0.312195 0.000000 0.000000
0.340790 0.000000 0.000000
0.370056 0.000000 0.000000
0.400085 0.000000 0.000000
0.431366 0.000000 0.000000
0.464233 0.000000 0.000000
0.498474 0.000000 0.000000
0.533722 0.000000 0.000000
0.569427 0.000000 0.000000
0.605255 0.000000 0.000000
0.641449 0.000000 0.000000
0.678284 0.000000 0.000000
0.716187 0.000000 0.000000
0.754181 0.000000 0.000000
0.791412 0.000000 0.000000
0.826324 0.000000 0.000000
0.859253 0.000000 0.000000
0.892303 0.000000 0.000000
0.929138 0.000000 0.000000
0.000305 0.009430 0.000305
0.009460 0.009460 0.000305
0.020416 0.009430 0.000305
0.035614 0.009399 0.000244
0.054657 0.009338 0.000183
0.076782 0.009247 0.000092
0.100769 0.009155 0.000000
0.125488 0.009033 0.000000
0.150818 0.008942 0.000000
0.176392 0.008820 0.000000
0.202545 0.008728 0.000000
0.229156 0.008606 0.000000
0.256348 0.008484 0.000000
0.284058 0.008362 0.000000
0.312347 0.008240 0.000000
0.340942 0.008087 0.000000
0.370209 0.007965 0.000000
0.400238 0.007812 0.000000
0.431519 0.007690 0.000000
0.464386 0.007507 0.000000
0.498657 0.007355 0.000000
0.533905 0.007172 0.000000
0.569611 0.006989 0.000000
0.605438 0.006836 0.000000
0.641632 0.006653 0.000000
0.678467 0.006470 0.000000
0.716400 0.006256 0.000000
0.754364 0.006073 0.000000
0.791595 0.005890 0.000000
0.826508 0.005707 0.000000
0.859436 0.005554 0.000000
0.892487 0.005402 0.000000
0.929352 0.005219 0.000000
0.000305 0.020386 0.000305
0.009430 0.020416 0.000305
0.020416 0.020416 0.000275
0.035645 0.020386 0.000244
0.054718 0.020355 0.000153
0.076874 0.020294 0.000061
0.100861 0.020203 0.000000
0.125580 0.020142 0.000000
0.150940 0.020050 0.000000
0.176483 0.019958 0.000000
0.202637 0.019867 0.000000
0.229248 0.019775 0.000000
0.256470 0.019653 0.000000
0.284180 0.019562 0.000000
0.312439 0.019440 0.000000
0.341064 0.019348 0.000000
0.370331 0.019226 0.000000
0.400360 0.019104 0.000000
0.431671 0.018982 0.000000
0.464539 0.018860 0.000000
0.498810 0.018707 0.000000
0.534058 0.018555 0.000000
0.569763 0.018402 0.000000
0.605621 0.018250 0.000000
0.641815 0.018097 0.000000
0.678650 0.017914 0.000000
0.716583 0.017761 0.000000
0.754547 0.017578 0.000000
0.791779 0.017426 0.000000
0.826660 0.017273 0.000000
0.859558 0.017151 0.000000
0.892639 0.016998 0.000000
0.929535 0.016846 0.000000
0.000244 0.035553 0.000244
0.009399 0.035614 0.000244
0.020386 0.035645 0.000244
0.035675 0.035675 0.000183
0.054779 0.035645 0.000122
0.076935 0.035614 0.000031
0.100922 0.035583 0.000000
0.125671 0.035522 0.000000
0.151001 0.035461 0.000000
0.176544 0.035431 0.000000
0.202728 0.035370 0.000000
0.229340 0.035309 0.000000
0.256561 0.035248 0.000000
0.284271 0.035156 0.000000
0.312531 0.035095 0.000000
0.341156 0.035004 0.000000
0.370422 0.034943 0.000000
0.400482 0.034851 0.000000
0.431763 0.034760 0.000000
0.464691 0.034668 0.000000
0.498962 0.034546 0.000000
0.534210 0.034424 0.000000
0.569916 0.034302 0.000000
0.605743 0.034180 0.000000
0.641937 0.034058 0.000000
0.678802 0.033905 0.000000
0.716736 0.033783 0.000000
0.754700 0.033630 0.000000
0.791901 0.033508 0.000000
0.826782 0.033386 0.000000
0.859680 0.033295 0.000000
0.892761 0.033203 0.000000
0.929718 0.033051 0.000000
0.000183 0.054565 0.000183
0.009338 0.054657 0.000183
0.020355 0.054718 0.000153
0.035645 0.054779 0.000122
0.054779 0.054779 0.000061
0.076965 0.054779 0.000000
0.100952 0.054749 0.000000
0.125702 0.054749 0.000000
0.151031 0.054718 0.000000
0.176605 0.054688 0.000000
0.202759 0.054657 0.000000
0.229401 0.054626 0.000000
0.256622 0.054565 0.000000
0.284332 0.054535 0.000000
0.312592 0.054474 0.000000
0.341217 0.054443 0.000000
0.370483 0.054382 0.000000
0.400543 0.054321 0.000000
0.431854 0.054260 0.000000
0.464783 0.054169 0.000000
0.499054 0.054077 0.000000
0.534302 0.053986 0.000000
0.570038 0.053894 0.000000
0.605865 0.053802 0.000000
0.642059 0.053711 0.000000
0.678925 0.053589 0.000000
0.716858 0.053467 0.000000
0.754822 0.053375 0.000000
0.792023 0.053253 0.000000
0.826874 0.053162 0.000000
0.859772 0.053101 0.000000
0.892853 0.053009 0.000000
0.929840 0.052917 0.000000
0.000092 0.076691 0.000092
0.009247 0.076782 0.000092
0.020294 0.076874 0.000061
0.035614 0.076935 0.000031
0.054779 0.076965 0.000000
0.076965 0.076965 0.000000
0.100952 0.076965 0.000000
0.125732 0.076965 0.000000
0.151062 0.076935 0.000000
0.176636 0.076935 0.000000
0.202789 0.076904 0.000000
0.229431 0.076904 0.000000
0.256653 0.076874 0.000000
0.284363 0.076843 0.000000
0.312653 0.076813 0.000000
0.341248 0.076782 0.000000
0.370544 0.076752 0.000000
0.400604 0.076691 0.000000
0.431946 0.076630 0.000000
0.464844 0.076569 0.000000
0.499146 0.076508 0.000000
0.534393 0.076416 0.000000
0.570129 0.076355 0.000000
0.605957 0.076263 0.000000
0.642151 0.076172 0.000000
0.679016 0.076080 0.000000
0.716949 0.075989 0.000000
0.754944 0.075897 0.000000
0.792114 0.075775 0.000000
0.826965 0.075714 0.000000
0.859833 0.075653 0.000000
0.892944 0.075592 0.000000
0.929962 0.075500 0.000000
0.000000 0.100647 0.000000
0.009155 0.100769 0.000000
0.020203 0.100861 0.000000
0.035583 0.100922 0.000000
0.054749 0.100952 0.000000
0.076965 0.100952 0.000000
0.100983 0.100983 0.000000
0.125732 0.100983 0.000000
0.151093 0.100952 0.000000
0.176636 0.100952 0.000000
0.202820 0.100952 0.000000
0.229431 0.100922 0.000000
0.256683 0.100922 0.000000
0.284393 0.100891 0.000000
0.312683 0.100861 0.000000
0.341309 0.100861 0.000000
0.370575 0.100830 0.000000
0.400665 0.100769 0.000000
0.431976 0.100739 0.000000
0.464935 0.100677 0.000000
0.499237 0.100616 0.000000
0.534485 0.100555 0.000000
0.570190 0.100464 0.000000
0.606049 0.100403 0.000000
0.642242 0.100311 0.000000
0.679108 0.100220 0.000000
0.717072 0.100128 0.000000
0.755035 0.100037 0.000000
0.792206 0.099945 0.000000
0.827026 0.099884 0.000000
0.859894 0.099823 0.000000
0.893005 0.099762 0.000000
0.930084 0.099701 0.000000
0.000000 0.125397 0.000000
0.009033 0.125488 0.000000
0.020142 0.125580 0.000000
0.035522 0.125671 0.000000
0.054749 0.125702 0.000000
0.076965 0.125732 0.000000
0.100983 0.125732 0.000000
0.125732 0.125732 0.000000
0.151093 0.125732 0.000000
0.176666 0.125732 0.000000
0.202820 0.125732 0.000000
0.229462 0.125732 0.000000
0.256683 0.125702 0.000000
0.284424 0.125702 0.000000
0.312714 0.125671 0.000000
0.341339 0.125641 0.000000
0.370605 0.125610 0.000000
0.400696 0.125580 0.000000
0.432037 0.125549 0.000000
0.464996 0.125488 0.000000
0.499298 0.125427 0.000000
0.534546 0.125366 0.000000
0.570282 0.125275 0.000000
0.606140 0.125214 0.000000
0.642334 0.125122 0.000000
0.679199 0.125061 0.000000
0.717163 0.124969 0.000000
0.755127 0.124878 0.000000
0.792267 0.124786 0.000000
0.827087 0.124725 0.000000
0.859955 0.124695 0.000000
0.893066 0.124634 0.000000
0.930176 0.124542 0.000000
0.000000 0.150726 0.000000
0.008942 0.150818 0.000000
0.020050 0.150940 0.000000
0.035461 0.151001 0.000000
0.054718 0.151031 0.000000
0.076935 0.151062 0.000000
0.100952 0.151093 0.000000
0.125732 0.151093 0.000000
0.151093 0.151093 0.000000
0.176666 0.151093 0.000000
0.202820 0.151093 0.000000
0.229462 0.151062 0.000000
0.256714 0.151062 0.000000
0.284424 0.151062 0.000000
0.312744 0.151031 0.000000
0.341339 0.151001 0.000000
0.370636 0.150970 0.000000
0.400726 0.150940 0.000000
0.432098 0.150909 0.000000
0.465057 0.150848 0.000000
0.499359 0.150818 0.000000
0.534637 0.150726 0.000000
0.570343 0.150665 0.000000
0.606201 0.150604 0.000000
0.642426 0.150513 0.000000
0.679291 0.150452 0.000000
0.717255 0.150360 0.000000
0.755219 0.150269 0.000000
0.792358 0.150208 0.000000
0.827148 0.150146 0.000000
0.859985 0.150085 0.000000
0.893127 0.150024 0.000000
0.930298 0.149963 0.000000
0.000000 0.176270 0.000000
0.008820 0.176392 0.000000
0.019958 0.176483 0.000000
0.035431 0.176544 0.000000
0.054688 0.176605 0.000000
0.076935 0.176636 0.000000
0.100952 0.176636 0.000000
0.125732 0.176666 0.000000
0.151093 0.176666 0.000000
0.176666 0.176666 0.000000
0.202850 0.176666 0.000000
0.229492 0.176666 0.000000
0.256714 0.176636 0.000000
0.284454 0.176636 0.000000
0.312744 0.176605 0.000000
0.341370 0.176605 0.000000
0.370667 0.176575 0.000000
0.400787 0.176544 0.000000
0.432129 0.176514 0.000000
0.465088 0.176453 0.000000
0.499420 0.176392 0.000000
0.534698 0.176331 0.000000
0.570435 0.176270 0.000000
0.606262 0.176208 0.000000
0.642487 0.176147 0.000000
0.679382 0.176056 0.000000
0.717316 0.175964 0.000000
0.755310 0.175903 0.000000
0.792419 0.175812 0.000000
0.827209 0.175751 0.000000
0.860046 0.175720 0.000000
0.893188 0.175659 0.000000
0.930389 0.175598 0.000000
0.000000 0.202423 0.000000
0.008728 0.202545 0.000000
0.019867 0.202637 0.000000
0.035370 0.202728 0.000000
0.054657 0.202759 0.000000
0.076904 0.202789 0.000000
0.100952 0.202820 0.000000
0.125732 0.202820 0.000000
0.151093 0.202820 0.000000
0.176666 0.202850 0.000000
0.202850 0.202850 0.000000
0.229492 0.202850 0.000000
0.256744 0.202820 0.000000
0.284454 0.202820 0.000000
0.312775 0.202820 0.000000
0.341400 0.202789 0.000000
0.370697 0.202789 0.000000
0.400818 0.202759 0.000000
0.432190 0.202728 0.000000
0.465149 0.202667 0.000000
0.499481 0.202637 0.000000
0.534760 0.202576 0.000000
0.570496 0.202484 0.000000
0.606354 0.202423 0.000000
0.642548 0.202362 0.000000
0.679443 0.202301 0.000000
0.717407 0.202209 0.000000
0.755371 0.202148 0.000000
0.792480 0.202057 0.000000
0.827240 0.201996 0.000000
0.860077 0.201965 0.000000
0.893250 0.201904 0.000000
0.930481 0.201843 0.000000
0.000000 0.229034 0.000000
0.008606 0.229156 0.000000
0.019775 0.229248 0.000000
0.035309 0.229340 0.000000
0.054626 0.229401 0.000000
0.076904 0.229431 0.000000
0.100922 0.229431 0.000000
0.125732 0.229462 0.000000
0.151062 0.229462 0.000000
0.176666 0.229492 0.000000
0.202850 0.229492 0.000000
0.229492 0.229492 0.000000
0.256744 0.229492 0.000000
0.284485 0.229492 0.000000
0.312775 0.229492 0.000000
0.341400 0.229462 0.000000
0.370728 0.229462 0.000000
0.400848 0.229431 0.000000
0.432220 0.229401 0.000000
0.465210 0.229370 0.000000
0.499542 0.229309 0.000000
0.534821 0.229248 0.000000
0.570557 0.229187 0.000000
0.606415 0.229126 0.000000
0.642639 0.229065 0.000000
0.679535 0.229004 0.000000
0.717499 0.228943 0.000000
0.755463 0.228851 0.000000
0.792542 0.228790 0.000000
0.827301 0.228729 0.000000
0.860138 0.228699 0.000000
0.893311 0.228638 0.000000
0.930573 0.228577 0.000000
0.000000 0.256226 0.000000
0.008484 0.256348 0.000000
0.019653 0.256470 0.000000
0.035248 0.256561 0.000000
0.054565 0.256622 0.000000
0.076874 0.256653 0.000000
0.100922 0.256683 0.000000
0.125702 0.256683 0.000000
0.151062 0.256714 0.000000
0.176636 0.256714 0.000000
0.202820 0.256744 0.000000
0.229492 0.256744 0.000000
0.256744 0.256744 0.000000
0.284485 0.256744 0.000000
0.312775 0.256744 0.000000
0.341431 0.256744 0.000000
0.370728 0.256714 0.000000
0.400848 0.256714 0.000000
0.432251 0.256683 0.000000
0.465240 0.256653 0.000000
0.499603 0.256592 0.000000
0.534882 0.256531 0.000000
0.570618 0.256500 0.000000
0.606476 0.256439 0.000000
0.642700 0.256378 0.000000
0.679596 0.256317 0.000000
0.717560 0.256226 0.000000
0.755524 0.256165 0.000000
0.792603 0.256104 0.000000
0.827362 0.256042 0.000000
0.860168 0.256012 0.000000
0.893372 0.255981 0.000000
0.930664 0.255920 0.000000
0.000000 0.283936 0.000000
0.008362 0.284058 0.000000
0.019562 0.284180 0.000000
0.035156 0.284271 0.000000
0.054535 0.284332 0.000000
0.076843 0.284363 0.000000
0.100891 0.284393 0.000000
0.125702 0.284424 0.000000
0.151062 0.284424 0.000000
0.176636 0.284454 0.000000
0.202820 0.284454 0.000000
0.229492 0.284485 0.000000
0.256744 0.284485 0.000000
0.284485 0.284485 0.000000
0.312805 0.284485 0.000000
0.341431 0.284485 0.000000
0.370758 0.284485 0.000000
0.400879 0.284454 0.000000
0.432281 0.284454 0.000000
0.465302 0.284393 0.000000
0.499664 0.284363 0.000000
0.534943 0.284302 0.000000
0.570679 0.284271 0.000000
0.606537 0.284210 0.000000
0.642761 0.284149 0.000000
0.679657 0.284088 0.000000
0.717651 0.284027 0.000000
0.755615 0.283966 0.000000
0.792664 0.283905 0.000000
0.827393 0.283844 0.000000
0.860199 0.283813 0.000000
0.893402 0.283783 0.000000
0.930756 0.283722 0.000000
0.000000 0.312195 0.000000
0.008240 0.312347 0.000000
0.019440 0.312439 0.000000
0.035095 0.312531 0.000000
0.054474 0.312592 0.000000
0.076813 0.312653 0.000000
0.100861 0.312683 0.000000
0.125671 0.312714 0.000000
0.151031 0.312744 0.000000
0.176605 0.312744 0.000000
0.202820 0.312775 0.000000
0.229492 0.312775 0.000000
0.256744 0.312775 0.000000
0.284485 0.312805 0.000000
0.312805 0.312805 0.000000
0.341431 0.312805 0.000000
0.370758 0.312805 0.000000
0.400909 0.312775 0.000000
0.432312 0.312775 0.000000
0.465332 0.312744 0.000000
0.499695 0.312683 0.000000
0.535004 0.312653 0.000000
0.570709 0.312592 0.000000
0.606567 0.312531 0.000000
0.642822 0.312500 0.000000
0.679718 0.312439 0.000000
0.717712 0.312378 0.000000
0.755676 0.312317 0.000000
0.792725 0.312256 0.000000
0.827423 0.312195 0.000000
0.860229 0.312164 0.000000
0.893463 0.312134 0.000000
0.930847 0.312073 0.000000
0.000000 0.340790 0.000000
0.008087 0.340942 0.000000
0.019348 0.341064 0.000000
0.035004 0.341156 0.000000
0.054443 0.341217 0.000000
0.076782 0.341248 0.000000
0.100861 0.341309 0.000000
0.125641 0.341339 0.000000
0.151001 0.341339 0.000000
0.176605 0.341370 0.000000
0.202789 0.341400 0.000000
0.229462 0.341400 0.000000
0.256744 0.341431 0.000000
0.284485 0.341431 0.000000
0.312805 0.341431 0.000000
0.341431 0.341431 0.000000
0.370758 0.341431 0.000000
0.400909 0.341431 0.000000
0.432343 0.341400 0.000000
0.465363 0.341400 0.000000
0.499756 0.341339 0.000000
0.535034 0.341309 0.000000
0.570770 0.341248 0.000000
0.606628 0.341217 0.000000
0.642883 0.341156 0.000000
0.679779 0.341125 0.000000
0.717773 0.341064 0.000000
0.755737 0.341003 0.000000
0.792786 0.340942 0.000000
0.827454 0.340881 0.000000
0.860260 0.340881 0.000000
0.893494 0.340851 0.000000
0.930908 0.340790 0.000000
0.000000 0.370056 0.000000
0.007965 0.370209 0.000000
0.019226 0.370331 0.000000
0.034943 0.370422 0.000000
0.054382 0.370483 0.000000
0.076752 0.370544 0.000000
0.100830 0.370575 0.000000
0.125610 0.370605 0.000000
0.150970 0.370636 0.000000
0.176575 0.370667 0.000000
0.202789 0.370697 0.000000
0.229462 0.370728 0.000000
0.256714 0.370728 0.000000
0.284485 0.370758 0.000000
0.312805 0.370758 0.000000
0.341431 0.370758 0.000000
0.370758 0.370758 0.000000
0.400940 0.370758 0.000000
0.432373 0.370758 0.000000
0.465393 0.370728 0.000000
0.499786 0.370697 0.000000
0.535095 0.370667 0.000000
0.570831 0.370605 0.000000
0.606689 0.370575 0.000000
0.642914 0.370544 0.000000
0.679840 0.370483 0.000000
0.717834 0.370422 0.000000
0.755798 0.370361 0.000000
0.792816 0.370331 0.000000
0.827484 0.370300 0.000000
0.860260 0.370270 0.000000
0.893524 0.370239 0.000000
0.931000 0.370178 0.000000
0.000000 0.400085 0.000000
0.007812 0.400238 0.000000
0.019104 0.400360 0.000000
0.034851 0.400482 0.000000
0.054321 0.400543 0.000000
0.076691 0.400604 0.000000
0.100769 0.400665 0.000000
0.125580 0.400696 0.000000
0.150940 0.400726 0.000000
0.176544 0.400787 0.000000
0.202759 0.400818 0.000000
0.229431 0.400848 0.000000
0.256714 0.400848 0.000000
0.284454 0.400879 0.000000
0.312775 0.400909 0.000000
0.341431 0.400909 0.000000
0.370758 0.400940 0.000000
0.400940 0.400940 0.000000
0.432373 0.400940 0.000000
0.465424 0.400909 0.000000
0.499817 0.400879 0.000000
0.535126 0.400848 0.000000
0.570862 0.400818 0.000000
0.606720 0.400787 0.000000
0.642975 0.400757 0.000000
0.679901 0.400696 0.000000
0.717896 0.400665 0.000000
0.755859 0.400604 0.000000
0.792847 0.400574 0.000000
0.827515 0.400543 0.000000
0.860291 0.400543 0.000000
0.893555 0.400513 0.000000
0.931061 0.400482 0.000000
0.000000 0.431366 0.000000
0.007690 0.431519 0.000000
0.018982 0.431671 0.000000
0.034760 0.431763 0.000000
0.054260 0.431854 0.000000
0.076630 0.431946 0.000000
0.100739 0.431976 0.000000
0.125549 0.432037 0.000000
0.150909 0.432098 0.000000
0.176514 0.432129 0.000000
0.202728 0.432190 0.000000
0.229401 0.432220 0.000000
0.256683 0.432251 0.000000
0.284454 0.432281 0.000000
0.312775 0.432312 0.000000
0.341400 0.432343 0.000000
0.370758 0.432373 0.000000
0.400940 0.432373 0.000000
0.432373 0.432373 0.000000
0.465454 0.432373 0.000000
0.499847 0.432373 0.000000
0.535156 0.432343 0.000000
0.570892 0.432343 0.000000
0.606750 0.432312 0.000000
0.643005 0.432281 0.000000
0.679932 0.432251 0.000000
0.717926 0.432220 0.000000
0.755890 0.432190 0.000000
0.792877 0.432159 0.000000
0.827545 0.432129 0.000000
0.860291 0.432129 0.000000
0.893585 0.432129 0.000000
0.931122 0.432098 0.000000
0.000000 0.464233 0.000000
0.007507 0.464386 0.000000
0.018860 0.464539 0.000000
0.034668 0.464691 0.000000
0.054169 0.464783 0.000000
0.076569 0.464844 0.000000
0.100677 0.464935 0.000000
0.125488 0.464996 0.000000
0.150848 0.465057 0.000000
0.176453 0.465088 0.000000
0.202667 0.465149 0.000000
0.229370 0.465210 0.000000
0.256653 0.465240 0.000000
0.284393 0.465302 0.000000
0.312744 0.465332 0.000000
0.341400 0.465363 0.000000
0.370728 0.465393 0.000000
0.400909 0.465424 0.000000
0.432373 0.465454 0.000000
0.465454 0.465454 0.000000
0.499847 0.465454 0.000000
0.535156 0.465424 0.000000
0.570923 0.465424 0.000000
0.606781 0.465424 0.000000
0.643036 0.465393 0.000000
0.679962 0.465393 0.000000
0.717957 0.465363 0.000000
0.755920 0.465332 0.000000
0.792908 0.465302 0.000000
0.827545 0.465302 0.000000
0.860291 0.465302 0.000000
0.893585 0.465332 0.000000
0.931152 0.465302 0.000000
0.000000 0.498474 0.000000
0.007355 0.498657 0.000000
0.018707 0.498810 0.000000
0.034546 0.498962 0.000000
0.054077 0.499054 0.000000
0.076508 0.499146 0.000000
0.100616 0.499237 0.000000
0.125427 0.499298 0.000000
0.150818 0.499359 0.000000
0.176392 0.499420 0.000000
0.202637 0.499481 0.000000
0.229309 0.499542 0.000000
0.256592 0.499603 0.000000
0.284363 0.499664 0.000000
0.312683 0.499695 0.000000
0.341339 0.499756 0.000000
0.370697 0.499786 0.000000
0.400879 0.499817 0.000000
0.432373 0.499847 0.000000
0.465454 0.499847 0.000000
0.499847 0.499847 0.000000
0.535187 0.499847 0.000000
0.570923 0.499847 0.000000
0.606781 0.499847 0.000000
0.643036 0.499847 0.000000
0.679993 0.499847 0.000000
0.717987 0.499817 0.000000
0.755951 0.499786 0.000000
0.792908 0.499786 0.000000
0.827545 0.499786 0.000000
0.860291 0.499817 0.000000
0.893585 0.499817 0.000000
0.931213 0.499817 0.000000
0.000000 0.533722 0.000000
0.007172 0.533905 0.000000
0.018555 0.534058 0.000000
0.034424 0.534210 0.000000
0.053986 0.534302 0.000000
0.076416 0.534393 0.000000
0.100555 0.534485 0.000000
0.125366 0.534546 0.000000
0.150726 0.534637 0.000000
0.176331 0.534698 0.000000
0.202576 0.534760 0.000000
0.229248 0.534821 0.000000
0.256531 0.534882 0.000000
0.284302 0.534943 0.000000
0.312653 0.535004 0.000000
0.341309 0.535034 0.000000
0.370667 0.535095 0.000000
0.400848 0.535126 0.000000
0.432343 0.535156 0.000000
0.465424 0.535156 0.000000
0.499847 0.535187 0.000000
0.535187 0.535187 0.000000
0.570923 0.535187 0.000000
0.606781 0.535187 0.000000
0.643066 0.535187 0.000000
0.680023 0.535156 0.000000
0.718018 0.535156 0.000000
0.755981 0.535126 0.000000
0.792908 0.535126 0.000000
0.827515 0.535156 0.000000
0.860260 0.535156 0.000000
0.893585 0.535187 0.000000
0.931244 0.535156 0.000000
0.000000 0.569427 0.000000
0.006989 0.569611 0.000000
0.018402 0.569763 0.000000
0.034302 0.569916 0.000000
0.053894 0.570038 0.000000
0.076355 0.570129 0.000000
0.100464 0.570190 0.000000
0.125275 0.570282 0.000000
0.150665 0.570343 0.000000
0.176270 0.570435 0.000000
0.202484 0.570496 0.000000
0.229187 0.570557 0.000000
0.256500 0.570618 0.000000
0.284271 0.570679 0.000000
0.312592 0.570709 0.000000
0.341248 0.570770 0.000000
0.370605 0.570831 0.000000
0.400818 0.570862 0.000000
0.432343 0.570892 0.000000
0.465424 0.570923 0.000000
0.499847 0.570923 0.000000
0.535187 0.570923 0.000000
0.570923 0.570923 0.000000
0.606781 0.570923 0.000000
0.643066 0.570923 0.000000
0.680023 0.570923 0.000000
0.718048 0.570892 0.000000
0.755981 0.570892 0.000000
0.792938 0.570892 0.000000
0.827515 0.570892 0.000000
0.860229 0.570923 0.000000
0.893585 0.570923 0.000000
0.931274 0.570923 0.000000
0.000000 0.605255 0.000000
0.006836 0.605438 0.000000
0.018250 0.605621 0.000000
0.034180 0.605743 0.000000
0.053802 0.605865 0.000000
0.076263 0.605957 0.000000
0.100403 0.606049 0.000000
0.125214 0.606140 0.000000
0.150604 0.606201 0.000000
0.176208 0.606262 0.000000
0.202423 0.606354 0.000000
0.229126 0.606415 0.000000
0.256439 0.606476 0.000000
0.284210 0.606537 0.000000
0.312531 0.606567 0.000000
0.341217 0.606628 0.000000
0.370575 0.606689 0.000000
0.400787 0.606720 0.000000
0.432312 0.606750 0.000000
0.465424 0.606781 0.000000
0.499847 0.606781 0.000000
0.535187 0.606781 0.000000
0.570923 0.606781 0.000000
0.606812 0.606812 0.000000
0.643066 0.606812 0.000000
0.680054 0.606781 0.000000
0.718048 0.606781 0.000000
0.756012 0.606781 0.000000
0.792908 0.606750 0.000000
0.827484 0.606781 0.000000
0.860229 0.606781 0.000000
0.893585 0.606812 0.000000
0.931305 0.606812 0.000000
0.000000 0.641449 0.000000
0.006653 0.641632 0.000000
0.018097 0.641815 0.000000
0.034058 0.641937 0.000000
0.053711 0.642059 0.000000
0.076172 0.642151 0.000000
0.100311 0.642242 0.000000
0.125122 0.642334 0.000000
0.150513 0.642426 0.000000
0.176147 0.642487 0.000000
0.202362 0.642548 0.000000
0.229065 0.642639 0.000000
0.256378 0.642700 0.000000
0.284149 0.642761 0.000000
0.312500 0.642822 0.000000
0.341156 0.642883 0.000000
0.370544 0.642914 0.000000
0.400757 0.642975 0.000000
0.432281 0.643005 0.000000
0.465393 0.643036 0.000000
0.499847 0.643036 0.000000
0.535187 0.643066 0.000000
0.570923 0.643066 0.000000
0.606812 0.643066 0.000000
0.643066 0.643066 0.000000
0.680054 0.643066 0.000000
0.718079 0.643066 0.000000
0.756012 0.643066 0.000000
0.792908 0.643066 0.000000
0.827484 0.643066 0.000000
0.860199 0.643097 0.000000
0.893555 0.643127 0.000000
0.931335 0.643127 0.000000
0.000000 0.678284 0.000000
0.006470 0.678467 0.000000
0.017914 0.678650 0.000000
0.033905 0.678802 0.000000
0.053589 0.678925 0.000000
0.076080 0.679016 0.000000
0.100220 0.679108 0.000000
0.125061 0.679199 0.000000
0.150452 0.679291 0.000000
0.176056 0.679382 0.000000
0.202301 0.679443 0.000000
0.229004 0.679535 0.000000
0.256317 0.679596 0.000000
0.284088 0.679657 0.000000
0.312439 0.679718 0.000000
0.341125 0.679779 0.000000
0.370483 0.679840 0.000000
0.400696 0.679901 0.000000
0.432251 0.679932 0.000000
0.465393 0.679962 0.000000
0.499847 0.679993 0.000000
0.535156 0.680023 0.000000
0.570923 0.680023 0.000000
0.606781 0.680054 0.000000
0.643066 0.680054 0.000000
0.680054 0.680054 0.000000
0.718079 0.680054 0.000000
0.756042 0.680054 0.000000
0.792908 0.680054 0.000000
0.827454 0.680084 0.000000
0.860168 0.680115 0.000000
0.893555 0.680145 0.000000
0.931335 0.680145 0.000000
0.000000 0.716187 0.000000
0.006256 0.716400 0.000000
0.017761 0.716583 0.000000
0.033783 0.716736 0.000000
0.053467 0.716858 0.000000
0.075989 0.716949 0.000000
0.100128 0.717072 0.000000
0.124969 0.717163 0.000000
0.150360 0.717255 0.000000
0.175964 0.717316 0.000000
0.202209 0.717407 0.000000
0.228943 0.717499 0.000000
0.256226 0.717560 0.000000
0.284027 0.717651 0.000000
0.312378 0.717712 0.000000
0.341064 0.717773 0.000000
0.370422 0.717834 0.000000
0.400665 0.717896 0.000000
0.432220 0.717926 0.000000
0.465363 0.717957 0.000000
0.499817 0.717987 0.000000
