Kodachrome 25 (K-14) - Look.cube
# Copyright: (C) Copyright 2017 by IWLTBAP
# Cannot be resold, shared or otherwise redistributed
# Website: https://luts.iwltbap.com
TITLE "Kodak Kodachrome 25 (K-14) - Neutral (Rec.709 sRGB)"
LUT_3D_SIZE 33
0.000000 0.000000 0.000000
0.010651 0.000001 0.000000
0.023495 0.000010 0.000000
0.042246 0.000000 0.000000
0.059863 0.000000 0.000000
0.085969 0.000000 0.000000
0.109152 0.000000 0.000000
0.135292 0.000000 0.000000
0.158128 0.000000 0.000000
0.179129 0.000000 0.000000
0.205874 0.000000 0.000000
0.244638 0.000000 0.000000
0.301745 0.000000 0.000000
0.378985 0.000000 0.000000
0.460530 0.000000 0.000768
0.528823 0.000000 0.002134
0.598803 0.000000 0.001994
0.675218 0.000000 0.001893
0.751950 0.000000 0.000133
0.833519 0.000000 0.000000
0.903889 0.000000 0.000000
0.948802 0.000000 0.000000
0.967258 0.000000 0.000000
0.974351 0.000000 0.000800
0.974341 0.000000 0.000000
0.974255 0.000000 0.000000
0.974323 0.001665 0.000000
0.974674 0.027973 0.000000
0.974790 0.061791 0.000000
0.975067 0.106855 0.017332
0.975133 0.158495 0.052545
0.975120 0.192465 0.069555
0.975129 0.223146 0.091454
0.007994 0.020382 0.004084
0.019682 0.019265 0.004088
0.032230 0.019268 0.004093
0.054013 0.019201 0.000000
0.075451 0.019123 0.000000
0.101594 0.019018 0.000000
0.127270 0.018911 0.000000
0.159614 0.018777 0.000000
0.191397 0.018643 0.000000
0.226904 0.016222 0.000000
0.261476 0.014535 0.000000
0.304568 0.014323 0.000000
0.360998 0.014069 0.000000
0.428240 0.013797 0.000000
0.495896 0.013580 0.000000
0.561749 0.015676 0.000000
0.633469 0.017084 0.000000
0.707738 0.016938 0.000000
0.774259 0.018689 0.000000
0.840519 0.021188 0.000000
0.897021 0.022988 0.000000
0.940414 0.029552 0.000000
0.963953 0.042692 0.000000
0.971509 0.053588 0.000000
0.971546 0.064464 0.000000
0.971644 0.076699 0.002265
0.972418 0.094369 0.009498
0.975044 0.120192 0.014612
0.975092 0.149164 0.023739
0.975119 0.181188 0.045028
0.975098 0.219199 0.069517
0.975109 0.248961 0.091397
0.975120 0.278816 0.120729
0.019609 0.042758 0.011763
0.028401 0.042301 0.008436
0.039156 0.041820 0.008421
0.064358 0.042322 0.003949
0.090349 0.042279 0.000000
0.119746 0.041729 0.000000
0.149506 0.045404 0.000000
0.186032 0.045910 0.000000
0.227200 0.042684 0.002499
0.272922 0.038889 0.003067
0.323412 0.033257 0.000000
0.370278 0.032201 0.000000
0.422004 0.032093 0.000000
0.476425 0.032041 0.000000
0.533819 0.034029 0.000000
0.598974 0.040031 0.000000
0.671179 0.045378 0.000000
0.743695 0.046730 0.000000
0.802035 0.048416 0.000000
0.850361 0.050576 0.000000
0.893887 0.053686 0.000000
0.934031 0.062297 0.000000
0.961648 0.076667 0.000000
0.971442 0.103503 0.000000
0.971456 0.132119 0.000000
0.971615 0.157916 0.008335
0.972430 0.186084 0.025548
0.975094 0.209890 0.040440
0.975078 0.235595 0.055397
0.975068 0.258229 0.069464
0.975089 0.282054 0.091329
0.975109 0.308445 0.121211
0.975090 0.334899 0.147104
0.028222 0.079539 0.031928
0.039561 0.075608 0.023243
0.057021 0.075206 0.019196
0.079004 0.075192 0.015890
0.101854 0.075550 0.011437
0.137757 0.075121 0.011302
0.175027 0.078632 0.006551
0.212699 0.079386 0.006802
0.249008 0.076138 0.006238
0.294184 0.078007 0.006012
0.342467 0.080689 0.005787
0.386255 0.081435 0.006012
0.435194 0.079038 0.003006
0.489947 0.077913 0.001266
0.551545 0.078066 0.000000
0.621418 0.078774 0.000000
0.693157 0.081942 0.000000
0.753607 0.085809 0.000000
0.802655 0.091255 0.000000
0.842253 0.101286 0.000000
0.876435 0.112449 0.001710
0.911157 0.122661 0.004420
0.936987 0.134743 0.005966
0.950000 0.159461 0.012079
0.956993 0.188877 0.025578
0.964231 0.215543 0.044233
0.972346 0.240418 0.061043
0.975069 0.259617 0.071844
0.975077 0.279258 0.084631
0.975093 0.301457 0.097306
0.975107 0.320733 0.112194
0.975099 0.340296 0.133900
0.975084 0.359788 0.155438
0.034982 0.118038 0.053119
0.053749 0.114265 0.043400
0.075697 0.114744 0.036144
0.094565 0.110894 0.027283
0.117136 0.110906 0.023993
0.156081 0.113951 0.022821
0.198051 0.114407 0.019087
0.235285 0.114840 0.018446
0.271386 0.114780 0.014988
0.315364 0.119915 0.014769
0.359354 0.126782 0.014562
0.398778 0.128543 0.014409
0.447042 0.126120 0.011580
0.503472 0.125527 0.007129
0.566952 0.123796 0.003279
0.638650 0.122759 0.000787
0.710543 0.125487 0.000000
0.762308 0.131352 0.000000
0.802918 0.139841 0.000000
0.835385 0.151955 0.003349
0.862603 0.165356 0.011461
0.888282 0.175634 0.016819
0.911734 0.188094 0.021331
0.928975 0.213160 0.035975
0.943280 0.240975 0.053208
0.957434 0.263707 0.069468
0.969924 0.286261 0.086457
0.975101 0.303512 0.102014
0.975108 0.316919 0.118798
0.975104 0.335915 0.127069
0.975099 0.351183 0.132450
0.975089 0.366684 0.148031
0.975087 0.378476 0.165253
0.046821 0.167740 0.091796
0.061926 0.164134 0.076584
0.084897 0.164196 0.066205
0.109643 0.160558 0.056052
0.138372 0.159866 0.049018
0.174640 0.160308 0.049041
0.213900 0.160735 0.045499
0.250838 0.160729 0.041932
0.287058 0.160696 0.038408
0.329274 0.163657 0.037656
0.374438 0.168075 0.034926
0.420322 0.169988 0.033590
0.470115 0.170191 0.031044
0.525698 0.170170 0.026202
0.584503 0.170647 0.024506
0.643610 0.174549 0.026467
0.701490 0.181801 0.027813
0.748342 0.188800 0.027863
0.781600 0.198619 0.029790
0.811362 0.209938 0.036782
0.837383 0.221879 0.044999
0.858964 0.231753 0.051737
0.878519 0.242670 0.055388
0.900364 0.261997 0.065049
0.918999 0.282473 0.077869
0.936544 0.301881 0.090477
0.951801 0.320514 0.105928
0.964787 0.335114 0.117360
0.973697 0.344820 0.130495
0.975096 0.362910 0.137295
0.975094 0.377645 0.144387
0.975094 0.391954 0.158347
0.975113 0.403208 0.176132
0.054562 0.220440 0.131265
0.069016 0.216620 0.116060
0.085540 0.216960 0.100485
0.121056 0.213102 0.085365
0.153578 0.212835 0.074301
0.188222 0.212919 0.073141
0.229465 0.213303 0.070093
0.265157 0.209684 0.066244
0.302760 0.210006 0.063564
0.344172 0.212687 0.059489
0.388527 0.216367 0.056729
0.438651 0.215575 0.056125
0.492322 0.214921 0.052059
0.546654 0.215672 0.050172
0.599635 0.218477 0.049803
0.647321 0.225833 0.052437
0.691554 0.236791 0.055617
0.731099 0.245713 0.057275
0.756855 0.255024 0.058799
0.782644 0.264759 0.063644
0.808006 0.274388 0.070673
0.830996 0.285609 0.077413
0.849748 0.297421 0.083825
0.870644 0.312313 0.091852
0.892959 0.325077 0.104217
0.914628 0.338690 0.114041
0.932823 0.353079 0.124604
0.950658 0.361821 0.131952
0.964226 0.370237 0.138251
0.973924 0.385423 0.147598
0.975103 0.400062 0.157545
0.975130 0.415164 0.171885
0.975164 0.426420 0.191874
0.030927 0.285012 0.160668
0.043375 0.280848 0.151813
0.057988 0.278125 0.143782
0.097435 0.277735 0.138832
0.140947 0.277321 0.130531
0.187893 0.277667 0.116941
0.237757 0.277686 0.103511
0.276874 0.274320 0.099344
0.318309 0.270664 0.095133
0.362392 0.276156 0.090813
0.407291 0.280312 0.086788
0.451955 0.279215 0.086368
0.497773 0.277955 0.081257
0.543723 0.278529 0.078376
0.589101 0.280957 0.078610
0.630907 0.285165 0.078895
0.670073 0.291163 0.082111
0.703612 0.298740 0.084143
0.732019 0.306444 0.085623
0.756081 0.314912 0.087933
0.783316 0.322626 0.092741
0.807468 0.329715 0.099545
0.827163 0.337631 0.105972
0.848315 0.349806 0.113570
0.869178 0.359971 0.121161
0.892246 0.369172 0.129451
0.913863 0.381175 0.137244
0.932867 0.390476 0.143899
0.950616 0.398273 0.147601
0.965030 0.410503 0.155071
0.975140 0.422699 0.163824
0.975173 0.434526 0.180600
0.975205 0.445930 0.202465
0.019082 0.344283 0.192631
0.032189 0.340734 0.187983
0.044866 0.337047 0.185918
0.087484 0.337162 0.182005
0.135116 0.336834 0.173976
0.190062 0.337112 0.154416
0.248341 0.334141 0.137716
0.290349 0.331086 0.132054
0.332823 0.330281 0.125030
0.380048 0.332137 0.124145
0.424088 0.336827 0.120532
0.462234 0.335769 0.116555
0.500983 0.334778 0.111001
0.541118 0.334818 0.107746
0.576747 0.337287 0.107940
0.614863 0.339408 0.108187
0.651905 0.340787 0.110667
0.682416 0.345515 0.113516
0.709301 0.351474 0.113672
0.738258 0.358047 0.114742
0.762949 0.364199 0.114831
0.788765 0.368904 0.118636
0.810776 0.373846 0.123009
0.832783 0.382170 0.127440
0.853594 0.389438 0.130412
0.874829 0.394721 0.137701
0.897443 0.403860 0.144803
0.916785 0.415262 0.151605
0.935879 0.425192 0.155087
0.954648 0.433544 0.161960
0.975181 0.442240 0.169551
0.975225 0.453255 0.189391
0.975252 0.464191 0.212237
0.064569 0.398542 0.224168
0.079407 0.394696 0.220309
0.093241 0.390833 0.220357
0.130665 0.387688 0.205595
0.171044 0.387565 0.188717
0.222310 0.384813 0.175660
0.271852 0.379109 0.158685
0.317202 0.378062 0.152310
0.356667 0.377398 0.146121
0.395063 0.377435 0.144378
0.437922 0.381064 0.142232
0.474048 0.380026 0.141032
0.508890 0.378863 0.137996
0.541927 0.379050 0.133976
0.575533 0.381464 0.131417
0.608401 0.383371 0.128860
0.642076 0.383701 0.130717
0.673603 0.383916 0.132930
0.701173 0.387812 0.133161
0.727239 0.391545 0.133368
0.751791 0.396423 0.133538
0.777934 0.401571 0.133636
0.801121 0.406870 0.136130
0.822565 0.411695 0.139552
0.842290 0.416614 0.142445
0.862253 0.421281 0.147562
0.882570 0.429440 0.153774
0.905655 0.439505 0.157993
0.929139 0.445860 0.161980
0.949340 0.453145 0.169240
0.975242 0.460659 0.179385
0.975296 0.471785 0.195208
0.975339 0.483091 0.214402
0.125192 0.449447 0.245233
0.142846 0.445601 0.244488
0.160667 0.441753 0.244557
0.192456 0.437981 0.222948
0.222927 0.434784 0.197246
0.264178 0.428955 0.186867
0.304219 0.421768 0.176870
0.347944 0.420376 0.170861
0.383848 0.420356 0.166608
0.417020 0.420367 0.162115
0.450656 0.420278 0.162230
0.482843 0.421698 0.161216
0.517414 0.420462 0.159019
0.547018 0.420573 0.155922
0.575792 0.420835 0.152759
0.604011 0.422206 0.147722
0.634973 0.422426 0.145843
0.665907 0.422584 0.147069
0.694542 0.422695 0.147306
0.720184 0.424004 0.147967
0.744745 0.426618 0.146327
0.769897 0.431747 0.145533
0.793369 0.438065 0.146537
0.815149 0.440843 0.150211
0.833412 0.442907 0.153753
0.852028 0.447567 0.157164
0.870916 0.454864 0.161600
0.896812 0.462731 0.165007
0.923127 0.466815 0.168935
0.945603 0.474263 0.176584
0.973474 0.482080 0.188862
0.975418 0.493429 0.202725
0.975463 0.502378 0.214613
0.196784 0.486604 0.242259
0.213792 0.482662 0.242284
0.232643 0.481284 0.242321
0.256503 0.474655 0.228649
0.277029 0.470733 0.209621
0.311347 0.466037 0.201322
0.345048 0.463403 0.195986
0.378254 0.461996 0.191090
0.408984 0.461970 0.186868
0.436332 0.456912 0.182933
0.463758 0.456933 0.178966
0.489207 0.456972 0.179069
0.519716 0.457032 0.176663
0.549285 0.457108 0.172896
0.576833 0.457202 0.169330
0.603805 0.457307 0.163725
0.632403 0.455541 0.160536
0.661997 0.455076 0.160809
0.687575 0.455046 0.160992
0.712187 0.455205 0.161165
0.737066 0.456700 0.160137
0.759769 0.460357 0.157004
0.782976 0.465226 0.157082
0.807216 0.467922 0.159596
0.828599 0.467886 0.161608
0.846255 0.470819 0.164295
0.865003 0.477693 0.166877
0.890915 0.482856 0.172057
0.915582 0.487014 0.176323
0.938961 0.494652 0.184555
0.965898 0.502726 0.195064
0.975542 0.514156 0.208774
0.975557 0.519344 0.218086
0.271958 0.522443 0.233366
0.286299 0.518667 0.233346
0.302665 0.518418 0.235881
0.317883 0.511351 0.230022
0.334990 0.507076 0.223038
0.362331 0.503102 0.217490
0.385531 0.502389 0.216007
0.411345 0.502273 0.214581
0.434815 0.502182 0.210578
0.456321 0.498891 0.204076
0.476236 0.494148 0.197033
0.500722 0.494202 0.195906
0.523733 0.494199 0.193218
0.551678 0.494205 0.191835
0.579286 0.491926 0.187694
0.603979 0.491650 0.181696
0.632195 0.489747 0.177855
0.660181 0.485962 0.178039
0.681984 0.485367 0.176234
0.704254 0.485380 0.175709
0.729634 0.486865 0.174540
0.750376 0.490628 0.170638
0.772539 0.493283 0.168272
0.797071 0.494696 0.169707
0.821274 0.494695 0.170765
0.841352 0.496336 0.173795
0.861036 0.503426 0.174491
0.884660 0.507266 0.179936
0.908144 0.511183 0.184643
0.931361 0.516904 0.192876
0.957468 0.524395 0.199506
0.971932 0.533233 0.213689
0.975645 0.537005 0.222481
0.335814 0.555291 0.242215
0.346153 0.551466 0.239738
0.359107 0.551254 0.241032
0.368458 0.544349 0.238098
0.380756 0.540361 0.234780
0.400787 0.536565 0.231093
0.419438 0.535722 0.230369
0.439819 0.535808 0.230521
0.457263 0.535803 0.227746
0.475642 0.533073 0.223748
0.492752 0.529282 0.218192
0.512064 0.527996 0.215593
0.534852 0.528067 0.213478
0.557965 0.523362 0.206316
0.583083 0.521302 0.204138
0.605645 0.519596 0.202659
0.632120 0.519690 0.196739
0.660085 0.518172 0.194734
0.680503 0.514720 0.194211
0.701185 0.514187 0.192440
0.724894 0.514198 0.191002
0.746133 0.517127 0.188301
0.764467 0.519713 0.185245
0.788301 0.519667 0.184026
0.810101 0.520588 0.184055
0.832235 0.522820 0.185644
0.854159 0.528187 0.185989
0.877064 0.531303 0.188189
0.900397 0.533337 0.191989
0.924287 0.537426 0.196231
0.952631 0.544611 0.201330
0.969351 0.549802 0.215055
0.975722 0.553616 0.224778
0.385555 0.583544 0.255494
0.393068 0.579478 0.252404
0.402274 0.579278 0.252065
0.408125 0.572109 0.248853
0.417237 0.567916 0.247663
0.431449 0.564220 0.244482
0.447513 0.563620 0.241732
0.461001 0.563664 0.241857
0.476651 0.563616 0.239535
0.492774 0.563030 0.238047
0.509200 0.559140 0.234424
0.524823 0.557972 0.233753
0.546065 0.555849 0.231478
0.567500 0.551303 0.225434
0.588280 0.546096 0.219871
0.609395 0.544444 0.218534
0.632162 0.544590 0.216499
0.660027 0.544607 0.212522
0.678674 0.542924 0.210390
0.698852 0.540702 0.210575
0.722427 0.540726 0.208903
0.743103 0.540805 0.204353
0.759476 0.542509 0.203405
0.780741 0.543600 0.201419
0.800893 0.545636 0.200132
0.823585 0.547660 0.199189
0.845784 0.548731 0.198231
0.870365 0.551762 0.196611
0.895075 0.552264 0.198609
0.918852 0.555805 0.198982
0.948873 0.561086 0.203876
0.967468 0.564648 0.215188
0.975807 0.568301 0.222376
0.423679 0.608951 0.264401
0.431637 0.605155 0.261261
0.439355 0.605002 0.263058
0.443516 0.602098 0.259855
0.450746 0.598053 0.259474
0.461215 0.594007 0.256542
0.471231 0.588944 0.253127
0.481159 0.588818 0.252456
0.495901 0.588918 0.250269
0.511317 0.588822 0.249649
0.526480 0.588132 0.247412
0.541506 0.586698 0.246368
0.559911 0.583940 0.244550
0.578940 0.579680 0.241053
0.598071 0.574114 0.235823
0.615233 0.570530 0.232705
0.634072 0.568686 0.230929
0.659969 0.568687 0.227520
0.678618 0.567022 0.225202
0.693930 0.564843 0.225372
0.716195 0.564858 0.224380
0.739362 0.564876 0.220437
0.755786 0.564877 0.217269
0.774999 0.565935 0.217382
0.794349 0.568601 0.216689
0.817025 0.569517 0.211972
0.840670 0.567259 0.209695
0.865241 0.570248 0.205638
0.891571 0.570552 0.205673
0.917190 0.574077 0.206492
0.947128 0.577699 0.210836
0.966090 0.581550 0.216206
0.975920 0.583508 0.220453
0.454738 0.632438 0.271938
0.460061 0.630633 0.270075
0.467226 0.630505 0.273557
0.473002 0.630542 0.270481
0.480275 0.627118 0.268297
0.489446 0.623219 0.267378
0.497838 0.617781 0.265761
0.503440 0.614108 0.263066
0.515196 0.614126 0.260732
0.530198 0.614099 0.260170
0.545324 0.614086 0.257804
0.561021 0.614070 0.256898
0.577199 0.611446 0.255190
0.593855 0.607523 0.253821
0.607552 0.603786 0.250461
0.624415 0.600088 0.245888
0.639933 0.598209 0.242441
0.661680 0.596284 0.241068
0.678838 0.594474 0.239167
0.693820 0.592196 0.239324
0.712255 0.590607 0.238273
0.735996 0.590050 0.235162
0.754126 0.590027 0.231509
0.773139 0.589972 0.230350
0.792548 0.591963 0.229651
0.813408 0.590984 0.225488
0.838955 0.587696 0.221324
0.863648 0.590382 0.218110
0.889888 0.592191 0.218213
0.917029 0.595544 0.218364
0.945537 0.597516 0.220606
0.966286 0.601170 0.220741
0.976104 0.601113 0.223326
0.480579 0.652507 0.279743
0.484378 0.650869 0.279756
0.490141 0.650815 0.283414
0.497833 0.650723 0.280167
0.505535 0.649250 0.276551
0.513276 0.647335 0.275977
0.520839 0.643771 0.276000
0.527205 0.640124 0.273226
0.534960 0.637457 0.269508
0.547246 0.637419 0.268999
0.561030 0.635668 0.266588
0.576785 0.635700 0.265791
0.590102 0.633343 0.263927
0.605550 0.631415 0.262747
0.618510 0.627710 0.261167
0.631842 0.625742 0.259227
0.650346 0.623838 0.254662
0.666776 0.623832 0.253339
0.684351 0.621952 0.251978
0.697471 0.619583 0.250536
0.714630 0.617850 0.250718
0.737719 0.615192 0.248948
0.755922 0.615161 0.246294
0.775218 0.615208 0.243131
0.794611 0.613985 0.241566
0.814591 0.612997 0.238734
0.839152 0.610708 0.236286
0.863753 0.610626 0.232980
0.890050 0.612731 0.232683
0.917192 0.614929 0.231544
0.943722 0.615340 0.231229
0.966477 0.621335 0.231837
0.976316 0.623069 0.231897
0.503711 0.671952 0.289050
0.505795 0.667740 0.289022
0.511427 0.667602 0.291085
0.517074 0.667578 0.287946
0.524566 0.667586 0.284174
0.532085 0.667611 0.283941
0.539623 0.664201 0.283975
0.547197 0.660431 0.282514
0.555023 0.656763 0.278924
0.564132 0.655753 0.278094
0.574086 0.653156 0.275402
0.588013 0.651886 0.272740
0.600981 0.649552 0.270669
0.613085 0.648212 0.269558
0.625981 0.646120 0.269409
0.641714 0.644476 0.268023
0.658220 0.644482 0.266294
0.674675 0.644476 0.265159
0.690306 0.642799 0.263640
0.703436 0.640659 0.260652
0.720782 0.640618 0.259052
0.740987 0.638508 0.259220
0.759716 0.637247 0.258256
0.779194 0.636773 0.255014
0.798560 0.635834 0.252043
0.818398 0.632855 0.249358
0.840914 0.632819 0.249074
0.865599 0.632712 0.246356
0.891568 0.632649 0.246032
0.917218 0.632538 0.242842
0.943839 0.632943 0.242953
0.966610 0.640135 0.243139
0.976466 0.643724 0.241979
0.524948 0.692564 0.298986
0.526492 0.688719 0.298963
0.533780 0.687102 0.299007
0.536212 0.687145 0.295445
0.541722 0.687188 0.292110
0.549427 0.687159 0.291614
0.557178 0.684142 0.291662
0.565186 0.680517 0.291707
0.573178 0.676614 0.288866
0.580796 0.673752 0.288040
0.588249 0.672601 0.285460
0.597895 0.671232 0.283470
0.610816 0.670367 0.280010
0.622094 0.668795 0.277097
0.635098 0.666372 0.277257
0.650609 0.664549 0.277426
0.666929 0.662867 0.275716
0.680582 0.661305 0.273963
0.695664 0.661145 0.272541
0.708936 0.659017 0.269170
0.725043 0.659011 0.267083
0.742945 0.658924 0.267544
0.762083 0.658948 0.266691
0.781636 0.656730 0.263488
0.800921 0.655672 0.261176
0.820601 0.652696 0.259471
0.843054 0.652629 0.258847
0.867815 0.652587 0.256004
0.893935 0.652464 0.254574
0.917712 0.652392 0.251978
0.945334 0.652293 0.252071
0.966610 0.656881 0.252196
0.976588 0.660539 0.248750
0.543658 0.715497 0.306460
0.547483 0.711689 0.306463
0.553625 0.707766 0.306486
0.555648 0.707530 0.304437
0.559152 0.707515 0.301035
0.566681 0.707581 0.300570
0.574483 0.704304 0.300617
0.580701 0.700529 0.300645
0.588190 0.698117 0.297709
0.595920 0.694395 0.295542
0.602138 0.691861 0.294470
0.609701 0.691814 0.293438
0.619684 0.690451 0.291285
0.631059 0.690518 0.287677
0.645695 0.689739 0.286384
0.660037 0.688082 0.286513
0.674470 0.686130 0.284849
0.686365 0.682536 0.282830
0.699669 0.680562 0.282633
0.715348 0.680537 0.279132
0.731415 0.680531 0.277116
0.746081 0.680578 0.275990
0.762387 0.680547 0.274829
0.781688 0.680477 0.271450
0.800901 0.679403 0.268977
0.820693 0.675390 0.269008
0.843129 0.674652 0.268432
0.867975 0.675159 0.265608
0.894591 0.676113 0.262387
0.919368 0.676039 0.259696
0.949453 0.675934 0.259772
0.968084 0.675900 0.258754
0.976716 0.678381 0.255537
0.560291 0.737238 0.313913
0.564321 0.733298 0.313920
0.568351 0.730813 0.313936
0.572163 0.729121 0.313955
0.577391 0.729251 0.310868
0.583108 0.729140 0.310425
0.590738 0.725907 0.310469
0.598033 0.723462 0.310519
0.604802 0.722634 0.307844
0.609752 0.719847 0.304288
0.614665 0.714704 0.303260
0.621000 0.713530 0.303333
0.631013 0.711014 0.302386
0.643068 0.709600 0.299025
0.656450 0.709644 0.297515
0.668648 0.709619 0.296239
0.682100 0.707590 0.295782
0.693640 0.703670 0.294169
0.704819 0.701595 0.294248
0.720731 0.701623 0.294098
0.736432 0.701598 0.290511
0.749092 0.701528 0.289439
0.766280 0.701600 0.285699
0.783054 0.701511 0.282167
0.801323 0.700577 0.279493
0.820766 0.696631 0.278914
0.843254 0.693571 0.278339
0.868055 0.694067 0.275303
0.894722 0.697336 0.271927
0.921975 0.697262 0.269131
0.951943 0.697165 0.269186
0.970464 0.697146 0.266013
0.976840 0.697106 0.262779
0.573397 0.756794 0.321391
0.577217 0.752319 0.321398
0.581034 0.752200 0.321426
0.584783 0.748859 0.321438
0.592069 0.748510 0.318379
0.596347 0.748488 0.317965
0.603447 0.746635 0.318020
0.612859 0.745869 0.317887
0.621208 0.744747 0.315458
0.623106 0.743132 0.311915
0.625789 0.736432 0.310686
0.632296 0.732648 0.310735
0.641652 0.730202 0.310818
0.654288 0.728666 0.309936
0.665092 0.728707 0.307269
0.676335 0.728710 0.306593
0.689709 0.726763 0.303844
0.701306 0.724103 0.303916
0.712755 0.721961 0.305286
0.728762 0.721925 0.305399
0.742961 0.721949 0.303934
0.756120 0.720623 0.300544
0.771482 0.720600 0.297054
0.787145 0.720570 0.294600
0.805191 0.720541 0.290969
0.822043 0.716977 0.289259
0.844507 0.713910 0.286069
0.868811 0.713773 0.286113
0.894745 0.716420 0.282893
0.922746 0.716345 0.279309
0.954337 0.716246 0.278136
0.971562 0.716317 0.275066
0.976958 0.716284 0.271307
0.588548 0.777897 0.330446
0.592273 0.770306 0.329177
0.596164 0.768991 0.329204
0.600054 0.766611 0.329229
0.606162 0.766295 0.326928
0.610332 0.766315 0.326539
0.617364 0.766417 0.326613
0.624859 0.766385 0.326693
0.631352 0.763576 0.323928
0.634576 0.762682 0.320208
0.637462 0.757663 0.319101
0.644467 0.753038 0.319142
0.653084 0.750520 0.319197
0.662503 0.749134 0.319254
0.673556 0.749149 0.317305
0.684947 0.749163 0.315783
0.698348 0.747268 0.314001
0.710278 0.745383 0.312167
0.720675 0.745353 0.312954
0.736408 0.745347 0.315162
0.749130 0.744215 0.314753
0.763719 0.743928 0.311226
0.779464 0.741274 0.307789
0.793705 0.741223 0.305283
0.810188 0.741222 0.304295
0.827649 0.741167 0.300111
0.849485 0.737503 0.294359
0.873071 0.736953 0.294387
0.896557 0.736880 0.293851
0.925110 0.736809 0.290484
0.962017 0.736680 0.286461
0.975830 0.736735 0.283808
0.977082 0.736628 0.279272
0.604614 0.797877 0.341779
0.608443 0.790264 0.337940
0.612301 0.787406 0.337970
0.615169 0.786182 0.337996
0.618837 0.787268 0.338037
0.622584 0.787288 0.338077
0.629504 0.786222 0.338144
0.636386 0.786289 0.338210
0.641395 0.783471 0.335363
0.645707 0.782482 0.331632
0.651273 0.778037 0.330603
0.657725 0.773073 0.331479
0.664663 0.771715 0.331519
0.674415 0.771704 0.330734
0.684903 0.771768 0.328458
0.696298 0.771797 0.327026
0.709014 0.769859 0.324932
0.721141 0.767890 0.323028
0.731055 0.767941 0.322202
0.742916 0.767955 0.322261
0.756100 0.766457 0.322301
0.770600 0.764126 0.321879
0.786144 0.764082 0.318342
0.801440 0.764139 0.316112
0.814900 0.764056 0.315220
0.834208 0.764038 0.311722
0.858340 0.763287 0.305547
0.879802 0.760207 0.305291
0.900586 0.760124 0.304792
0.931836 0.760031 0.301700
0.968143 0.759951 0.298791
0.977186 0.759973 0.294955
0.977189 0.759950 0.291571
0.624151 0.822412 0.354330
0.627166 0.815749 0.351482
0.631063 0.815532 0.351327
0.631313 0.811982 0.351321
0.634879 0.813434 0.350587
0.638896 0.813796 0.349849
0.646767 0.810689 0.349904
0.651955 0.810024 0.349938
0.655852 0.807045 0.346835
0.659447 0.806175 0.343887
0.665372 0.804320 0.342920
0.672836 0.801373 0.345543
0.680416 0.800028 0.346768
0.690376 0.800057 0.344655
0.698868 0.799233 0.340898
0.707926 0.798373 0.338306
0.719935 0.797241 0.337345
0.730981 0.795354 0.335332
0.739856 0.794414 0.333706
0.749940 0.794460 0.331646
0.763686 0.792986 0.330826
0.778038 0.790614 0.329993
0.790878 0.790603 0.329589
0.806334 0.790629 0.326828
0.822393 0.790544 0.326852
0.840640 0.790560 0.324049
0.861963 0.790566 0.319643
0.883652 0.787473 0.316032
0.903979 0.787431 0.315808
0.934771 0.787346 0.313054
0.970976 0.787301 0.313061
0.977270 0.787295 0.309717
0.977271 0.787233 0.306747
0.649283 0.851930 0.368916
0.649294 0.848070 0.368913
0.653351 0.848014 0.368939
0.653605 0.844402 0.369116
0.656236 0.841386 0.365706
0.659837 0.840919 0.362632
0.666260 0.837862 0.362116
0.670742 0.837103 0.361223
0.674652 0.834213 0.359213
0.678328 0.833276 0.358118
0.684194 0.832568 0.357404
0.692485 0.832559 0.359314
0.700169 0.832621 0.360834
0.709679 0.832655 0.359224
0.717070 0.830499 0.355520
0.723378 0.827454 0.352507
0.732617 0.825620 0.350626
0.742837 0.825605 0.350671
0.752645 0.824055 0.348955
0.763921 0.821871 0.346819
0.775686 0.820433 0.345452
0.787271 0.817905 0.341671
0.799416 0.817868 0.339057
