Kodak Vision 800T (5289) - Look.cube
# Created by Benjamin (IWLTBAP) : http://luts.iwltbap.com
# Copyright: (C) Copyright 2010-2017 Triune Films and IWLTBAP SAS
# Cannot be resold, shared or otherwise redistributed
TITLE "Film Print Emulation LUTs Pack (Rec.709, sRGB, DCI-P3)"
LUT_3D_SIZE 5
0.000000 0.000000 0.000000
0.204529 0.030243 0.054474
0.420258 0.030670 0.108917
0.651794 0.047943 0.176086
0.892883 0.112335 0.241455
0.011780 0.182739 0.093353
0.183624 0.204468 0.114044
0.448425 0.210266 0.136078
0.699799 0.222504 0.188843
0.926788 0.293335 0.263519
0.011871 0.391815 0.192566
0.118835 0.418427 0.185486
0.428802 0.443237 0.210968
0.716858 0.483276 0.248260
0.951324 0.534515 0.313812
0.028046 0.616882 0.275116
0.069305 0.641541 0.269501
0.476837 0.682587 0.300140
0.724823 0.707214 0.343018
0.919373 0.735626 0.385040
0.119965 0.821259 0.359070
0.199066 0.835022 0.367096
0.547852 0.855988 0.407349
0.745514 0.861420 0.431122
0.893707 0.867950 0.458588
0.013550 0.034241 0.151947
0.172089 0.042725 0.256500
0.436920 0.033264 0.213165
0.670502 0.049957 0.269928
0.908142 0.126160 0.328735
0.011536 0.185333 0.225616
0.209320 0.208557 0.238129
0.457153 0.222443 0.254150
0.719177 0.239502 0.299591
0.948120 0.326202 0.375031
0.012024 0.399933 0.277679
0.168793 0.421967 0.298798
0.449554 0.456787 0.337463
0.739563 0.494904 0.366516
0.965576 0.539581 0.426178
0.025940 0.626770 0.363159
0.131226 0.644897 0.373657
0.497101 0.689575 0.420959
0.724213 0.709503 0.457855
0.922119 0.740540 0.486816
0.148102 0.828186 0.447327
0.266418 0.839264 0.470306
0.546661 0.854218 0.510681
0.749939 0.863434 0.531677
0.894287 0.869019 0.555878
0.020203 0.083832 0.301941
0.068787 0.092926 0.478577
0.428314 0.074280 0.490723
0.682648 0.118591 0.477173
0.912750 0.215820 0.489197
0.018646 0.214539 0.378113
0.116302 0.239136 0.498352
0.451843 0.258118 0.485931
0.722290 0.300568 0.496338
0.941467 0.367737 0.537231
0.008057 0.412384 0.463715
0.226837 0.436707 0.491699
0.495728 0.478729 0.490784
0.756744 0.513306 0.537872
0.972412 0.560333 0.582428
0.023590 0.643768 0.507721
0.219513 0.666931 0.530670
0.524384 0.697510 0.578156
0.737549 0.718658 0.606079
0.930756 0.746857 0.616882
0.193481 0.840668 0.588074
0.312500 0.848511 0.606964
0.571625 0.855682 0.639893
0.757904 0.867035 0.661621
0.893524 0.871338 0.675018
0.028748 0.132812 0.496124
0.071655 0.137726 0.644745
0.437256 0.149475 0.714233
0.707489 0.178528 0.718323
0.911499 0.248047 0.714294
0.026886 0.258942 0.588837
0.098572 0.289886 0.721924
0.483154 0.315826 0.726746
0.741241 0.352600 0.732544
0.932129 0.415253 0.748230
0.008270 0.451630 0.663177
0.135315 0.495789 0.740967
0.521210 0.519043 0.739502
0.753845 0.547729 0.732300
0.939270 0.594543 0.755005
0.078217 0.664795 0.705811
0.313477 0.686951 0.723114
0.555939 0.709167 0.740479
0.755280 0.732025 0.737610
0.929749 0.752136 0.766388
0.240082 0.847290 0.731873
0.368805 0.855225 0.746277
0.598022 0.860626 0.765259
0.766266 0.869232 0.787170
0.890320 0.874237 0.793518
0.036133 0.181213 0.724640
0.076569 0.177094 0.845490
0.462433 0.201416 0.886444
0.728668 0.232880 0.893951
0.912476 0.292023 0.902222
0.033752 0.312012 0.818481
0.223419 0.337646 0.892090
0.514771 0.353790 0.897522
0.764709 0.398407 0.914307
0.930756 0.449066 0.916595
0.017487 0.507874 0.850189
0.249908 0.539490 0.945770
0.575256 0.567627 0.927063
0.782898 0.584015 0.906219
0.934631 0.617584 0.903137
0.078369 0.699310 0.895569
0.357941 0.722015 0.909210
0.583344 0.741547 0.911407
0.774048 0.753448 0.899811
0.915436 0.762634 0.886658
0.294952 0.850403 0.876221
0.433136 0.858582 0.881500
0.625946 0.864655 0.883728
0.774536 0.870178 0.887360
0.891632 0.875885 0.883972
