Kodak 16mm - Only color.cube
# Created by Benjamin (IWLTBAP) : http://luts.iwltbap.com
# Copyright: (C) Copyright 2010-2017 Triune Films and IWLTBAP SAS
# Cannot be resold, shared or otherwise redistributed
TITLE "Film Print Emulation LUTs Pack (Rec.709, sRGB, DCI-P3)"
LUT_3D_SIZE 5
0.030457 0.030457 0.019348
0.178619 0.029144 0.016876
0.291565 0.027985 0.034576
0.420593 0.026733 0.049835
0.547089 0.025208 0.101654
0.027802 0.172943 0.016998
0.210968 0.181335 0.015350
0.370361 0.185333 0.062744
0.517395 0.178284 0.117279
0.645599 0.173859 0.140289
0.067596 0.269653 0.016479
0.258667 0.313385 0.014160
0.439484 0.359589 0.083099
0.608612 0.364624 0.134277
0.763336 0.366913 0.162872
0.167603 0.382446 0.014526
0.323334 0.465759 0.024841
0.514313 0.527405 0.120331
0.699158 0.539551 0.160553
0.848419 0.546631 0.171021
0.215759 0.499420 0.019470
0.373047 0.614136 0.057953
0.579529 0.700012 0.134003
0.785980 0.716583 0.171753
0.863892 0.732819 0.179077
0.027557 0.040894 0.196747
0.200806 0.054260 0.231750
0.338196 0.050323 0.257935
0.474121 0.047333 0.266632
0.607788 0.045380 0.276917
0.069946 0.206360 0.242554
0.250854 0.236633 0.263123
0.415741 0.248138 0.293304
0.588318 0.241547 0.295319
0.745453 0.240173 0.316132
0.158752 0.326477 0.258881
0.303528 0.387207 0.281769
0.496765 0.423462 0.290283
0.693756 0.430176 0.297638
0.865601 0.428650 0.303436
0.215179 0.454468 0.271332
0.364380 0.563202 0.289886
0.583862 0.623932 0.288513
0.794403 0.641205 0.289764
0.862305 0.643921 0.293457
0.271515 0.598419 0.321503
0.420959 0.746368 0.315979
0.667908 0.865784 0.318848
0.857635 0.867432 0.318298
0.860352 0.868225 0.321655
0.050201 0.113007 0.331024
0.200897 0.121765 0.373566
0.343964 0.130859 0.421600
0.491425 0.132965 0.436066
0.638947 0.129364 0.450195
0.116364 0.241821 0.397888
0.243561 0.277679 0.450226
0.420135 0.296326 0.494690
0.601288 0.291138 0.499573
0.761292 0.290924 0.517151
0.180695 0.369324 0.431915
0.306366 0.431274 0.471527
0.501556 0.482635 0.516907
0.700684 0.484039 0.522156
0.861877 0.478119 0.516052
0.237579 0.506622 0.451447
0.362061 0.599640 0.493469
0.585358 0.686676 0.519745
0.807922 0.698486 0.513306
0.860168 0.703796 0.514038
0.286560 0.635925 0.508362
0.409576 0.793304 0.506805
0.646545 0.868073 0.547791
0.853180 0.865814 0.536316
0.858673 0.865601 0.537537
0.050232 0.152405 0.455597
0.193512 0.170532 0.513458
0.339050 0.180267 0.581268
0.490814 0.180420 0.606842
0.642914 0.182465 0.623566
0.125214 0.275208 0.564148
0.231842 0.310760 0.632690
0.405701 0.333069 0.691315
0.588226 0.333405 0.702484
0.740997 0.333649 0.710052
0.185669 0.402557 0.606995
0.293701 0.469696 0.657867
0.487213 0.510223 0.722839
0.673065 0.519562 0.743896
0.858154 0.505951 0.713440
0.245636 0.541107 0.634857
0.362518 0.636017 0.695282
0.563782 0.715546 0.739441
0.756531 0.734680 0.759033
0.858551 0.720276 0.709717
0.285645 0.653534 0.680603
0.392120 0.843781 0.678986
0.597260 0.865723 0.749023
0.823242 0.863373 0.748291
0.857239 0.863190 0.724945
0.032806 0.183441 0.594666
0.185883 0.202911 0.682343
0.334869 0.219757 0.778412
0.486023 0.224762 0.815704
0.634674 0.229156 0.856628
0.142029 0.306061 0.744843
0.215881 0.357422 0.812958
0.397156 0.375305 0.884491
0.575409 0.379028 0.882385
0.714081 0.378967 0.881348
0.190002 0.432617 0.793213
0.287018 0.490631 0.867157
0.453278 0.540497 0.882080
0.624023 0.552765 0.880707
0.784271 0.541962 0.879578
0.240112 0.555847 0.817261
0.343750 0.635376 0.878754
0.488037 0.718292 0.880493
0.696960 0.755524 0.878632
0.856079 0.734924 0.877563
0.267090 0.644348 0.835083
0.359222 0.780121 0.854797
0.496490 0.866974 0.879578
0.749847 0.862823 0.877350
0.855988 0.861877 0.876465
