Kodak Vision 500T (5279) - Only contrast.cube
# Created by Benjamin (IWLTBAP) : http://luts.iwltbap.com
# Copyright: (C) Copyright 2010-2017 Triune Films and IWLTBAP SAS
# Cannot be resold, shared or otherwise redistributed
TITLE "Film Print Emulation LUTs Pack (Rec.709, sRGB, DCI-P3)"
LUT_3D_SIZE 9
0.000702 0.000702 0.000702
0.081085 0.000916 0.000916
0.169037 0.001068 0.001068
0.288605 0.001038 0.001038
0.440460 0.000763 0.000763
0.593353 0.000488 0.000488
0.730713 0.000336 0.000336
0.839386 0.000397 0.000397
0.916260 0.000641 0.000641
0.000916 0.081085 0.000916
0.081055 0.081055 0.001129
0.169159 0.080994 0.001282
0.289093 0.080719 0.001251
0.440979 0.080200 0.001007
0.593781 0.079681 0.000732
0.731018 0.079254 0.000580
0.839447 0.079041 0.000641
0.916138 0.079041 0.000916
0.001068 0.169037 0.001068
0.080994 0.169159 0.001282
0.169250 0.169250 0.001465
0.289490 0.169098 0.001434
0.441467 0.168762 0.001190
0.594177 0.168396 0.000916
0.731232 0.168152 0.000763
0.839447 0.168091 0.000824
0.915924 0.168274 0.001099
0.001038 0.288605 0.001038
0.080719 0.289093 0.001251
0.169098 0.289490 0.001434
0.289703 0.289703 0.001404
0.441742 0.289703 0.001129
0.594330 0.289673 0.000885
0.731262 0.289764 0.000732
0.839233 0.290070 0.000793
0.915527 0.290588 0.001068
0.000763 0.440460 0.000763
0.080200 0.440979 0.001007
0.168762 0.441467 0.001190
0.289703 0.441742 0.001129
0.441772 0.441772 0.000885
0.594269 0.441803 0.000641
0.731049 0.441956 0.000488
0.838776 0.442322 0.000549
0.914886 0.442871 0.000824
0.000488 0.593353 0.000488
0.079681 0.593781 0.000732
0.168396 0.594177 0.000916
0.289673 0.594330 0.000885
0.441803 0.594269 0.000641
0.594208 0.594208 0.000366
0.730865 0.594238 0.000244
0.838348 0.594482 0.000305
0.914246 0.594940 0.000580
0.000336 0.730713 0.000336
0.079254 0.731018 0.000580
0.168152 0.731232 0.000763
0.289764 0.731262 0.000732
0.441956 0.731049 0.000488
0.594238 0.730865 0.000244
0.730774 0.730774 0.000092
0.838013 0.730865 0.000153
0.913727 0.731201 0.000427
0.000397 0.839386 0.000397
0.079041 0.839447 0.000641
0.168091 0.839447 0.000824
0.290070 0.839233 0.000793
0.442322 0.838776 0.000549
0.594482 0.838348 0.000305
0.730865 0.838013 0.000153
0.837891 0.837891 0.000214
0.913422 0.837982 0.000488
0.000641 0.916260 0.000641
0.079041 0.916138 0.000916
0.168274 0.915924 0.001099
0.290588 0.915527 0.001068
0.442871 0.914886 0.000824
0.594940 0.914246 0.000580
0.731201 0.913727 0.000427
0.837982 0.913422 0.000488
0.913269 0.913208 0.017822
0.000916 0.000916 0.081085
0.081055 0.001129 0.081055
0.169159 0.001282 0.080994
0.289093 0.001251 0.080719
0.440979 0.001007 0.080200
0.593781 0.000732 0.079681
0.731018 0.000580 0.079254
0.839447 0.000641 0.079041
0.916138 0.000916 0.079041
0.001129 0.081055 0.081055
0.081055 0.081055 0.081055
0.169312 0.080994 0.080994
0.289551 0.080688 0.080688
0.441528 0.080170 0.080170
0.594238 0.079651 0.079651
0.731323 0.079254 0.079254
0.839539 0.079041 0.079041
0.916016 0.079041 0.079041
0.001282 0.169159 0.080994
0.080994 0.169312 0.080994
0.169403 0.169403 0.080902
0.289978 0.169250 0.080597
0.442017 0.168915 0.080078
0.594604 0.168549 0.079559
0.731567 0.168304 0.079163
0.839539 0.168274 0.078949
0.915833 0.168457 0.078949
0.001251 0.289093 0.080719
0.080688 0.289551 0.080688
0.169250 0.289978 0.080597
0.290192 0.290192 0.080292
0.442291 0.290192 0.079773
0.594757 0.290161 0.079254
0.731567 0.290253 0.078857
0.839294 0.290558 0.078644
0.915405 0.291077 0.078644
0.001007 0.440979 0.080200
0.080170 0.441528 0.080170
0.168915 0.442017 0.080078
0.290192 0.442291 0.079773
0.442322 0.442322 0.079254
0.594696 0.442352 0.078735
0.731354 0.442505 0.078339
0.838867 0.442871 0.078125
0.914764 0.443451 0.078125
0.000732 0.593781 0.079681
0.079651 0.594238 0.079651
0.168549 0.594604 0.079559
0.290161 0.594757 0.079254
0.442352 0.594696 0.078735
0.594635 0.594635 0.078217
0.731171 0.594696 0.077820
0.838440 0.594940 0.077606
0.914154 0.595428 0.077606
0.000580 0.731018 0.079254
0.079254 0.731323 0.079254
0.168304 0.731567 0.079163
0.290253 0.731567 0.078857
0.442505 0.731354 0.078339
0.594696 0.731171 0.077820
0.731079 0.731079 0.077393
0.838104 0.731201 0.077179
0.913635 0.731506 0.077179
0.000641 0.839447 0.079041
0.079041 0.839539 0.079041
0.168274 0.839539 0.078949
0.290558 0.839294 0.078644
0.442871 0.838867 0.078125
0.594940 0.838440 0.077606
0.731201 0.838104 0.077179
0.837982 0.837982 0.076965
0.913300 0.838043 0.076996
0.000916 0.916138 0.079041
0.079041 0.916016 0.079041
0.168457 0.915833 0.078949
0.291077 0.915405 0.078644
0.443451 0.914764 0.078125
0.595428 0.914154 0.077606
0.731506 0.913635 0.077179
0.838043 0.913300 0.076996
0.913208 0.913208 0.076996
0.001068 0.001068 0.169037
0.080994 0.001282 0.169159
0.169250 0.001465 0.169250
0.289490 0.001434 0.169098
0.441467 0.001190 0.168762
0.594177 0.000916 0.168396
0.731232 0.000763 0.168152
0.839447 0.000824 0.168091
0.915924 0.001099 0.168274
0.001282 0.080994 0.169159
0.080994 0.080994 0.169312
0.169403 0.080902 0.169403
0.289978 0.080597 0.169250
0.442017 0.080078 0.168915
0.594604 0.079559 0.168549
0.731567 0.079163 0.168304
0.839539 0.078949 0.168274
0.915833 0.078949 0.168457
0.001465 0.169250 0.169250
0.080902 0.169403 0.169403
0.169464 0.169464 0.169464
0.290405 0.169342 0.169342
0.442505 0.168976 0.168976
0.595001 0.168640 0.168640
0.731781 0.168396 0.168396
0.839539 0.168365 0.168365
0.915619 0.168549 0.168549
0.001434 0.289490 0.169098
0.080597 0.289978 0.169250
0.169342 0.290405 0.169342
0.290619 0.290619 0.169189
0.442749 0.290588 0.168854
0.595154 0.290588 0.168488
0.731812 0.290680 0.168243
0.839294 0.290985 0.168213
0.915192 0.291504 0.168396
0.001190 0.441467 0.168762
0.080078 0.442017 0.168915
0.168976 0.442505 0.168976
0.290588 0.442749 0.168854
0.442810 0.442810 0.168488
0.595093 0.442841 0.168152
0.731598 0.442993 0.167908
0.838837 0.443359 0.167877
0.914551 0.443909 0.168060
0.000916 0.594177 0.168396
0.079559 0.594604 0.168549
0.168640 0.595001 0.168640
0.290588 0.595154 0.168488
0.442841 0.595093 0.168152
0.595032 0.595032 0.167816
0.731384 0.595062 0.167572
0.838409 0.595306 0.167542
0.913940 0.595795 0.167725
0.000763 0.731232 0.168152
0.079163 0.731567 0.168304
0.168396 0.731781 0.168396
0.290680 0.731812 0.168243
0.442993 0.731598 0.167908
0.595062 0.731384 0.167572
0.731293 0.731293 0.167328
0.838074 0.731415 0.167328
0.913422 0.731750 0.167511
0.000824 0.839447 0.168091
0.078949 0.839539 0.168274
0.168365 0.839539 0.168365
0.290985 0.839294 0.168213
0.443359 0.838837 0.167877
0.595306 0.838409 0.167542
0.731415 0.838074 0.167328
0.837952 0.837952 0.167297
0.913116 0.838043 0.167480
0.001099 0.915924 0.168274
0.078949 0.915833 0.168457
0.168549 0.915619 0.168549
0.291504 0.915192 0.168396
0.443909 0.914551 0.168060
0.595795 0.913940 0.167725
0.731750 0.913422 0.167511
0.838043 0.913116 0.167480
0.912994 0.912994 0.167694
0.001038 0.001038 0.288605
0.080719 0.001251 0.289093
0.169098 0.001434 0.289490
0.289703 0.001404 0.289703
0.441742 0.001129 0.289703
0.594330 0.000885 0.289673
0.731262 0.000732 0.289764
0.839233 0.000793 0.290070
0.915527 0.001068 0.290588
0.001251 0.080719 0.289093
0.080688 0.080688 0.289551
0.169250 0.080597 0.289978
0.290192 0.080292 0.290192
0.442291 0.079773 0.290192
0.594757 0.079254 0.290161
0.731567 0.078857 0.290253
0.839294 0.078644 0.290558
0.915405 0.078644 0.291077
0.001434 0.169098 0.289490
0.080597 0.169250 0.289978
0.169342 0.169342 0.290405
0.290619 0.169189 0.290619
0.442749 0.168854 0.290588
0.595154 0.168488 0.290588
0.731812 0.168243 0.290680
0.839294 0.168213 0.290985
0.915192 0.168396 0.291504
0.001404 0.289703 0.289703
0.080292 0.290192 0.290192
0.169189 0.290619 0.290619
0.290802 0.290802 0.290802
0.442993 0.290802 0.290802
0.595276 0.290802 0.290802
0.731812 0.290894 0.290894
0.839050 0.291199 0.291199
0.914764 0.291718 0.291718
0.001129 0.441742 0.289703
0.079773 0.442291 0.290192
0.168854 0.442749 0.290588
0.290802 0.442993 0.290802
0.443054 0.443054 0.290802
0.595215 0.443085 0.290771
0.731598 0.443237 0.290894
0.838593 0.443604 0.291199
0.914124 0.444153 0.291718
0.000885 0.594330 0.289673
0.079254 0.594757 0.290161
0.168488 0.595154 0.290588
0.290802 0.595276 0.290802
0.443085 0.595215 0.290771
0.595154 0.595154 0.290771
0.731384 0.595215 0.290894
0.838165 0.595459 0.291199
0.913483 0.595917 0.291718
0.000732 0.731262 0.289764
0.078857 0.731567 0.290253
0.168243 0.731812 0.290680
0.290894 0.731812 0.290894
0.443237 0.731598 0.290894
0.595215 0.731384 0.290894
0.731293 0.731293 0.290985
0.837830 0.731415 0.291321
0.912964 0.731720 0.291840
0.000793 0.839233 0.290070
0.078644 0.839294 0.290558
0.168213 0.839294 0.290985
0.291199 0.839050 0.291199
0.443604 0.838593 0.291199
0.595459 0.838165 0.291199
0.731415 0.837830 0.291321
0.837708 0.837708 0.291626
0.912659 0.837799 0.292175
0.001068 0.915527 0.290588
0.078644 0.915405 0.291077
0.168396 0.915192 0.291504
0.291718 0.914764 0.291718
0.444153 0.914124 0.291718
0.595917 0.913483 0.291718
0.731720 0.912964 0.291840
0.837799 0.912659 0.292175
0.912567 0.912567 0.292694
0.000763 0.000763 0.440460
0.080200 0.001007 0.440979
0.168762 0.001190 0.441467
0.289703 0.001129 0.441742
0.441772 0.000885 0.441772
0.594269 0.000641 0.441803
0.731049 0.000488 0.441956
0.838776 0.000549 0.442322
0.914886 0.000824 0.442871
0.001007 0.080200 0.440979
0.080170 0.080170 0.441528
0.168915 0.080078 0.442017
0.290192 0.079773 0.442291
0.442322 0.079254 0.442322
0.594696 0.078735 0.442352
0.731354 0.078339 0.442505
0.838867 0.078125 0.442871
0.914764 0.078125 0.443451
0.001190 0.168762 0.441467
0.080078 0.168915 0.442017
0.168976 0.168976 0.442505
0.290588 0.168854 0.442749
0.442810 0.168488 0.442810
0.595093 0.168152 0.442841
0.731598 0.167908 0.442993
0.838837 0.167877 0.443359
0.914551 0.168060 0.443909
0.001129 0.289703 0.441742
0.079773 0.290192 0.442291
0.168854 0.290588 0.442749
0.290802 0.290802 0.442993
0.443054 0.290802 0.443054
0.595215 0.290771 0.443085
0.731598 0.290894 0.443237
0.838593 0.291199 0.443604
0.914124 0.291718 0.444153
0.000885 0.441772 0.441772
0.079254 0.442322 0.442322
0.168488 0.442810 0.442810
0.290802 0.443054 0.443054
0.443085 0.443085 0.443085
0.595154 0.443115 0.443115
0.731384 0.443268 0.443268
0.838165 0.443634 0.443634
0.913483 0.444214 0.444214
0.000641 0.594269 0.441803
0.078735 0.594696 0.442352
0.168152 0.595093 0.442841
0.290771 0.595215 0.443085
0.443115 0.595154 0.443115
0.595093 0.595093 0.443176
0.731171 0.595154 0.443329
0.837708 0.595398 0.443695
0.912872 0.595856 0.444244
0.000488 0.731049 0.441956
0.078339 0.731354 0.442505
0.167908 0.731598 0.442993
0.290894 0.731598 0.443237
0.443268 0.731384 0.443268
0.595154 0.731171 0.443329
0.731079 0.731079 0.443481
0.837372 0.731201 0.443848
0.912354 0.731537 0.444427
0.000549 0.838776 0.442322
0.078125 0.838867 0.442871
0.167877 0.838837 0.443359
0.291199 0.838593 0.443604
0.443634 0.838165 0.443634
0.595398 0.837708 0.443695
0.731201 0.837372 0.443848
0.837250 0.837250 0.444214
0.912018 0.837341 0.444794
0.000824 0.914886 0.442871
0.078125 0.914764 0.443451
0.168060 0.914551 0.443909
0.291718 0.914124 0.444153
0.444214 0.913483 0.444214
0.595856 0.912872 0.444244
0.731537 0.912354 0.444427
0.837341 0.912018 0.444794
0.911926 0.911926 0.445374
0.000488 0.000488 0.593353
0.079681 0.000732 0.593781
0.168396 0.000916 0.594177
0.289673 0.000885 0.594330
0.441803 0.000641 0.594269
0.594208 0.000366 0.594208
0.730865 0.000244 0.594238
0.838348 0.000305 0.594482
0.914246 0.000580 0.594940
0.000732 0.079681 0.593781
0.079651 0.079651 0.594238
0.168549 0.079559 0.594604
0.290161 0.079254 0.594757
0.442352 0.078735 0.594696
0.594635 0.078217 0.594635
0.731171 0.077820 0.594696
0.838440 0.077606 0.594940
0.914154 0.077606 0.595428
0.000916 0.168396 0.594177
0.079559 0.168549 0.594604
0.168640 0.168640 0.595001
0.290588 0.168488 0.595154
0.442841 0.168152 0.595093
0.595032 0.167816 0.595032
0.731384 0.167572 0.595062
0.838409 0.167542 0.595306
0.913940 0.167725 0.595795
0.000885 0.289673 0.594330
0.079254 0.290161 0.594757
0.168488 0.290588 0.595154
0.290802 0.290802 0.595276
0.443085 0.290771 0.595215
0.595154 0.290771 0.595154
0.731384 0.290894 0.595215
0.838165 0.291199 0.595459
0.913483 0.291718 0.595917
0.000641 0.441803 0.594269
0.078735 0.442352 0.594696
0.168152 0.442841 0.595093
0.290771 0.443085 0.595215
0.443115 0.443115 0.595154
0.595093 0.443176 0.595093
0.731171 0.443329 0.595154
0.837708 0.443695 0.595398
0.912872 0.444244 0.595856
0.000366 0.594208 0.594208
0.078217 0.594635 0.594635
0.167816 0.595032 0.595032
0.290771 0.595154 0.595154
0.443176 0.595093 0.595093
0.595032 0.595032 0.595032
0.730988 0.595093 0.595093
0.837280 0.595337 0.595337
0.912231 0.595795 0.595795
0.000244 0.730865 0.594238
0.077820 0.731171 0.594696
0.167572 0.731384 0.595062
0.290894 0.731384 0.595215
0.443329 0.731171 0.595154
0.595093 0.730988 0.595093
0.730896 0.730896 0.595123
0.836945 0.731018 0.595398
0.911713 0.731323 0.595856
0.000305 0.838348 0.594482
0.077606 0.838440 0.594940
0.167542 0.838409 0.595306
0.291199 0.838165 0.595459
0.443695 0.837708 0.595398
0.595337 0.837280 0.595337
0.731018 0.836945 0.595398
0.836823 0.836823 0.595642
0.911407 0.836884 0.596130
0.000580 0.914246 0.594940
0.077606 0.914154 0.595428
0.167725 0.913940 0.595795
0.291718 0.913483 0.595917
0.444244 0.912872 0.595856
0.595795 0.912231 0.595795
0.731323 0.911713 0.595856
0.836884 0.911407 0.596130
0.911316 0.911316 0.596619
0.000336 0.000336 0.730713
0.079254 0.000580 0.731018
0.168152 0.000763 0.731232
0.289764 0.000732 0.731262
0.441956 0.000488 0.731049
0.594238 0.000244 0.730865
0.730774 0.000092 0.730774
0.838013 0.000153 0.730865
0.913727 0.000427 0.731201
0.000580 0.079254 0.731018
0.079254 0.079254 0.731323
0.168304 0.079163 0.731567
0.290253 0.078857 0.731567
0.442505 0.078339 0.731354
0.594696 0.077820 0.731171
0.731079 0.077393 0.731079
0.838104 0.077179 0.731201
0.913635 0.077179 0.731506
0.000763 0.168152 0.731232
0.079163 0.168304 0.731567
0.168396 0.168396 0.731781
0.290680 0.168243 0.731812
0.442993 0.167908 0.731598
0.595062 0.167572 0.731384
0.731293 0.167328 0.731293
0.838074 0.167328 0.731415
0.913422 0.167511 0.731750
0.000732 0.289764 0.731262
0.078857 0.290253 0.731567
0.168243 0.290680 0.731812
0.290894 0.290894 0.731812
0.443237 0.290894 0.731598
0.595215 0.290894 0.731384
0.731293 0.290985 0.731293
0.837830 0.291321 0.731415
0.912964 0.291840 0.731720
0.000488 0.441956 0.731049
0.078339 0.442505 0.731354
0.167908 0.442993 0.731598
0.290894 0.443237 0.731598
0.443268 0.443268 0.731384
0.595154 0.443329 0.731171
0.731079 0.443481 0.731079
0.837372 0.443848 0.731201
0.912354 0.444427 0.731537
0.000244 0.594238 0.730865
0.077820 0.594696 0.731171
0.167572 0.595062 0.731384
0.290894 0.595215 0.731384
0.443329 0.595154 0.731171
0.595093 0.595093 0.730988
0.730896 0.595123 0.730896
0.836945 0.595398 0.731018
0.911713 0.595856 0.731323
0.000092 0.730774 0.730774
0.077393 0.731079 0.731079
0.167328 0.731293 0.731293
0.290985 0.731293 0.731293
0.443481 0.731079 0.731079
0.595123 0.730896 0.730896
0.730804 0.730804 0.730804
0.836609 0.730927 0.730927
0.911194 0.731262 0.731262
0.000153 0.838013 0.730865
0.077179 0.838104 0.731201
0.167328 0.838074 0.731415
0.291321 0.837830 0.731415
0.443848 0.837372 0.731201
0.595398 0.836945 0.731018
0.730927 0.836609 0.730927
0.836487 0.836487 0.731049
0.910889 0.836578 0.731354
0.000427 0.913727 0.731201
0.077179 0.913635 0.731506
0.167511 0.913422 0.731750
0.291840 0.912964 0.731720
0.444427 0.912354 0.731537
0.595856 0.911713 0.731323
0.731262 0.911194 0.731262
0.836578 0.910889 0.731354
0.910797 0.910797 0.731689
0.000397 0.000397 0.839386
0.079041 0.000641 0.839447
0.168091 0.000824 0.839447
0.290070 0.000793 0.839233
0.442322 0.000549 0.838776
0.594482 0.000305 0.838348
0.730865 0.000153 0.838013
0.837891 0.000214 0.837891
0.913422 0.000488 0.837982
0.000641 0.079041 0.839447
0.079041 0.079041 0.839539
0.168274 0.078949 0.839539
0.290558 0.078644 0.839294
0.442871 0.078125 0.838867
0.594940 0.077606 0.838440
0.731201 0.077179 0.838104
0.837982 0.076965 0.837982
0.913300 0.076996 0.838043
0.000824 0.168091 0.839447
0.078949 0.168274 0.839539
0.168365 0.168365 0.839539
0.290985 0.168213 0.839294
0.443359 0.167877 0.838837
0.595306 0.167542 0.838409
0.731415 0.167328 0.838074
0.837952 0.167297 0.837952
0.913116 0.167480 0.838043
0.000793 0.290070 0.839233
0.078644 0.290558 0.839294
0.168213 0.290985 0.839294
0.291199 0.291199 0.839050
0.443604 0.291199 0.838593
0.595459 0.291199 0.838165
0.731415 0.291321 0.837830
0.837708 0.291626 0.837708
0.912659 0.292175 0.837799
0.000549 0.442322 0.838776
0.078125 0.442871 0.838867
0.167877 0.443359 0.838837
0.291199 0.443604 0.838593
0.443634 0.443634 0.838165
0.595398 0.443695 0.837708
0.731201 0.443848 0.837372
0.837250 0.444214 0.837250
0.912018 0.444794 0.837341
0.000305 0.594482 0.838348
0.077606 0.594940 0.838440
0.167542 0.595306 0.838409
0.291199 0.595459 0.838165
0.443695 0.595398 0.837708
0.595337 0.595337 0.837280
0.731018 0.595398 0.836945
0.836823 0.595642 0.836823
0.911407 0.596130 0.836884
0.000153 0.730865 0.838013
0.077179 0.731201 0.838104
0.167328 0.731415 0.838074
0.291321 0.731415 0.837830
0.443848 0.731201 0.837372
0.595398 0.731018 0.836945
0.730927 0.730927 0.836609
0.836487 0.731049 0.836487
0.910889 0.731354 0.836578
0.000214 0.837891 0.837891
0.076965 0.837982 0.837982
0.167297 0.837952 0.837952
0.291626 0.837708 0.837708
0.444214 0.837250 0.837250
0.595642 0.836823 0.836823
0.731049 0.836487 0.836487
0.836365 0.836365 0.836365
0.910583 0.836456 0.836456
0.000488 0.913422 0.837982
0.076996 0.913300 0.838043
0.167480 0.913116 0.838043
0.292175 0.912659 0.837799
0.444794 0.912018 0.837341
0.596130 0.911407 0.836884
0.731354 0.910889 0.836578
0.836456 0.910583 0.836456
0.910522 0.910522 0.836517
0.000641 0.000641 0.916229
0.079041 0.000916 0.916138
0.168274 0.001099 0.915924
0.290588 0.001068 0.915527
0.442871 0.000824 0.914886
0.594940 0.000580 0.914246
0.731201 0.000427 0.913727
0.837982 0.000488 0.913422
0.913300 0.000763 0.913300
0.000916 0.079041 0.916138
0.079041 0.079041 0.916016
0.168457 0.078949 0.915833
0.291077 0.078644 0.915405
0.443451 0.078125 0.914764
0.595428 0.077606 0.914154
0.731506 0.077179 0.913635
0.838043 0.076996 0.913300
0.913208 0.076996 0.913208
0.001099 0.168274 0.915924
0.078949 0.168457 0.915833
0.168549 0.168549 0.915619
0.291504 0.168396 0.915192
0.443909 0.168060 0.914551
0.595795 0.167725 0.913940
0.731750 0.167511 0.913422
0.838043 0.167480 0.913116
0.912994 0.167694 0.912994
0.001068 0.290588 0.915527
0.078644 0.291077 0.915405
0.168396 0.291504 0.915192
0.291718 0.291718 0.914764
0.444153 0.291718 0.914124
0.595917 0.291718 0.913483
0.731720 0.291840 0.912964
0.837799 0.292175 0.912659
0.912567 0.292694 0.912567
0.000824 0.442871 0.914886
0.078125 0.443451 0.914764
0.168060 0.443909 0.914551
0.291718 0.444153 0.914124
0.444214 0.444214 0.913483
0.595856 0.444244 0.912872
0.731537 0.444427 0.912354
0.837341 0.444794 0.912018
0.911926 0.445374 0.911926
0.000580 0.594940 0.914246
0.077606 0.595428 0.914154
0.167725 0.595795 0.913940
0.291718 0.595917 0.913483
0.444244 0.595856 0.912872
0.595795 0.595795 0.912231
0.731323 0.595856 0.911713
0.836884 0.596130 0.911407
0.911316 0.596619 0.911316
0.000427 0.731201 0.913727
0.077179 0.731506 0.913635
0.167511 0.731750 0.913422
0.291840 0.731720 0.912964
0.444427 0.731537 0.912354
0.595856 0.731323 0.911713
0.731262 0.731262 0.911194
0.836578 0.731354 0.910889
0.910797 0.731689 0.910797
0.000488 0.837982 0.913422
0.076996 0.838043 0.913300
0.167480 0.838043 0.913116
0.292175 0.837799 0.912659
0.444794 0.837341 0.912018
0.596130 0.836884 0.911407
0.731354 0.836578 0.910889
0.836456 0.836456 0.910583
0.910522 0.836517 0.910522
0.000763 0.913300 0.913300
0.076996 0.913208 0.913208
0.167694 0.912994 0.912994
0.292694 0.912567 0.912567
0.445374 0.911926 0.911926
0.596619 0.911316 0.911316
0.731689 0.910797 0.910797
0.836517 0.910522 0.910522
0.910431 0.910431 0.910431
