Kodak Vision 200T (5274) - Look.cube
# Created by Benjamin (IWLTBAP) : http://luts.iwltbap.com
# Copyright: (C) Copyright 2010-2017 Triune Films and IWLTBAP SAS
# Cannot be resold, shared or otherwise redistributed
TITLE "Film Print Emulation LUTs Pack (Rec.709, sRGB, DCI-P3)"
LUT_3D_SIZE 5
0.000000 0.000000 0.000000
0.142273 0.022064 0.000000
0.283844 0.044006 0.000000
0.355469 0.067871 0.000000
0.414825 0.080536 0.000000
0.000000 0.084717 0.007874
0.260040 0.188812 0.000000
0.457001 0.229248 0.000000
0.564545 0.246674 0.000000
0.645111 0.254120 0.000000
0.000000 0.231262 0.008667
0.282257 0.368622 0.000000
0.570801 0.433136 0.000000
0.713257 0.446533 0.000000
0.823090 0.448944 0.000000
0.000000 0.412567 0.000000
0.195953 0.519745 0.000793
0.549744 0.601257 0.000000
0.773865 0.638641 0.000000
0.915588 0.638733 0.000793
0.000000 0.636078 0.000000
0.122040 0.733459 0.020508
0.505157 0.789337 0.004730
0.777344 0.841736 0.009460
0.952759 0.848785 0.011841
0.000000 0.003937 0.067841
0.101868 0.027588 0.108978
0.271973 0.064514 0.101868
0.352417 0.066742 0.085175
0.417572 0.068390 0.088715
0.000000 0.104523 0.133301
0.168427 0.190857 0.164612
0.447571 0.245758 0.157440
0.549774 0.253845 0.136841
0.615753 0.239929 0.124969
0.000000 0.254883 0.178253
0.149658 0.335571 0.166779
0.527039 0.453430 0.174225
0.697937 0.472473 0.177155
0.811096 0.463745 0.165344
0.000000 0.435120 0.191498
0.120728 0.508881 0.187134
0.506470 0.616272 0.161438
0.756592 0.660339 0.192505
0.910339 0.665375 0.190033
0.000000 0.662903 0.207581
0.085602 0.743683 0.235565
0.458130 0.803497 0.155151
0.762848 0.863647 0.188995
0.955963 0.881042 0.205139
0.000000 0.017334 0.151794
0.057434 0.019714 0.176239
0.283569 0.074158 0.242462
0.405548 0.099121 0.248840
0.452789 0.085175 0.233765
0.000000 0.123016 0.246063
0.092163 0.187958 0.290833
0.385376 0.278625 0.360229
0.545013 0.286560 0.348511
0.616150 0.247284 0.310028
0.000000 0.285675 0.337158
0.087402 0.337067 0.360229
0.444153 0.470490 0.423920
0.681793 0.496704 0.430023
0.790619 0.472839 0.390015
0.000000 0.492279 0.402435
0.091309 0.537628 0.417969
0.426666 0.620148 0.438995
0.723114 0.687134 0.459564
0.905823 0.701447 0.453522
0.003143 0.718781 0.435333
0.082397 0.780273 0.471069
0.390350 0.811157 0.455231
0.714081 0.879333 0.453308
0.950500 0.909424 0.468048
0.002380 0.028381 0.200714
0.039429 0.021301 0.208740
0.236542 0.057434 0.279205
0.420685 0.113983 0.328461
0.481293 0.116394 0.323883
0.002380 0.142548 0.333405
0.061646 0.178467 0.353424
0.289673 0.240875 0.418121
0.541046 0.300110 0.467346
0.623962 0.263092 0.437286
0.000000 0.302338 0.448212
0.094238 0.354126 0.471649
0.364471 0.455750 0.534271
0.629211 0.519623 0.585815
0.773499 0.491882 0.562408
0.000793 0.520691 0.552307
0.091736 0.558258 0.574677
0.401031 0.634979 0.605957
0.681061 0.705078 0.649719
0.901611 0.721924 0.657410
0.010254 0.762512 0.623596
0.107880 0.814697 0.660706
0.416626 0.846497 0.662964
0.686188 0.901611 0.688080
0.942444 0.949707 0.716980
0.003937 0.028381 0.227234
0.038635 0.016541 0.231781
0.208710 0.038635 0.293762
0.388306 0.086975 0.344604
0.482147 0.108276 0.361237
0.007111 0.148865 0.395264
0.054291 0.169128 0.407745
0.216400 0.196960 0.449005
0.486847 0.253998 0.511169
0.621948 0.258575 0.510986
0.000000 0.312988 0.543549
0.086517 0.350677 0.561493
0.299866 0.428345 0.619171
0.579620 0.481079 0.672241
0.770691 0.493958 0.683807
0.000793 0.523071 0.668976
0.123352 0.570007 0.695038
0.401215 0.643982 0.742554
0.649780 0.703796 0.793884
0.865753 0.741974 0.826172
0.011841 0.768250 0.775635
0.122040 0.821808 0.817169
0.453369 0.873413 0.841675
0.708801 0.926331 0.883087
0.942383 0.972107 0.926544
