Kodachrome 25 (K-14) - Look.cube
# Copyright: (C) Copyright 2017 by IWLTBAP
# Cannot be resold, shared or otherwise redistributed
# Website: https://luts.iwltbap.com
TITLE "Kodak Kodachrome 25 (K-14) - Neutral (Rec.709 sRGB)"
LUT_3D_SIZE 5
0.000000 0.000000 0.000000
0.158128 0.000000 0.000000
0.598803 0.000000 0.001994
0.974341 0.000000 0.000000
0.975129 0.223146 0.091454
0.019082 0.344283 0.192631
0.332823 0.330281 0.125030
0.651905 0.340787 0.110667
0.853594 0.389438 0.130412
0.975252 0.464191 0.212237
0.454738 0.632438 0.271938
0.515196 0.614126 0.260732
0.639933 0.598209 0.242441
0.792548 0.591963 0.229651
0.976104 0.601113 0.223326
0.604614 0.797877 0.341779
0.641395 0.783471 0.335363
0.709014 0.769859 0.324932
0.814900 0.764056 0.315220
0.977189 0.759950 0.291571
0.788148 0.980533 0.428680
0.811038 0.980510 0.428809
0.857439 0.982330 0.422470
0.922632 0.980311 0.419621
0.977775 0.987864 0.412777
0.000000 0.022251 0.178340
0.039308 0.000000 0.247250
0.502625 0.000000 0.174010
0.971341 0.000000 0.114667
0.974995 0.225774 0.311073
0.019737 0.299141 0.330359
0.246094 0.295986 0.323902
0.612809 0.308948 0.303895
0.816657 0.366461 0.337924
0.975104 0.445884 0.408663
0.433847 0.623495 0.314614
0.500127 0.603898 0.304016
0.621716 0.585561 0.297418
0.780405 0.576038 0.304191
0.975876 0.589690 0.362052
0.599626 0.789964 0.367104
0.634010 0.778414 0.356764
0.697917 0.765028 0.343607
0.810948 0.753881 0.331203
0.977178 0.759923 0.312496
0.788114 0.983385 0.454135
0.814937 0.980490 0.443354
0.854599 0.981373 0.442372
0.925618 0.980285 0.438162
0.977780 0.983949 0.424020
0.000000 0.044847 0.280882
0.028871 0.036717 0.275666
0.422528 0.000000 0.289864
0.972938 0.000000 0.197233
0.975052 0.194063 0.390974
0.000000 0.245746 0.480811
0.137774 0.244604 0.470237
0.579857 0.235355 0.434266
0.806885 0.321055 0.462017
0.974609 0.431405 0.511487
0.283743 0.601741 0.626414
0.352589 0.577835 0.609243
0.526186 0.561315 0.577620
0.716651 0.554857 0.559867
0.948329 0.575900 0.563348
0.562656 0.784913 0.478246
0.598453 0.769249 0.465182
0.667066 0.758119 0.460734
0.776111 0.747086 0.462856
0.975792 0.743613 0.508488
0.792177 0.988161 0.471918
0.818840 0.986237 0.469450
0.857491 0.988072 0.466593
0.926661 0.987931 0.458830
0.977850 0.987822 0.452452
0.000000 0.060136 0.362404
0.026873 0.056540 0.347433
0.245790 0.000000 0.426398
0.950645 0.000000 0.251413
0.975135 0.117319 0.427170
0.000000 0.182032 0.502345
0.032658 0.164769 0.503448
0.515386 0.135127 0.496503
0.832861 0.229893 0.504538
0.975855 0.399775 0.596683
0.151910 0.567905 0.738863
0.258334 0.544628 0.715129
0.429015 0.534370 0.689586
0.690622 0.519765 0.663061
0.931052 0.548846 0.670873
0.435753 0.762964 0.793282
0.466787 0.748063 0.782687
0.535944 0.735940 0.770090
0.692634 0.728030 0.748707
0.947907 0.731572 0.736498
0.791260 0.988237 0.527321
0.816994 0.988197 0.521323
0.857728 0.988111 0.511429
0.926731 0.987963 0.508960
0.978091 0.987850 0.509105
0.000000 0.070568 0.406600
0.030785 0.070430 0.407286
0.136591 0.004171 0.465193
0.911522 0.000000 0.298062
0.974934 0.019870 0.423237
0.000000 0.143227 0.489871
0.026095 0.129256 0.475494
0.391343 0.050251 0.556962
0.881646 0.086878 0.482460
0.976113 0.345670 0.629286
0.017139 0.535347 0.796163
0.100412 0.499459 0.770445
0.370278 0.476609 0.741103
0.667087 0.463274 0.727887
0.931376 0.520433 0.739189
0.372968 0.745128 0.881608
0.400948 0.724768 0.874375
0.478944 0.713878 0.865611
0.611398 0.702025 0.858665
0.924958 0.700652 0.840104
0.655089 0.976961 0.958757
0.683765 0.977037 0.963837
0.724732 0.977141 0.968678
0.800291 0.981036 0.972808
0.980701 0.988483 0.984547
