Kodak Vision 250D (5246) - Look.cube
# Created by Benjamin (IWLTBAP) : http://luts.iwltbap.com
# Copyright: (C) Copyright 2010-2017 Triune Films and IWLTBAP SAS
# Cannot be resold, shared or otherwise redistributed
TITLE "Film Print Emulation LUTs Pack (Rec.709, sRGB, DCI-P3)"
LUT_3D_SIZE 9
0.000000 0.001617 0.001038
0.125549 0.000000 0.000000
0.259460 0.000000 0.000000
0.393372 0.000000 0.000000
0.527344 0.000000 0.000000
0.661255 0.000000 0.000000
0.795166 0.000000 0.000000
0.929077 0.000000 0.000000
1.000000 0.000000 0.000000
0.000000 0.074432 0.013763
0.114929 0.101868 0.000000
0.259491 0.109192 0.000000
0.393372 0.109192 0.000000
0.527344 0.109192 0.000000
0.661255 0.109192 0.000000
0.795197 0.109192 0.000000
0.929077 0.109192 0.000000
1.000000 0.109192 0.000000
0.000000 0.150146 0.030762
0.115875 0.177063 0.056519
0.253418 0.240143 0.012268
0.393402 0.248962 0.000000
0.527344 0.248962 0.000000
0.661255 0.248962 0.000000
0.795197 0.248962 0.000000
0.929108 0.248962 0.000000
1.000000 0.248962 0.000000
0.006439 0.227203 0.049011
0.141968 0.263275 0.087585
0.282654 0.324402 0.138306
0.399139 0.382721 0.041199
0.526886 0.388916 0.000000
0.661255 0.388763 0.000000
0.795197 0.388763 0.000000
0.929108 0.388763 0.000000
1.000000 0.388763 0.000000
0.034943 0.300842 0.069977
0.150726 0.336426 0.106598
0.298523 0.390289 0.167114
0.404297 0.460785 0.147156
0.528870 0.512207 0.058319
0.658813 0.525574 0.000000
0.795197 0.528534 0.000000
0.929108 0.528534 0.000000
1.000000 0.528534 0.000000
0.051544 0.369568 0.086365
0.144196 0.396393 0.112549
0.282013 0.441254 0.165070
0.388489 0.480621 0.203583
0.508331 0.576080 0.145416
0.652588 0.635681 0.069580
0.789520 0.658173 0.007538
0.929108 0.668304 0.000000
1.000000 0.668304 0.000000
0.058960 0.433502 0.098663
0.143280 0.454651 0.118958
0.255524 0.487579 0.155365
0.375488 0.523346 0.200104
0.485535 0.583008 0.226776
0.630341 0.698700 0.151520
0.782410 0.760284 0.079590
0.919220 0.786224 0.017975
1.000000 0.802246 0.000000
0.064117 0.494324 0.108246
0.132965 0.506622 0.119354
0.238831 0.538910 0.154083
0.363312 0.574432 0.198334
0.474792 0.618591 0.239960
0.611359 0.720551 0.233704
0.771484 0.828644 0.157593
0.909180 0.881531 0.085999
1.000000 0.908966 0.023438
0.067749 0.555267 0.118011
0.133972 0.565643 0.127228
0.229034 0.593445 0.155792
0.352020 0.630280 0.195892
0.475067 0.671570 0.244385
0.601105 0.731934 0.295197
0.758881 0.862732 0.241058
0.903107 0.953003 0.162811
1.000000 0.996155 0.086487
0.003143 0.008820 0.080505
0.068604 0.004059 0.082123
0.259460 0.000000 0.105499
0.393372 0.000000 0.105499
0.527344 0.000000 0.105499
0.661255 0.000000 0.105499
0.795166 0.000000 0.105499
0.929077 0.000000 0.105499
1.000000 0.000000 0.105499
0.000000 0.084717 0.104767
0.056213 0.102020 0.117401
0.259491 0.109192 0.105499
0.393372 0.109192 0.105499
0.527344 0.109192 0.105499
0.661255 0.109192 0.105499
0.795197 0.109192 0.105499
0.929077 0.109192 0.105499
1.000000 0.109192 0.105499
0.000000 0.164215 0.118622
0.044037 0.181000 0.126099
0.223297 0.238617 0.119568
0.393372 0.248962 0.105499
0.527344 0.248962 0.105499
0.661255 0.248962 0.105499
0.795197 0.248962 0.105499
0.929108 0.248962 0.105499
1.000000 0.248962 0.105499
0.000000 0.241913 0.134186
0.046783 0.257812 0.136627
0.169922 0.298950 0.157440
0.381073 0.374542 0.146271
0.525513 0.389008 0.112030
0.661255 0.388763 0.105499
0.795197 0.388763 0.105499
0.929108 0.388763 0.105499
1.000000 0.388763 0.105499
0.000000 0.315735 0.147583
0.057770 0.328430 0.148071
0.184540 0.358002 0.171173
0.375824 0.444153 0.207397
0.518738 0.510406 0.169983
0.656555 0.526337 0.126038
0.795197 0.528534 0.105499
0.929108 0.528534 0.105499
1.000000 0.528534 0.105499
0.000000 0.384399 0.157501
0.060516 0.394318 0.159149
0.174896 0.418213 0.177643
0.368439 0.467804 0.244049
0.506958 0.579529 0.230896
0.648865 0.638611 0.185486
0.786896 0.659668 0.139191
0.929108 0.668304 0.105499
1.000000 0.668304 0.105499
0.010864 0.448822 0.168488
0.063782 0.459076 0.170898
0.157990 0.477264 0.184113
0.347382 0.518494 0.237762
0.488190 0.591217 0.289124
0.631165 0.705719 0.247009
0.778412 0.764465 0.197235
0.916992 0.788483 0.148407
1.000000 0.802979 0.114380
0.014130 0.512573 0.179840
0.065979 0.523499 0.184753
0.146942 0.539948 0.194458
0.319794 0.571136 0.235291
0.478210 0.626892 0.298279
0.611816 0.728271 0.306030
0.766418 0.835571 0.262054
0.906616 0.885864 0.203369
1.000000 0.913239 0.155273
0.016876 0.578583 0.194000
0.068665 0.591766 0.202118
0.128845 0.611969 0.212708
0.309845 0.634888 0.243713
0.475250 0.677521 0.301331
0.595032 0.735626 0.350159
0.753632 0.871368 0.328522
0.899811 0.960907 0.269470
1.000000 1.000000 0.210907
0.011932 0.013336 0.138824
0.060516 0.010712 0.133911
0.142395 0.011169 0.147156
0.335571 0.000000 0.214691
0.527344 0.000000 0.246521
0.661255 0.000000 0.246552
0.795166 0.000000 0.246552
0.929077 0.000000 0.246521
1.000000 0.000000 0.246552
0.009735 0.090973 0.178528
0.058868 0.099640 0.189514
0.147766 0.112732 0.209198
0.351379 0.117767 0.231903
0.527344 0.109192 0.246552
0.661255 0.109192 0.246552
0.795197 0.109192 0.246552
0.929077 0.109192 0.246521
1.000000 0.109192 0.246521
0.006439 0.175507 0.213409
0.049530 0.192963 0.229218
0.125092 0.230682 0.256409
0.359863 0.256531 0.259003
0.527344 0.248962 0.246552
0.661255 0.248962 0.246552
0.795197 0.248962 0.246552
0.929077 0.248962 0.246521
1.000000 0.248962 0.246521
0.001495 0.260132 0.239136
0.046234 0.273834 0.243561
0.112305 0.310852 0.257050
0.346588 0.378265 0.260162
0.524353 0.389313 0.250397
0.661255 0.388763 0.246552
0.795197 0.388763 0.246552
0.929108 0.388763 0.246552
1.000000 0.388763 0.246552
0.000000 0.338806 0.256439
0.050110 0.346771 0.249481
0.093170 0.374908 0.258728
0.287079 0.447876 0.275085
0.506104 0.506378 0.279083
0.654114 0.527344 0.261047
0.795197 0.528534 0.246552
0.929108 0.528534 0.246552
1.000000 0.528534 0.246552
0.003143 0.409973 0.265472
0.044037 0.416260 0.258942
0.103607 0.441071 0.265472
0.220276 0.477264 0.282318
0.483185 0.570770 0.310455
0.638275 0.637939 0.299591
0.784180 0.660828 0.270966
0.929108 0.668304 0.246552
1.000000 0.668304 0.246552
0.000000 0.478271 0.275238
0.046783 0.486115 0.272003
0.106903 0.506042 0.278503
0.211273 0.538055 0.292725
0.436310 0.582611 0.334991
0.617462 0.704895 0.338501
0.769653 0.766235 0.315460
0.915192 0.790924 0.278564
1.000000 0.803802 0.253265
0.000397 0.544708 0.284637
0.047333 0.553619 0.286774
0.109070 0.571533 0.293152
0.188507 0.598663 0.306152
0.400726 0.629883 0.340363
0.595306 0.726440 0.373749
0.751556 0.835571 0.360657
0.904144 0.890839 0.322083
1.000000 0.917084 0.285614
0.002075 0.613129 0.299957
0.047913 0.621582 0.302704
0.111847 0.639648 0.309814
0.172394 0.665771 0.323975
0.357605 0.691833 0.341461
0.577209 0.731964 0.401550
0.733459 0.870148 0.406128
0.895782 0.967438 0.376587
1.000000 1.000000 0.330475
0.019623 0.019897 0.197784
0.065460 0.015472 0.191010
0.123718 0.020660 0.191284
0.217163 0.023956 0.218781
0.412384 0.005798 0.309998
0.606750 0.000000 0.360138
0.795166 0.000000 0.387573
0.929077 0.000000 0.387573
1.000000 0.000000 0.387573
0.020691 0.100159 0.245361
0.068665 0.106812 0.254761
0.126312 0.114563 0.262970
0.238342 0.119904 0.271362
0.433624 0.128448 0.333435
0.617859 0.121979 0.370270
0.795166 0.109192 0.387573
0.929077 0.109192 0.387573
1.000000 0.109192 0.387573
0.015228 0.182129 0.284912
0.054474 0.196045 0.301086
0.116638 0.221283 0.322052
0.234833 0.259094 0.362305
0.463531 0.265320 0.373596
0.636169 0.260803 0.384521
0.795197 0.248962 0.387573
0.929108 0.248962 0.387573
1.000000 0.248962 0.387573
0.015198 0.269714 0.321960
0.057220 0.284943 0.334351
0.106354 0.313507 0.354706
0.194763 0.364227 0.392151
0.470490 0.398651 0.400482
0.645081 0.397491 0.393982
0.795197 0.388763 0.387604
0.929108 0.388763 0.387573
1.000000 0.388763 0.387573
0.012482 0.358948 0.355530
0.056671 0.368439 0.358124
0.099762 0.390961 0.366974
0.207153 0.445496 0.389496
0.464752 0.509216 0.399536
0.646576 0.528015 0.400513
0.795197 0.528534 0.387604
0.929108 0.528534 0.387604
1.000000 0.528534 0.387573
0.008087 0.441345 0.376404
0.052826 0.447083 0.373932
0.103058 0.467468 0.377289
0.176910 0.501434 0.394165
0.424255 0.591766 0.409943
0.631714 0.637878 0.413757
0.782501 0.663055 0.404236
0.929108 0.668304 0.387604
1.000000 0.668304 0.387604
0.006439 0.515594 0.390503
0.049530 0.520905 0.386108
0.106903 0.537567 0.388153
0.159332 0.569092 0.403168
0.332458 0.620697 0.422546
0.598419 0.706879 0.432800
0.764160 0.768982 0.433044
0.915222 0.794220 0.410126
1.000000 0.804749 0.391998
0.003693 0.587921 0.404083
0.065460 0.591187 0.398529
0.098114 0.606873 0.402283
0.152161 0.633362 0.414764
0.280121 0.670532 0.431061
0.535919 0.737579 0.449280
0.743500 0.839722 0.463074
0.902130 0.897125 0.444031
1.000000 0.921387 0.415863
0.021210 0.655090 0.412628
0.057220 0.658966 0.410461
0.099762 0.672668 0.413849
0.152161 0.695648 0.423889
0.244385 0.723328 0.433929
0.445648 0.753387 0.452576
0.725281 0.876038 0.490662
0.892151 0.974396 0.484161
1.000000 1.000000 0.450836
0.026672 0.026917 0.257233
0.071686 0.021820 0.249237
0.125458 0.024750 0.248474
0.189117 0.034180 0.249481
0.296356 0.042786 0.295532
0.497955 0.028198 0.403015
0.690216 0.008728 0.465179
0.877258 0.000000 0.503265
1.000000 0.000000 0.528656
0.032471 0.108917 0.306549
0.079407 0.112579 0.312012
0.130402 0.117157 0.317169
0.197998 0.116302 0.307129
0.322601 0.135223 0.336578
0.520264 0.145142 0.429016
0.705597 0.136139 0.479431
0.883392 0.120728 0.507751
1.000000 0.109192 0.528656
0.026184 0.192261 0.352783
0.071686 0.200836 0.362457
0.110199 0.220337 0.383087
0.188141 0.252747 0.413116
0.348602 0.264130 0.434204
0.558594 0.280518 0.471100
0.732727 0.272705 0.502258
0.896027 0.256317 0.514465
1.000000 0.248962 0.528656
0.011383 0.276642 0.391724
0.063782 0.288208 0.400482
0.112946 0.310974 0.416870
0.168854 0.350616 0.450226
0.320984 0.400543 0.501099
0.585663 0.410278 0.510895
0.760071 0.406799 0.518402
0.910248 0.392517 0.517395
1.000000 0.388763 0.528656
0.023773 0.366577 0.428101
0.059967 0.378998 0.436951
0.114014 0.399689 0.449280
0.160400 0.440918 0.479401
0.335480 0.494598 0.515442
0.593292 0.531769 0.530334
0.763702 0.537048 0.532104
0.914642 0.529968 0.523132
1.000000 0.528534 0.528656
0.022766 0.460510 0.464661
0.065460 0.469818 0.467682
0.109070 0.488220 0.475403
0.165558 0.521484 0.493652
0.355438 0.576935 0.516510
0.592529 0.632965 0.532562
0.766632 0.660767 0.542999
0.917480 0.666626 0.531921
1.000000 0.668304 0.528656
0.017426 0.549500 0.490845
0.061035 0.556183 0.489532
0.103607 0.571014 0.492371
0.192657 0.600891 0.505951
0.323608 0.644226 0.525848
0.574738 0.725311 0.538116
0.759644 0.770233 0.547546
0.914795 0.797516 0.542053
1.000000 0.805664 0.530609
0.014679 0.625946 0.506622
0.056671 0.629456 0.501068
0.125458 0.642883 0.503113
0.186798 0.668304 0.516449
0.282776 0.699585 0.534027
0.499023 0.766571 0.545868
0.735474 0.843811 0.562775
0.900269 0.904083 0.566681
1.000000 0.925659 0.545990
0.010803 0.695129 0.517334
0.069183 0.695038 0.509003
0.125458 0.707123 0.511444
0.181488 0.729919 0.524170
0.252655 0.755157 0.537140
0.391937 0.787354 0.548492
0.700684 0.880402 0.572479
0.887146 0.981506 0.592010
1.000000 1.000000 0.571808
0.031616 0.032288 0.314270
0.075897 0.026184 0.304840
0.126740 0.027588 0.303467
0.188782 0.036072 0.304626
0.258667 0.052460 0.309967
0.382812 0.067902 0.384460
0.584747 0.051361 0.493256
0.773773 0.028748 0.563354
0.959015 0.006012 0.609833
0.039581 0.114563 0.364197
0.085754 0.118195 0.369415
0.134949 0.120331 0.371277
0.192963 0.115662 0.359833
0.272552 0.128265 0.356995
0.409393 0.159210 0.416260
0.609833 0.164276 0.519714
0.789917 0.148987 0.578033
0.967896 0.131897 0.615967
0.034149 0.200836 0.416840
0.079803 0.207397 0.424042
0.125031 0.221680 0.438660
0.174103 0.247253 0.466095
0.277008 0.253601 0.470490
0.463989 0.283417 0.488220
0.653473 0.298340 0.566376
0.820221 0.279358 0.602692
0.984863 0.261566 0.625610
0.024261 0.284821 0.456848
0.061035 0.293854 0.465332
0.121460 0.311584 0.477173
0.172394 0.343781 0.504547
0.267242 0.390808 0.548126
0.480927 0.411316 0.573578
0.693604 0.430023 0.608704
0.860626 0.410919 0.625122
1.000000 0.391937 0.632782
0.026642 0.371826 0.492737
0.077667 0.381439 0.497528
0.113495 0.399628 0.509338
0.171112 0.434967 0.536530
0.250275 0.483429 0.578827
0.496155 0.525543 0.610809
0.711670 0.543732 0.632690
0.884094 0.537537 0.637909
1.000000 0.524597 0.636688
0.023773 0.469818 0.534637
0.075897 0.478760 0.538300
0.118622 0.497955 0.548157
0.166534 0.530487 0.570709
0.298859 0.573486 0.600067
0.519562 0.615143 0.621429
0.724854 0.656708 0.652527
0.890411 0.664978 0.655182
1.000000 0.661926 0.648865
0.025726 0.565033 0.568787
0.070679 0.573944 0.570679
0.116119 0.592316 0.579102
0.197449 0.622101 0.595734
0.330475 0.653778 0.612610
0.522827 0.701324 0.634613
0.727081 0.754242 0.660370
0.896301 0.790131 0.674896
1.000000 0.798065 0.666016
0.023773 0.648132 0.589203
0.068146 0.657593 0.590424
0.120514 0.675690 0.597046
0.208282 0.701050 0.610138
0.335114 0.728394 0.625488
0.505951 0.782318 0.645630
0.723083 0.854980 0.667664
0.896332 0.905518 0.685852
1.000000 0.927216 0.676788
0.019623 0.719391 0.600220
0.062164 0.728577 0.601440
0.139893 0.741791 0.604431
0.204376 0.764984 0.618347
0.291046 0.789764 0.632019
0.417389 0.818146 0.647736
0.671539 0.909546 0.668121
0.883423 0.988861 0.699890
1.000000 1.000000 0.694550
0.034973 0.036682 0.369751
0.079407 0.030304 0.359650
0.128387 0.030945 0.358337
0.189453 0.038483 0.359192
0.257935 0.053192 0.363281
0.338318 0.082520 0.390076
0.478729 0.093994 0.468903
0.671112 0.072327 0.580872
0.853210 0.044556 0.653198
0.044281 0.119659 0.420837
0.090851 0.121979 0.424316
0.138519 0.122955 0.424988
0.192963 0.117615 0.413483
0.264740 0.125549 0.411102
0.358276 0.156128 0.419098
0.508209 0.188141 0.505188
0.696503 0.179413 0.605255
0.868073 0.157043 0.665833
0.039246 0.206940 0.476379
0.085419 0.211304 0.481201
0.131195 0.222595 0.493011
0.183319 0.242584 0.513977
0.261993 0.241211 0.511810
0.396240 0.264130 0.505676
0.562256 0.310486 0.568085
0.741364 0.305115 0.647919
0.895874 0.276520 0.685760
0.031189 0.292480 0.518677
0.071686 0.298889 0.525238
0.116638 0.313629 0.537170
0.185089 0.339294 0.557648
0.253937 0.378265 0.594940
0.399902 0.396149 0.609406
0.616974 0.435608 0.633698
0.795197 0.437042 0.695374
0.933838 0.401886 0.710114
0.026184 0.378845 0.555878
0.078979 0.386200 0.559021
0.123718 0.401184 0.568512
0.175751 0.432526 0.593994
0.247223 0.474579 0.632019
0.401917 0.516510 0.669098
0.639862 0.537415 0.681610
0.835236 0.555695 0.727264
0.976501 0.527710 0.730682
0.025726 0.471130 0.592346
0.073120 0.478638 0.595459
0.126312 0.495850 0.605255
0.178497 0.526642 0.627899
0.248627 0.569214 0.664917
0.427643 0.606201 0.690826
0.656097 0.643738 0.717529
0.858734 0.668121 0.750763
1.000000 0.656891 0.748535
0.034149 0.567810 0.629913
0.076782 0.579651 0.635040
0.123260 0.599579 0.646362
0.174927 0.630524 0.668640
0.317383 0.663177 0.689972
0.497345 0.692749 0.704712
0.669434 0.737244 0.738190
0.869781 0.783600 0.779480
1.000000 0.787323 0.772919
0.030304 0.655823 0.657196
0.076355 0.669434 0.663452
0.124146 0.691223 0.675568
0.231049 0.717377 0.689850
0.352631 0.745239 0.707306
0.502045 0.773834 0.724060
0.675690 0.825562 0.755615
0.871826 0.885071 0.796722
1.000000 0.913269 0.799194
0.027618 0.732971 0.673737
0.072174 0.745941 0.677643
0.139496 0.768219 0.688629
0.226044 0.793365 0.704041
0.344116 0.817108 0.718384
0.472595 0.846252 0.736908
0.655182 0.905731 0.765045
0.875702 0.979980 0.804199
1.000000 1.000000 0.818237
0.037689 0.039948 0.423859
0.081879 0.032928 0.412292
0.130005 0.032928 0.410553
0.189453 0.039673 0.411438
0.256958 0.053192 0.415192
0.335358 0.080811 0.437500
0.425995 0.111633 0.467255
0.564514 0.114197 0.551208
0.747620 0.084778 0.658691
0.047668 0.121368 0.472473
0.094269 0.123352 0.475555
0.141876 0.123352 0.475006
0.192963 0.116760 0.462494
0.258179 0.122559 0.462219
0.347260 0.147400 0.464844
0.448029 0.189972 0.500000
0.594238 0.205109 0.582031
0.767975 0.183075 0.676941
0.042908 0.210571 0.532501
0.089447 0.214447 0.536682
0.136017 0.223785 0.546753
0.187500 0.238373 0.562561
0.252655 0.234161 0.557617
0.371185 0.250641 0.553223
0.500366 0.300079 0.564117
0.649109 0.321320 0.637909
0.806152 0.293365 0.707672
0.036957 0.296204 0.575378
0.080627 0.301605 0.580597
0.113495 0.315521 0.595215
0.177307 0.335602 0.611725
0.253937 0.366516 0.641205
0.365723 0.379730 0.655884
0.557404 0.416687 0.642120
0.714447 0.448547 0.703644
0.855957 0.413849 0.747467
0.024750 0.383545 0.615845
0.077240 0.389709 0.618408
0.135284 0.403595 0.626709
0.174103 0.430664 0.649689
0.241730 0.469238 0.685944
0.385254 0.509705 0.726135
0.579956 0.522400 0.717285
0.762299 0.563171 0.755402
0.909973 0.537689 0.788422
0.039246 0.471069 0.647064
0.072662 0.479492 0.651398
0.128387 0.496582 0.662537
0.181152 0.524384 0.684326
0.253174 0.564331 0.720825
0.368011 0.607147 0.763092
0.599792 0.635773 0.774750
0.794403 0.667908 0.796295
0.961365 0.659546 0.824005
0.038483 0.567047 0.685150
0.083069 0.576324 0.688568
0.128784 0.595123 0.700104
0.177704 0.625580 0.723755
0.268951 0.659210 0.752930
0.433685 0.693756 0.780914
0.626129 0.724854 0.796600
0.819763 0.769257 0.834167
0.990082 0.778564 0.852325
0.033722 0.653900 0.713196
0.080627 0.671295 0.723175
0.128784 0.694885 0.738556
0.213409 0.724335 0.760040
0.341003 0.752838 0.780823
0.504608 0.781311 0.797791
0.654724 0.815948 0.821930
0.844788 0.869293 0.865723
1.000000 0.904053 0.894257
0.034149 0.733765 0.734375
0.079407 0.751923 0.743958
0.128387 0.776947 0.759918
0.245819 0.804352 0.776886
0.356842 0.831238 0.795288
0.495789 0.861053 0.814972
0.651642 0.895355 0.839325
0.847778 0.953369 0.882416
1.000000 1.000000 0.922485
0.040344 0.042297 0.476624
0.083832 0.034821 0.463806
0.131195 0.034180 0.461700
0.190094 0.041443 0.463989
0.256226 0.053467 0.467834
0.334290 0.080627 0.487427
0.423615 0.111908 0.519318
0.504974 0.135468 0.539215
0.640930 0.125000 0.624390
0.050293 0.122192 0.522797
0.097504 0.124176 0.525848
0.144745 0.122955 0.523682
0.193848 0.116547 0.512085
0.254456 0.121155 0.512756
0.341187 0.143280 0.513977
0.438538 0.185150 0.547089
0.535767 0.215637 0.571594
0.667450 0.209747 0.649139
0.047028 0.212158 0.585571
0.093628 0.214996 0.588989
0.141205 0.221954 0.596924
0.191711 0.235107 0.612030
0.248932 0.226379 0.601532
0.352356 0.239655 0.598541
0.481842 0.283752 0.602020
0.589386 0.321106 0.629303
0.718170 0.315308 0.695038
0.042908 0.298126 0.629822
0.087280 0.303467 0.635193
0.131195 0.314789 0.647186
0.171997 0.336304 0.670135
0.247498 0.363129 0.697052
0.343079 0.366821 0.702148
0.534760 0.398010 0.680328
0.656128 0.442474 0.701752
0.781158 0.433228 0.752411
0.022278 0.385956 0.673584
0.074524 0.391693 0.675964
0.131958 0.405365 0.685211
0.188782 0.431702 0.707520
0.250000 0.468170 0.743866
0.390564 0.501587 0.776794
0.565796 0.514954 0.773621
0.714264 0.558105 0.766876
0.845581 0.554932 0.812042
0.043579 0.472839 0.704224
0.087616 0.480835 0.707947
0.124146 0.498016 0.720764
0.186127 0.525482 0.743683
0.256226 0.566193 0.782410
0.372833 0.607880 0.827362
0.594360 0.637421 0.842133
0.756653 0.662323 0.822113
0.903809 0.674103 0.867096
0.034515 0.563385 0.737915
0.087616 0.571014 0.740509
0.134583 0.591461 0.754272
0.190735 0.623138 0.780334
0.258942 0.657623 0.814331
0.376770 0.697845 0.856720
0.600586 0.731201 0.877563
0.792847 0.762451 0.880646
0.944855 0.782410 0.909973
0.041107 0.646881 0.764130
0.083832 0.664124 0.774017
0.131958 0.688232 0.790771
0.185425 0.717712 0.815918
0.296600 0.748901 0.844025
0.433685 0.781952 0.873810
0.634888 0.814880 0.893005
0.817749 0.855103 0.917572
0.979767 0.893188 0.951813
0.036560 0.732880 0.791962
0.085022 0.751923 0.802795
0.134949 0.780487 0.824158
0.233765 0.810028 0.846832
0.352325 0.838715 0.868896
0.504608 0.868927 0.889984
0.659790 0.903992 0.915375
0.835083 0.947296 0.948639
0.998718 0.998444 0.997040
