Kodak Vision 200T (5274) - Only color.cube
# Created by Benjamin (IWLTBAP) : http://luts.iwltbap.com
# Copyright: (C) Copyright 2010-2017 Triune Films and IWLTBAP SAS
# Cannot be resold, shared or otherwise redistributed
TITLE "Film Print Emulation LUTs Pack (Rec.709, sRGB, DCI-P3)"
LUT_3D_SIZE 5
0.000000 0.000000 0.000000
0.218140 0.069550 0.000000
0.346069 0.108826 0.000000
0.411713 0.143677 0.000000
0.469513 0.159821 0.000000
0.000153 0.164795 0.034454
0.324890 0.268982 0.000000
0.512878 0.304230 0.000000
0.629120 0.318909 0.000000
0.714081 0.325287 0.000000
0.000305 0.305756 0.036621
0.344666 0.424469 0.000000
0.635956 0.485931 0.000000
0.783569 0.499481 0.000000
0.889496 0.501892 0.000000
0.000427 0.465729 0.000000
0.267883 0.576904 0.002411
0.613068 0.666748 0.000000
0.843353 0.707794 0.000000
0.959869 0.708069 0.002472
0.000702 0.704895 0.000000
0.197998 0.807037 0.063232
0.564453 0.861969 0.024200
0.846680 0.910492 0.038269
0.952393 0.917084 0.044556
0.000244 0.016998 0.138672
0.176971 0.080475 0.184052
0.335602 0.139435 0.176910
0.408966 0.142487 0.158844
0.472412 0.144501 0.162811
0.000488 0.187378 0.207794
0.242859 0.271057 0.236420
0.503143 0.318390 0.229614
0.613129 0.325134 0.210663
0.683655 0.313416 0.199585
0.000671 0.325928 0.248413
0.225098 0.394958 0.238220
0.588318 0.506531 0.244537
0.768158 0.526337 0.246918
0.878540 0.517242 0.236572
0.000854 0.488007 0.259918
0.196777 0.565216 0.255981
0.566010 0.683441 0.233124
0.826599 0.731262 0.260406
0.957733 0.736725 0.258240
0.001038 0.733826 0.273743
0.158508 0.817444 0.297974
0.514252 0.875458 0.227417
0.832642 0.929932 0.257202
0.949982 0.945282 0.271576
0.000427 0.059540 0.224976
0.123901 0.065186 0.246857
0.346039 0.152222 0.304352
0.460480 0.181702 0.309845
0.508728 0.165833 0.296570
0.000671 0.206879 0.307495
0.166229 0.268524 0.347321
0.440521 0.346161 0.412079
0.607971 0.352875 0.400696
0.684113 0.319641 0.364563
0.000916 0.352020 0.390015
0.160706 0.396362 0.412140
0.499786 0.524353 0.475983
0.751831 0.552124 0.482300
0.859467 0.526794 0.441315
0.001099 0.547302 0.454010
0.165039 0.596771 0.469849
0.481812 0.687866 0.491791
0.793427 0.759674 0.513672
0.955475 0.774658 0.507202
0.011810 0.792206 0.488007
0.154694 0.853485 0.526215
0.445557 0.882690 0.509064
0.784363 0.943481 0.506897
0.947388 0.969025 0.523010
0.009613 0.082092 0.268158
0.097015 0.068481 0.275085
0.304382 0.129730 0.337006
0.475708 0.197876 0.381866
0.538849 0.200439 0.377533
0.009399 0.226532 0.386566
0.129272 0.259949 0.405579
0.351501 0.314331 0.470062
0.603760 0.364319 0.522186
0.692261 0.333069 0.489990
0.001038 0.366119 0.501801
0.168427 0.411591 0.526917
0.420624 0.509033 0.596039
0.697662 0.576965 0.652466
0.843079 0.547028 0.626953
0.003998 0.578094 0.615967
0.165497 0.619568 0.640472
0.456116 0.704132 0.674316
0.750977 0.778381 0.720795
0.953339 0.795776 0.728912
0.035065 0.836151 0.693207
0.183197 0.886047 0.732300
0.471771 0.914886 0.734589
0.756195 0.962372 0.760529
0.944763 0.980408 0.790375
0.014557 0.082123 0.291046
0.095886 0.058258 0.295135
0.279480 0.100616 0.350037
0.443420 0.167877 0.397125
0.539856 0.191742 0.413116
0.025574 0.232697 0.446808
0.119537 0.251526 0.459473
0.286407 0.276489 0.502625
0.544891 0.325409 0.570404
0.690186 0.329285 0.570160
0.001129 0.375275 0.606354
0.159546 0.408508 0.626068
0.360809 0.481384 0.688538
0.645660 0.535522 0.744232
0.840424 0.549225 0.756134
0.003937 0.580688 0.740845
0.199432 0.632538 0.767578
0.456299 0.713806 0.815338
0.718811 0.776947 0.865448
0.927582 0.815948 0.895782
0.040222 0.841827 0.847626
0.198029 0.892548 0.887146
0.509460 0.938385 0.909912
0.778992 0.979156 0.937500
0.943451 0.973175 0.927612
