Kodak Vision 500T (5279) - Look.cube
# Created by Benjamin (IWLTBAP) : http://luts.iwltbap.com
# Copyright: (C) Copyright 2010-2017 Triune Films and IWLTBAP SAS
# Cannot be resold, shared or otherwise redistributed
TITLE "Film Print Emulation LUTs Pack (Rec.709, sRGB, DCI-P3)"
LUT_3D_SIZE 9
0.002136 0.000000 0.000000
0.075287 0.015015 0.006989
0.151184 0.028351 0.022247
0.239105 0.041077 0.030334
0.346222 0.047974 0.047577
0.466156 0.056061 0.062103
0.596313 0.061371 0.079926
0.731201 0.088959 0.095642
0.839020 0.103699 0.117096
0.005676 0.068817 0.012543
0.061981 0.076080 0.018188
0.157501 0.086823 0.038666
0.254089 0.096802 0.048981
0.364532 0.110291 0.058197
0.487457 0.121613 0.072845
0.620575 0.138489 0.090515
0.756744 0.165894 0.112091
0.867126 0.193726 0.133484
0.003815 0.134094 0.023529
0.034332 0.140656 0.029907
0.143219 0.153259 0.040405
0.254944 0.168579 0.054260
0.382111 0.181915 0.073303
0.509674 0.199310 0.089935
0.645355 0.223541 0.108124
0.783539 0.255829 0.128326
0.890076 0.293121 0.155426
0.001404 0.214355 0.048004
0.013275 0.219849 0.051636
0.102936 0.234589 0.060760
0.244690 0.252869 0.067474
0.392181 0.277130 0.083069
0.527374 0.304413 0.106476
0.674011 0.333618 0.123718
0.817688 0.371887 0.153961
0.917480 0.410370 0.185089
0.002625 0.316559 0.072937
0.014130 0.322052 0.076080
0.043915 0.334961 0.085144
0.218933 0.357788 0.093445
0.387421 0.382233 0.101654
0.547729 0.414459 0.124207
0.693054 0.453827 0.150970
0.835297 0.493134 0.182373
0.936676 0.528931 0.224426
0.002594 0.426147 0.093292
0.014465 0.431000 0.093689
0.028137 0.440033 0.098694
0.182434 0.473175 0.120026
0.386841 0.499573 0.135040
0.553131 0.532745 0.155975
0.716919 0.568451 0.186737
0.845581 0.608551 0.222168
0.940613 0.640381 0.259216
0.003815 0.541229 0.135468
0.016022 0.547791 0.137848
0.030975 0.555817 0.140900
0.097351 0.586060 0.160461
0.374878 0.620697 0.180725
0.567535 0.649994 0.203003
0.724060 0.680695 0.229614
0.851715 0.709747 0.269409
0.947998 0.739471 0.296234
0.006683 0.658844 0.195343
0.019257 0.663666 0.198364
0.035187 0.672607 0.205048
0.077881 0.689789 0.212891
0.366974 0.733704 0.238556
0.575012 0.756439 0.259369
0.731934 0.776520 0.278900
0.853729 0.797241 0.300079
0.948822 0.816498 0.336609
0.011108 0.761719 0.257233
0.023865 0.766693 0.260010
0.039368 0.774597 0.265625
0.103210 0.793091 0.290283
0.376617 0.824463 0.333069
0.590607 0.842621 0.340454
0.742218 0.856384 0.342560
0.857452 0.872650 0.354706
0.948578 0.885498 0.378693
0.004059 0.002563 0.044983
0.064209 0.015411 0.083282
0.160858 0.028778 0.078522
0.245972 0.041718 0.087738
0.352692 0.050507 0.106232
0.472687 0.060913 0.123291
0.602264 0.065125 0.143158
0.741089 0.093689 0.166382
0.848999 0.113617 0.187500
0.002136 0.072144 0.086517
0.066315 0.078247 0.098694
0.164368 0.088104 0.091339
0.258392 0.100037 0.107056
0.369385 0.112396 0.122345
0.493164 0.128052 0.139374
0.626343 0.145477 0.159088
0.769501 0.174286 0.185303
0.878693 0.206787 0.208923
0.002472 0.140411 0.089783
0.031891 0.148590 0.090790
0.148346 0.159027 0.104584
0.263214 0.171783 0.124298
0.387848 0.186981 0.142609
0.513397 0.206268 0.158020
0.651093 0.230133 0.176086
0.797516 0.268158 0.208069
0.903900 0.308777 0.239105
0.001678 0.220978 0.102783
0.013702 0.226471 0.107239
0.092163 0.242340 0.121338
0.249237 0.262604 0.137939
0.396942 0.288116 0.158905
0.539307 0.312225 0.184479
0.688080 0.341858 0.205383
0.824951 0.376984 0.238342
0.923828 0.417816 0.274292
0.002869 0.323090 0.131042
0.014282 0.327789 0.135681
0.035217 0.341614 0.149078
0.214783 0.366638 0.166748
0.393951 0.396149 0.186249
0.559875 0.427917 0.207123
0.707123 0.462799 0.242188
0.845093 0.499695 0.280975
0.941010 0.533295 0.315582
0.002625 0.432434 0.160797
0.014404 0.437103 0.166138
0.026978 0.443817 0.174011
0.169006 0.480927 0.207184
0.391510 0.511078 0.219513
0.559601 0.543610 0.245117
0.719421 0.576996 0.277466
0.848907 0.614471 0.313660
0.942139 0.645355 0.349304
0.003876 0.548401 0.192352
0.015930 0.553131 0.196045
0.029663 0.559570 0.200165
0.089264 0.584625 0.226562
0.385834 0.630432 0.267731
0.568146 0.658447 0.291656
0.720093 0.685303 0.316467
0.850006 0.714447 0.357849
0.946381 0.744324 0.387024
0.006592 0.665039 0.247314
0.019318 0.670868 0.251984
0.034058 0.677521 0.255524
0.065460 0.690521 0.267059
0.349060 0.735870 0.317505
0.574005 0.761963 0.347748
0.728973 0.780914 0.368469
0.851440 0.800018 0.387604
0.947723 0.820099 0.425171
0.011169 0.768646 0.308929
0.024170 0.774231 0.313782
0.038391 0.780792 0.320679
0.078308 0.793488 0.339874
0.332275 0.822540 0.387848
0.582642 0.846222 0.407593
0.742401 0.859985 0.410645
0.856781 0.874939 0.431915
0.947723 0.888397 0.459900
0.004852 0.012360 0.102814
0.041779 0.024445 0.147339
0.146362 0.031769 0.169006
0.262146 0.040924 0.154968
0.370941 0.052521 0.171753
0.487762 0.065735 0.193298
0.616425 0.069824 0.213135
0.752625 0.101196 0.238953
0.858734 0.121796 0.263245
0.002655 0.074188 0.151398
0.034698 0.080566 0.182098
0.152893 0.087189 0.179962
0.269989 0.101410 0.174744
0.382690 0.116730 0.188477
0.506165 0.132812 0.210083
0.638489 0.153687 0.232269
0.778320 0.184021 0.260010
0.885590 0.218231 0.292908
0.001343 0.145630 0.164337
0.021454 0.155121 0.187134
0.151367 0.162231 0.194733
0.275330 0.176056 0.190704
0.396576 0.190918 0.209534
0.522766 0.211609 0.231445
0.660187 0.240875 0.255859
0.804321 0.280182 0.288513
0.910797 0.321136 0.323730
0.002045 0.229553 0.174042
0.013763 0.238464 0.178589
0.048676 0.253784 0.193329
0.259460 0.274384 0.214294
0.412201 0.296143 0.240356
0.549683 0.323486 0.265900
0.692993 0.353302 0.290710
0.832123 0.389191 0.322327
0.929108 0.427826 0.356476
0.003204 0.334198 0.199463
0.014801 0.340027 0.205444
0.032349 0.352081 0.216034
0.222137 0.382111 0.244751
0.407867 0.412292 0.270081
0.564514 0.442535 0.295624
0.717529 0.473236 0.333008
0.852753 0.506439 0.363495
0.945312 0.537933 0.397705
0.003418 0.446747 0.235199
0.014618 0.448944 0.238098
0.026794 0.454010 0.243164
0.144043 0.489685 0.285370
0.398315 0.527100 0.311401
0.567078 0.554718 0.334686
0.723480 0.587128 0.361481
0.856934 0.619965 0.404694
0.946869 0.648346 0.437653
0.004242 0.563110 0.272064
0.015961 0.565125 0.273712
0.029114 0.570953 0.279633
0.082886 0.592743 0.308441
0.385376 0.639709 0.357941
0.570374 0.666565 0.375702
0.721771 0.692261 0.400543
0.852478 0.721710 0.439575
0.944977 0.749207 0.469452
0.006958 0.676575 0.314697
0.019623 0.680481 0.317535
0.033630 0.687317 0.324615
0.063202 0.698914 0.335663
0.336090 0.737152 0.390656
0.572998 0.767792 0.427887
0.727600 0.786163 0.448639
0.851471 0.805206 0.467468
0.947693 0.824707 0.501526
0.012207 0.778107 0.365143
0.024750 0.782410 0.371368
0.038818 0.789795 0.381989
0.069122 0.798981 0.395508
0.294067 0.823578 0.441162
0.566925 0.848480 0.477264
0.742615 0.863922 0.483002
0.855835 0.878418 0.503143
0.947662 0.891724 0.532837
0.002899 0.021637 0.179749
0.037628 0.030426 0.215729
0.070709 0.037201 0.278137
0.248291 0.042084 0.266876
0.388184 0.053314 0.252380
0.512573 0.064545 0.272888
0.642700 0.077667 0.297638
0.774170 0.109528 0.328369
0.875885 0.131622 0.351410
0.003052 0.078430 0.226135
0.030914 0.085358 0.256989
0.066223 0.092133 0.294922
0.256195 0.104004 0.283112
0.403259 0.118225 0.268311
0.532532 0.136353 0.293365
0.663330 0.164459 0.321442
0.798187 0.194397 0.351135
0.898712 0.230774 0.380951
0.000977 0.149414 0.255524
0.018890 0.158661 0.288361
0.052277 0.166931 0.306610
0.263702 0.176788 0.295776
0.415497 0.196167 0.290802
0.546234 0.218048 0.313049
0.680969 0.251190 0.346893
0.817474 0.291046 0.377625
0.915833 0.331512 0.409546
0.002502 0.240814 0.259369
0.014587 0.251312 0.276031
0.038971 0.265320 0.305481
0.266785 0.281128 0.324493
0.428223 0.305573 0.324066
0.561188 0.331360 0.349335
0.706207 0.362183 0.380615
0.840271 0.402557 0.413330
0.931702 0.441803 0.444122
0.003479 0.345337 0.281128
0.015228 0.354462 0.287903
0.032745 0.371002 0.302002
0.173340 0.401489 0.337799
0.424316 0.427002 0.365204
0.582672 0.453461 0.393005
0.728149 0.481323 0.427094
0.855103 0.515045 0.451752
0.943237 0.546326 0.476196
0.003723 0.460632 0.322205
0.015839 0.467529 0.327484
0.028412 0.475830 0.335175
0.124664 0.505890 0.365784
0.409912 0.543091 0.398743
0.582001 0.569489 0.424835
0.727997 0.596741 0.449921
0.858948 0.626923 0.488983
0.946411 0.653473 0.513885
0.005524 0.579529 0.360870
0.017761 0.583038 0.364380
0.030396 0.588867 0.370300
0.077148 0.607697 0.389069
0.378235 0.647552 0.436493
0.575531 0.679596 0.462341
0.726746 0.700775 0.487823
0.852692 0.728394 0.517670
0.946655 0.754944 0.550110
0.008850 0.695496 0.400177
0.021454 0.700562 0.407166
0.034668 0.705933 0.412842
0.058044 0.713043 0.422394
0.327850 0.744385 0.471954
0.566193 0.774750 0.512085
0.730469 0.793243 0.529480
0.853149 0.809357 0.544983
0.947815 0.829742 0.576599
0.014099 0.795105 0.451843
0.026245 0.797913 0.454071
0.039581 0.802521 0.459900
0.065674 0.810913 0.474457
0.268433 0.828217 0.510864
0.558136 0.851166 0.547180
0.742615 0.869385 0.557068
0.855377 0.882172 0.576294
0.947388 0.894836 0.603851
0.000824 0.028168 0.260040
0.025757 0.033661 0.300995
0.057007 0.040039 0.363617
0.205688 0.048279 0.389008
0.387817 0.057556 0.375488
0.529388 0.060028 0.367859
0.666229 0.085571 0.384857
0.799072 0.109467 0.417572
0.895874 0.146027 0.439575
0.001495 0.083374 0.313293
0.024628 0.089600 0.347168
0.057678 0.097687 0.384186
0.216705 0.110565 0.400391
0.402618 0.128082 0.395294
0.553772 0.142365 0.385406
0.691925 0.170471 0.409760
0.823669 0.204498 0.442810
0.912842 0.243439 0.467316
0.001923 0.155548 0.353760
0.018433 0.165741 0.382935
0.039246 0.174103 0.403381
0.218414 0.184998 0.414215
0.417664 0.206787 0.408905
0.574677 0.231750 0.406433
0.712830 0.263123 0.436279
0.840057 0.304413 0.466919
0.925598 0.341461 0.496643
0.003082 0.251984 0.371643
0.015625 0.263855 0.389252
0.044556 0.279419 0.415833
0.202942 0.288666 0.439301
0.428925 0.309265 0.429474
0.587341 0.341705 0.436890
0.729126 0.372192 0.463776
0.853394 0.408630 0.498657
0.937775 0.447601 0.527679
0.004425 0.364807 0.380371
0.015961 0.374603 0.389984
0.033997 0.390930 0.404846
0.145569 0.413574 0.443604
0.438293 0.433014 0.457947
0.596893 0.462158 0.471619
0.737122 0.488892 0.503754
0.860779 0.522400 0.533752
0.943787 0.554291 0.558472
0.004028 0.473602 0.402130
0.016327 0.482422 0.408722
0.029419 0.493347 0.418213
0.062988 0.525238 0.446136
0.398010 0.558563 0.490204
0.595184 0.582031 0.516205
0.743622 0.605316 0.542114
0.864899 0.632111 0.575348
0.945374 0.658478 0.596375
0.005798 0.592773 0.449738
0.018372 0.598602 0.455811
0.031982 0.609528 0.465851
0.057343 0.629059 0.484436
0.372864 0.660736 0.517029
0.580475 0.691559 0.548553
0.735901 0.712067 0.572601
0.858154 0.735107 0.595001
0.945068 0.760773 0.625397
0.009674 0.707916 0.488556
0.022949 0.714966 0.496735
0.036194 0.723267 0.506134
0.052124 0.731018 0.513977
0.318237 0.754456 0.544708
0.563141 0.779907 0.585449
0.734589 0.801025 0.604218
0.857330 0.815613 0.621429
0.947906 0.835022 0.646515
0.015106 0.810089 0.533051
0.027863 0.814819 0.540344
0.040497 0.820068 0.549866
0.059967 0.826080 0.559631
0.177429 0.836670 0.584656
0.553162 0.855133 0.617828
0.737183 0.875092 0.637848
0.858002 0.886932 0.648163
0.947205 0.897522 0.670898
0.000244 0.031494 0.357452
0.020721 0.033691 0.393433
0.051727 0.039490 0.448608
0.207153 0.053894 0.484070
0.373535 0.062195 0.501038
0.553253 0.070099 0.486206
0.685852 0.095795 0.482788
0.813263 0.110504 0.502228
0.909393 0.154510 0.529419
0.001678 0.086945 0.410156
0.023712 0.093140 0.439331
0.050232 0.101501 0.476013
0.223175 0.119019 0.496765
0.400238 0.136047 0.516113
0.574341 0.157806 0.510498
0.711548 0.181030 0.505432
0.840881 0.215851 0.530731
0.926086 0.252838 0.556000
0.003113 0.164795 0.453308
0.019714 0.174988 0.485992
0.038849 0.186005 0.503204
0.226257 0.200653 0.516266
0.409485 0.221924 0.532410
0.588593 0.252167 0.531525
0.737000 0.280670 0.528839
0.856964 0.317596 0.556000
0.935974 0.353729 0.582428
0.004547 0.262512 0.489563
0.016968 0.276215 0.503326
0.039429 0.296570 0.526062
0.203552 0.310822 0.545959
0.410095 0.325928 0.552185
0.599762 0.356415 0.547729
0.748749 0.386505 0.555298
0.868530 0.419312 0.581085
0.945618 0.455719 0.605286
0.005371 0.384674 0.491058
0.017334 0.397522 0.501953
0.036499 0.416229 0.526642
0.185547 0.431366 0.556305
0.396759 0.438629 0.576019
0.598480 0.464111 0.567902
0.751984 0.495911 0.580780
0.874634 0.528687 0.605774
0.948517 0.558716 0.631012
0.005005 0.496857 0.503967
0.017853 0.508636 0.512207
0.031647 0.521912 0.523132
0.080627 0.547943 0.550079
0.393738 0.567139 0.584106
0.606140 0.585480 0.593628
0.751282 0.612701 0.613190
0.871460 0.636719 0.641113
0.948364 0.662750 0.663788
0.006409 0.610809 0.530365
0.019745 0.617767 0.537537
0.033539 0.628632 0.548370
0.055695 0.646210 0.564148
0.320435 0.675781 0.597443
0.573730 0.700256 0.631012
0.742584 0.721558 0.652222
0.865356 0.741455 0.674408
0.948212 0.762268 0.701141
0.010437 0.721863 0.576935
0.023895 0.728973 0.585205
0.037415 0.737305 0.593323
0.050873 0.746429 0.602142
0.279816 0.767731 0.623444
0.564911 0.786896 0.656219
0.738098 0.808777 0.679840
0.862610 0.822876 0.697388
0.950165 0.839142 0.718567
0.015869 0.819000 0.607574
0.028809 0.824554 0.615906
0.041748 0.830780 0.625580
0.058105 0.837189 0.635406
0.168884 0.847351 0.656952
0.557678 0.860291 0.683289
0.736389 0.879150 0.710052
0.860962 0.891388 0.716095
0.948700 0.899628 0.735016
0.000641 0.032166 0.463593
0.018707 0.034729 0.490143
0.050171 0.039276 0.537506
0.213837 0.054535 0.576965
0.384094 0.063202 0.598175
0.556885 0.083191 0.604431
0.713928 0.093719 0.596954
0.831085 0.117706 0.596802
0.918243 0.161713 0.612549
0.002808 0.091949 0.515381
0.021820 0.097107 0.545837
0.044250 0.104675 0.566925
0.239624 0.122589 0.589020
0.418091 0.150116 0.618225
0.587494 0.172058 0.627563
0.737732 0.196411 0.620728
0.855316 0.226837 0.622162
0.933167 0.261230 0.638702
0.004761 0.174530 0.562561
0.021545 0.185364 0.587708
0.042358 0.199646 0.602478
0.238556 0.216278 0.615723
0.429688 0.238556 0.629761
0.594543 0.270020 0.644257
0.750641 0.302063 0.641022
0.870331 0.330566 0.644714
0.941772 0.364410 0.661438
0.005981 0.281250 0.593781
0.018433 0.294830 0.605103
0.042786 0.318878 0.628601
0.227264 0.332886 0.645782
0.432159 0.347931 0.652069
0.601349 0.371521 0.655853
0.758698 0.406219 0.662811
0.880737 0.435181 0.667145
0.948547 0.465149 0.682526
0.006226 0.398041 0.600159
0.018921 0.413483 0.614380
0.046509 0.434845 0.640137
0.194885 0.451263 0.663788
0.419617 0.460754 0.674988
0.596649 0.474213 0.674500
0.759583 0.507904 0.675781
0.881195 0.539948 0.688385
0.953522 0.564453 0.705017
0.007111 0.524323 0.612366
0.020386 0.538269 0.623718
0.034668 0.552429 0.636780
0.141693 0.573669 0.665161
0.419922 0.581177 0.681580
0.584137 0.586609 0.693542
0.750610 0.612488 0.693451
0.880371 0.639740 0.709106
0.954102 0.664001 0.725616
0.008148 0.634857 0.632111
0.021576 0.642761 0.638794
0.036011 0.655121 0.648682
0.080170 0.675354 0.665405
0.350494 0.694672 0.688873
0.582397 0.704407 0.706207
0.751831 0.723236 0.717499
0.869629 0.746124 0.735016
0.949677 0.763947 0.755280
0.012146 0.741333 0.653961
0.025604 0.748016 0.660522
0.038940 0.754883 0.667847
0.054932 0.763123 0.676941
0.252686 0.777740 0.692871
0.557465 0.795746 0.724548
0.737366 0.813232 0.750305
0.865906 0.828156 0.763062
0.953094 0.842316 0.779266
0.017151 0.830872 0.688782
0.029968 0.835602 0.694489
0.042511 0.840363 0.700562
0.057526 0.845825 0.708344
0.184906 0.856415 0.726837
0.568268 0.867035 0.744781
0.741516 0.881989 0.769928
0.860260 0.895020 0.779694
0.948730 0.902100 0.791779
0.001190 0.032471 0.565430
0.018005 0.038208 0.595093
0.037231 0.042816 0.631378
0.222931 0.050171 0.662018
0.406433 0.073883 0.685364
0.562775 0.085297 0.699677
0.716125 0.104675 0.703857
0.848816 0.143524 0.698853
0.928955 0.174164 0.702148
0.003815 0.094177 0.616547
0.023102 0.097687 0.648529
0.043335 0.106323 0.660675
0.249512 0.125183 0.679993
0.434662 0.158356 0.705231
0.590637 0.180176 0.718567
0.744415 0.210052 0.720306
0.868774 0.243439 0.719727
0.938660 0.274597 0.725281
0.006500 0.186829 0.668884
0.023499 0.202057 0.686676
0.051025 0.215088 0.700104
0.264313 0.226715 0.705414
0.450500 0.249695 0.718475
0.606537 0.285400 0.732727
0.757874 0.315338 0.734161
0.881836 0.347839 0.739014
0.945953 0.377899 0.741943
0.008057 0.302490 0.691162
0.020386 0.315186 0.702637
0.055450 0.340027 0.726013
0.264252 0.350494 0.737122
0.453186 0.364044 0.740143
0.611725 0.385040 0.743713
0.759766 0.416382 0.751190
0.883148 0.448242 0.753113
0.951111 0.475067 0.759094
0.007599 0.416016 0.707245
0.021301 0.432037 0.720764
0.050751 0.457062 0.738495
0.230316 0.473083 0.755524
0.447174 0.482086 0.760742
0.611328 0.493896 0.761383
0.758911 0.516205 0.761353
0.885254 0.550446 0.768829
0.954803 0.576019 0.777130
0.008270 0.541260 0.707275
0.022614 0.556488 0.720673
0.040283 0.572357 0.735260
0.194183 0.590485 0.758392
0.434784 0.597870 0.771332
0.601471 0.603333 0.776733
0.755615 0.617371 0.774658
0.882721 0.645660 0.780273
0.953949 0.670990 0.788757
0.010803 0.658875 0.728333
0.024963 0.671692 0.737366
0.039062 0.682983 0.746277
0.094116 0.701385 0.761200
0.388245 0.713135 0.774872
0.603546 0.717651 0.781891
0.742249 0.722565 0.789154
0.867737 0.745148 0.794830
0.952850 0.764709 0.806244
0.013824 0.761627 0.745789
0.027618 0.768768 0.751831
0.041321 0.776520 0.757721
0.070129 0.783691 0.761505
0.340332 0.797546 0.774841
0.585205 0.806732 0.790894
0.749237 0.812927 0.801361
0.870209 0.828735 0.810303
0.952240 0.844574 0.824219
0.018402 0.848114 0.764069
0.031097 0.852509 0.767792
0.044922 0.856384 0.771790
0.070312 0.859985 0.775391
0.254700 0.866302 0.782623
0.580841 0.871521 0.794281
0.744232 0.882996 0.818176
0.858582 0.895508 0.832123
0.947845 0.903717 0.840851
0.002045 0.036713 0.684265
0.018555 0.038544 0.707336
0.038544 0.041473 0.723389
0.240906 0.053833 0.740601
0.433380 0.079102 0.762451
0.583649 0.089203 0.775696
0.722168 0.113251 0.781067
0.851593 0.156036 0.784851
0.931824 0.193451 0.787170
0.005035 0.091705 0.728027
0.023712 0.101196 0.741058
0.050964 0.112335 0.750214
0.265594 0.133881 0.763123
0.449951 0.162140 0.778442
0.607452 0.185699 0.788635
0.744843 0.218048 0.796021
0.867920 0.256378 0.799866
0.939758 0.293304 0.800201
0.008636 0.202789 0.761993
0.026428 0.217499 0.774170
0.083374 0.231049 0.783142
0.310028 0.242767 0.786865
0.471283 0.259430 0.790283
0.619781 0.296722 0.801270
0.760254 0.328156 0.808289
0.883087 0.362244 0.812042
0.948273 0.395142 0.815643
0.009827 0.325256 0.785126
0.023529 0.339935 0.794312
0.085907 0.361755 0.808472
0.309235 0.371338 0.812805
0.480621 0.375885 0.808167
0.628113 0.393890 0.809753
0.766907 0.425201 0.817474
0.886932 0.459839 0.820587
0.953033 0.488434 0.828308
0.010010 0.438843 0.792999
0.024170 0.453918 0.801636
0.068787 0.477997 0.815948
0.285309 0.491547 0.827545
0.479492 0.499451 0.830505
0.631256 0.508484 0.828064
0.767975 0.528107 0.826447
0.885803 0.557434 0.831512
0.954041 0.583771 0.839478
0.010223 0.554535 0.796600
0.027496 0.572449 0.807526
0.063751 0.587494 0.817719
0.215637 0.605957 0.831268
0.460022 0.614075 0.842285
0.623993 0.620087 0.843231
0.765137 0.631348 0.841064
0.883881 0.650970 0.841675
0.952637 0.676605 0.846161
0.012756 0.680267 0.805206
0.027100 0.690735 0.811676
0.048309 0.702209 0.819794
0.145081 0.717896 0.832672
0.438843 0.725098 0.843903
0.617188 0.728577 0.850647
0.757874 0.733002 0.854004
0.874115 0.746338 0.851227
0.952240 0.765198 0.857849
0.016205 0.780792 0.818970
0.029724 0.788696 0.825684
0.046082 0.795197 0.830780
0.084717 0.801422 0.835541
0.382629 0.814209 0.848846
0.613770 0.819366 0.853546
0.763580 0.821136 0.857330
0.864014 0.826019 0.862366
0.949982 0.841095 0.870148
0.019379 0.861725 0.832886
0.032318 0.866058 0.836884
0.050995 0.870392 0.841339
0.090607 0.874420 0.844269
0.386353 0.879974 0.846954
0.617035 0.883575 0.854797
0.761078 0.887512 0.865417
0.866608 0.890930 0.871460
0.950195 0.902008 0.879242
