Kodak Vision 800T (5289) - Only color.cube
# Created by Benjamin (IWLTBAP) : http://luts.iwltbap.com
# Copyright: (C) Copyright 2010-2017 Triune Films and IWLTBAP SAS
# Cannot be resold, shared or otherwise redistributed
TITLE "Film Print Emulation LUTs Pack (Rec.709, sRGB, DCI-P3)"
LUT_3D_SIZE 9
0.000000 0.000000 0.000000
0.120148 0.014130 0.020844
0.237366 0.020569 0.032196
0.343597 0.014069 0.060486
0.441620 0.020111 0.112671
0.537598 0.028748 0.157623
0.648407 0.040192 0.197784
0.794952 0.054291 0.235901
0.905457 0.128571 0.272308
0.014557 0.107483 0.040436
0.108002 0.118256 0.052307
0.230743 0.130890 0.068634
0.360626 0.108521 0.085388
0.472015 0.071350 0.119263
0.571686 0.058350 0.158691
0.680206 0.094330 0.199036
0.825470 0.159302 0.241150
0.904633 0.222656 0.282043
0.005737 0.211212 0.089081
0.041809 0.225311 0.098480
0.213989 0.234680 0.120575
0.347412 0.242645 0.127869
0.467010 0.240936 0.150269
0.579529 0.239685 0.175751
0.697845 0.254120 0.213287
0.852356 0.285339 0.254425
0.903656 0.326752 0.295563
0.002380 0.315765 0.158966
0.034729 0.326172 0.161499
0.181641 0.339874 0.163208
0.330658 0.348145 0.178558
0.455505 0.359467 0.189301
0.581024 0.366974 0.215088
0.713470 0.376953 0.240967
0.896484 0.397369 0.277954
0.902618 0.433319 0.318909
0.004547 0.413727 0.217865
0.025604 0.419983 0.224762
0.140656 0.437866 0.209351
0.326385 0.450012 0.224182
0.449585 0.459961 0.238708
0.573456 0.475952 0.258301
0.717010 0.494049 0.278809
0.899567 0.515381 0.311646
0.901520 0.539215 0.345764
0.010468 0.511871 0.261719
0.022308 0.516785 0.268616
0.095123 0.535522 0.253174
0.337921 0.551514 0.263947
0.463104 0.564148 0.282501
0.581421 0.580231 0.304779
0.720245 0.601135 0.329559
0.896637 0.619812 0.342621
0.900421 0.641937 0.376831
0.019684 0.614410 0.307251
0.024231 0.618927 0.311432
0.078308 0.638519 0.301331
0.357666 0.665161 0.318726
0.491852 0.681335 0.332001
0.605530 0.695160 0.348511
0.726318 0.709747 0.371124
0.877930 0.725555 0.396362
0.899323 0.745789 0.407288
0.032532 0.733185 0.340424
0.038177 0.740540 0.341034
0.115173 0.758026 0.344238
0.386108 0.787598 0.376160
0.520844 0.809021 0.391022
0.629669 0.819061 0.395874
0.742096 0.826569 0.400665
0.870972 0.837921 0.420319
0.898071 0.852875 0.451385
0.142548 0.881561 0.385040
0.166016 0.890350 0.387756
0.231934 0.899567 0.391876
0.431824 0.902649 0.405212
0.553192 0.899384 0.427063
0.652222 0.896454 0.440552
0.751648 0.894501 0.449005
0.875519 0.891327 0.459869
0.897491 0.888214 0.474823
0.003601 0.009583 0.081512
0.068115 0.017487 0.161560
0.244415 0.015991 0.135040
0.350098 0.014587 0.125397
0.445587 0.020752 0.165253
0.543701 0.029602 0.199951
0.653961 0.041779 0.237122
0.807068 0.055511 0.270721
0.905121 0.138855 0.304901
0.006348 0.107697 0.134796
0.109070 0.117004 0.148926
0.244446 0.127563 0.127594
0.360443 0.122894 0.158813
0.474457 0.085876 0.181580
0.576172 0.075134 0.211365
0.686981 0.104340 0.246460
0.836731 0.178314 0.283936
0.904144 0.240295 0.322449
0.006683 0.214691 0.136169
0.101868 0.223694 0.152924
0.224335 0.234406 0.174133
0.350037 0.244720 0.185364
0.472534 0.243927 0.206360
0.584991 0.243866 0.229218
0.705383 0.259033 0.258942
0.872437 0.296356 0.299591
0.903168 0.341797 0.339996
0.002197 0.318909 0.197021
0.038116 0.327057 0.206665
0.197815 0.340424 0.219177
0.336731 0.349579 0.237946
0.461578 0.364471 0.245728
0.585785 0.371552 0.263977
0.726196 0.382050 0.287720
0.902191 0.400452 0.322601
0.902191 0.439575 0.361786
0.004395 0.416504 0.255707
0.029541 0.420380 0.263733
0.160919 0.439087 0.264343
0.332672 0.452026 0.278290
0.455841 0.464966 0.295593
0.581512 0.482422 0.308136
0.730988 0.497833 0.331146
0.902985 0.518372 0.358917
0.901154 0.540588 0.388214
0.009399 0.513763 0.300873
0.023590 0.516907 0.308014
0.109375 0.533447 0.301575
0.347229 0.553284 0.316956
0.471130 0.568298 0.334686
0.585815 0.584106 0.354553
0.724335 0.604736 0.374084
0.897919 0.623566 0.387604
0.900055 0.645599 0.416779
0.019012 0.616089 0.335876
0.024231 0.620087 0.342468
0.096710 0.638977 0.337433
0.363190 0.663574 0.362274
0.500183 0.685547 0.378052
0.608032 0.698273 0.393829
0.723938 0.710297 0.413208
0.875366 0.727692 0.437378
0.898956 0.748840 0.447845
0.033264 0.736389 0.370514
0.038940 0.741516 0.375916
0.144409 0.760254 0.382660
0.385162 0.783875 0.412781
0.522766 0.809937 0.435028
0.632812 0.820831 0.437622
0.742798 0.827209 0.441864
0.869080 0.837280 0.462311
0.897736 0.854248 0.491943
0.157837 0.887329 0.419373
0.180267 0.893860 0.425934
0.259247 0.900818 0.430023
0.438049 0.902313 0.443939
0.552124 0.899384 0.468506
0.654144 0.895416 0.483643
0.754364 0.893463 0.489288
0.875458 0.891083 0.496979
0.897186 0.887573 0.512207
0.007629 0.023987 0.169159
0.035919 0.044525 0.249023
0.201233 0.032898 0.287811
0.345581 0.020142 0.270111
0.456726 0.022766 0.241150
0.554016 0.031281 0.272278
0.667053 0.043427 0.301605
0.822357 0.057373 0.329224
0.904633 0.145294 0.359650
0.007568 0.121887 0.198578
0.036652 0.131927 0.269867
0.215332 0.133148 0.281097
0.357697 0.131134 0.272827
0.468903 0.138275 0.256439
0.574249 0.130432 0.288208
0.695679 0.133392 0.312439
0.855194 0.183624 0.342102
0.903656 0.247131 0.377228
0.005157 0.214020 0.254974
0.058258 0.225494 0.281036
0.242676 0.239105 0.268372
0.360687 0.248657 0.257446
0.474792 0.254059 0.285156
0.591064 0.257111 0.307587
0.719696 0.272156 0.331451
0.894562 0.311890 0.366425
0.902588 0.356201 0.399048
0.002289 0.323517 0.251465
0.077576 0.331726 0.262939
0.236115 0.342651 0.283936
0.348755 0.354797 0.310303
0.471100 0.369446 0.317169
0.595245 0.379456 0.335327
0.738525 0.388306 0.355560
0.906128 0.409943 0.383087
0.901642 0.449829 0.418488
0.004578 0.421143 0.309814
0.033600 0.426392 0.315674
0.197693 0.441101 0.330902
0.351196 0.458099 0.350525
0.468262 0.471588 0.366669
0.589905 0.490265 0.373596
0.743805 0.504120 0.391113
0.905731 0.523224 0.414551
0.900665 0.543732 0.444855
0.008759 0.521088 0.356506
0.021637 0.521729 0.360779
0.147491 0.535950 0.365570
0.361267 0.555939 0.384949
0.483459 0.574585 0.401794
0.593689 0.588745 0.416992
0.731842 0.609802 0.429840
0.901581 0.627014 0.448639
0.899536 0.649933 0.474762
0.017090 0.624023 0.388855
0.022888 0.626373 0.393311
0.155396 0.641846 0.397614
0.373840 0.664124 0.421906
0.509125 0.689240 0.439514
0.612366 0.701019 0.454773
0.725616 0.712494 0.472992
0.877045 0.732117 0.491425
0.898499 0.752411 0.498779
0.031952 0.742859 0.413910
0.036926 0.748383 0.421753
0.205048 0.765747 0.438843
0.398987 0.785126 0.464661
0.526398 0.807800 0.486328
0.638916 0.823151 0.490021
0.743744 0.829163 0.495911
0.867310 0.839447 0.514282
0.897278 0.858551 0.542328
0.174866 0.892517 0.463928
0.196045 0.897614 0.472687
0.301331 0.901428 0.484100
0.450806 0.901978 0.497925
0.552246 0.899353 0.518860
0.655640 0.894440 0.535431
0.757233 0.892365 0.537201
0.875702 0.890289 0.543518
0.896790 0.886627 0.559448
0.009644 0.053528 0.247345
0.036652 0.074493 0.306000
0.108582 0.066406 0.404694
0.331268 0.038696 0.398102
0.448273 0.041077 0.390137
0.562897 0.044189 0.381470
0.677185 0.100525 0.375366
0.830170 0.137878 0.403168
0.903748 0.186188 0.425995
0.007599 0.135925 0.290680
0.039459 0.150391 0.348480
0.175385 0.151031 0.399078
0.337646 0.156250 0.393372
0.459473 0.165344 0.389191
0.578400 0.172302 0.383148
0.692444 0.211212 0.391510
0.862579 0.231293 0.417511
0.902893 0.269958 0.445648
0.006378 0.227203 0.326630
0.040985 0.243439 0.363220
0.189697 0.253784 0.400146
0.347595 0.256836 0.387207
0.473419 0.267609 0.386292
0.585999 0.285248 0.383514
0.714661 0.306763 0.409760
0.897797 0.329102 0.436340
0.901978 0.362823 0.463898
0.000000 0.326263 0.374146
0.042542 0.335266 0.390808
0.236176 0.346344 0.395020
0.373627 0.364258 0.387115
0.481293 0.377869 0.387329
0.600159 0.388519 0.411285
0.750763 0.400085 0.434387
0.906616 0.425171 0.458160
0.900970 0.462463 0.488922
0.003601 0.426422 0.366180
0.056976 0.434357 0.373016
0.249054 0.447052 0.388367
0.378265 0.466827 0.417084
0.483490 0.480133 0.438873
0.605408 0.496368 0.443573
0.759399 0.510010 0.465363
0.905670 0.529510 0.482391
0.900116 0.550476 0.506317
0.007721 0.526428 0.412354
0.026276 0.531311 0.418030
0.201691 0.544434 0.428284
0.383179 0.563141 0.453949
0.501373 0.583954 0.474976
0.607208 0.596832 0.489594
0.740875 0.614655 0.491730
0.902832 0.632355 0.509552
0.899048 0.653503 0.530304
0.015778 0.634857 0.451355
0.022247 0.637756 0.456482
0.186768 0.652191 0.465576
0.392548 0.669373 0.486542
0.517395 0.692322 0.507233
0.622040 0.708038 0.523865
0.731445 0.715851 0.535065
0.880524 0.736420 0.546204
0.898010 0.756409 0.555328
0.029938 0.756897 0.482361
0.035645 0.762268 0.488892
0.231415 0.774994 0.504395
0.418884 0.789978 0.527435
0.534882 0.809967 0.546661
0.645233 0.826843 0.551178
0.747864 0.833252 0.557831
0.867981 0.840912 0.572418
0.896790 0.863708 0.597900
0.200439 0.899536 0.521057
0.215302 0.901001 0.526154
0.325653 0.902252 0.539520
0.467804 0.901276 0.557678
0.562378 0.898651 0.573944
0.662445 0.893646 0.589417
0.762299 0.890808 0.592712
0.874847 0.888885 0.597992
0.896362 0.885284 0.612885
0.012390 0.091705 0.334198
0.038086 0.103363 0.379822
0.077698 0.104065 0.491638
0.320221 0.086060 0.506500
0.449219 0.078827 0.501862
0.555603 0.104126 0.497650
0.679626 0.135590 0.489990
0.847565 0.170410 0.492554
0.902618 0.247803 0.501007
0.012573 0.158478 0.374481
0.045074 0.174530 0.422577
0.090149 0.178497 0.498474
0.329590 0.187256 0.505798
0.462280 0.191254 0.503693
0.570648 0.210114 0.500824
0.700256 0.236145 0.499756
0.879181 0.265991 0.500061
0.901917 0.314117 0.521149
0.010406 0.245789 0.401794
0.044617 0.261200 0.452087
0.137726 0.272064 0.508545
0.352264 0.278473 0.499390
0.470337 0.291412 0.497650
0.587769 0.312775 0.502716
0.723419 0.332703 0.506409
0.897064 0.360291 0.516846
0.901093 0.392731 0.542450
0.002197 0.338470 0.450348
0.042786 0.353851 0.477478
0.149994 0.370697 0.510376
0.359650 0.377106 0.507568
0.479858 0.385956 0.497223
0.605774 0.403412 0.501923
0.745667 0.423187 0.510956
0.904541 0.447998 0.538239
0.900177 0.479950 0.565674
0.001007 0.432526 0.478790
0.033203 0.441956 0.493378
0.261017 0.454437 0.502716
0.391479 0.471008 0.508545
0.507935 0.490356 0.501740
0.615265 0.505402 0.516418
0.765564 0.520020 0.542297
0.904846 0.539429 0.563293
0.899384 0.562347 0.582977
0.045807 0.532562 0.473785
0.083313 0.539062 0.481415
0.273712 0.553589 0.493500
0.408508 0.573334 0.518799
0.520203 0.593658 0.546143
0.620056 0.606262 0.562347
0.757080 0.620880 0.563568
0.903351 0.637787 0.585480
0.898438 0.659576 0.598480
0.014435 0.640869 0.516602
0.020905 0.647766 0.523102
0.253510 0.664429 0.536194
0.416229 0.681488 0.554810
0.532562 0.698456 0.578369
0.634277 0.715240 0.593384
0.741516 0.723572 0.604248
0.889648 0.740906 0.602875
0.897461 0.761230 0.615295
0.035767 0.766174 0.549744
0.052368 0.776672 0.559814
0.262177 0.789368 0.574829
0.434357 0.799652 0.591278
0.546539 0.812866 0.609009
0.651733 0.829437 0.618683
0.754639 0.839233 0.624756
0.869995 0.845093 0.636963
0.896271 0.869049 0.653717
0.226013 0.901855 0.587769
0.242310 0.902588 0.593781
0.346130 0.901825 0.605469
0.476471 0.899963 0.620331
0.574463 0.897552 0.637207
0.667542 0.892944 0.654114
0.767670 0.888641 0.659088
0.876862 0.886902 0.661011
0.895844 0.883881 0.674194
0.017273 0.121979 0.415802
0.041016 0.131683 0.460114
0.077789 0.134094 0.565796
0.303589 0.127350 0.603363
0.455505 0.131927 0.608246
0.574432 0.136414 0.603760
0.684753 0.172150 0.598419
0.837891 0.211456 0.596802
0.901611 0.264923 0.606018
0.017090 0.184418 0.454529
0.048004 0.198975 0.504517
0.084473 0.201355 0.588135
0.327301 0.212982 0.606384
0.474457 0.225494 0.612915
0.588898 0.240295 0.612915
0.704559 0.261536 0.609283
0.871490 0.295044 0.613190
0.900879 0.335632 0.623840
0.014130 0.266937 0.494781
0.051514 0.282562 0.543121
0.090302 0.297882 0.612579
0.354584 0.306366 0.603821
0.482819 0.322388 0.612671
0.600922 0.336639 0.614868
0.727356 0.358063 0.615814
0.892944 0.383240 0.623749
0.900085 0.418488 0.639496
0.005737 0.357727 0.522888
0.049103 0.375671 0.554871
0.098724 0.391693 0.625610
0.377533 0.401581 0.619812
0.499084 0.409851 0.608490
0.610291 0.425232 0.610260
0.740417 0.448334 0.621521
0.901703 0.471130 0.631836
0.899353 0.500214 0.646118
0.000000 0.449127 0.571899
0.033325 0.463531 0.591949
0.230530 0.480438 0.615814
0.382996 0.493896 0.620514
0.504242 0.502350 0.619751
0.615173 0.513336 0.611023
0.763184 0.532349 0.622101
0.904144 0.554840 0.638916
0.898590 0.576477 0.662842
0.002472 0.540741 0.584290
0.025024 0.551239 0.594971
0.303101 0.564972 0.607758
0.428223 0.579773 0.619141
0.532623 0.597595 0.627411
0.638153 0.615479 0.621429
0.761536 0.629852 0.640594
0.903046 0.644928 0.664856
0.897675 0.667297 0.686279
0.075470 0.652039 0.592285
0.094330 0.659363 0.599487
0.315521 0.673889 0.611450
0.443298 0.690033 0.621277
0.546844 0.706940 0.646545
0.646057 0.722351 0.668427
0.749512 0.732361 0.681061
0.894470 0.746796 0.681976
0.896729 0.764374 0.703552
0.103180 0.776947 0.622559
0.138519 0.786621 0.631958
0.314240 0.798492 0.645660
0.458160 0.809753 0.661652
0.562073 0.820557 0.678345
0.660980 0.833649 0.695343
0.761627 0.846832 0.703094
0.872345 0.852173 0.716309
0.895721 0.873169 0.716736
0.246918 0.902069 0.657654
0.264526 0.901947 0.666443
0.372711 0.899902 0.679077
0.489319 0.897675 0.692993
0.582153 0.895691 0.707245
0.675690 0.892151 0.725494
0.772949 0.887054 0.732788
0.881836 0.884552 0.731781
0.895264 0.882324 0.745636
0.021271 0.153137 0.506805
0.044647 0.159058 0.546844
0.081482 0.159027 0.641876
0.294556 0.162384 0.700317
0.457428 0.173309 0.717102
0.583466 0.184967 0.723511
0.706512 0.206451 0.721985
0.845459 0.236786 0.714111
0.900574 0.281982 0.717957
0.021851 0.210968 0.541351
0.055298 0.221252 0.591064
0.086670 0.224426 0.683136
0.323395 0.238129 0.709534
0.482422 0.257568 0.730530
0.605835 0.273743 0.737000
0.730927 0.291046 0.732208
0.879700 0.314148 0.731964
0.899811 0.351135 0.741699
0.018585 0.292389 0.588623
0.056732 0.307190 0.638977
0.115662 0.322968 0.726562
0.362823 0.330963 0.720093
0.497345 0.346375 0.732300
0.618683 0.362793 0.738678
0.745972 0.378693 0.739532
0.896576 0.399902 0.745026
0.898956 0.435913 0.761169
0.011505 0.380249 0.613312
0.053864 0.397278 0.670898
0.121002 0.414520 0.773987
0.390381 0.427216 0.753815
0.516663 0.436798 0.731384
0.628754 0.449005 0.734619
0.757568 0.466766 0.744751
0.900452 0.490173 0.755432
0.898254 0.514648 0.766449
0.000214 0.467438 0.660339
0.043427 0.485870 0.697571
0.160339 0.505096 0.750641
0.393158 0.516235 0.761810
0.529816 0.525024 0.748627
0.635620 0.534729 0.734741
0.761749 0.550323 0.739227
0.901123 0.571991 0.755890
0.897583 0.593750 0.770264
0.000000 0.559662 0.699219
0.022247 0.574310 0.722900
0.306580 0.590820 0.740387
0.438019 0.605560 0.745300
0.535797 0.617798 0.748444
0.639313 0.625641 0.746521
0.756104 0.635895 0.737061
0.901001 0.654724 0.751709
0.896912 0.677277 0.767426
0.090118 0.662262 0.707275
0.138214 0.671021 0.715881
0.346741 0.686401 0.727875
0.463379 0.698853 0.737457
0.560089 0.712128 0.749939
0.654694 0.725250 0.754303
0.763641 0.740356 0.746185
0.894318 0.754181 0.763702
0.895996 0.768585 0.786133
0.229523 0.783844 0.713226
0.247345 0.792633 0.721252
0.369049 0.803558 0.729034
0.488342 0.814484 0.738556
0.576385 0.826355 0.747772
0.670685 0.839752 0.770935
0.767273 0.852631 0.788147
0.877930 0.859131 0.798553
0.894989 0.877075 0.800476
0.274872 0.901459 0.739014
0.292114 0.900482 0.747040
0.396881 0.898224 0.758118
0.508301 0.895813 0.770966
0.598328 0.893341 0.784180
0.686615 0.889923 0.801910
0.778992 0.885437 0.816864
0.885406 0.882080 0.815460
0.895233 0.880280 0.827789
0.025726 0.183472 0.605103
0.052216 0.186646 0.647034
0.083740 0.183624 0.749573
0.290588 0.189819 0.816650
0.468018 0.204193 0.847321
0.589050 0.221863 0.865112
0.718018 0.239044 0.867340
0.866699 0.265625 0.861969
0.899200 0.304535 0.862915
0.027069 0.236786 0.642334
0.059631 0.247467 0.703339
0.090393 0.249329 0.818939
0.330109 0.260559 0.834595
0.489746 0.281860 0.863190
0.612854 0.298401 0.884369
0.742218 0.316803 0.886597
0.892487 0.338593 0.886169
0.898438 0.369080 0.891296
0.022369 0.319061 0.701355
0.059814 0.333588 0.781158
0.150970 0.345978 0.859436
0.384277 0.351410 0.856110
0.508728 0.364319 0.873566
0.631866 0.383636 0.889801
0.763519 0.401276 0.894135
0.901398 0.422577 0.895752
0.897675 0.449615 0.902191
0.016998 0.405212 0.753815
0.060455 0.420776 0.834595
0.166443 0.437714 0.912292
0.413177 0.449463 0.906128
0.533356 0.456909 0.881287
0.645050 0.468079 0.888550
0.775940 0.485565 0.894836
0.901917 0.502411 0.893951
0.897064 0.523926 0.902161
0.000092 0.490021 0.768738
0.053650 0.510406 0.827850
0.164856 0.527588 0.910736
0.429016 0.536957 0.910461
0.554260 0.548553 0.906494
0.659332 0.557495 0.887268
0.779633 0.567749 0.887054
0.901337 0.582794 0.893250
0.896393 0.607422 0.900482
0.000000 0.577515 0.825958
0.060089 0.596466 0.876984
0.323334 0.614258 0.900787
0.442627 0.628601 0.907104
0.550690 0.639465 0.907349
0.663940 0.646423 0.898376
0.773895 0.654510 0.878296
0.897644 0.667786 0.876221
0.895813 0.690216 0.889252
0.050140 0.682526 0.856903
0.171539 0.695099 0.867554
0.362457 0.709595 0.887146
0.478363 0.722809 0.893921
0.572479 0.733856 0.890900
0.663757 0.744293 0.888733
0.767242 0.750488 0.884857
0.890533 0.759827 0.867798
0.895142 0.777039 0.881775
0.231598 0.792206 0.840240
0.254242 0.803070 0.848633
0.395538 0.813263 0.855438
0.505219 0.823151 0.860779
0.592834 0.832428 0.869904
0.680908 0.843475 0.881714
0.775238 0.853546 0.883728
0.886871 0.865540 0.873474
0.894226 0.881317 0.889709
0.320984 0.900269 0.847076
0.335938 0.898987 0.854858
0.432983 0.896790 0.861267
0.529724 0.893768 0.866241
0.615326 0.891235 0.869141
0.693848 0.887207 0.885925
0.784668 0.883667 0.897919
0.886536 0.880341 0.901978
0.895752 0.878418 0.904388
0.031189 0.209747 0.729980
0.056793 0.211273 0.781342
0.088074 0.205170 0.912262
0.309601 0.212463 0.910339
0.480499 0.232117 0.897034
0.600372 0.251404 0.895721
0.731628 0.266052 0.894318
0.885834 0.290436 0.892609
0.898651 0.326416 0.891846
0.028473 0.262909 0.786072
0.059265 0.272369 0.886353
0.094849 0.274841 0.906738
0.354187 0.281250 0.901581
0.501221 0.300323 0.896179
0.624359 0.317535 0.894867
0.751190 0.337463 0.893463
0.898895 0.358337 0.891785
0.898132 0.387634 0.891266
0.027832 0.343231 0.869659
0.064880 0.355408 0.901428
0.258270 0.366364 0.897858
0.417114 0.372955 0.896301
0.525055 0.380432 0.895203
0.642914 0.400299 0.893890
0.776978 0.420532 0.892426
0.902832 0.444214 0.890869
0.897491 0.466644 0.890503
0.023132 0.430359 0.914215
0.067078 0.447052 0.898895
0.295532 0.459106 0.896606
0.454132 0.471375 0.894989
0.554352 0.472809 0.894043
0.658691 0.482056 0.892944
0.791656 0.502655 0.891479
0.902924 0.520813 0.890106
0.896912 0.538788 0.889832
0.007446 0.515656 0.913116
0.065094 0.531921 0.898102
0.285339 0.543793 0.895905
0.458282 0.555817 0.894165
0.578033 0.568878 0.892883
0.679535 0.575470 0.891876
0.802399 0.583893 0.890594
0.902405 0.597076 0.889374
0.896271 0.616486 0.889099
0.000000 0.597931 0.898376
0.101776 0.617920 0.896912
0.343903 0.634491 0.894470
0.461578 0.649719 0.893219
0.581787 0.657379 0.891998
0.690735 0.666962 0.890869
0.797424 0.675354 0.889771
0.900421 0.685059 0.888611
0.895599 0.699890 0.888306
0.091339 0.701416 0.896210
0.221527 0.713074 0.894867
0.387573 0.728577 0.893158
0.496063 0.743164 0.891998
0.585327 0.753815 0.891052
0.681152 0.763245 0.890045
0.789978 0.770416 0.888947
0.895203 0.776642 0.887848
0.894897 0.784271 0.887512
0.253662 0.810577 0.893646
0.277618 0.823730 0.893280
0.419922 0.833527 0.891846
0.521240 0.843567 0.890808
0.608490 0.855469 0.889862
0.693848 0.866150 0.888947
0.780823 0.874054 0.888031
0.891235 0.876801 0.886963
0.894104 0.882904 0.887817
0.330444 0.899292 0.897705
0.351471 0.897461 0.895203
0.455414 0.894653 0.892578
0.544281 0.892029 0.890961
0.625305 0.889252 0.889313
0.704834 0.886932 0.888428
0.791351 0.883698 0.887604
0.891541 0.880768 0.886627
0.893982 0.878235 0.886322
