Kodak Vision2 500T Expression (5229) - Only contrast.cube
# Created by Benjamin (IWLTBAP) : http://luts.iwltbap.com
# Copyright: (C) Copyright 2010-2017 Triune Films and IWLTBAP SAS
# Cannot be resold, shared or otherwise redistributed
TITLE "Film Print Emulation LUTs Pack (Rec.709, sRGB, DCI-P3)"
LUT_3D_SIZE 5
0.002106 0.002106 0.002106
0.194824 0.001495 0.001495
0.472046 0.000305 0.000305
0.687927 0.000000 0.000000
0.941315 0.000000 0.000000
0.001495 0.194824 0.001495
0.195251 0.195251 0.000885
0.472504 0.195160 0.000000
0.688019 0.195465 0.000000
0.943573 0.195496 0.000000
0.000305 0.472046 0.000305
0.195160 0.472504 0.000000
0.472412 0.472412 0.000000
0.687500 0.472717 0.000000
0.945312 0.472748 0.000000
0.000000 0.687927 0.000000
0.195465 0.688019 0.000000
0.472717 0.687500 0.000000
0.687469 0.687469 0.000000
0.947510 0.687073 0.000000
0.000000 0.941315 0.000000
0.195496 0.943573 0.000000
0.472748 0.945312 0.000000
0.687073 0.947510 0.000000
0.949615 0.949280 0.005157
0.001495 0.001495 0.194824
0.195251 0.000885 0.195251
0.472504 0.000000 0.195160
0.688019 0.000000 0.195465
0.943573 0.000000 0.195496
0.000885 0.195251 0.195251
0.195709 0.195709 0.195709
0.472961 0.195587 0.195587
0.688049 0.195892 0.195892
0.945862 0.195923 0.195923
0.000000 0.472504 0.195160
0.195587 0.472961 0.195587
0.472839 0.472839 0.195465
0.687561 0.473145 0.195801
0.947601 0.473114 0.195801
0.000000 0.688019 0.195465
0.195892 0.688049 0.195892
0.473145 0.687561 0.195801
0.687500 0.687500 0.196136
0.949768 0.687103 0.196136
0.000000 0.943573 0.195496
0.195923 0.945862 0.195923
0.473114 0.947601 0.195801
0.687103 0.949768 0.196136
0.951599 0.951599 0.196136
0.000305 0.000305 0.472046
0.195160 0.000000 0.472504
0.472412 0.000000 0.472412
0.687500 0.000000 0.472717
0.945312 0.000000 0.472748
0.000000 0.195160 0.472504
0.195587 0.195587 0.472961
0.472839 0.195465 0.472839
0.687561 0.195801 0.473145
0.947601 0.195801 0.473114
0.000000 0.472412 0.472412
0.195465 0.472839 0.472839
0.472717 0.472717 0.472717
0.687073 0.472992 0.472992
0.949341 0.472931 0.472931
0.000000 0.687500 0.472717
0.195801 0.687561 0.473145
0.472992 0.687073 0.472992
0.687012 0.687012 0.473267
0.951508 0.686584 0.473175
0.000000 0.945312 0.472748
0.195801 0.947601 0.473114
0.472931 0.949341 0.472931
0.686584 0.951508 0.473175
0.953308 0.953308 0.473022
0.000000 0.000000 0.687927
0.195465 0.000000 0.688019
0.472717 0.000000 0.687500
0.687469 0.000000 0.687469
0.947510 0.000000 0.687073
0.000000 0.195465 0.688019
0.195892 0.195892 0.688049
0.473145 0.195801 0.687561
0.687500 0.196136 0.687500
0.949768 0.196136 0.687103
0.000000 0.472717 0.687500
0.195801 0.473145 0.687561
0.472992 0.472992 0.687073
0.687012 0.473267 0.687012
0.951508 0.473175 0.686584
0.000000 0.687469 0.687469
0.196136 0.687500 0.687500
0.473267 0.687012 0.687012
0.686951 0.686951 0.686951
0.953674 0.686523 0.686523
0.000000 0.947510 0.687073
0.196136 0.949768 0.687103
0.473175 0.951508 0.686584
0.686523 0.953674 0.686523
0.955414 0.955414 0.686035
0.000000 0.000000 0.941162
0.195496 0.000000 0.943573
0.472748 0.000000 0.945312
0.687073 0.000000 0.947510
0.949341 0.000000 0.949341
0.000000 0.195496 0.943573
0.195923 0.195923 0.945862
0.473114 0.195801 0.947601
0.687103 0.196136 0.949768
0.951599 0.196136 0.951599
0.000000 0.472748 0.945312
0.195801 0.473114 0.947601
0.472931 0.472931 0.949341
0.686584 0.473175 0.951508
0.953308 0.473022 0.953308
0.000000 0.687073 0.947510
0.196136 0.687103 0.949768
0.473175 0.686584 0.951508
0.686523 0.686523 0.953674
0.955414 0.686035 0.955414
0.000000 0.949341 0.949341
0.196136 0.951599 0.951599
0.473022 0.953308 0.953308
0.686035 0.955414 0.955414
0.957062 0.957062 0.957062
