Kodak 8mm - Only color.cube
# Created by Benjamin (IWLTBAP) : http://luts.iwltbap.com
# Copyright: (C) Copyright 2010-2017 Triune Films and IWLTBAP SAS
# Cannot be resold, shared or otherwise redistributed
TITLE "Film Print Emulation LUTs Pack (Rec.709, sRGB, DCI-P3)"
LUT_3D_SIZE 9
0.000610 0.000610 0.000000
0.118958 0.009735 0.005341
0.203644 0.025970 0.027405
0.275665 0.033813 0.047729
0.351654 0.034576 0.054047
0.434937 0.057861 0.078522
0.515900 0.081665 0.100250
0.605682 0.100311 0.124786
0.678314 0.112885 0.137573
0.018372 0.074951 0.033539
0.125336 0.120361 0.024475
0.219330 0.137085 0.044037
0.301270 0.135681 0.050720
0.388123 0.133148 0.073730
0.477661 0.143524 0.101166
0.570343 0.157684 0.128448
0.657837 0.174500 0.146362
0.730988 0.181610 0.156036
0.055908 0.141724 0.066925
0.125031 0.172974 0.060913
0.237610 0.220398 0.046356
0.330750 0.229218 0.063629
0.423889 0.237152 0.094452
0.524200 0.244476 0.124786
0.621155 0.251434 0.146118
0.714996 0.254669 0.166840
0.790558 0.260620 0.176758
0.078644 0.188110 0.071411
0.123047 0.214966 0.073303
0.246765 0.273956 0.061462
0.352661 0.311066 0.076630
0.451477 0.323486 0.109680
0.559204 0.334381 0.136993
0.658539 0.343140 0.158661
0.757141 0.350616 0.182404
0.840515 0.355255 0.193329
0.093994 0.230713 0.074280
0.132324 0.264099 0.074280
0.262543 0.326355 0.093018
0.372467 0.378326 0.096832
0.475922 0.407928 0.121613
0.587158 0.419647 0.148346
0.690094 0.429993 0.170013
0.792877 0.439484 0.190643
0.891479 0.447449 0.199493
0.126007 0.275940 0.078094
0.152832 0.318726 0.102753
0.287842 0.389313 0.131195
0.404663 0.452118 0.137878
0.503632 0.489288 0.142212
0.618408 0.516907 0.159424
0.728516 0.527618 0.185730
0.840607 0.539490 0.201324
0.950897 0.546906 0.206940
0.151764 0.323669 0.103638
0.185455 0.371918 0.129395
0.316193 0.450134 0.160675
0.432495 0.518341 0.165436
0.538574 0.564789 0.166168
0.653564 0.600861 0.183350
0.759338 0.620453 0.193390
0.885406 0.632538 0.207092
0.996185 0.638336 0.209869
0.178467 0.366882 0.127625
0.214478 0.423706 0.144989
0.339569 0.512543 0.183716
0.468262 0.582214 0.197083
0.575958 0.634644 0.200317
0.688965 0.685852 0.201752
0.792419 0.715912 0.208466
0.908020 0.731781 0.209656
1.000000 0.735535 0.210297
0.197815 0.395081 0.134735
0.236633 0.467529 0.162659
0.376465 0.560181 0.197876
0.504089 0.619293 0.217010
0.613037 0.684631 0.220764
0.725342 0.736420 0.220825
0.828278 0.775787 0.225098
0.915161 0.800140 0.220337
1.000000 0.813263 0.210876
0.022675 0.033051 0.092102
0.105011 0.036133 0.120758
0.209320 0.036865 0.141266
0.283539 0.042908 0.145752
0.361115 0.047791 0.146332
0.443848 0.068298 0.155457
0.526428 0.086700 0.166046
0.613953 0.103455 0.181885
0.686371 0.116058 0.193085
0.034821 0.093262 0.118103
0.126617 0.120911 0.125824
0.226715 0.145905 0.153625
0.312561 0.147980 0.158325
0.403961 0.146393 0.166321
0.488739 0.153778 0.171356
0.583069 0.165253 0.188232
0.669556 0.178406 0.202240
0.739838 0.186859 0.209473
0.071442 0.156006 0.136200
0.123352 0.189697 0.145508
0.245331 0.229187 0.154694
0.343201 0.241852 0.156281
0.439941 0.248169 0.167786
0.535736 0.253571 0.182587
0.632874 0.260254 0.199646
0.726593 0.264160 0.215393
0.801453 0.269867 0.224518
0.098389 0.209839 0.145233
0.124359 0.235352 0.146332
0.257294 0.292114 0.146912
0.366821 0.326599 0.155243
0.469452 0.336792 0.169495
0.570709 0.345337 0.191864
0.672058 0.354126 0.211060
0.769470 0.362091 0.227081
0.855682 0.369843 0.236145
0.117584 0.255524 0.146088
0.141541 0.289124 0.141602
0.275146 0.355865 0.145538
0.389618 0.405609 0.152374
0.494598 0.427490 0.179504
0.600220 0.437439 0.203278
0.709442 0.450256 0.219574
0.811493 0.459778 0.237549
0.914001 0.465790 0.246246
0.147278 0.306274 0.146637
0.171234 0.351044 0.142151
0.299164 0.421967 0.152374
0.421265 0.482483 0.169983
0.523468 0.515717 0.186798
0.631470 0.537903 0.211273
0.743195 0.548248 0.229858
0.860840 0.557922 0.243927
0.969879 0.566284 0.248993
0.172729 0.354523 0.149933
0.208344 0.409302 0.149384
0.324646 0.492920 0.175842
0.452698 0.559174 0.193146
0.563354 0.598785 0.206848
0.666870 0.629395 0.220398
0.775452 0.651031 0.236938
0.902344 0.660248 0.248474
1.000000 0.667847 0.249847
0.201080 0.399048 0.155518
0.234650 0.467407 0.169495
0.345215 0.560455 0.202087
0.487518 0.627258 0.218109
0.602875 0.683105 0.228760
0.707703 0.722015 0.233978
0.814789 0.747559 0.247467
0.907959 0.761444 0.250641
1.000000 0.765594 0.250885
0.220978 0.434204 0.191010
0.257111 0.513519 0.198029
0.369659 0.605988 0.216370
0.518341 0.675995 0.232666
0.629791 0.732025 0.242249
0.737030 0.782440 0.246490
0.844299 0.814880 0.256104
0.915131 0.841309 0.256165
1.000000 0.852478 0.251221
0.062225 0.079529 0.175018
0.094818 0.085632 0.189850
0.200134 0.064636 0.224609
0.290680 0.053619 0.242126
0.370331 0.063507 0.247498
0.452545 0.084198 0.252777
0.534424 0.101349 0.257751
0.621063 0.117279 0.267670
0.691772 0.128723 0.276367
0.081421 0.133453 0.208618
0.103485 0.144073 0.222626
0.218719 0.156952 0.247009
0.316864 0.161987 0.262421
0.409149 0.159119 0.272278
0.496185 0.168213 0.276611
0.590485 0.178162 0.286835
0.675385 0.190094 0.295685
0.746735 0.198029 0.303680
0.104340 0.189484 0.230743
0.119659 0.208893 0.244659
0.252594 0.244049 0.253265
0.339844 0.265717 0.277771
0.443329 0.275909 0.293884
0.543701 0.282196 0.303528
0.640991 0.288330 0.311646
0.734314 0.292603 0.317932
0.808533 0.297363 0.327271
0.124359 0.238983 0.243011
0.135010 0.267761 0.257080
0.262207 0.308777 0.273926
0.360596 0.342865 0.288086
0.470490 0.361725 0.296234
0.577484 0.371246 0.305786
0.679901 0.380066 0.313385
0.778412 0.388062 0.320160
0.867096 0.396271 0.327209
0.144989 0.288849 0.252441
0.167480 0.328094 0.265320
0.279449 0.387695 0.287079
0.393951 0.426361 0.295563
0.497040 0.450256 0.296021
0.607666 0.464508 0.304382
0.717529 0.475220 0.312897
0.822479 0.481995 0.317139
0.925262 0.486420 0.326324
0.177521 0.342896 0.262878
0.207367 0.391327 0.277893
0.302307 0.460571 0.300629
0.424408 0.512115 0.302277
0.525757 0.540833 0.295654
0.636719 0.562958 0.299469
0.749939 0.572266 0.305328
0.865906 0.579315 0.313477
0.994781 0.587677 0.318390
0.209564 0.395447 0.278503
0.240021 0.454651 0.292511
0.323273 0.538147 0.311676
0.461212 0.597351 0.314087
0.569855 0.634186 0.298676
0.672760 0.662231 0.297089
0.780334 0.680481 0.305573
0.907928 0.689178 0.313202
1.000000 0.696350 0.316895
0.236755 0.443726 0.299011
0.269073 0.515442 0.318481
0.344666 0.605743 0.328857
0.494202 0.682526 0.332458
0.610443 0.730011 0.315369
0.712921 0.764557 0.311432
0.817322 0.784454 0.313538
0.907867 0.794708 0.315857
1.000000 0.799316 0.317627
0.254730 0.481171 0.338593
0.294281 0.562958 0.361298
0.368286 0.660767 0.373901
0.528839 0.730011 0.388733
0.640076 0.787933 0.375122
0.748108 0.837677 0.361694
0.850830 0.866699 0.345673
0.915039 0.892761 0.335663
1.000000 0.906250 0.338867
0.079529 0.093964 0.236786
0.087982 0.101562 0.254089
0.180450 0.085541 0.284180
0.272125 0.076660 0.311859
0.367950 0.072784 0.329254
0.457977 0.092163 0.333588
0.538452 0.109894 0.338684
0.624664 0.127258 0.347168
0.695892 0.136383 0.354279
0.093994 0.148712 0.277893
0.106750 0.158142 0.302948
0.213379 0.180725 0.327942
0.305969 0.177979 0.348663
0.411011 0.169342 0.363251
0.502228 0.177521 0.368866
0.593536 0.186005 0.375397
0.679993 0.197845 0.382904
0.750763 0.205566 0.390411
0.125305 0.211395 0.308411
0.140350 0.229309 0.333069
0.248260 0.264221 0.339142
0.339203 0.281372 0.360321
0.440735 0.288391 0.382935
0.544403 0.296021 0.393982
0.641083 0.300781 0.401733
0.735809 0.307343 0.411102
0.810150 0.313202 0.420349
0.147827 0.262360 0.327728
0.162598 0.290741 0.348022
0.261902 0.329712 0.358215
0.377594 0.367523 0.380554
0.460510 0.383484 0.397827
0.574371 0.393677 0.410675
0.679260 0.403778 0.420441
0.780060 0.412445 0.428619
0.869141 0.420746 0.438110
0.165466 0.313995 0.337189
0.186493 0.354248 0.360687
0.271606 0.407928 0.383514
0.398438 0.436401 0.399933
0.483704 0.462250 0.412048
0.600006 0.483093 0.415100
0.713898 0.495789 0.425385
0.823273 0.505493 0.431702
0.929657 0.512939 0.439575
0.196350 0.370026 0.354156
0.220581 0.415497 0.374146
0.294647 0.486450 0.401855
0.425690 0.532043 0.415283
0.522339 0.555420 0.417450
0.630341 0.577179 0.419800
0.745270 0.591431 0.425659
0.871521 0.602509 0.433136
1.000000 0.611694 0.441681
0.224274 0.421783 0.368561
0.255585 0.482178 0.393799
0.321198 0.562866 0.419891
0.460846 0.617279 0.433838
0.569702 0.659882 0.435089
0.665741 0.679871 0.426636
0.777130 0.700134 0.428741
0.907837 0.711945 0.435577
1.000000 0.720123 0.441681
0.250458 0.472137 0.393280
0.284546 0.545837 0.421143
0.336853 0.637177 0.437744
0.489227 0.710876 0.462555
0.613342 0.758820 0.460602
0.712250 0.789215 0.449219
0.815521 0.807159 0.441864
0.907745 0.823425 0.441803
1.000000 0.832428 0.447815
0.268250 0.507233 0.436096
0.304199 0.588287 0.465027
0.356262 0.690948 0.482513
0.513245 0.759216 0.505249
0.636078 0.820282 0.506134
0.739044 0.867065 0.492126
0.839722 0.898590 0.476959
0.914948 0.922638 0.469360
1.000000 0.930328 0.467407
0.082336 0.094666 0.290924
0.087982 0.103607 0.310272
0.170929 0.114227 0.336395
0.256622 0.113220 0.368408
0.347778 0.102051 0.392548
0.450073 0.106171 0.408081
0.541565 0.116943 0.415833
0.625946 0.132446 0.421021
0.697021 0.141815 0.428741
0.116516 0.167084 0.338379
0.131012 0.181793 0.367065
0.213165 0.202057 0.395935
0.299255 0.198242 0.424164
0.398315 0.184113 0.442841
0.497589 0.187653 0.454163
0.594727 0.192932 0.461578
0.681885 0.203339 0.468445
0.751556 0.209503 0.472382
0.151733 0.229919 0.374878
0.167511 0.252289 0.408325
0.238220 0.285706 0.435913
0.344208 0.306091 0.452515
0.435150 0.304657 0.470001
0.540131 0.308502 0.482330
0.639618 0.312592 0.491028
0.734589 0.317047 0.497711
0.807098 0.322479 0.504456
0.172272 0.283875 0.401520
0.187744 0.314117 0.430176
0.255280 0.357208 0.455383
0.384338 0.390259 0.457672
0.466064 0.403625 0.479034
0.569519 0.407806 0.498138
0.674896 0.413422 0.509003
0.775757 0.422607 0.518768
0.861816 0.430237 0.525543
0.191315 0.337158 0.417206
0.212250 0.375916 0.447723
0.270508 0.429932 0.474060
0.409302 0.457031 0.481293
0.502350 0.491302 0.506653
0.590332 0.504608 0.514252
0.708618 0.513367 0.522675
0.812347 0.523254 0.531799
0.916412 0.529083 0.535004
0.213501 0.392365 0.433594
0.233612 0.438263 0.459198
0.285522 0.506378 0.495697
0.423737 0.547211 0.504150
0.529999 0.568634 0.521759
0.618042 0.585754 0.527557
0.733063 0.602997 0.525818
0.859192 0.616943 0.533508
0.994415 0.628174 0.538361
0.230927 0.440887 0.445068
0.265350 0.502045 0.484314
0.309631 0.585236 0.511688
0.442810 0.641357 0.525635
0.565735 0.676361 0.535187
0.656097 0.692108 0.530029
0.764801 0.710052 0.528412
0.906494 0.726227 0.537476
1.000000 0.731262 0.543549
0.257812 0.492828 0.472717
0.292236 0.564514 0.507660
0.336639 0.662354 0.534058
0.466980 0.729584 0.553436
0.604309 0.776398 0.565613
0.701202 0.802704 0.555664
0.797699 0.818512 0.543365
0.907654 0.836975 0.544525
1.000000 0.845306 0.547791
0.272156 0.525848 0.515228
0.309631 0.607025 0.553955
0.353912 0.712036 0.574280
0.486145 0.780457 0.592529
0.624695 0.840424 0.599731
0.731720 0.887268 0.590515
0.826447 0.914032 0.577789
0.914886 0.938843 0.569000
1.000000 0.955170 0.568115
0.102661 0.122650 0.340790
0.112915 0.131409 0.360443
0.177704 0.143982 0.391907
0.250122 0.146362 0.422272
0.332336 0.141327 0.448273
0.428314 0.133606 0.471008
0.527924 0.135559 0.487793
0.626190 0.139374 0.499725
0.696838 0.148895 0.507812
0.140350 0.188446 0.399841
0.151733 0.200134 0.424652
0.214569 0.217590 0.459656
0.296631 0.217224 0.491577
0.387085 0.206116 0.516724
0.483612 0.201843 0.535187
0.583374 0.202393 0.547333
0.678741 0.209686 0.554962
0.750305 0.216278 0.562866
0.176819 0.251434 0.445618
0.189209 0.271240 0.476349
0.238068 0.309906 0.512299
0.346466 0.331726 0.538849
0.436066 0.331177 0.559937
0.529846 0.325043 0.570801
0.632599 0.327332 0.581055
0.731445 0.327637 0.588287
0.803467 0.331848 0.596527
0.196533 0.308441 0.471466
0.208954 0.338165 0.503784
0.257355 0.381073 0.544556
0.379822 0.411896 0.564301
0.474945 0.424133 0.575470
0.567261 0.423889 0.587982
0.668396 0.429382 0.600006
0.769348 0.432312 0.607819
0.855286 0.439880 0.617279
0.213135 0.357788 0.492279
0.231598 0.397614 0.524200
0.269379 0.453674 0.563965
0.404175 0.487518 0.580353
0.513794 0.515137 0.585510
0.599304 0.526672 0.600739
0.701904 0.528809 0.613464
0.806366 0.533264 0.620605
0.907654 0.539948 0.628510
0.234619 0.412750 0.511353
0.254089 0.461761 0.545685
0.287109 0.529419 0.591949
0.416199 0.570923 0.597717
0.542114 0.587982 0.604065
0.629303 0.615692 0.630157
0.724213 0.624298 0.628265
0.850037 0.632111 0.630676
0.972046 0.643555 0.638367
0.253204 0.466003 0.533264
0.275970 0.525238 0.574188
0.311127 0.603851 0.604919
0.433868 0.658081 0.616608
0.565216 0.688934 0.623505
0.664642 0.706085 0.635406
0.756592 0.721100 0.638062
0.893494 0.736298 0.633392
1.000000 0.746094 0.643555
0.270966 0.512329 0.561859
0.296570 0.583832 0.593414
0.338989 0.684753 0.619598
0.454834 0.748810 0.640839
0.591766 0.791046 0.649475
0.699524 0.821228 0.652222
0.791779 0.834503 0.642090
0.907593 0.847443 0.643066
1.000000 0.857697 0.651276
0.285614 0.545990 0.598297
0.313446 0.625092 0.630859
0.354248 0.728882 0.657349
0.474518 0.799072 0.680145
0.611786 0.859650 0.690796
0.723175 0.907898 0.693695
0.813751 0.930969 0.679077
0.914825 0.958588 0.666199
1.000000 0.978149 0.666443
0.125305 0.142975 0.385254
0.133484 0.153015 0.409546
0.184296 0.166626 0.442139
0.246857 0.177734 0.468140
0.324158 0.172058 0.501740
0.415955 0.163605 0.528748
0.507568 0.156433 0.551270
0.606323 0.160278 0.573151
0.690094 0.158112 0.586853
0.161255 0.203552 0.449585
0.171234 0.215363 0.485474
0.219177 0.236755 0.525757
0.296509 0.240387 0.557800
0.385162 0.228577 0.588531
0.474457 0.223358 0.607513
0.570007 0.215302 0.624420
0.663910 0.221680 0.634583
0.744995 0.223938 0.643250
0.195526 0.270844 0.506439
0.206573 0.294556 0.545319
0.241943 0.330444 0.592285
0.353638 0.361908 0.618073
0.441528 0.360840 0.640320
0.530670 0.353882 0.656738
0.626282 0.346436 0.669617
0.720856 0.346802 0.678894
0.800018 0.347168 0.688599
0.210785 0.330597 0.537445
0.227325 0.359283 0.580292
0.264679 0.404449 0.626862
0.381348 0.439850 0.650330
0.480225 0.453949 0.665955
0.571747 0.453369 0.678467
0.665222 0.450684 0.689636
0.764130 0.454468 0.704590
0.849792 0.454041 0.712219
0.232605 0.380737 0.565338
0.251953 0.420837 0.606079
0.277618 0.479034 0.650482
0.400635 0.518524 0.676514
0.516418 0.540161 0.687683
0.609192 0.546722 0.699554
0.700806 0.549133 0.709473
0.798798 0.553375 0.720978
0.897186 0.552094 0.724030
0.250916 0.434082 0.583923
0.270966 0.482788 0.628235
0.300995 0.551544 0.675385
0.413452 0.598938 0.693817
0.541626 0.617920 0.703400
0.645660 0.639343 0.716431
0.729370 0.647064 0.723053
0.843384 0.651764 0.731628
0.957977 0.655121 0.734894
0.269653 0.483856 0.608521
0.294525 0.547333 0.651886
0.324036 0.623779 0.693268
0.430725 0.685577 0.718781
0.562988 0.707550 0.723083
0.674408 0.726501 0.733521
0.755188 0.740143 0.755066
0.887909 0.752563 0.742920
1.000000 0.753967 0.744537
0.287354 0.531769 0.630646
0.311981 0.601868 0.672638
0.339874 0.699554 0.709869
0.444611 0.765717 0.736816
0.590149 0.806519 0.749176
0.701355 0.840210 0.757629
0.799225 0.852173 0.754913
0.919800 0.859863 0.748688
1.000000 0.866028 0.750488
0.298218 0.560669 0.655273
0.324738 0.640625 0.705017
0.351654 0.741760 0.732727
0.460876 0.811218 0.762085
0.603577 0.872986 0.774963
0.716034 0.920074 0.781128
0.810852 0.952118 0.778015
0.919739 0.969574 0.763672
1.000000 0.995789 0.765656
0.141541 0.163849 0.430573
0.151184 0.174469 0.459442
0.189636 0.188049 0.501526
0.253632 0.199402 0.527069
0.320312 0.200348 0.558746
0.409058 0.196503 0.587524
0.493103 0.189941 0.613190
0.587097 0.181183 0.636047
0.667511 0.179688 0.656921
0.177734 0.221283 0.507751
0.187531 0.233795 0.548645
0.226318 0.254089 0.598755
0.302307 0.265381 0.630066
0.384064 0.255341 0.659088
0.469971 0.250061 0.684113
0.560120 0.244629 0.705444
0.649780 0.239380 0.720703
0.728302 0.239960 0.737793
0.210419 0.292603 0.576508
0.221100 0.319275 0.616211
0.248596 0.355560 0.671570
0.358215 0.389038 0.708710
0.449646 0.393433 0.735626
0.536377 0.387360 0.762054
0.625244 0.380310 0.777618
0.713226 0.370544 0.782623
0.787506 0.368317 0.790039
0.229584 0.355011 0.610626
0.248901 0.384949 0.659180
0.271088 0.430389 0.714417
0.380524 0.469055 0.757050
0.493805 0.491821 0.774445
0.585083 0.490112 0.791992
0.669586 0.484436 0.799591
0.758514 0.476929 0.805939
0.837341 0.476440 0.811554
0.253357 0.406464 0.638397
0.268433 0.447296 0.687042
0.295013 0.502899 0.752472
0.395050 0.548645 0.780884
0.524475 0.575134 0.797607
0.620972 0.584778 0.811432
0.705597 0.580109 0.817200
0.794434 0.574310 0.823761
0.884735 0.572632 0.827606
0.268829 0.460388 0.663116
0.289368 0.508362 0.716034
0.315857 0.573639 0.774475
0.407623 0.623901 0.800964
0.543213 0.660675 0.814819
0.651642 0.676880 0.830200
0.739868 0.673279 0.833221
0.833405 0.672821 0.839478
0.931885 0.675354 0.841431
0.285095 0.508240 0.688019
0.309326 0.566406 0.743256
0.331940 0.646149 0.787781
0.418335 0.708344 0.815765
0.563263 0.746338 0.836548
0.675262 0.762482 0.848419
0.770874 0.768860 0.849243
0.873535 0.766693 0.847656
0.969269 0.770050 0.854889
0.300629 0.549438 0.709229
0.323608 0.618103 0.759216
0.345306 0.717834 0.796539
0.422028 0.783783 0.828827
0.575623 0.830444 0.850830
0.691406 0.856903 0.864319
0.790131 0.868134 0.864075
0.881958 0.869781 0.875183
1.000000 0.881805 0.864990
0.309692 0.574982 0.725525
0.329895 0.657806 0.774414
0.352539 0.755371 0.807434
0.434326 0.824860 0.845734
0.581909 0.881500 0.868896
0.703217 0.928314 0.886139
0.799225 0.968567 0.887756
0.917145 0.986023 0.878143
1.000000 0.999908 0.878204
0.152863 0.178589 0.468109
0.164948 0.188049 0.501007
0.195923 0.203369 0.542694
0.256317 0.214142 0.576721
0.322418 0.221100 0.596832
0.405731 0.218567 0.631104
0.485626 0.212738 0.664398
0.573059 0.209015 0.694153
0.648102 0.200531 0.715973
0.188995 0.238586 0.554474
0.200928 0.250519 0.597565
0.229065 0.273560 0.651215
0.308502 0.289337 0.688965
0.381348 0.288696 0.711792
0.467834 0.277588 0.750885
0.554291 0.272675 0.779846
0.645325 0.267151 0.800507
0.718597 0.261353 0.811951
0.220428 0.316284 0.617798
0.232117 0.343109 0.667358
0.256470 0.379303 0.733337
0.353485 0.411407 0.776031
0.450623 0.426422 0.796997
0.541870 0.423248 0.825104
0.629456 0.415192 0.846680
0.715698 0.406250 0.858002
0.785034 0.398560 0.865997
0.244049 0.373749 0.662170
0.262299 0.407166 0.712402
0.279968 0.453247 0.772003
0.375488 0.490936 0.812286
0.491455 0.523682 0.838074
0.592316 0.527039 0.870087
0.671539 0.520294 0.891113
0.757507 0.510773 0.906372
0.826721 0.501617 0.912140
0.265076 0.422852 0.688965
0.276947 0.466583 0.740997
0.302155 0.519287 0.802704
0.384155 0.563263 0.837555
0.507233 0.599640 0.873291
0.619904 0.611816 0.910248
0.703430 0.608215 0.925659
0.786987 0.602570 0.948669
0.865967 0.593689 0.946930
0.277222 0.473328 0.711426
0.298248 0.523407 0.771973
0.321655 0.587097 0.826447
0.393402 0.639404 0.869293
0.522919 0.679871 0.908020
0.644470 0.704895 0.949036
0.735596 0.704010 0.981781
0.826355 0.697784 0.988953
0.912292 0.689911 0.974426
0.294800 0.520142 0.738953
0.314056 0.575195 0.791351
0.331299 0.655426 0.839417
0.395996 0.716125 0.881470
0.535583 0.756775 0.934113
0.657898 0.784424 0.996124
0.761780 0.791290 1.000000
0.866913 0.784393 0.998169
0.946198 0.780518 0.995300
0.309082 0.560059 0.757660
0.326630 0.627411 0.804688
0.341248 0.720795 0.849365
0.394104 0.785126 0.884186
0.537903 0.841095 0.957489
0.672455 0.883118 1.000000
0.779724 0.894989 1.000000
0.903168 0.892731 1.000000
0.991211 0.893433 1.000000
0.313690 0.579956 0.767487
0.333984 0.664978 0.811432
0.345367 0.754883 0.852142
0.404968 0.823486 0.899475
0.549225 0.888397 0.977295
0.683472 0.947388 1.000000
0.790771 0.999176 1.000000
0.918060 0.998962 1.000000
0.999969 0.999969 0.999969
