Kodak Vision3 500T (5219) - Look 2.cube
# Created by Benjamin (IWLTBAP) : http://luts.iwltbap.com
# Copyright: (C) Copyright 2010-2017 Triune Films and IWLTBAP SAS
# Cannot be resold, shared or otherwise redistributed
TITLE "Film Print Emulation LUTs Pack (Rec.709, sRGB, DCI-P3)"
LUT_3D_SIZE 5
0.000000 0.000793 0.000000
0.151398 0.049469 0.000000
0.309967 0.096008 0.000000
0.481659 0.162811 0.000000
0.653717 0.249878 0.000000
0.097931 0.170776 0.000000
0.186066 0.176483 0.000000
0.385284 0.210938 0.000000
0.541504 0.236053 0.000000
0.700836 0.306396 0.000000
0.213867 0.363190 0.032318
0.267914 0.367554 0.011047
0.390900 0.382080 0.000000
0.648926 0.444763 0.000000
0.819336 0.461121 0.000000
0.409363 0.578644 0.218567
0.441162 0.582672 0.215698
0.512543 0.601318 0.126556
0.636047 0.629852 0.000000
0.889313 0.671783 0.000000
0.631348 0.799377 0.434631
0.650787 0.803589 0.435883
0.703674 0.820190 0.415894
0.792114 0.855499 0.322876
0.948853 0.929504 0.134796
0.003937 0.029968 0.073639
0.108612 0.084717 0.092590
0.263672 0.133606 0.124969
0.518311 0.119751 0.055573
0.672577 0.232605 0.081940
0.000000 0.183075 0.140320
0.177368 0.179810 0.153870
0.373352 0.185120 0.120117
0.576172 0.186554 0.059540
0.741547 0.262939 0.072449
0.166779 0.371979 0.129028
0.256653 0.370636 0.163391
0.382996 0.387482 0.093414
0.657715 0.436859 0.124603
0.827820 0.449707 0.136566
0.378754 0.586639 0.241364
0.415649 0.589905 0.248077
0.506470 0.603607 0.223969
0.635559 0.633026 0.000000
0.903687 0.674591 0.072845
0.609436 0.806335 0.441254
0.630615 0.810272 0.445374
0.687988 0.826324 0.424255
0.788727 0.858643 0.346252
0.946472 0.934540 0.162201
0.104156 0.083801 0.111511
0.143127 0.111847 0.133606
0.221191 0.178467 0.191895
0.334167 0.265808 0.278137
0.591034 0.310364 0.283844
0.000000 0.196747 0.249756
0.157440 0.200684 0.247009
0.268768 0.241669 0.250671
0.375397 0.310486 0.317871
0.681091 0.318207 0.269196
0.000000 0.387573 0.303192
0.000000 0.400085 0.309662
0.385193 0.387024 0.356842
0.590118 0.410553 0.336975
0.822693 0.423706 0.295349
0.299866 0.605042 0.321869
0.351807 0.606995 0.338043
0.491211 0.609772 0.392334
0.638306 0.634094 0.344696
0.925354 0.692200 0.397919
0.546021 0.825958 0.460114
0.571899 0.829529 0.465332
0.651733 0.840454 0.482880
0.775421 0.867004 0.474609
0.964569 0.939850 0.370270
0.162445 0.135101 0.174469
0.193726 0.153870 0.188843
0.262665 0.209839 0.236572
0.349670 0.293243 0.312653
0.478271 0.389099 0.408447
0.167023 0.217651 0.284363
0.211853 0.230255 0.275543
0.302094 0.266357 0.290985
0.386322 0.335907 0.352142
0.505402 0.428131 0.444702
0.077118 0.392334 0.388672
0.053009 0.392609 0.448273
0.333832 0.415405 0.484802
0.486206 0.458801 0.468292
0.595581 0.532806 0.541840
0.000000 0.631653 0.510223
0.124939 0.635986 0.519501
0.329773 0.645996 0.553070
0.634430 0.636810 0.604218
0.850830 0.664032 0.591827
0.434540 0.854858 0.544159
0.468842 0.858154 0.553589
0.581268 0.865631 0.589569
0.764191 0.880188 0.667664
0.977753 0.953766 0.667999
0.245300 0.195770 0.243134
0.265228 0.211334 0.256561
0.320862 0.255646 0.294922
0.398804 0.327789 0.358582
0.505798 0.424988 0.450256
0.256683 0.261932 0.319244
0.282135 0.272797 0.324921
0.352112 0.304382 0.345215
0.432343 0.368439 0.398468
0.534149 0.460541 0.484436
0.192108 0.421570 0.539276
0.267365 0.424164 0.540863
0.399750 0.443176 0.511261
0.522827 0.486328 0.513947
0.615692 0.560822 0.579590
0.250214 0.643494 0.596741
0.306458 0.645874 0.608856
0.342804 0.647369 0.671143
0.579193 0.669525 0.748352
0.742798 0.713287 0.724487
0.366211 0.875793 0.760803
0.398773 0.880188 0.768372
0.507263 0.892151 0.794922
0.679749 0.924347 0.863220
0.980988 0.982666 0.981964
