Kodak Vision3 250D (5207) - Look.cube
# Created by Benjamin (IWLTBAP) : http://luts.iwltbap.com
# Copyright: (C) Copyright 2010-2017 Triune Films and IWLTBAP SAS
# Cannot be resold, shared or otherwise redistributed
TITLE "Film Print Emulation LUTs Pack (Rec.709, sRGB, DCI-P3)"
LUT_3D_SIZE 33
0.000000 0.000000 0.000000
0.000000 0.000000 0.000000
0.008270 0.000153 0.000153
0.046783 0.001373 0.001465
0.087341 0.001740 0.001770
0.125275 0.002136 0.002136
0.161560 0.002686 0.002686
0.194916 0.003174 0.003174
0.224579 0.003479 0.003479
0.253235 0.003845 0.003845
0.281860 0.004211 0.004211
0.309692 0.004578 0.004578
0.339996 0.007629 0.007629
0.371490 0.012451 0.012451
0.402588 0.017212 0.017975
0.433380 0.021912 0.024078
0.464844 0.026855 0.030060
0.495789 0.031586 0.036072
0.525848 0.036652 0.041718
0.553833 0.041962 0.046112
0.581116 0.047821 0.050781
0.607758 0.053528 0.055389
0.633392 0.060181 0.059082
0.659454 0.066467 0.063812
0.685211 0.072693 0.068024
0.709167 0.079803 0.070801
0.733337 0.087067 0.073517
0.758301 0.094147 0.077026
0.782593 0.101318 0.079926
0.805695 0.108795 0.082855
0.829010 0.115875 0.085785
0.851868 0.122986 0.088898
0.874390 0.129883 0.092102
0.000000 0.000000 0.000000
0.000000 0.000000 0.000000
0.002136 0.000397 0.000031
0.035400 0.001373 0.001648
0.074280 0.001709 0.001709
0.112885 0.002228 0.002228
0.150940 0.002563 0.002563
0.186584 0.003021 0.003021
0.218475 0.003448 0.003448
0.248627 0.003815 0.003815
0.280334 0.006134 0.006134
0.313110 0.010193 0.010193
0.345520 0.014709 0.014709
0.378204 0.019501 0.019501
0.409302 0.025330 0.023529
0.440186 0.031128 0.028900
0.470154 0.037262 0.032898
0.500427 0.043396 0.037598
0.529236 0.049561 0.041443
0.557220 0.055267 0.046051
0.583313 0.062103 0.049408
0.609283 0.068268 0.053101
0.635040 0.074646 0.057465
0.660370 0.081329 0.060577
0.685150 0.088257 0.064117
0.710175 0.094543 0.067780
0.734070 0.101746 0.070160
0.758514 0.108673 0.073364
0.782837 0.115509 0.076508
0.806519 0.122498 0.079437
0.830017 0.129120 0.083008
0.852875 0.135773 0.086426
0.874756 0.142151 0.089844
0.000000 0.000000 0.000000
0.000000 0.000000 0.000000
0.000000 0.000000 0.000000
0.024445 0.000732 0.000763
0.061035 0.001526 0.001526
0.100281 0.001923 0.001984
0.141205 0.003510 0.003510
0.180054 0.005188 0.005188
0.215820 0.006989 0.006989
0.250305 0.010437 0.010406
0.283020 0.014679 0.012787
0.315857 0.019470 0.015564
0.348022 0.024963 0.018585
0.379852 0.030975 0.021576
0.410797 0.037292 0.024536
0.441711 0.043579 0.028503
0.472260 0.050232 0.032349
0.501831 0.057373 0.036163
0.530243 0.063904 0.040009
0.558350 0.070190 0.043091
0.584320 0.077148 0.046722
0.610291 0.083771 0.049988
0.635803 0.090393 0.053711
0.661316 0.096985 0.057800
0.686127 0.103638 0.060699
0.710480 0.109558 0.064178
0.734741 0.116425 0.067200
0.759125 0.123077 0.070831
0.783142 0.129700 0.074066
0.807343 0.136017 0.077606
0.830658 0.142883 0.080933
0.853729 0.149170 0.084290
0.875458 0.154999 0.088013
0.000031 0.001068 0.000031
0.000671 0.001892 0.000610
0.000916 0.006989 0.000580
0.015045 0.008545 0.001282
0.052124 0.011566 0.002594
0.092834 0.015198 0.004181
0.135529 0.017975 0.005890
0.175323 0.020325 0.007416
0.213135 0.021698 0.009399
0.247437 0.025116 0.011414
0.281311 0.029144 0.013947
0.314575 0.034027 0.016418
0.347565 0.039124 0.019379
0.379852 0.045166 0.022003
0.411102 0.051636 0.024506
0.442261 0.058167 0.027435
0.472778 0.064880 0.030518
0.502625 0.072235 0.033905
0.530670 0.079376 0.036896
0.558838 0.085815 0.040833
0.585358 0.092926 0.044098
0.611694 0.099518 0.048126
0.637787 0.105896 0.051819
0.662964 0.112122 0.055481
0.687561 0.118805 0.058960
0.712433 0.124878 0.062286
0.736481 0.131226 0.065704
0.761230 0.137268 0.069733
0.784668 0.144165 0.072418
0.808777 0.150299 0.075745
0.832214 0.156769 0.079254
0.855286 0.162689 0.083130
0.876343 0.168091 0.086670
0.001038 0.014465 0.001068
0.001373 0.016266 0.001343
0.003723 0.020569 0.001831
0.016357 0.027374 0.002899
0.042694 0.028046 0.003784
0.084442 0.031738 0.005219
0.128204 0.035889 0.007294
0.170013 0.039093 0.008942
0.208984 0.040314 0.010773
0.245880 0.042603 0.013153
0.279541 0.046844 0.014709
0.313629 0.050934 0.017090
0.346130 0.056793 0.018738
0.378418 0.062592 0.020752
0.409973 0.069092 0.022827
0.441040 0.076080 0.024658
0.472382 0.082825 0.028259
0.502411 0.089783 0.030914
0.531647 0.096649 0.034485
0.560211 0.102814 0.038239
0.587067 0.109528 0.042236
0.613678 0.115875 0.045959
0.639648 0.122009 0.049896
0.665100 0.128082 0.053589
0.690125 0.134155 0.057587
0.714905 0.140076 0.060730
0.738892 0.146332 0.064240
0.763184 0.152649 0.067352
0.787170 0.158356 0.071594
0.811005 0.164795 0.074524
0.834381 0.170593 0.078461
0.857025 0.176544 0.082275
0.877563 0.181885 0.085480
0.002716 0.031128 0.002594
0.004547 0.032471 0.002777
0.004456 0.036224 0.003082
0.015411 0.043121 0.003723
0.040680 0.052460 0.005066
0.071991 0.052185 0.005920
0.117798 0.055328 0.007202
0.163635 0.059479 0.009033
0.202911 0.062897 0.010742
0.241425 0.064667 0.012573
0.276062 0.068695 0.013733
0.310699 0.072327 0.015717
0.345093 0.076630 0.017609
0.377655 0.082275 0.019196
0.409332 0.088806 0.020935
0.440979 0.094849 0.022827
0.472626 0.101715 0.026276
0.503784 0.108368 0.029785
0.533173 0.115173 0.032776
0.562103 0.121124 0.037048
0.590118 0.126984 0.041321
0.617035 0.133240 0.045990
0.642792 0.139282 0.049225
0.668488 0.144684 0.053070
0.693451 0.150635 0.056458
0.717834 0.156342 0.059998
0.742279 0.162048 0.063599
0.765991 0.168030 0.067108
0.789948 0.174011 0.070648
0.813629 0.179901 0.074371
0.836914 0.185883 0.078064
0.858917 0.191193 0.081055
0.879608 0.196564 0.084656
0.005798 0.048218 0.003479
0.005493 0.050354 0.003479
0.007233 0.051453 0.003571
0.014740 0.059296 0.004028
0.034637 0.069794 0.005157
0.070404 0.078461 0.006287
0.104919 0.077545 0.007385
0.152832 0.080475 0.008789
0.196930 0.084534 0.010498
0.235931 0.088806 0.011963
0.272888 0.092438 0.013428
0.308319 0.096069 0.015015
0.343658 0.099701 0.016602
0.377563 0.104126 0.018311
0.410339 0.109406 0.020172
0.442230 0.115692 0.021942
0.474304 0.121979 0.024994
0.505524 0.128357 0.029053
0.535522 0.134918 0.032745
0.564728 0.140594 0.036987
0.593079 0.146362 0.041260
0.620056 0.152039 0.045349
0.646881 0.157715 0.049011
0.672241 0.163025 0.052704
0.697205 0.168518 0.055511
0.721710 0.173859 0.059448
0.745850 0.179504 0.062744
0.769440 0.185150 0.066162
0.793152 0.190948 0.069794
0.816803 0.196533 0.073639
0.839844 0.202301 0.077545
0.861542 0.207275 0.081055
0.881897 0.212006 0.085022
0.006744 0.067230 0.004120
0.008270 0.067932 0.003998
0.007904 0.070404 0.004028
0.016846 0.075775 0.004395
0.033661 0.085480 0.005127
0.063660 0.097198 0.006744
0.104126 0.105865 0.011658
0.140778 0.104431 0.009277
0.187134 0.106842 0.010468
0.229309 0.110779 0.011871
0.270233 0.115234 0.013397
0.306335 0.120300 0.014862
0.342194 0.124512 0.016327
0.377625 0.128296 0.017883
0.410919 0.132904 0.019409
0.444031 0.138245 0.021393
0.476807 0.143951 0.024963
0.508667 0.149689 0.028961
0.538788 0.155792 0.033112
0.568542 0.161530 0.037720
0.596985 0.166962 0.041412
0.623779 0.172302 0.045471
0.650757 0.177643 0.048889
0.676361 0.182678 0.052338
0.701294 0.187866 0.055908
0.725952 0.192932 0.059296
0.749969 0.198059 0.062988
0.773407 0.203522 0.066284
0.797028 0.208679 0.070129
0.820343 0.214294 0.073700
0.843018 0.219635 0.077484
0.864410 0.224426 0.081482
0.884186 0.228760 0.084442
0.009369 0.085663 0.004242
0.009827 0.086548 0.004242
0.012390 0.088409 0.004303
0.020020 0.092224 0.005432
0.035858 0.101654 0.007507
0.060272 0.113220 0.010498
0.097168 0.126251 0.014557
0.140839 0.133270 0.016144
0.176605 0.132111 0.013947
0.221313 0.133728 0.012054
0.263245 0.137665 0.013397
0.303375 0.143066 0.014801
0.341156 0.148407 0.016235
0.377563 0.152802 0.017761
0.412048 0.157166 0.019440
0.445618 0.162506 0.021210
0.479095 0.167847 0.024597
0.511749 0.173004 0.029572
0.542694 0.178223 0.033875
0.572357 0.183380 0.037781
0.600922 0.188629 0.041901
0.628479 0.193817 0.045715
0.655396 0.198608 0.049469
0.680695 0.203217 0.053192
0.705627 0.208221 0.056427
0.730042 0.212769 0.059784
0.753967 0.217590 0.063263
0.777496 0.222290 0.066833
0.800781 0.227631 0.070465
0.823792 0.232635 0.074158
0.846497 0.237885 0.078186
0.867554 0.242523 0.081604
0.886719 0.246490 0.085419
0.011963 0.105286 0.008728
0.013947 0.106812 0.009430
0.020020 0.107819 0.009369
0.026306 0.109741 0.010803
0.040863 0.117950 0.012665
0.061981 0.129669 0.014221
0.093597 0.143188 0.017273
0.137665 0.156921 0.020813
0.178772 0.159576 0.020691
0.212860 0.159363 0.019318
0.256256 0.161774 0.013885
0.298340 0.165100 0.015015
0.338257 0.170563 0.016510
0.376953 0.175812 0.017914
0.412811 0.181000 0.019531
0.447540 0.186646 0.021454
0.481720 0.191986 0.025238
0.515015 0.197479 0.029755
0.546265 0.202332 0.034180
0.576294 0.206940 0.038330
0.605408 0.211578 0.042694
0.633240 0.216034 0.046539
0.659882 0.221069 0.050140
0.685242 0.225250 0.053711
0.710205 0.229340 0.057129
0.734192 0.233612 0.060577
0.758362 0.238007 0.064087
0.781708 0.242371 0.067902
0.804901 0.247467 0.071442
0.827667 0.252167 0.075256
0.850250 0.257141 0.078888
0.870758 0.261414 0.082672
0.889771 0.265137 0.086029
0.018127 0.125153 0.014496
0.024109 0.126617 0.015045
0.029236 0.127838 0.015350
0.034821 0.129852 0.016083
0.045471 0.135834 0.017670
0.064728 0.146729 0.019196
0.092682 0.160004 0.021759
0.132385 0.174927 0.024536
0.179199 0.187164 0.028687
0.214661 0.186707 0.026245
0.249115 0.187561 0.024780
0.292694 0.190247 0.017731
0.333740 0.193878 0.017120
0.373840 0.198761 0.018555
0.412537 0.204285 0.020111
0.449280 0.209930 0.021851
0.483490 0.216278 0.026001
0.517578 0.222107 0.030609
0.549652 0.227356 0.034973
0.580292 0.231812 0.039185
0.609924 0.236359 0.043182
0.637878 0.240326 0.047241
0.664581 0.244629 0.050842
0.690308 0.248077 0.054504
0.715149 0.251709 0.058105
0.739136 0.255707 0.061829
0.762939 0.259766 0.065216
0.786255 0.264099 0.068817
0.809113 0.268402 0.072418
0.831940 0.272888 0.076599
0.854187 0.277435 0.080170
0.874451 0.281525 0.083740
0.893311 0.285339 0.087219
0.027191 0.146118 0.020660
0.032990 0.147705 0.020966
0.038635 0.148346 0.021179
0.044495 0.149628 0.021454
0.053925 0.153046 0.023315
0.069458 0.163879 0.024658
0.092590 0.176819 0.027008
0.128601 0.191956 0.029419
0.176514 0.207764 0.032593
0.219116 0.216827 0.035461
0.251495 0.213745 0.032104
0.286163 0.215424 0.030701
0.329529 0.218323 0.024078
0.370361 0.222198 0.023041
0.409882 0.227112 0.023651
0.448059 0.233337 0.025879
0.485260 0.239746 0.027924
0.520325 0.246796 0.031799
0.553162 0.253052 0.035706
0.584320 0.258331 0.039886
0.614319 0.262695 0.044312
0.642548 0.266327 0.048126
0.669678 0.269775 0.051788
0.695221 0.273010 0.055206
0.720306 0.275970 0.059357
0.744507 0.279480 0.063385
0.767944 0.283020 0.066589
0.790802 0.286713 0.070587
0.813660 0.290405 0.074371
0.836334 0.294739 0.078308
0.858215 0.299042 0.081665
0.878296 0.302917 0.085205
0.897003 0.306366 0.088959
0.037323 0.166473 0.026733
0.042908 0.167786 0.026672
0.048431 0.168793 0.026794
0.053894 0.170044 0.027191
0.062012 0.172302 0.028717
0.075256 0.180847 0.029907
0.094940 0.193481 0.032135
0.127167 0.208984 0.034912
0.173584 0.226288 0.037598
0.219116 0.240143 0.041718
0.258850 0.245300 0.041351
0.288666 0.241241 0.038116
0.323608 0.243286 0.036285
0.366608 0.246490 0.031036
0.406799 0.250641 0.030243
0.445892 0.255768 0.031342
0.484711 0.262756 0.032318
0.521881 0.270721 0.034363
0.556610 0.277618 0.036835
0.588379 0.284058 0.041107
0.618713 0.289398 0.045654
0.647400 0.293518 0.049133
0.674713 0.296783 0.053009
0.700470 0.299622 0.057037
0.725586 0.302460 0.060638
0.749939 0.305267 0.064331
0.772888 0.308044 0.068481
0.795929 0.311127 0.072296
0.818329 0.314667 0.075867
0.840820 0.318390 0.080444
0.862366 0.322205 0.083832
0.881958 0.325867 0.087555
0.900940 0.328796 0.090973
0.048126 0.186890 0.032288
0.053833 0.188263 0.032288
0.057983 0.189606 0.032715
0.063751 0.190704 0.033630
0.072418 0.192749 0.034607
0.081909 0.199127 0.036224
0.099213 0.211060 0.037750
0.128204 0.226624 0.040375
0.171326 0.244385 0.043274
0.217041 0.260498 0.046600
0.260559 0.271790 0.050781
0.296600 0.272980 0.047821
0.325806 0.269592 0.044861
0.361786 0.272247 0.042053
0.403931 0.275452 0.037903
0.443359 0.279602 0.037323
0.483154 0.285461 0.038422
0.521454 0.293091 0.039795
0.557465 0.301392 0.041321
0.591125 0.308533 0.043671
0.623077 0.314880 0.046051
0.652344 0.320038 0.050903
0.679932 0.324341 0.054810
0.706146 0.327698 0.059082
0.731079 0.330505 0.063049
0.755341 0.333130 0.067017
0.778473 0.335510 0.071228
0.801422 0.338287 0.074768
0.823669 0.341064 0.078735
0.845886 0.344238 0.082886
0.866974 0.347534 0.086334
0.886230 0.350311 0.090424
0.905029 0.352966 0.093323
0.059967 0.207550 0.038849
0.063629 0.210083 0.039276
0.068390 0.211243 0.039764
0.073853 0.212097 0.040497
0.081299 0.213898 0.042053
0.090088 0.218231 0.043549
0.105774 0.229370 0.044067
0.130066 0.244293 0.046875
0.169250 0.262177 0.050659
0.213959 0.279114 0.052887
0.259644 0.294586 0.057556
0.302124 0.302704 0.059235
0.334473 0.301117 0.055145
0.363647 0.298004 0.051941
0.399841 0.301331 0.048798
0.441010 0.304749 0.045197
0.481781 0.309479 0.044464
0.521088 0.315826 0.045044
0.557495 0.323639 0.046326
0.592133 0.331604 0.048492
0.625122 0.339355 0.050140
0.655853 0.345825 0.053406
0.685089 0.351074 0.056274
0.711365 0.355652 0.060944
0.736664 0.359314 0.065216
0.760925 0.362274 0.069794
0.784454 0.364685 0.074097
0.807251 0.367096 0.078186
0.829376 0.369415 0.082062
0.851349 0.372131 0.086060
0.872131 0.374634 0.090332
0.891327 0.376923 0.093628
0.909943 0.378784 0.096619
0.069458 0.230164 0.047424
0.074188 0.231964 0.047607
0.078461 0.233490 0.048553
0.083984 0.234131 0.048431
0.090912 0.235931 0.050079
0.100067 0.238892 0.051514
0.112915 0.248077 0.051941
0.133759 0.261627 0.053650
0.168030 0.279388 0.057953
0.212006 0.297150 0.060669
0.257416 0.314423 0.063721
0.304260 0.328918 0.069489
0.343018 0.333466 0.068268
0.372589 0.329041 0.062866
0.401428 0.326508 0.059174
0.437622 0.330383 0.055969
0.479828 0.334473 0.052338
0.520081 0.339569 0.051971
0.557465 0.346649 0.052856
0.592804 0.354126 0.053711
0.626373 0.361816 0.055634
0.658112 0.369751 0.058228
0.687805 0.376617 0.061066
0.715790 0.382507 0.064606
0.742310 0.386993 0.067810
0.766815 0.390961 0.072815
0.790466 0.393982 0.077759
0.813110 0.396606 0.082336
0.835266 0.398682 0.086212
0.857269 0.401031 0.090210
0.877716 0.403503 0.093781
0.896759 0.405151 0.097290
0.914917 0.406586 0.100555
0.080200 0.252106 0.056335
0.085175 0.254028 0.056519
0.089508 0.256287 0.057281
0.095032 0.256592 0.057526
0.101929 0.258057 0.058533
0.109955 0.260773 0.059753
0.121185 0.267975 0.060760
0.139221 0.280304 0.062012
0.169434 0.297546 0.065247
0.210388 0.315765 0.068817
0.256714 0.333527 0.070709
0.303162 0.350922 0.076477
0.348083 0.363251 0.080750
0.383057 0.363739 0.076721
0.410004 0.357849 0.071320
0.439117 0.356262 0.068542
0.476929 0.360718 0.064545
0.519073 0.365295 0.061401
0.557312 0.371216 0.060486
0.593658 0.377777 0.061127
0.627655 0.384735 0.062561
0.659912 0.392334 0.064606
0.690430 0.400238 0.067017
0.719086 0.407654 0.070801
0.746002 0.413727 0.074310
0.771759 0.418884 0.077667
0.796722 0.422791 0.080566
0.819855 0.425812 0.085144
0.841980 0.428741 0.089966
0.863983 0.431549 0.094147
0.883667 0.433624 0.098114
0.902802 0.435669 0.101471
0.920807 0.436188 0.104431
0.091278 0.275299 0.065521
0.095947 0.277863 0.066132
0.101501 0.280792 0.067108
0.106903 0.280884 0.067230
0.113708 0.282013 0.068115
0.121277 0.284058 0.068726
0.130890 0.288483 0.069519
0.147583 0.301270 0.070679
0.174164 0.317657 0.074188
0.211060 0.335968 0.077942
0.255890 0.353882 0.080139
0.303192 0.371826 0.083466
0.347961 0.387726 0.089081
0.390625 0.397400 0.091370
0.422119 0.395508 0.086670
0.448730 0.389252 0.080566
0.478699 0.388428 0.077972
0.517059 0.392853 0.074493
0.556732 0.397827 0.070801
0.594696 0.403198 0.070587
0.629303 0.409363 0.070831
0.661804 0.416107 0.072296
0.692749 0.423676 0.074738
0.721710 0.431366 0.078125
0.749451 0.438965 0.081390
0.775818 0.445496 0.085358
0.801056 0.451080 0.088531
0.825378 0.455505 0.091644
0.848572 0.458527 0.094696
0.871002 0.461578 0.098572
0.890808 0.464417 0.102539
0.909393 0.466766 0.106262
0.927490 0.467712 0.109619
0.102661 0.299774 0.075439
0.108063 0.302948 0.076080
0.114838 0.306519 0.078278
0.120087 0.306549 0.078003
0.126801 0.307556 0.078522
0.133820 0.309509 0.078522
0.142944 0.313110 0.079010
0.157898 0.323944 0.080322
0.180267 0.339203 0.083221
0.213013 0.357086 0.086945
0.256317 0.375641 0.090149
0.304382 0.394043 0.091705
0.348969 0.411285 0.097412
0.393311 0.426025 0.102692
0.433136 0.433167 0.102905
0.462830 0.428650 0.097168
0.488831 0.421753 0.090729
0.519684 0.420746 0.087494
0.556427 0.425476 0.085083
0.595245 0.430176 0.081451
0.630951 0.435425 0.080872
0.664337 0.441437 0.081665
0.695435 0.448486 0.083435
0.724670 0.455719 0.085815
0.752747 0.463257 0.089325
0.779480 0.470367 0.092590
0.805023 0.477020 0.096466
0.829803 0.482697 0.099823
0.853119 0.487061 0.102905
0.875977 0.490723 0.105835
0.896576 0.494080 0.108337
0.916138 0.497009 0.110962
0.934540 0.498169 0.114105
0.116333 0.325653 0.086090
0.121185 0.328857 0.087006
0.127960 0.333069 0.088898
0.133423 0.333588 0.088898
0.139954 0.334290 0.089294
0.146881 0.336182 0.088989
0.155426 0.339203 0.089142
0.168243 0.347290 0.090088
0.187622 0.361755 0.092224
0.216309 0.378632 0.096100
0.258240 0.397797 0.100281
0.306305 0.417114 0.101685
0.351532 0.434723 0.105835
0.395874 0.451843 0.112335
0.439606 0.465363 0.117462
0.475708 0.468536 0.114502
0.503387 0.461761 0.107391
0.529907 0.454620 0.100922
0.560028 0.454041 0.098358
0.596008 0.458862 0.096039
0.633118 0.463898 0.092987
0.667389 0.469360 0.092987
0.698944 0.475433 0.093445
0.728363 0.481720 0.095612
0.756592 0.488586 0.097992
0.783234 0.495087 0.100983
0.808899 0.501587 0.103760
0.833771 0.507538 0.107056
0.856903 0.513062 0.110077
0.880188 0.517731 0.113464
0.900391 0.521912 0.116638
0.920288 0.525787 0.119385
0.939423 0.527618 0.121338
0.129578 0.352753 0.097015
0.134552 0.356079 0.097595
0.141754 0.359955 0.099426
0.147522 0.361084 0.099762
0.153870 0.361267 0.099548
0.160767 0.363251 0.099487
0.168671 0.366028 0.099396
0.179657 0.371399 0.100189
0.197296 0.384827 0.101501
0.222473 0.400665 0.105377
0.260864 0.420349 0.110504
0.308746 0.440186 0.112671
0.355499 0.458740 0.115387
0.400177 0.476074 0.121338
0.443268 0.492126 0.126923
0.485229 0.503510 0.130371
0.517944 0.502777 0.125366
0.544128 0.494141 0.117371
0.570282 0.487762 0.112030
0.600952 0.488190 0.110016
0.634857 0.493652 0.109100
0.670227 0.498688 0.106232
0.702454 0.503906 0.105835
0.732117 0.509064 0.106293
0.760345 0.514526 0.107819
0.786987 0.520508 0.110138
0.812683 0.526276 0.112396
0.837250 0.531799 0.114777
0.860809 0.537323 0.117615
0.883789 0.542450 0.120605
0.904297 0.547211 0.124146
0.924347 0.551819 0.126923
0.943390 0.554749 0.129333
0.143280 0.379761 0.107727
0.148285 0.382996 0.108246
0.155151 0.386902 0.109955
0.161835 0.388153 0.110535
0.167816 0.388489 0.110260
0.174408 0.389587 0.109528
0.182220 0.392395 0.108704
0.192780 0.398010 0.109955
0.208038 0.408997 0.111725
0.231049 0.424377 0.115082
0.266174 0.443634 0.120331
0.313080 0.463867 0.123810
0.360535 0.482849 0.125580
0.405701 0.500519 0.130707
0.448517 0.517212 0.136475
0.489746 0.531067 0.141174
0.530487 0.539978 0.141815
0.559570 0.534973 0.135162
0.584259 0.526337 0.127899
0.610992 0.521637 0.123566
0.640839 0.523224 0.122131
0.673004 0.528778 0.123322
0.706177 0.533325 0.119629
0.736145 0.537628 0.118591
0.764526 0.541992 0.118591
0.791443 0.546906 0.119934
0.816742 0.551727 0.121613
0.841064 0.556396 0.123535
0.864441 0.561340 0.125946
0.887482 0.566437 0.128052
0.908112 0.571320 0.130981
0.927765 0.576263 0.134155
0.947144 0.579742 0.136688
0.156616 0.406891 0.118164
0.161530 0.409943 0.118530
0.169098 0.413483 0.120270
0.175812 0.415863 0.121368
0.182129 0.416077 0.121033
0.188629 0.416748 0.119995
0.196045 0.419769 0.118896
0.205811 0.424530 0.119568
0.219727 0.433594 0.122528
0.241272 0.448975 0.125854
0.274902 0.467743 0.130920
0.320160 0.488220 0.135040
0.367188 0.507202 0.136475
0.412415 0.525085 0.140564
0.455566 0.542297 0.146271
0.496155 0.557526 0.151337
0.536835 0.569366 0.154663
0.574677 0.575043 0.153076
0.600037 0.566833 0.145538
0.624695 0.559296 0.139099
0.650909 0.556122 0.135284
0.679901 0.558197 0.134705
0.710205 0.562805 0.135468
0.740417 0.566559 0.132629
0.768921 0.570435 0.131409
0.795868 0.574402 0.131256
0.821167 0.578094 0.131897
0.845337 0.582062 0.132935
0.868500 0.586060 0.134613
0.890991 0.590515 0.136505
0.911499 0.595306 0.138763
0.931549 0.600281 0.141327
0.950714 0.603912 0.143738
0.170349 0.433594 0.128448
0.175507 0.436768 0.128754
0.182953 0.440125 0.130829
0.190613 0.443207 0.132050
0.196625 0.443268 0.131592
0.202820 0.444275 0.130798
0.210510 0.446991 0.129364
0.219666 0.451263 0.129913
0.232086 0.458313 0.132965
0.253387 0.473877 0.136597
0.285614 0.492645 0.141815
0.329346 0.512878 0.146179
0.374969 0.531860 0.147583
0.420868 0.550140 0.150482
0.463593 0.567383 0.156372
0.504150 0.583557 0.161499
0.544861 0.597290 0.165588
0.584198 0.607422 0.167358
0.615997 0.607025 0.163391
0.640564 0.598389 0.155975
0.664032 0.591705 0.150482
0.688995 0.589142 0.146912
0.717529 0.591309 0.146332
0.745300 0.595245 0.147217
0.773102 0.598541 0.144897
0.799805 0.601135 0.143188
0.825378 0.604431 0.142548
0.849487 0.607880 0.142944
0.872772 0.611389 0.144073
0.895050 0.615234 0.145569
0.915253 0.619690 0.147186
0.934814 0.624176 0.149506
0.954254 0.627991 0.151184
0.183685 0.459900 0.138000
0.189117 0.462799 0.138855
0.196594 0.466370 0.140778
0.204651 0.470306 0.142578
0.210693 0.470612 0.142273
0.217285 0.471558 0.141083
0.224731 0.474213 0.139832
0.234528 0.479034 0.140686
0.246887 0.485870 0.143524
0.266235 0.499115 0.147461
0.297363 0.517487 0.152313
0.338287 0.537048 0.156372
0.383667 0.556244 0.158203
0.430054 0.575165 0.160797
0.472290 0.592346 0.165833
0.512085 0.608307 0.171387
0.551910 0.622925 0.175354
0.591614 0.634674 0.178253
0.628815 0.641449 0.178192
0.654785 0.636078 0.172516
0.678711 0.629150 0.165955
0.700714 0.622528 0.160736
0.725098 0.620392 0.157745
0.752258 0.622986 0.157715
0.778534 0.626129 0.158325
0.803711 0.628998 0.157745
0.829407 0.631531 0.155151
0.853882 0.634155 0.154297
0.876831 0.636902 0.154114
0.899017 0.640442 0.155304
0.918732 0.644379 0.156464
0.938263 0.648132 0.158020
0.957245 0.651489 0.159454
0.196777 0.485352 0.147186
0.202209 0.488525 0.148132
0.209930 0.491730 0.150360
0.218597 0.495972 0.152222
0.224731 0.496674 0.152100
0.231018 0.497437 0.149994
0.238983 0.500824 0.149780
0.248749 0.505951 0.151001
0.260834 0.512390 0.153595
0.279205 0.523071 0.157715
0.309357 0.541382 0.162323
0.348877 0.560699 0.166046
0.393219 0.579956 0.168396
0.439789 0.599152 0.170807
0.482239 0.616486 0.175720
0.521149 0.631958 0.180481
0.559906 0.647064 0.184937
0.598297 0.658936 0.189484
0.636932 0.668701 0.192841
0.668274 0.670135 0.186768
0.691711 0.663757 0.180847
0.714020 0.656708 0.175110
0.734589 0.650879 0.170166
0.759033 0.650726 0.168701
0.784973 0.653015 0.168243
0.809570 0.655518 0.168396
0.832764 0.657898 0.169464
0.857239 0.660004 0.166077
0.880768 0.662323 0.164825
0.902527 0.665436 0.165192
0.922333 0.668549 0.165863
0.941315 0.671814 0.167053
0.960297 0.674805 0.167999
0.209076 0.509338 0.155365
0.215271 0.512695 0.156708
0.222626 0.516144 0.158905
0.231110 0.520203 0.161163
0.238251 0.522217 0.161469
0.244659 0.523499 0.159760
0.252106 0.525787 0.158508
0.261475 0.530029 0.159271
0.273743 0.537079 0.162354
0.291687 0.546783 0.167236
0.321777 0.564453 0.171783
0.360382 0.583466 0.175690
0.403320 0.602692 0.177856
0.448914 0.621460 0.179474
0.490753 0.638733 0.185577
0.528992 0.654327 0.193207
0.567596 0.669128 0.197266
0.604584 0.681519 0.200378
0.642639 0.691925 0.202454
0.677002 0.697510 0.202057
0.702881 0.694885 0.197601
