Kodak Vision3 500T (5219) - Only color 2.cube
# Created by Benjamin (IWLTBAP) : http://luts.iwltbap.com
# Copyright: (C) Copyright 2010-2017 Triune Films and IWLTBAP SAS
# Cannot be resold, shared or otherwise redistributed
TITLE "Film Print Emulation LUTs Pack (Rec.709, sRGB, DCI-P3)"
LUT_3D_SIZE 5
0.000000 0.000793 0.000000
0.222168 0.076477 0.000000
0.423431 0.134918 0.000000
0.607635 0.236816 0.000000
0.776794 0.349304 0.000000
0.138428 0.247772 0.000000
0.269196 0.255402 0.000000
0.509338 0.300171 0.000000
0.667297 0.332031 0.000000
0.819641 0.418640 0.000000
0.305084 0.485046 0.060730
0.372284 0.489868 0.018433
0.515228 0.505737 0.000000
0.772186 0.570862 0.000000
0.918549 0.587494 0.000000
0.534729 0.705048 0.315186
0.567108 0.709045 0.311615
0.638580 0.727264 0.194000
0.759827 0.755035 0.000000
0.958588 0.794434 0.000000
0.755371 0.903259 0.559967
0.773865 0.906586 0.561218
0.821808 0.919220 0.540985
0.897705 0.942017 0.441803
0.984344 0.977203 0.206207
0.002869 0.050079 0.114532
0.156433 0.118011 0.141876
0.367126 0.193970 0.191711
0.644318 0.172241 0.092407
0.794128 0.327789 0.125854
0.000000 0.264191 0.213989
0.257782 0.260010 0.232239
0.496613 0.266937 0.184387
0.701691 0.268707 0.096619
0.855896 0.365662 0.112701
0.243805 0.494812 0.197815
0.358368 0.493378 0.244720
0.506958 0.511536 0.142975
0.780457 0.562897 0.191040
0.924469 0.576050 0.208679
0.502441 0.712952 0.343536
0.541260 0.716095 0.351746
0.632568 0.729462 0.321899
0.759308 0.758179 0.000000
0.965454 0.796875 0.113190
0.734100 0.908783 0.566681
0.754639 0.911804 0.570801
0.807617 0.923584 0.549438
0.894958 0.943848 0.468140
0.983673 0.979309 0.243225
0.149017 0.116547 0.171173
0.209961 0.160065 0.204529
0.314362 0.258179 0.281525
0.452362 0.369171 0.388733
0.716248 0.423462 0.395630
0.000000 0.282135 0.354095
0.231110 0.287170 0.350494
0.373413 0.339233 0.355011
0.498871 0.423615 0.435913
0.801605 0.432953 0.377777
0.000000 0.511780 0.418854
0.000000 0.525116 0.426422
0.509369 0.511169 0.479553
0.715302 0.535950 0.457703
0.920898 0.549561 0.409393
0.411438 0.730865 0.440521
0.472778 0.732788 0.458862
0.617310 0.735443 0.516724
0.762024 0.759308 0.466248
0.975525 0.812256 0.522583
0.671967 0.923309 0.585724
0.697449 0.925751 0.590942
0.774719 0.933014 0.608643
0.884125 0.948364 0.600372
0.984589 0.981293 0.493988
0.237976 0.196136 0.259216
0.279358 0.224182 0.277618
0.365845 0.298889 0.337616
0.470306 0.402771 0.429871
0.604431 0.513367 0.533295
0.244141 0.308929 0.396332
0.302612 0.324890 0.385620
0.414093 0.369843 0.404175
0.510498 0.454010 0.474487
0.631500 0.554077 0.570099
0.108093 0.516846 0.513062
0.081329 0.517090 0.573669
0.451965 0.541046 0.610474
0.612305 0.585205 0.593872
0.720551 0.659424 0.667847
0.000000 0.756989 0.636169
0.182190 0.761169 0.645477
0.447235 0.770752 0.678925
0.758270 0.761932 0.728973
0.938751 0.787201 0.716980
0.560486 0.941650 0.670227
0.594940 0.943512 0.679535
0.706635 0.947571 0.714783
0.874695 0.955109 0.797485
0.982635 0.983337 0.798065
0.344360 0.280823 0.345734
0.369049 0.300842 0.362305
0.436554 0.356598 0.408905
0.523712 0.444397 0.481445
0.631836 0.550842 0.575714
0.358521 0.364319 0.437469
0.389832 0.377747 0.444000
0.473083 0.416199 0.466919
0.558197 0.490906 0.523102
0.660065 0.587006 0.610138
0.277313 0.547333 0.665283
0.371704 0.549988 0.666870
0.524750 0.569366 0.637177
0.648804 0.612885 0.639862
0.740082 0.687378 0.704926
0.350586 0.768372 0.721619
0.419434 0.770630 0.733521
0.462402 0.772003 0.800598
0.704468 0.791992 0.876190
0.856598 0.830597 0.855865
0.488831 0.952881 0.885712
0.523651 0.955078 0.891144
0.633240 0.960815 0.909576
0.799805 0.974792 0.949585
0.981323 0.983002 0.982300
