Kodak Vision2 500T (5260) - Look variant.cube
# Created by Benjamin (IWLTBAP) : http://luts.iwltbap.com
# Copyright: (C) Copyright 2010-2017 Triune Films and IWLTBAP SAS
# Cannot be resold, shared or otherwise redistributed
TITLE "Film Print Emulation LUTs Pack (Rec.709, sRGB, DCI-P3)"
LUT_3D_SIZE 9
0.000000 0.000000 0.000000
0.148590 0.040680 0.007141
0.305634 0.055481 0.023071
0.453186 0.061066 0.048462
0.572601 0.073700 0.066040
0.673492 0.081696 0.079224
0.770996 0.092407 0.094604
0.859528 0.108398 0.107269
0.933472 0.125092 0.118622
0.002899 0.042938 0.005524
0.095520 0.088501 0.005554
0.261383 0.108215 0.028229
0.432190 0.123535 0.048859
0.570282 0.142181 0.065338
0.683044 0.155701 0.081085
0.782532 0.169891 0.093079
0.868622 0.184296 0.102386
0.936523 0.195984 0.111115
0.003845 0.099091 0.018219
0.005280 0.128845 0.006073
0.218231 0.199677 0.037659
0.418182 0.214630 0.049133
0.568878 0.231445 0.066223
0.689178 0.250458 0.083893
0.792877 0.265015 0.096130
0.877777 0.276306 0.105042
0.942688 0.289917 0.117859
0.003571 0.160706 0.050171
0.003632 0.159332 0.030060
0.088287 0.280304 0.029419
0.386597 0.332275 0.053802
0.562988 0.346741 0.075134
0.691711 0.366119 0.083405
0.797699 0.379944 0.094727
0.881531 0.388092 0.104431
0.944855 0.404633 0.106354
0.006348 0.230103 0.095154
0.005219 0.225281 0.059448
0.012665 0.325775 0.044739
0.292938 0.439789 0.040314
0.531464 0.465546 0.078430
0.690613 0.479126 0.100983
0.801300 0.491364 0.104065
0.878784 0.501373 0.099335
0.944122 0.507782 0.108704
0.010406 0.326141 0.157990
0.008636 0.321991 0.105621
0.010895 0.383026 0.095154
0.162598 0.526581 0.077820
0.457855 0.585266 0.096741
0.665039 0.603790 0.119598
0.801453 0.610016 0.145416
0.884460 0.615173 0.153442
0.948334 0.614868 0.140350
0.014587 0.403168 0.207764
0.013489 0.408051 0.158173
0.015167 0.456879 0.143463
0.064941 0.605560 0.143341
0.471588 0.682922 0.138641
0.648560 0.713745 0.191620
0.784363 0.726501 0.176971
0.878784 0.730713 0.156586
0.951294 0.733612 0.150574
0.017548 0.458252 0.246948
0.016327 0.467529 0.192261
0.017548 0.504486 0.179504
0.056000 0.638824 0.179016
0.443573 0.732300 0.195923
0.652008 0.783844 0.234619
0.767273 0.803467 0.219055
0.869720 0.814056 0.170868
0.952881 0.822266 0.120270
0.021790 0.547821 0.343842
0.021179 0.554199 0.286194
0.021210 0.574524 0.254669
0.021790 0.631500 0.214447
0.082458 0.739441 0.230072
0.524689 0.809143 0.232361
0.718323 0.857025 0.198700
0.848267 0.879974 0.186310
0.945435 0.894653 0.136749
0.006256 0.006287 0.052155
0.210785 0.048950 0.096161
0.332031 0.052490 0.093018
0.470184 0.057220 0.119232
0.581299 0.073059 0.133575
0.676422 0.086975 0.146729
0.769196 0.093079 0.160461
0.855408 0.098389 0.180817
0.929443 0.121826 0.199921
0.013092 0.075684 0.122314
0.090332 0.090332 0.090332
0.266296 0.117401 0.091156
0.434540 0.136292 0.110870
0.572205 0.150757 0.132812
0.680939 0.165436 0.146545
0.779083 0.172302 0.162201
0.864960 0.186157 0.177612
0.931854 0.203888 0.189697
0.005646 0.143768 0.151703
0.005463 0.144897 0.076202
0.235931 0.207733 0.101776
0.428253 0.221863 0.117981
0.576141 0.236786 0.139191
0.693848 0.253113 0.154785
0.797272 0.261261 0.166046
0.878876 0.274048 0.174957
0.938385 0.285339 0.184723
0.007507 0.217926 0.146973
0.005249 0.192383 0.093231
0.050354 0.282776 0.094360
0.399078 0.333069 0.125122
0.568298 0.344238 0.144836
0.700043 0.357056 0.160522
0.805084 0.367645 0.169617
0.886108 0.377136 0.178650
0.943939 0.385284 0.188507
0.010437 0.294647 0.191772
0.007843 0.267487 0.132416
0.008636 0.324249 0.094757
0.272247 0.438995 0.102783
0.540863 0.459198 0.158813
0.694885 0.470093 0.175842
0.806000 0.479553 0.181671
0.885651 0.489563 0.187195
0.944733 0.490234 0.193878
0.015167 0.378174 0.241425
0.012939 0.368286 0.187622
0.011902 0.386963 0.123962
0.063202 0.517639 0.125946
0.441620 0.581543 0.159912
0.677368 0.594421 0.210541
0.809692 0.600159 0.225555
0.894775 0.605835 0.231903
0.949707 0.602142 0.215576
0.017487 0.447968 0.279999
0.016327 0.446991 0.228699
0.015778 0.456390 0.159149
0.043182 0.587341 0.167053
0.431183 0.681488 0.189728
0.647552 0.716339 0.263245
0.794800 0.728271 0.272156
0.888855 0.733002 0.263275
0.952759 0.730927 0.253143
0.019348 0.488129 0.304626
0.018127 0.492676 0.251526
0.017517 0.505554 0.191010
0.020569 0.603851 0.173096
0.359192 0.728516 0.231201
0.639587 0.787140 0.288879
0.774536 0.808044 0.302216
0.878448 0.819397 0.275848
0.952484 0.825348 0.247284
0.023041 0.561981 0.383148
0.021759 0.563599 0.329681
0.021820 0.573975 0.291321
0.021790 0.617157 0.245483
0.070129 0.731384 0.247955
0.485413 0.805939 0.282623
0.699463 0.858704 0.276215
0.840759 0.884430 0.274933
0.942596 0.896637 0.258636
0.034668 0.020050 0.140900
0.263428 0.040802 0.224396
0.412354 0.049561 0.208466
0.489441 0.057404 0.225464
0.595947 0.070190 0.237610
0.690735 0.081207 0.250702
0.779236 0.098297 0.267273
0.861725 0.109528 0.289093
0.929474 0.127319 0.300354
0.007996 0.124573 0.219757
0.024536 0.074432 0.172180
0.317291 0.114044 0.182007
0.451141 0.129425 0.205322
0.576263 0.143066 0.221039
0.681366 0.154816 0.235565
0.773010 0.168884 0.248657
0.856415 0.180939 0.261749
0.927612 0.206024 0.284241
0.014832 0.186310 0.292694
0.015564 0.160553 0.256836
0.203827 0.203827 0.203674
0.406860 0.227417 0.218018
0.557190 0.249664 0.236725
0.683533 0.267456 0.255188
0.787659 0.278717 0.269562
0.869904 0.285461 0.279327
0.933533 0.292786 0.286682
0.014130 0.251740 0.301514
0.011505 0.233917 0.243347
0.028748 0.285919 0.195984
0.377655 0.342407 0.233368
0.556091 0.356323 0.254486
0.691223 0.369934 0.269196
0.800507 0.379272 0.280304
0.881287 0.384613 0.287048
0.940826 0.390106 0.288605
0.015198 0.328979 0.275452
0.013550 0.319977 0.233765
0.012421 0.339661 0.197083
0.154694 0.437103 0.222534
0.523682 0.466827 0.258240
0.690491 0.474213 0.283203
0.808624 0.478027 0.289154
0.886688 0.487305 0.295013
0.943237 0.485565 0.296234
0.017517 0.406494 0.302673
0.016907 0.409882 0.277679
0.015137 0.414001 0.224365
0.034088 0.502197 0.211212
0.397736 0.583466 0.244629
0.668793 0.595459 0.298340
0.808197 0.596375 0.314941
0.895325 0.602142 0.323578
0.948761 0.591248 0.312866
0.019958 0.471436 0.339813
0.019318 0.476929 0.308167
0.018127 0.481842 0.244629
0.019958 0.558960 0.220245
0.337677 0.676422 0.260803
0.635773 0.722656 0.338013
0.792633 0.730377 0.371460
0.892365 0.733673 0.366364
0.952454 0.721893 0.351807
0.021179 0.507812 0.357758
0.020569 0.514099 0.318115
0.019348 0.524170 0.247192
0.021179 0.593414 0.228668
0.245575 0.725922 0.280396
0.622223 0.790680 0.343750
0.774872 0.813416 0.379822
0.882202 0.824463 0.379669
0.952087 0.827545 0.364929
0.024261 0.574982 0.423157
0.023682 0.573212 0.374329
0.023041 0.581268 0.339081
0.023041 0.611603 0.302063
0.058014 0.724182 0.300934
0.443329 0.803101 0.342316
0.690063 0.859192 0.347168
0.837646 0.887909 0.366058
0.943787 0.898865 0.366791
0.031830 0.073181 0.240570
0.230621 0.037903 0.331665
0.465057 0.049255 0.305054
0.539368 0.060181 0.317535
0.613220 0.063965 0.337738
0.701538 0.075348 0.357117
0.789185 0.093018 0.371033
0.869476 0.106689 0.393066
0.931519 0.135071 0.405548
0.012573 0.160706 0.301788
0.023193 0.086578 0.235596
0.253845 0.099213 0.323669
0.489929 0.127838 0.295563
0.597046 0.142151 0.321808
0.695435 0.151550 0.339508
0.785278 0.164551 0.349487
0.860046 0.180054 0.364868
0.925079 0.202606 0.378021
0.017090 0.215698 0.364716
0.015961 0.183929 0.325653
0.020386 0.174561 0.333649
0.429352 0.222076 0.303619
0.570435 0.240753 0.325653
0.684021 0.254364 0.344086
0.784515 0.265259 0.356049
0.862457 0.277252 0.369385
0.928101 0.302124 0.388336
0.017609 0.273132 0.386383
0.019531 0.266235 0.386353
0.025421 0.273743 0.381226
0.335419 0.335510 0.335510
0.533081 0.356232 0.354462
0.674500 0.378601 0.371735
0.790436 0.392517 0.387238
0.871246 0.398529 0.397400
0.933807 0.400604 0.396820
0.018768 0.338715 0.385590
0.018738 0.351837 0.375366
0.017578 0.361908 0.308990
0.048492 0.430969 0.337189
0.503357 0.474731 0.371735
0.681183 0.486511 0.401337
0.800964 0.492859 0.410614
0.880615 0.497742 0.416962
0.942810 0.491852 0.407410
0.019318 0.420929 0.365356
0.019318 0.436615 0.352051
0.018707 0.439606 0.316833
0.027069 0.499329 0.320465
0.300964 0.581238 0.367096
0.654938 0.606445 0.411560
0.800873 0.605408 0.436768
0.889587 0.607452 0.437714
0.946686 0.590973 0.423737
0.021179 0.486725 0.383453
0.021179 0.498993 0.372620
0.020569 0.504120 0.328217
0.021790 0.558197 0.316284
0.071594 0.664825 0.367126
0.612305 0.729340 0.429504
0.787842 0.735229 0.470490
0.890137 0.737274 0.481842
0.951904 0.719147 0.461182
0.022400 0.525055 0.400696
0.022430 0.532959 0.373383
0.021179 0.539856 0.322754
0.022400 0.593170 0.300598
0.072357 0.719177 0.360138
0.596893 0.794769 0.430847
0.774597 0.820343 0.463867
0.882202 0.830322 0.492157
0.951691 0.829895 0.486511
0.025482 0.586456 0.455688
0.024261 0.583893 0.410767
0.023651 0.588318 0.378784
0.023621 0.614044 0.348145
0.042908 0.713806 0.354980
0.379791 0.801056 0.412659
0.684631 0.860443 0.421875
0.840729 0.893829 0.464691
0.944336 0.901276 0.477234
0.026947 0.090607 0.299347
0.230316 0.039673 0.376373
0.474518 0.047577 0.355682
0.561066 0.057587 0.383484
0.625122 0.062134 0.410400
0.703552 0.070770 0.430634
0.782410 0.082581 0.448212
0.867645 0.103607 0.480713
0.937286 0.139618 0.505646
0.015320 0.186554 0.353027
0.022430 0.100555 0.304749
0.188019 0.087280 0.375946
0.473663 0.111786 0.400665
0.617432 0.132355 0.406921
0.714355 0.143341 0.430115
0.797821 0.159698 0.450928
0.871490 0.179352 0.467621
0.928589 0.201691 0.471619
0.018250 0.235474 0.411438
0.017059 0.206390 0.383698
0.015930 0.167755 0.369995
0.337341 0.205627 0.440491
0.592102 0.233582 0.404449
0.703613 0.254120 0.429871
0.796326 0.262756 0.452637
0.870636 0.272369 0.466766
0.928131 0.289154 0.469604
0.020721 0.285492 0.446503
0.022705 0.285400 0.457764
0.024078 0.266632 0.440338
0.164032 0.301300 0.468628
0.547668 0.348389 0.431030
0.683807 0.365814 0.447906
0.789520 0.378296 0.467682
0.869019 0.386841 0.481354
0.929047 0.404724 0.492249
0.021271 0.347076 0.456696
0.021881 0.369232 0.475250
0.024536 0.363190 0.467377
0.047791 0.411743 0.496124
0.465424 0.465363 0.465363
0.659302 0.481964 0.488586
0.786621 0.502655 0.506622
0.871735 0.508575 0.516998
0.937195 0.500092 0.510864
0.021851 0.427063 0.447113
0.022491 0.455322 0.445831
0.021851 0.459381 0.416901
0.031036 0.506958 0.425995
0.113037 0.571472 0.468628
0.647308 0.614227 0.518738
0.798859 0.616791 0.546753
0.887451 0.615936 0.549927
0.944214 0.598022 0.540741
0.023102 0.501007 0.435211
0.023071 0.518738 0.426880
0.023071 0.528015 0.409088
0.026794 0.572083 0.409821
0.055084 0.655182 0.458435
0.569336 0.730591 0.529755
0.783997 0.741852 0.573334
0.887207 0.743317 0.590240
0.950897 0.723419 0.574554
0.024323 0.540131 0.438293
0.023651 0.551453 0.425812
0.023010 0.558746 0.390106
0.023621 0.599884 0.374908
0.056396 0.706604 0.431000
0.547760 0.793610 0.518280
0.768127 0.829773 0.557220
0.881622 0.836487 0.594269
0.951263 0.835083 0.601074
0.026642 0.596649 0.486206
0.025452 0.595917 0.450653
0.024872 0.594940 0.410889
0.024841 0.616943 0.391724
0.029510 0.694519 0.388306
0.306702 0.797424 0.476135
0.673645 0.860748 0.504395
0.841675 0.896759 0.553528
0.945557 0.903717 0.579071
0.022369 0.101929 0.343048
0.244080 0.043030 0.421143
0.462921 0.045868 0.432281
0.567078 0.056763 0.436310
0.633209 0.062347 0.477783
0.701630 0.069733 0.509277
0.776978 0.083740 0.532684
0.854492 0.096100 0.552795
0.938507 0.127014 0.593903
0.017670 0.212891 0.404358
0.026215 0.111145 0.373779
0.146606 0.076019 0.428528
0.417267 0.095306 0.479706
0.601593 0.110687 0.506744
0.722046 0.132050 0.525513
0.807068 0.149994 0.539276
0.881683 0.170837 0.568604
0.936188 0.200562 0.577179
0.020111 0.257874 0.450806
0.018890 0.229370 0.435364
0.018311 0.175812 0.432831
0.246979 0.184998 0.489532
0.529572 0.210236 0.527740
0.720154 0.242157 0.515411
0.814117 0.255310 0.538696
0.880676 0.271973 0.560822
0.933533 0.286530 0.567993
0.021942 0.304413 0.498596
0.022614 0.302155 0.503876
0.021362 0.273041 0.481354
0.028961 0.265381 0.507141
0.453003 0.321136 0.565521
0.708435 0.356384 0.527496
0.808380 0.371216 0.548615
0.878265 0.379486 0.569366
0.932526 0.388702 0.574738
0.023804 0.355316 0.527344
0.026245 0.373444 0.556396
0.029816 0.372131 0.568207
0.034119 0.382446 0.584961
0.333221 0.429138 0.603180
0.682373 0.473175 0.561005
0.793579 0.483612 0.573883
0.866730 0.491852 0.588593
0.929382 0.495789 0.594147
0.024963 0.433655 0.531921
0.026154 0.465485 0.551727
0.027344 0.480804 0.557983
0.034943 0.501099 0.569489
0.098602 0.562286 0.615356
0.615631 0.615631 0.615631
0.781342 0.622406 0.639374
0.872528 0.625366 0.645813
0.934204 0.612366 0.634064
0.026123 0.515167 0.521240
0.026672 0.540192 0.528412
0.026672 0.556580 0.516174
0.031769 0.583893 0.518555
0.042633 0.646545 0.555573
0.459991 0.722076 0.627991
0.781799 0.753235 0.668915
0.884308 0.753052 0.685669
0.950623 0.732056 0.673401
0.026062 0.559479 0.507385
0.026672 0.574799 0.495239
0.026062 0.586731 0.479065
0.026642 0.615051 0.468750
0.037872 0.692871 0.508514
0.428955 0.784973 0.617950
0.749969 0.837372 0.650085
0.881073 0.845306 0.696381
0.950073 0.843842 0.701416
0.027710 0.610748 0.534088
0.027191 0.612457 0.505127
0.026642 0.610535 0.467529
0.026031 0.623566 0.442261
0.027679 0.689667 0.456970
0.161652 0.791260 0.550690
0.647980 0.860352 0.585571
0.838745 0.902679 0.641907
0.946167 0.908386 0.670624
0.025574 0.093719 0.375244
0.277496 0.046997 0.461182
0.478241 0.048889 0.471039
0.583405 0.057739 0.461853
0.635681 0.061920 0.516663
0.703491 0.071381 0.570404
0.770142 0.085388 0.611023
0.843567 0.097565 0.643921
0.931946 0.124054 0.673859
0.020142 0.238129 0.449890
0.034882 0.104797 0.407928
0.148590 0.071198 0.477173
0.389069 0.084869 0.518372
0.567108 0.096283 0.571106
0.710205 0.112885 0.610748
0.805511 0.132660 0.635132
0.878906 0.161407 0.657013
0.937561 0.197998 0.662140
0.022003 0.278931 0.491180
0.020752 0.240936 0.476349
0.020813 0.174438 0.483765
0.168213 0.159668 0.515106
0.460968 0.189880 0.578552
0.688721 0.215759 0.610291
0.814697 0.239471 0.627106
0.886566 0.262695 0.643677
0.939362 0.284119 0.655640
0.023834 0.322662 0.535492
0.023804 0.318207 0.544067
0.022614 0.279633 0.518585
0.023315 0.234192 0.537018
0.367981 0.283722 0.604187
0.653412 0.318237 0.629669
0.818390 0.347656 0.622253
0.890961 0.367889 0.646729
0.936554 0.388641 0.653412
0.025604 0.367096 0.578125
0.026184 0.376160 0.595276
0.026215 0.364929 0.591461
0.026215 0.351227 0.588562
0.192230 0.386047 0.634766
0.618774 0.432068 0.662354
0.815063 0.459808 0.638824
0.883820 0.482208 0.663422
0.933655 0.484863 0.665894
0.027313 0.433441 0.607910
0.028442 0.455505 0.628815
0.031189 0.471252 0.650330
0.036621 0.475098 0.674347
0.070526 0.524170 0.723694
0.543976 0.571960 0.731384
0.803680 0.604034 0.696533
0.878021 0.605164 0.702545
0.927246 0.590454 0.690552
0.028931 0.520325 0.611115
0.029968 0.547424 0.625916
0.030457 0.569580 0.639832
0.035919 0.592285 0.657562
0.054474 0.648804 0.703247
0.436523 0.717285 0.753052
0.764435 0.764496 0.764435
0.877289 0.762268 0.776978
0.935455 0.738953 0.761505
0.029938 0.578430 0.607361
0.029877 0.599915 0.615692
0.030396 0.617462 0.617462
0.029846 0.630524 0.595612
0.041046 0.692963 0.629822
0.284180 0.770447 0.700439
0.688568 0.833282 0.750610
0.881165 0.857605 0.787140
0.949097 0.856903 0.796967
0.030365 0.627197 0.613800
0.029846 0.634644 0.591888
0.029358 0.635529 0.560333
0.028259 0.637085 0.528259
0.031464 0.687836 0.542145
0.070190 0.776520 0.619995
0.575073 0.849854 0.675659
0.831177 0.903778 0.718079
0.944427 0.911041 0.758545
0.019623 0.144897 0.427155
0.332275 0.050995 0.503632
0.520447 0.057098 0.506042
0.608582 0.058960 0.507294
0.654449 0.064758 0.541046
0.704895 0.073975 0.603027
0.764771 0.086334 0.654694
0.831573 0.098633 0.703217
0.921112 0.124115 0.752350
0.021393 0.259705 0.480591
0.041931 0.082489 0.433502
0.213776 0.075439 0.527252
0.420593 0.078156 0.552673
0.563385 0.093048 0.593353
0.695343 0.107697 0.653748
0.797699 0.122711 0.693268
0.870422 0.152832 0.728180
0.931091 0.195923 0.755737
0.023224 0.300781 0.527283
0.022003 0.248566 0.505798
0.023438 0.155609 0.507690
0.192413 0.149384 0.549500
0.430054 0.172729 0.598724
0.649628 0.199554 0.651978
0.798767 0.222321 0.686432
0.878967 0.246307 0.718018
0.934113 0.282227 0.745148
0.025024 0.340485 0.570496
0.024445 0.321442 0.557007
0.023865 0.270142 0.551239
0.023926 0.210815 0.564056
0.311920 0.245819 0.612946
0.599518 0.281586 0.666626
0.794769 0.313477 0.687927
0.885132 0.341675 0.716400
0.938293 0.380127 0.735046
0.026764 0.380951 0.609558
0.026764 0.374817 0.611389
0.026184 0.354706 0.600861
0.026245 0.327209 0.596893
0.095825 0.327576 0.637848
0.550720 0.380859 0.697296
0.782166 0.411438 0.695801
0.884674 0.444427 0.712585
0.942139 0.474976 0.739716
0.029541 0.437317 0.656647
0.029510 0.444489 0.666595
0.030060 0.445404 0.673523
0.030090 0.434540 0.674133
0.034668 0.450653 0.705292
0.439392 0.506378 0.741913
0.761749 0.542358 0.733643
0.893921 0.564392 0.742401
0.941895 0.588654 0.764130
0.031036 0.515289 0.677734
0.031494 0.529114 0.690857
0.031952 0.546661 0.706329
0.036255 0.562775 0.731537
0.048157 0.599670 0.777496
0.394684 0.666687 0.836639
0.717712 0.727417 0.824341
0.888245 0.744995 0.825928
0.933563 0.727417 0.814606
0.031921 0.581635 0.687561
0.032837 0.601166 0.706635
0.033752 0.619965 0.722809
0.044922 0.658417 0.755432
0.060089 0.697418 0.781036
0.324554 0.761475 0.821289
0.629822 0.826569 0.849487
0.871948 0.871948 0.871948
0.949493 0.872437 0.885956
0.033264 0.633514 0.700073
0.033234 0.646637 0.703308
0.033234 0.655579 0.698456
0.033234 0.662018 0.689209
0.044891 0.705841 0.711304
0.055573 0.755676 0.717712
0.422821 0.823608 0.756866
0.795410 0.896301 0.788300
0.947906 0.920380 0.839111
0.018921 0.187439 0.446350
0.323578 0.050232 0.517151
0.532745 0.058075 0.516449
0.624908 0.060272 0.515594
0.677551 0.066681 0.509491
0.718658 0.075684 0.594147
0.766541 0.087097 0.664703
0.836456 0.100952 0.734741
0.929260 0.147827 0.818481
0.022614 0.283112 0.510437
0.033661 0.137177 0.495178
0.206726 0.091034 0.548767
0.452515 0.089539 0.577087
0.599609 0.091705 0.594086
0.713898 0.103546 0.659302
0.800995 0.137146 0.705200
0.867920 0.175995 0.753571
0.925171 0.217346 0.801758
0.024414 0.326141 0.556335
0.023254 0.281433 0.521820
0.029602 0.161957 0.534119
0.217194 0.151367 0.573364
0.453522 0.160248 0.595306
0.652100 0.182190 0.654022
0.790924 0.216583 0.706329
0.872925 0.253540 0.753601
0.928070 0.295654 0.799072
0.026184 0.364288 0.596558
0.025024 0.335052 0.574036
0.024506 0.269012 0.555603
0.034485 0.191833 0.574677
0.304932 0.211273 0.601868
0.581512 0.240906 0.660522
0.775482 0.287750 0.711365
0.876678 0.332062 0.756195
0.930908 0.379852 0.796600
0.028473 0.403870 0.637909
0.027344 0.381622 0.621490
0.026215 0.347687 0.594666
0.025696 0.291321 0.594299
0.027588 0.243042 0.593140
0.502686 0.314117 0.683197
0.751740 0.367065 0.722137
0.875610 0.415619 0.752167
0.934540 0.463440 0.797302
0.030060 0.454071 0.676453
0.029510 0.439117 0.668610
0.029572 0.421539 0.662628
0.028473 0.391724 0.644379
0.027924 0.366333 0.638824
0.331604 0.409393 0.713562
0.715515 0.469879 0.759430
0.874847 0.514709 0.762543
0.942108 0.561584 0.807800
0.031525 0.513580 0.695496
0.031525 0.504303 0.703156
0.032043 0.499359 0.712769
0.032043 0.494324 0.721893
0.032562 0.489258 0.727631
0.066620 0.550842 0.800842
0.643768 0.622192 0.817749
0.871796 0.655365 0.805420
0.944550 0.702148 0.850250
0.032867 0.573303 0.721436
0.033356 0.580048 0.731506
0.033783 0.589905 0.743652
0.035614 0.603149 0.758209
0.046875 0.635620 0.791809
0.067810 0.687775 0.849670
0.547668 0.761047 0.910980
0.830200 0.831299 0.899750
0.948914 0.850861 0.924530
0.034637 0.623260 0.755646
0.035065 0.633881 0.764648
0.041199 0.654663 0.783142
0.048340 0.672363 0.797577
0.055969 0.687378 0.808838
0.082367 0.736847 0.848389
0.353943 0.786346 0.886261
0.653503 0.863434 0.932281
0.950256 0.950256 0.950256
