Kodak Vision3 50D (5203) - Only contrast.cube
# Created by Benjamin (IWLTBAP) : http://luts.iwltbap.com
# Copyright: (C) Copyright 2010-2017 Triune Films and IWLTBAP SAS
# Cannot be resold, shared or otherwise redistributed
TITLE "Film Print Emulation LUTs Pack (Rec.709, sRGB, DCI-P3)"
LUT_3D_SIZE 5
0.000519 0.000519 0.000519
0.203156 0.000000 0.000000
0.467163 0.000000 0.000000
0.759064 0.000000 0.000000
0.991302 0.000000 0.000000
0.000000 0.203156 0.000000
0.203552 0.203552 0.000000
0.467560 0.203552 0.000000
0.759705 0.203369 0.000000
0.990265 0.203583 0.000000
0.000000 0.467163 0.000000
0.203552 0.467560 0.000000
0.467529 0.467529 0.000000
0.759949 0.467316 0.000000
0.988831 0.467529 0.000000
0.000000 0.759064 0.000000
0.203369 0.759705 0.000000
0.467316 0.759949 0.000000
0.760010 0.760010 0.000000
0.987183 0.760559 0.000000
0.000000 0.991302 0.000000
0.203583 0.990265 0.000000
0.467529 0.988831 0.000000
0.760559 0.987183 0.000000
0.985931 0.985901 0.000000
0.000000 0.000000 0.203156
0.203552 0.000000 0.203552
0.467560 0.000000 0.203552
0.759705 0.000000 0.203369
0.990265 0.000000 0.203583
0.000000 0.203552 0.203552
0.203949 0.203949 0.203949
0.467926 0.203949 0.203949
0.760345 0.203735 0.203735
0.989197 0.203949 0.203949
0.000000 0.467560 0.203552
0.203949 0.467926 0.203949
0.467896 0.467896 0.203918
0.760590 0.467651 0.203705
0.987732 0.467896 0.203949
0.000000 0.759705 0.203369
0.203735 0.760345 0.203735
0.467651 0.760590 0.203705
0.760651 0.760651 0.203491
0.986053 0.761200 0.203766
0.000000 0.990265 0.203583
0.203949 0.989197 0.203949
0.467896 0.987732 0.203949
0.761200 0.986053 0.203766
0.984802 0.984802 0.204041
0.000000 0.000000 0.467163
0.203552 0.000000 0.467560
0.467529 0.000000 0.467529
0.759949 0.000000 0.467316
0.988831 0.000000 0.467529
0.000000 0.203552 0.467560
0.203949 0.203949 0.467926
0.467896 0.203918 0.467896
0.760590 0.203705 0.467651
0.987732 0.203949 0.467896
0.000000 0.467529 0.467529
0.203918 0.467896 0.467896
0.467865 0.467865 0.467865
0.760864 0.467621 0.467621
0.986237 0.467865 0.467865
0.000000 0.759949 0.467316
0.203705 0.760590 0.467651
0.467621 0.760864 0.467621
0.760956 0.760956 0.467407
0.984528 0.761536 0.467651
0.000000 0.988831 0.467529
0.203949 0.987732 0.467896
0.467865 0.986237 0.467865
0.761536 0.984528 0.467651
0.983307 0.983307 0.467926
0.000000 0.000000 0.759064
0.203369 0.000000 0.759705
0.467316 0.000000 0.759949
0.760010 0.000000 0.760010
0.987183 0.000000 0.760559
0.000000 0.203369 0.759705
0.203735 0.203735 0.760345
0.467651 0.203705 0.760590
0.760651 0.203491 0.760651
0.986053 0.203766 0.761200
0.000000 0.467316 0.759949
0.203705 0.467651 0.760590
0.467621 0.467621 0.760864
0.760956 0.467407 0.760956
0.984528 0.467651 0.761536
0.000000 0.760010 0.760010
0.203491 0.760651 0.760651
0.467407 0.760956 0.760956
0.761047 0.761047 0.761047
0.982788 0.761658 0.761658
0.000000 0.987183 0.760559
0.203766 0.986053 0.761200
0.467651 0.984528 0.761536
0.761658 0.982788 0.761658
0.981567 0.981567 0.762329
0.000000 0.000000 0.991272
0.203583 0.000000 0.990265
0.467529 0.000000 0.988831
0.760559 0.000000 0.987183
0.985962 0.000000 0.985962
0.000000 0.203583 0.990265
0.203949 0.203949 0.989197
0.467896 0.203949 0.987732
0.761200 0.203766 0.986053
0.984802 0.204041 0.984802
0.000000 0.467529 0.988831
0.203949 0.467896 0.987732
0.467865 0.467865 0.986237
0.761536 0.467651 0.984528
0.983307 0.467926 0.983307
0.000000 0.760559 0.987183
0.203766 0.761200 0.986053
0.467651 0.761536 0.984528
0.761658 0.761658 0.982788
0.981567 0.762329 0.981567
0.000000 0.985962 0.985962
0.204041 0.984802 0.984802
0.467926 0.983307 0.983307
0.762329 0.981567 0.981567
0.980347 0.980347 0.980347
