Kodak Vision3 500T (5219) - Only color 2.cube
# Created by Benjamin (IWLTBAP) : http://luts.iwltbap.com
# Copyright: (C) Copyright 2010-2017 Triune Films and IWLTBAP SAS
# Cannot be resold, shared or otherwise redistributed
TITLE "Film Print Emulation LUTs Pack (Rec.709, sRGB, DCI-P3)"
LUT_3D_SIZE 9
0.000000 0.000793 0.000000
0.102631 0.023010 0.000000
0.222168 0.076477 0.000000
0.327301 0.100098 0.000000
0.423431 0.134918 0.000000
0.522461 0.180573 0.000000
0.607635 0.236816 0.000000
0.690674 0.292877 0.000000
0.776794 0.349304 0.000000
0.068237 0.128693 0.000000
0.148315 0.128693 0.000000
0.282135 0.155914 0.000000
0.363373 0.163116 0.000000
0.459991 0.182648 0.000000
0.549561 0.216278 0.000000
0.628967 0.263428 0.000000
0.705231 0.317841 0.000000
0.789001 0.371582 0.000000
0.138428 0.247772 0.000000
0.190918 0.249207 0.000000
0.269196 0.255402 0.000000
0.418854 0.298096 0.000000
0.509338 0.300171 0.000000
0.589203 0.309052 0.000000
0.667297 0.332031 0.000000
0.738312 0.374115 0.000000
0.819641 0.418640 0.000000
0.201660 0.369843 0.000000
0.243011 0.370728 0.000000
0.311798 0.373688 0.000000
0.384888 0.383301 0.000000
0.523407 0.412109 0.000000
0.642487 0.439484 0.000000
0.714661 0.444672 0.000000
0.789886 0.465118 0.000000
0.867371 0.493286 0.000000
0.305084 0.485046 0.060730
0.330017 0.485596 0.073151
0.372284 0.489868 0.018433
0.436829 0.496796 0.000000
0.515228 0.505737 0.000000
0.626221 0.524933 0.000000
0.772186 0.570862 0.000000
0.849701 0.575317 0.000000
0.918549 0.587494 0.000000
0.419556 0.594360 0.187195
0.433350 0.595856 0.182220
0.460541 0.600983 0.135956
0.506958 0.608429 0.082458
0.562500 0.619629 0.000000
0.637634 0.630585 0.000000
0.742432 0.639221 0.000000
0.875854 0.683197 0.000000
0.955444 0.700623 0.000000
0.534729 0.705048 0.315186
0.544220 0.706177 0.313995
0.567108 0.709045 0.311615
0.599274 0.715912 0.276154
0.638580 0.727264 0.194000
0.686279 0.742462 0.000000
0.759827 0.755035 0.000000
0.862061 0.759888 0.000000
0.958588 0.794434 0.000000
0.645813 0.807587 0.450775
0.652588 0.808533 0.452057
0.667389 0.811707 0.442841
0.691376 0.817749 0.418976
0.728485 0.825714 0.388214
0.770599 0.838165 0.298553
0.813965 0.854401 0.164337
0.875122 0.869049 0.000000
0.958221 0.874664 0.000000
0.755371 0.903259 0.559967
0.760712 0.904175 0.560364
0.773865 0.906586 0.561218
0.795563 0.910980 0.562988
0.821808 0.919220 0.540985
0.856506 0.929840 0.506500
0.897705 0.942017 0.441803
0.940369 0.958313 0.359711
0.984344 0.977203 0.206207
0.000000 0.013763 0.035217
0.075287 0.047333 0.068085
0.161255 0.101044 0.114380
0.365875 0.058380 0.000000
0.442749 0.108124 0.000000
0.545471 0.133331 0.000000
0.639435 0.178467 0.000000
0.714294 0.260254 0.001465
0.784760 0.339905 0.034424
0.000000 0.140686 0.114502
0.131348 0.134033 0.109558
0.266937 0.138458 0.097076
0.389893 0.117218 0.008179
0.485962 0.133026 0.007935
0.572571 0.169769 0.007629
0.657288 0.216156 0.007324
0.736206 0.274811 0.007019
0.804688 0.351196 0.023254
0.083466 0.257202 0.070587
0.163849 0.254242 0.102509
0.266968 0.258148 0.043793
0.435120 0.298431 0.087189
0.520538 0.283569 0.053864
0.614166 0.277679 0.035095
0.696075 0.295837 0.025299
0.766205 0.341431 0.019714
0.833740 0.401642 0.024994
0.179352 0.373077 0.087219
0.237427 0.371918 0.107910
0.305328 0.375854 0.092407
0.384430 0.385498 0.000000
0.536682 0.418488 0.063477
0.645752 0.432800 0.078674
0.726746 0.432007 0.058228
0.805084 0.449738 0.043640
0.872314 0.487091 0.046387
0.288849 0.487976 0.110046
0.316254 0.488281 0.127258
0.363861 0.492096 0.105316
0.432709 0.498718 0.050323
0.507965 0.509338 0.000000
0.633789 0.527557 0.029358
0.778809 0.570892 0.091980
0.852692 0.571655 0.073914
0.921326 0.583801 0.059082
0.404083 0.597382 0.207001
0.416840 0.599243 0.194000
0.453400 0.602692 0.185303
0.506561 0.608765 0.168976
0.558075 0.621735 0.000000
0.637329 0.631805 0.000000
0.746643 0.641083 0.004578
0.880341 0.684448 0.077972
0.956268 0.698761 0.084503
0.527466 0.706879 0.329559
0.537628 0.707916 0.329559
0.561829 0.710510 0.329742
0.595123 0.717041 0.303497
0.635010 0.728455 0.233307
0.683807 0.743835 0.032410
0.760406 0.755707 0.000000
0.863831 0.759918 0.000000
0.960602 0.795105 0.061859
0.637146 0.809784 0.453674
0.644073 0.810730 0.454926
0.658722 0.814087 0.442841
0.685577 0.819427 0.427063
0.724976 0.826813 0.401917
0.767853 0.839020 0.324341
0.812714 0.855011 0.205627
0.874115 0.869995 0.000000
0.959045 0.874756 0.000000
0.750183 0.904602 0.564240
0.755798 0.905487 0.565063
0.769836 0.907715 0.567169
0.792389 0.911926 0.569794
0.819977 0.919922 0.547211
0.854919 0.930481 0.512939
0.897156 0.942535 0.447327
0.940216 0.958710 0.372437
0.983917 0.977966 0.212738
0.002869 0.050079 0.114532
0.097168 0.071503 0.103180
0.156433 0.118011 0.141876
0.224854 0.172272 0.194122
0.367126 0.193970 0.191711
0.543304 0.148987 0.117798
0.644318 0.172241 0.092407
0.738800 0.214081 0.077301
0.794128 0.327789 0.125854
0.000000 0.134125 0.238251
0.072510 0.152679 0.226166
0.190369 0.169830 0.188416
0.255127 0.208466 0.223022
0.432617 0.195679 0.171112
0.564209 0.179474 0.115753
0.664642 0.191986 0.083252
0.764221 0.210052 0.047272
0.809906 0.339020 0.123077
0.000000 0.264191 0.213989
0.000000 0.273315 0.217072
0.257782 0.260010 0.232239
0.380707 0.276123 0.233551
0.496613 0.266937 0.184387
0.611115 0.254242 0.134430
0.701691 0.268707 0.096619
0.796387 0.283722 0.067535
0.855896 0.365662 0.112701
0.099762 0.382263 0.176025
0.189514 0.380249 0.196442
0.296936 0.378113 0.234436
0.392181 0.383881 0.200989
0.564117 0.440857 0.253326
0.638367 0.422241 0.217865
0.738129 0.408875 0.176117
0.830566 0.413788 0.133087
0.899841 0.451111 0.140533
0.243805 0.494812 0.197815
0.281433 0.494629 0.211884
0.358368 0.493378 0.244720
0.434326 0.498444 0.236755
0.506958 0.511536 0.142975
0.653992 0.536285 0.088684
0.780457 0.562897 0.191040
0.860992 0.560242 0.168762
0.924469 0.576050 0.208679
0.373810 0.603241 0.247223
0.395081 0.603821 0.254272
0.442139 0.605469 0.273926
0.500275 0.610931 0.270386
0.565063 0.620331 0.235107
0.632416 0.635620 0.053680
0.756134 0.646942 0.036438
0.893005 0.686981 0.150665
0.958221 0.693512 0.151123
0.502441 0.712952 0.343536
0.514099 0.713776 0.345856
0.541260 0.716095 0.351746
0.577454 0.722351 0.328522
0.632568 0.729462 0.321899
0.685974 0.743958 0.227112
0.759308 0.758179 0.000000
0.868439 0.760101 0.000000
0.965454 0.796875 0.113190
0.616821 0.814880 0.460205
0.625092 0.815735 0.460541
0.645294 0.817749 0.461304
0.678101 0.821564 0.461029
0.717285 0.829224 0.435638
0.761292 0.841278 0.376740
0.810028 0.856567 0.275574
0.875549 0.871155 0.000000
0.961182 0.875244 0.000000
0.734100 0.908783 0.566681
0.739960 0.909576 0.567810
0.754639 0.911804 0.570801
0.778107 0.916077 0.570099
0.807617 0.923584 0.549438
0.850616 0.932098 0.529938
0.894958 0.943848 0.468140
0.939972 0.959839 0.399658
0.983673 0.979309 0.243225
0.099915 0.081604 0.129547
0.135468 0.098114 0.138641
0.181915 0.134705 0.170532
0.238617 0.185944 0.212769
0.297699 0.243958 0.263519
0.381409 0.296783 0.312561
0.553772 0.302338 0.284027
0.701050 0.289185 0.240112
0.807678 0.315430 0.232178
0.042236 0.160065 0.253174
0.127441 0.164001 0.224457
0.202179 0.184814 0.216187
0.259918 0.222717 0.242218
0.317932 0.270935 0.287201
0.402313 0.316589 0.328766
0.589905 0.303101 0.272949
0.721344 0.297302 0.236755
0.816010 0.336609 0.236786
0.000000 0.241364 0.293091
0.000000 0.239685 0.359772
0.147614 0.280518 0.356262
0.309204 0.293335 0.304352
0.367126 0.326965 0.337006
0.522430 0.328339 0.306091
0.659607 0.314301 0.257904
0.755249 0.336792 0.239105
0.845154 0.374359 0.240143
0.000000 0.389282 0.314178
0.000000 0.394836 0.318634
0.111511 0.403473 0.321167
0.383789 0.385620 0.355469
0.501648 0.406677 0.360718
0.599182 0.401154 0.319427
0.726227 0.386932 0.280365
0.811615 0.412170 0.260040
0.909119 0.422485 0.241577
0.084778 0.507568 0.279205
0.190399 0.505920 0.291779
0.318756 0.502533 0.320496
0.424194 0.501587 0.358978
0.516846 0.508972 0.335083
0.680573 0.564789 0.386353
0.762085 0.556213 0.369995
0.856354 0.548645 0.343079
0.936462 0.552643 0.321869
0.325928 0.611420 0.318054
0.350342 0.612030 0.325775
0.404907 0.613464 0.345276
0.492157 0.613708 0.382599
0.564270 0.621185 0.378113
0.634857 0.635590 0.317169
0.783417 0.654816 0.123596
0.897278 0.690735 0.374908
0.955902 0.687805 0.357788
0.464844 0.721313 0.374786
0.478760 0.722076 0.379669
0.513580 0.723572 0.391632
0.566071 0.725983 0.414917
0.624481 0.732635 0.413116
0.692078 0.742676 0.388702
0.761536 0.758728 0.287109
0.880829 0.765320 0.029144
0.972443 0.801331 0.291534
0.586151 0.822571 0.469879
0.595276 0.823273 0.471558
0.617645 0.825104 0.475861
0.654083 0.828369 0.483398
0.699036 0.835022 0.470337
0.756775 0.843079 0.462219
0.810760 0.857300 0.389099
0.880280 0.871185 0.256042
0.965942 0.875275 0.000000
0.708496 0.915131 0.573975
0.714722 0.915863 0.575195
0.730103 0.917969 0.578491
0.758881 0.921417 0.582092
0.798218 0.926514 0.585236
0.841675 0.934967 0.565338
0.887909 0.946228 0.521545
0.938354 0.961792 0.459961
0.984528 0.980225 0.358521
0.149017 0.116547 0.171173
0.170471 0.129486 0.180786
0.209961 0.160065 0.204529
0.258240 0.204651 0.237854
0.314362 0.258179 0.281525
0.374817 0.315155 0.335632
0.452362 0.369171 0.388733
0.540161 0.419922 0.432739
0.716248 0.423462 0.395630
0.128143 0.178070 0.251099
0.160736 0.186188 0.246063
0.231079 0.202423 0.240479
0.281036 0.237732 0.265472
0.333771 0.283569 0.304565
0.391846 0.334747 0.353699
0.464478 0.386200 0.403717
0.553833 0.432922 0.442108
0.743713 0.424713 0.389038
0.000000 0.282135 0.354095
0.000000 0.286957 0.382751
0.231110 0.287170 0.350494
0.318787 0.306152 0.329590
0.373413 0.339233 0.355011
0.426697 0.381226 0.396301
0.498871 0.423615 0.435913
0.651489 0.432922 0.413055
0.801605 0.432953 0.377777
0.069641 0.380249 0.364502
0.090240 0.367737 0.377380
0.048126 0.358246 0.475311
0.272980 0.408630 0.486328
0.431732 0.417999 0.426605
0.486053 0.448883 0.455963
0.621857 0.455139 0.433411
0.762604 0.453064 0.395630
0.861389 0.475067 0.382050
0.000000 0.511780 0.418854
0.000000 0.515533 0.421234
0.000000 0.525116 0.426422
0.317352 0.523102 0.441040
0.509369 0.511169 0.479553
0.616730 0.535034 0.488403
0.715302 0.535950 0.457703
0.845215 0.527588 0.425049
0.920898 0.549561 0.409393
0.031006 0.629639 0.389435
0.167847 0.628937 0.398102
0.324310 0.626587 0.419891
0.456543 0.623779 0.454285
0.554779 0.625122 0.490845
0.642090 0.634003 0.474854
0.800720 0.687256 0.515076
0.878998 0.683441 0.511230
0.951233 0.677063 0.490387
0.411438 0.730865 0.440521
0.430298 0.731476 0.445801
0.472778 0.732788 0.458862
0.533936 0.734924 0.481110
0.617310 0.735443 0.516724
0.688660 0.744598 0.510223
0.762024 0.759308 0.466248
0.899048 0.775330 0.337097
0.975525 0.812256 0.522583
0.547241 0.831848 0.493713
0.557739 0.832428 0.496948
0.582794 0.834015 0.505188
0.625977 0.836426 0.519287
0.684875 0.839447 0.544342
0.746521 0.847046 0.539551
0.815216 0.856506 0.526550
0.881348 0.871979 0.449280
0.971771 0.877594 0.236206
0.671967 0.923309 0.585724
0.678650 0.924133 0.587219
0.697449 0.925751 0.590942
0.730042 0.928619 0.597992
0.774719 0.933014 0.608643
0.826172 0.939453 0.607880
0.884125 0.948364 0.600372
0.939911 0.963409 0.555359
0.984589 0.981293 0.493988
0.191467 0.156311 0.217834
0.206207 0.166565 0.224792
0.238800 0.190674 0.240784
0.285858 0.228485 0.267426
0.335907 0.276733 0.307587
0.391571 0.330444 0.355286
0.450714 0.387421 0.408752
0.527832 0.439850 0.461029
0.604218 0.496490 0.511261
0.192780 0.203247 0.264587
0.217102 0.209656 0.264313
0.260529 0.226349 0.270233
0.303986 0.258179 0.294250
0.353302 0.300293 0.329498
0.407898 0.349060 0.372101
0.464020 0.402954 0.422974
0.536163 0.454559 0.473602
0.615143 0.507874 0.520813
0.122406 0.291626 0.398163
0.187561 0.293884 0.387085
0.265076 0.303619 0.367279
0.335144 0.322296 0.357513
0.392944 0.351929 0.377014
0.443115 0.392822 0.412598
0.495819 0.439514 0.456604
0.557190 0.489014 0.503143
0.642670 0.535217 0.543884
0.000000 0.394104 0.449219
0.000000 0.394226 0.470856
0.000000 0.410736 0.514343
0.334351 0.414490 0.485596
0.438965 0.430145 0.451050
0.491699 0.460632 0.473145
0.539307 0.499786 0.509583
0.604645 0.540192 0.547913
0.732300 0.563232 0.551239
0.149048 0.514221 0.469299
0.206268 0.514679 0.474243
0.253784 0.493896 0.483429
0.256439 0.474030 0.566193
0.414612 0.532654 0.599487
0.554718 0.543915 0.547119
0.605682 0.573425 0.576477
0.736664 0.583496 0.562195
0.868347 0.586395 0.532654
0.000000 0.632874 0.526550
0.000000 0.635834 0.528839
0.000000 0.643982 0.533173
0.245941 0.649078 0.548157
0.470215 0.646454 0.565857
0.634338 0.636658 0.604065
0.739777 0.660492 0.613800
0.835236 0.663116 0.587036
0.942780 0.657898 0.559174
0.140656 0.751099 0.509125
0.202881 0.751801 0.512512
0.305878 0.753052 0.522003
0.462677 0.749786 0.546692
0.584045 0.746765 0.580566
0.677948 0.749207 0.612518
0.768250 0.758057 0.601929
0.909515 0.805206 0.639191
0.964264 0.805420 0.641205
0.489716 0.842499 0.552673
0.503906 0.842926 0.556458
0.537201 0.843994 0.565796
0.587219 0.846008 0.582031
0.654297 0.848480 0.606628
0.741364 0.849335 0.643890
0.811493 0.858276 0.640076
0.881927 0.872681 0.599426
0.979401 0.887543 0.506470
0.627502 0.932343 0.606018
0.636719 0.932800 0.608765
0.659027 0.934143 0.615997
0.695557 0.936523 0.628387
0.747803 0.939728 0.647766
0.810516 0.943817 0.679077
0.877716 0.951721 0.684631
0.943665 0.964691 0.684479
0.983704 0.982849 0.641907
0.237976 0.196136 0.259216
0.250122 0.204681 0.264343
0.279358 0.224182 0.277618
0.321381 0.255859 0.301788
0.365845 0.298889 0.337616
0.417206 0.348328 0.380219
0.470306 0.402771 0.429871
0.528412 0.459656 0.480591
0.604431 0.513367 0.533295
0.247223 0.234314 0.294952
0.260071 0.240631 0.298615
0.290192 0.256927 0.308990
0.332092 0.283600 0.328369
0.380737 0.320648 0.358063
0.430542 0.366547 0.397217
0.482178 0.417847 0.443298
0.536896 0.473358 0.492371
0.612061 0.525360 0.543884
0.244141 0.308929 0.396332
0.261932 0.313599 0.392700
0.302612 0.324890 0.385620
0.367249 0.340118 0.382111
0.414093 0.369843 0.404175
0.461700 0.408356 0.436157
0.510498 0.454010 0.474487
0.561401 0.504913 0.520447
0.631500 0.554077 0.570099
0.000031 0.419556 0.523773
0.031891 0.421539 0.535370
0.247253 0.420837 0.527863
0.376282 0.426636 0.494232
0.450958 0.445404 0.478577
0.510040 0.472687 0.493073
0.555603 0.511200 0.525391
0.605835 0.554596 0.566895
0.663849 0.600800 0.613220
0.108093 0.516846 0.513062
0.091827 0.518341 0.524323
0.081329 0.517090 0.573669
0.093018 0.520416 0.648346
0.451965 0.541046 0.610474
0.560577 0.556152 0.572113
0.612305 0.585205 0.593872
0.658508 0.621918 0.630096
0.720551 0.659424 0.667847
0.228516 0.634827 0.578033
0.267487 0.635345 0.581116
0.341644 0.636749 0.589966
0.401001 0.618256 0.600494
0.410217 0.595001 0.684692
0.552032 0.658386 0.726685
0.679626 0.669800 0.673157
0.728363 0.698914 0.702118
0.841858 0.712555 0.695709
0.000000 0.756989 0.636169
0.000000 0.758698 0.638275
0.182190 0.761169 0.645477
0.317352 0.765717 0.658905
0.447235 0.770752 0.678925
0.579987 0.774475 0.695465
0.758270 0.761932 0.728973
0.856842 0.783234 0.741364
0.938751 0.787201 0.716980
0.185883 0.863708 0.623810
0.239105 0.864227 0.626343
0.324738 0.865479 0.632874
0.437347 0.866852 0.645905
0.586761 0.863373 0.674286
0.705048 0.861115 0.709045
0.797577 0.864288 0.735474
0.887695 0.872467 0.733276
0.980255 0.913635 0.778015
0.560486 0.941650 0.670227
0.570953 0.942169 0.672974
0.594940 0.943512 0.679535
0.640930 0.945343 0.693054
0.706635 0.947571 0.714783
0.784943 0.950409 0.746216
0.874695 0.955109 0.797485
0.944641 0.967529 0.822479
0.982635 0.983337 0.798065
0.294067 0.237762 0.300568
0.304993 0.243958 0.305267
0.329620 0.259430 0.317291
0.360138 0.288116 0.340485
0.399994 0.325958 0.371765
0.446991 0.371063 0.409698
0.497803 0.420929 0.453674
0.550140 0.476196 0.501587
0.607574 0.534149 0.554047
0.296295 0.270355 0.334534
0.306641 0.275726 0.338226
0.331543 0.289612 0.347626
0.372253 0.311615 0.363770
0.414520 0.345276 0.390686
0.459442 0.387726 0.425873
0.507935 0.435730 0.466705
0.558777 0.489075 0.513031
0.615143 0.545380 0.564514
0.303894 0.335541 0.410248
0.316772 0.339569 0.410095
0.347717 0.349060 0.411285
0.391113 0.366150 0.418823
0.438507 0.392365 0.436371
0.487183 0.427063 0.462616
0.532379 0.470856 0.497498
0.580658 0.520294 0.541016
0.635620 0.572113 0.589569
0.281097 0.425049 0.534454
0.305908 0.427063 0.530060
0.352051 0.433014 0.522003
0.405457 0.446350 0.510803
0.476776 0.462830 0.501801
0.528717 0.489777 0.518066
0.573608 0.526459 0.548126
0.621704 0.568848 0.585754
0.672119 0.615662 0.630707
0.000000 0.541626 0.612122
0.000000 0.544006 0.624146
0.000031 0.549530 0.655640
0.343842 0.547089 0.653503
0.497803 0.551971 0.617706
0.570648 0.571320 0.601288
0.631256 0.597076 0.614655
0.676331 0.633057 0.647095
0.724579 0.673553 0.686157
0.269684 0.646667 0.613861
0.297760 0.647400 0.618256
0.326050 0.639526 0.629913
0.305847 0.643524 0.674072
0.323578 0.641785 0.778137
0.577637 0.667999 0.742065
0.684875 0.682526 0.699463
0.737000 0.710541 0.719513
0.780273 0.746063 0.755585
0.329529 0.755371 0.690125
0.348145 0.756409 0.692535
0.397095 0.758575 0.698608
0.480743 0.760529 0.710938
0.536957 0.741577 0.725098
0.545868 0.719849 0.830566
0.671936 0.784332 0.866913
0.802582 0.793976 0.806763
0.845459 0.820801 0.838776
0.306702 0.862488 0.757172
0.322845 0.863556 0.759277
0.372131 0.865540 0.765778
0.447266 0.868530 0.777588
0.528503 0.873108 0.796051
0.622070 0.877258 0.824585
0.726379 0.881989 0.853760
0.875732 0.878723 0.866699
0.954010 0.898071 0.884277
0.041931 0.958710 0.751221
0.160522 0.958954 0.753510
0.303955 0.959656 0.759491
0.432098 0.960999 0.770477
0.564667 0.962158 0.790771
0.704681 0.962799 0.824585
0.833099 0.966064 0.870178
0.940918 0.973846 0.915619
0.981720 0.983337 0.928040
0.344360 0.280823 0.345734
0.351624 0.286621 0.350586
0.369049 0.300842 0.362305
0.397919 0.324432 0.381958
0.436554 0.356598 0.408905
0.478546 0.397461 0.442352
0.523712 0.444397 0.481445
0.574158 0.496490 0.525818
0.631836 0.550842 0.575714
0.348236 0.307556 0.373871
0.357574 0.312012 0.377380
0.380371 0.323120 0.385620
0.414612 0.342773 0.400970
0.449860 0.373840 0.425934
0.489685 0.412598 0.456879
0.533936 0.458069 0.493408
0.583832 0.508392 0.536743
0.640167 0.561218 0.585663
0.358521 0.364319 0.437469
0.367981 0.368042 0.439240
0.389832 0.377747 0.444000
0.425568 0.393860 0.453094
0.473083 0.416199 0.466919
0.515991 0.449280 0.490662
0.558197 0.490906 0.523102
0.606903 0.537384 0.563599
0.660065 0.587006 0.610138
0.369781 0.443939 0.535889
0.379883 0.446930 0.534851
0.403046 0.455139 0.531860
0.444885 0.467743 0.529266
0.500366 0.484650 0.531219
0.548035 0.510712 0.547760
0.597839 0.543732 0.573334
0.643829 0.584564 0.608551
0.692078 0.630035 0.651367
0.277313 0.547333 0.665283
0.309753 0.547943 0.665771
0.371704 0.549988 0.666870
0.457184 0.556091 0.650116
0.524750 0.569366 0.637177
0.590942 0.588043 0.626221
0.648804 0.612885 0.639862
0.694092 0.647400 0.669678
0.740082 0.687378 0.704926
0.000000 0.667999 0.700195
0.000000 0.669769 0.710785
0.000000 0.673523 0.745270
0.114929 0.679779 0.791199
0.472839 0.674622 0.787323
0.617249 0.678497 0.750183
0.692657 0.697479 0.729156
0.755524 0.722107 0.740173
0.797424 0.756958 0.775330
0.350586 0.768372 0.721619
0.371429 0.769104 0.724945
0.419434 0.770630 0.733521
0.478973 0.767151 0.749054
0.462402 0.772003 0.800598
0.491150 0.769897 0.901550
0.704468 0.791992 0.876190
0.807495 0.805542 0.835815
0.856598 0.830597 0.855865
0.428101 0.865265 0.807953
0.442139 0.865997 0.810242
0.475098 0.867920 0.815796
0.529358 0.870697 0.825623
0.607330 0.872894 0.842743
0.661377 0.857117 0.863708
0.674805 0.845215 0.949280
0.808197 0.898590 0.952423
0.921173 0.912628 0.924683
0.488831 0.952881 0.885712
0.499664 0.953461 0.887299
0.523651 0.955078 0.891144
0.571411 0.957306 0.898499
0.633240 0.960815 0.909576
0.704041 0.966919 0.926575
0.799805 0.974792 0.949585
0.904297 0.982788 0.973145
0.981323 0.983002 0.982300
