Kodak Vision 320T (5277) - Only color.cube
# Created by Benjamin (IWLTBAP) : http://luts.iwltbap.com
# Copyright: (C) Copyright 2010-2017 Triune Films and IWLTBAP SAS
# Cannot be resold, shared or otherwise redistributed
TITLE "Film Print Emulation LUTs Pack (Rec.709, sRGB, DCI-P3)"
LUT_3D_SIZE 5
0.000610 0.002594 0.000854
0.290710 0.035980 0.022461
0.540558 0.087250 0.039581
0.753845 0.140228 0.062775
0.915649 0.178650 0.079285
0.000000 0.233368 0.008514
0.299408 0.240509 0.016266
0.565308 0.265045 0.056976
0.774750 0.290894 0.076141
0.933228 0.315063 0.091797
0.050964 0.450653 0.059448
0.314911 0.469147 0.037994
0.598663 0.473206 0.087616
0.806183 0.496338 0.111176
0.969696 0.511627 0.122620
0.192780 0.692993 0.125732
0.378296 0.708954 0.115662
0.637634 0.725189 0.076477
0.834167 0.723206 0.121002
1.000000 0.739105 0.160004
0.315674 0.939148 0.197144
0.449097 0.952545 0.190735
0.651154 0.969727 0.169434
0.855682 0.985138 0.136749
1.000000 0.980225 0.165741
0.000000 0.004059 0.184418
0.292175 0.037323 0.183289
0.543640 0.092133 0.195923
0.754700 0.145264 0.210724
0.914948 0.185516 0.220978
0.000000 0.239777 0.197693
0.300720 0.250427 0.199066
0.566101 0.272980 0.207794
0.775909 0.298187 0.216797
0.932983 0.321411 0.226349
0.000000 0.456238 0.214508
0.297394 0.477692 0.202209
0.598877 0.483246 0.226654
0.804443 0.500916 0.235840
0.968964 0.513916 0.242310
0.141998 0.695679 0.255341
0.357635 0.715088 0.247620
0.627289 0.732819 0.199585
0.832581 0.731232 0.240417
1.000000 0.745819 0.275513
0.292816 0.943756 0.301056
0.435089 0.957855 0.298767
0.627563 0.973602 0.287506
0.851776 0.991730 0.255859
1.000000 0.988068 0.277832
0.000000 0.036072 0.342163
0.281738 0.047089 0.338898
0.551941 0.091919 0.359375
0.757233 0.154755 0.368103
0.913605 0.192902 0.379059
0.000000 0.255402 0.377045
0.271179 0.261963 0.408325
0.575653 0.275116 0.369110
0.775116 0.304626 0.378723
0.929871 0.328796 0.390137
0.000000 0.464172 0.386108
0.190582 0.486267 0.386993
0.594147 0.499725 0.406891
0.799377 0.509491 0.405396
0.965240 0.522644 0.410400
0.000000 0.687775 0.403564
0.298431 0.721100 0.407074
0.589325 0.741150 0.383759
0.829803 0.743134 0.415283
0.998199 0.754150 0.439697
0.227783 0.946442 0.439819
0.401367 0.963013 0.437225
0.606506 0.980865 0.434784
0.842743 0.997101 0.415588
1.000000 0.994934 0.429871
0.045532 0.075317 0.542175
0.281555 0.072327 0.537872
0.552277 0.105499 0.566589
0.761993 0.146027 0.591858
0.920898 0.181030 0.599091
0.000000 0.273895 0.615784
0.260895 0.283020 0.624420
0.569061 0.281921 0.589233
0.781464 0.303802 0.603241
0.938171 0.322083 0.605011
0.000000 0.472321 0.636414
0.143707 0.488281 0.691833
0.581207 0.511383 0.666687
0.807007 0.516846 0.626740
0.960236 0.535583 0.623627
0.000000 0.695496 0.640381
0.164856 0.719269 0.650848
0.520203 0.757111 0.647064
0.822906 0.758514 0.668945
0.993195 0.762421 0.664825
0.091461 0.932434 0.657898
0.304382 0.970093 0.664246
0.575348 0.991516 0.658112
0.819183 0.997498 0.633759
0.998474 0.996307 0.632812
0.133057 0.114441 0.813843
0.305908 0.112762 0.811951
0.562836 0.139221 0.831421
0.764282 0.177185 0.877045
0.920685 0.204498 0.912109
0.065460 0.295380 0.885315
0.289124 0.306641 0.901215
0.552124 0.295837 0.871063
0.778656 0.319183 0.905182
0.937805 0.337219 0.926727
0.000000 0.487427 0.932007
0.174927 0.499908 0.930511
0.557892 0.524353 0.927277
0.797852 0.525635 0.925293
0.967590 0.538818 0.923706
0.000000 0.701935 0.930328
0.210754 0.728058 0.928406
0.546326 0.756317 0.925476
0.814301 0.765930 0.923157
0.994293 0.769989 0.921539
0.000000 0.923279 0.928528
0.242798 0.971252 0.926178
0.537811 0.996216 0.923584
0.776123 0.994354 0.921570
0.995270 0.992035 0.919617
