Kodak Vision 500T (5279) - Only color.cube
# Created by Benjamin (IWLTBAP) : http://luts.iwltbap.com
# Copyright: (C) Copyright 2010-2017 Triune Films and IWLTBAP SAS
# Cannot be resold, shared or otherwise redistributed
TITLE "Film Print Emulation LUTs Pack (Rec.709, sRGB, DCI-P3)"
LUT_3D_SIZE 9
0.002136 0.000000 0.000000
0.127380 0.012451 0.000000
0.228699 0.034943 0.016388
0.332428 0.056519 0.032471
0.426575 0.067749 0.059204
0.522766 0.081299 0.086670
0.629364 0.091248 0.121582
0.751526 0.135986 0.141937
0.870087 0.158142 0.172729
0.001312 0.104523 0.001434
0.100800 0.116547 0.007446
0.235901 0.133301 0.045013
0.349548 0.148224 0.061432
0.441315 0.168762 0.078918
0.540222 0.185455 0.109619
0.650665 0.208679 0.135040
0.777313 0.243256 0.165619
0.908478 0.278473 0.198090
0.000427 0.203064 0.017456
0.052734 0.212006 0.031952
0.218597 0.228058 0.047821
0.350708 0.246979 0.071259
0.455383 0.264099 0.110718
0.558350 0.285156 0.134430
0.672241 0.312592 0.159790
0.805573 0.343719 0.190063
0.942017 0.374237 0.230408
0.000000 0.302246 0.059906
0.009888 0.308533 0.066193
0.166321 0.324982 0.084198
0.339264 0.341553 0.098907
0.463501 0.361450 0.126038
0.572754 0.383698 0.157654
0.697937 0.408295 0.182922
0.843384 0.440796 0.228516
0.959473 0.471893 0.269135
0.000000 0.393860 0.109741
0.012054 0.398407 0.115356
0.069855 0.409760 0.128723
0.309540 0.429535 0.139374
0.459778 0.449615 0.150940
0.588654 0.475250 0.183746
0.715240 0.506104 0.224182
0.865601 0.537384 0.265747
0.961090 0.567017 0.317139
0.000000 0.484619 0.138916
0.012695 0.488495 0.139618
0.039581 0.495575 0.146515
0.262054 0.521667 0.177643
0.459381 0.542938 0.200867
0.592957 0.570099 0.231354
0.737915 0.600647 0.271149
0.879303 0.635651 0.314362
0.960144 0.664459 0.347046
0.000000 0.577209 0.201294
0.015656 0.582855 0.205200
0.045319 0.589813 0.209656
0.158630 0.616241 0.237610
0.449921 0.646545 0.263763
0.604736 0.673035 0.291351
0.744934 0.701233 0.322357
0.887695 0.728821 0.354980
0.958557 0.759430 0.375946
0.000000 0.681183 0.281616
0.021118 0.685669 0.285370
0.053986 0.693970 0.293762
0.131775 0.709900 0.303589
0.443604 0.753082 0.330811
0.611267 0.777191 0.347260
0.752869 0.799194 0.362732
0.890594 0.823792 0.378174
0.957520 0.849426 0.406097
0.004272 0.782990 0.346405
0.030273 0.788513 0.348663
0.062042 0.797241 0.353027
0.166809 0.818939 0.372406
0.451569 0.860413 0.403320
0.625000 0.886932 0.409363
0.763306 0.903717 0.411072
0.896088 0.910706 0.421692
0.956787 0.911224 0.444000
0.001709 0.000000 0.055084
0.104919 0.013733 0.126068
0.239532 0.035675 0.119080
0.340393 0.057587 0.132111
0.431732 0.071655 0.157135
0.528046 0.090485 0.182068
0.634613 0.097534 0.212677
0.761414 0.142944 0.245270
0.883484 0.173035 0.271881
0.000275 0.109741 0.130463
0.108887 0.119904 0.146393
0.243195 0.135071 0.136414
0.354156 0.152985 0.158478
0.445190 0.171844 0.180756
0.544891 0.194336 0.207306
0.655670 0.217743 0.235565
0.790649 0.254150 0.269257
0.925110 0.293457 0.298523
0.000000 0.211304 0.134460
0.047211 0.222229 0.135803
0.225128 0.235016 0.155060
0.359009 0.251038 0.183624
0.459991 0.270508 0.211975
0.561462 0.293030 0.234100
0.677277 0.319855 0.257690
0.820679 0.353760 0.297546
0.955322 0.387054 0.330872
0.000000 0.309723 0.151947
0.010559 0.316010 0.158386
0.151642 0.332458 0.179108
0.344513 0.349548 0.205231
0.467346 0.370422 0.235443
0.582092 0.390045 0.268311
0.710632 0.415497 0.294189
0.852264 0.445007 0.330383
0.960205 0.477875 0.359253
0.000000 0.399292 0.194244
0.011963 0.403351 0.201752
0.054108 0.415497 0.221283
0.304596 0.436798 0.246063
0.464996 0.460693 0.270599
0.598297 0.485809 0.296387
0.728455 0.513092 0.333740
0.878693 0.542816 0.364410
0.960480 0.570801 0.389313
0.000000 0.489471 0.237671
0.012543 0.493225 0.245026
0.037018 0.498505 0.255157
0.247284 0.527802 0.296631
0.463104 0.552307 0.311401
0.598114 0.579163 0.336212
0.740417 0.608124 0.361847
0.883911 0.640930 0.387634
0.959503 0.669189 0.417114
0.000000 0.583313 0.277954
0.015472 0.587463 0.282562
0.042358 0.593048 0.287567
0.147583 0.614960 0.319458
0.458710 0.655273 0.354401
0.605347 0.680847 0.372894
0.741150 0.705627 0.389740
0.885590 0.733521 0.424377
0.958160 0.764587 0.451141
0.000000 0.686859 0.338684
0.021027 0.692322 0.342377
0.051849 0.698486 0.345123
0.107269 0.710602 0.354218
0.429443 0.755432 0.390869
0.610474 0.783264 0.415802
0.750092 0.804199 0.434143
0.887634 0.827362 0.451324
0.957062 0.854492 0.483307
0.004303 0.790680 0.385223
0.030945 0.796844 0.388550
0.060364 0.804291 0.393646
0.132507 0.819519 0.409424
0.416138 0.857788 0.452026
0.618134 0.892426 0.468842
0.763672 0.905884 0.471222
0.895264 0.910797 0.488495
0.956390 0.910431 0.510651
0.000916 0.007477 0.152130
0.067047 0.028717 0.218506
0.222443 0.040619 0.248596
0.357880 0.055725 0.229370
0.446320 0.074738 0.252075
0.540375 0.098602 0.279022
0.646973 0.105225 0.303558
0.773102 0.154419 0.331268
0.896790 0.185242 0.350586
0.000000 0.113098 0.224182
0.053070 0.123627 0.264954
0.230408 0.133636 0.262482
0.364899 0.155029 0.256042
0.455811 0.178131 0.273163
0.555573 0.200867 0.299896
0.666229 0.227936 0.325134
0.799988 0.266785 0.348114
0.935394 0.306427 0.373627
0.000000 0.218262 0.242340
0.025543 0.230255 0.271362
0.228638 0.238831 0.281006
0.369537 0.256653 0.275909
0.466888 0.275330 0.299347
0.569000 0.298981 0.324280
0.685486 0.330719 0.344910
0.828339 0.363678 0.370514
0.957367 0.397491 0.395325
0.000000 0.319366 0.254974
0.010468 0.328735 0.260803
0.075958 0.342285 0.279144
0.355560 0.359161 0.305115
0.479492 0.376953 0.332581
0.590210 0.399506 0.352936
0.715240 0.425446 0.372314
0.861542 0.454926 0.394257
0.960480 0.485901 0.423553
0.000000 0.408936 0.286591
0.013245 0.414032 0.294159
0.048126 0.424561 0.307220
0.313354 0.449493 0.336517
0.476105 0.473572 0.356476
0.602203 0.497345 0.375885
0.738617 0.521484 0.403137
0.889099 0.548401 0.429626
0.959625 0.574799 0.460571
0.000000 0.500702 0.328156
0.012421 0.502441 0.330933
0.036316 0.506409 0.335297
0.219452 0.534912 0.368958
0.468597 0.565521 0.386688
0.604462 0.588776 0.404633
0.744537 0.617035 0.427948
0.894958 0.645782 0.466187
0.958466 0.672028 0.493317
0.000000 0.596100 0.358429
0.015350 0.597900 0.359741
0.041168 0.602997 0.364441
0.139404 0.622192 0.384979
0.458435 0.663849 0.425079
0.607330 0.688385 0.440979
0.742981 0.712158 0.462738
0.889008 0.740753 0.494415
0.957794 0.769897 0.517700
0.000000 0.697571 0.389374
0.021576 0.701263 0.391418
0.050812 0.707672 0.396820
0.103394 0.718536 0.405975
0.419067 0.756836 0.454559
0.609711 0.789673 0.485413
0.748749 0.810333 0.501617
0.887756 0.834076 0.515808
0.956573 0.860992 0.541870
0.006561 0.801208 0.431763
0.032288 0.806152 0.437469
0.060760 0.814941 0.447113
0.114258 0.826508 0.458984
0.385590 0.859253 0.496246
0.604675 0.895569 0.523529
0.764008 0.907745 0.527679
0.894104 0.910919 0.542999
0.955963 0.909393 0.568359
0.000000 0.024261 0.261932
0.059143 0.038055 0.306519
0.117462 0.049347 0.363708
0.343231 0.058014 0.354523
0.460114 0.076080 0.342804
0.560638 0.096436 0.358917
0.669891 0.118439 0.377533
0.795654 0.167023 0.399475
0.921112 0.199036 0.419006
0.000000 0.119995 0.318573
0.045380 0.130890 0.346985
0.108551 0.141052 0.376465
0.352142 0.158966 0.367371
0.472229 0.180298 0.355347
0.576813 0.205688 0.374634
0.688385 0.241364 0.394012
0.821594 0.279388 0.418854
0.952026 0.320404 0.445648
0.000000 0.223083 0.345734
0.021240 0.234467 0.371643
0.082214 0.244873 0.384216
0.359741 0.257629 0.376617
0.482086 0.281586 0.372894
0.587494 0.306427 0.387909
0.704315 0.339905 0.415253
0.843384 0.372650 0.442688
0.958282 0.406525 0.470459
0.000000 0.330963 0.348633
0.012573 0.340149 0.361877
0.061554 0.351807 0.383331
0.362640 0.364838 0.396759
0.492432 0.384735 0.396210
0.599487 0.406372 0.417450
0.727722 0.432953 0.445496
0.872437 0.465698 0.473511
0.960114 0.496887 0.498322
0.000000 0.418732 0.365814
0.013794 0.426544 0.371094
0.049255 0.440430 0.380951
0.251709 0.465179 0.407898
0.489410 0.485260 0.431671
0.617889 0.505920 0.456512
0.749084 0.527985 0.484863
0.892456 0.555481 0.504028
0.959290 0.581909 0.522888
0.000000 0.511566 0.395081
0.014862 0.517090 0.399292
0.040039 0.523743 0.405762
0.194092 0.548279 0.432465
0.477966 0.578949 0.461578
0.617462 0.601685 0.483093
0.749054 0.625519 0.502777
0.897858 0.652039 0.532166
0.958069 0.676849 0.551941
0.000000 0.610535 0.427979
0.018127 0.613617 0.431274
0.044128 0.618744 0.436615
0.130341 0.635254 0.453552
0.452789 0.671021 0.492584
0.611938 0.700439 0.512421
0.747955 0.720306 0.531464
0.889404 0.747559 0.554626
0.957031 0.776154 0.583008
0.000000 0.715302 0.463074
0.024780 0.720184 0.468994
0.053009 0.725464 0.473724
0.094177 0.732544 0.481567
0.412598 0.764526 0.519897
0.603943 0.797455 0.550385
0.751770 0.818939 0.564850
0.890167 0.839600 0.578125
0.955994 0.868256 0.605988
0.011200 0.821503 0.504852
0.034912 0.825134 0.506592
0.061859 0.831146 0.511047
0.107758 0.842163 0.522003
0.364685 0.865936 0.549683
0.597412 0.898773 0.580322
0.764160 0.909607 0.588837
0.893677 0.910675 0.605591
0.955536 0.908203 0.630219
0.000000 0.034607 0.349518
0.034637 0.043640 0.380646
0.091309 0.054626 0.430817
0.292969 0.067993 0.453735
0.459961 0.084106 0.441315
0.574280 0.088806 0.434204
0.690948 0.130768 0.449524
0.822510 0.167023 0.477295
0.949677 0.218079 0.494720
0.000000 0.127808 0.388855
0.032043 0.137146 0.416260
0.092773 0.149414 0.449524
0.306946 0.168976 0.463440
0.471863 0.194611 0.458832
0.593506 0.213745 0.450073
0.714355 0.249268 0.470856
0.850800 0.291077 0.497375
0.957672 0.333099 0.516144
0.000000 0.230652 0.421967
0.019958 0.243256 0.448334
0.062103 0.254089 0.466064
0.309143 0.268219 0.475037
0.483978 0.293823 0.470337
0.610870 0.321716 0.468109
0.734009 0.349823 0.492371
0.872131 0.383636 0.515839
0.959747 0.415436 0.538330
0.000000 0.340790 0.438049
0.015076 0.350647 0.453888
0.069885 0.363403 0.476410
0.289642 0.371124 0.495300
0.493103 0.387787 0.487122
0.622009 0.415588 0.492889
0.750092 0.441284 0.513519
0.890106 0.470581 0.539734
0.959808 0.501587 0.563599
0.000000 0.435242 0.445892
0.015503 0.443451 0.454468
0.051483 0.456726 0.467163
0.221558 0.474854 0.498627
0.500824 0.490051 0.509430
0.630493 0.512817 0.519562
0.758118 0.534210 0.543823
0.900391 0.561584 0.568604
0.958710 0.588837 0.590332
0.000000 0.521973 0.464844
0.015930 0.529053 0.470398
0.041840 0.537994 0.478333
0.102783 0.564178 0.500641
0.468597 0.592346 0.533813
0.629059 0.612762 0.553864
0.764801 0.633118 0.575928
0.906219 0.656799 0.604614
0.957611 0.681458 0.623352
0.000000 0.622192 0.503418
0.019196 0.627319 0.508087
0.047577 0.636871 0.515747
0.093018 0.654266 0.529816
0.448700 0.683258 0.554718
0.616272 0.711639 0.581604
0.757141 0.731415 0.602417
0.896973 0.754547 0.621704
0.956696 0.782471 0.648865
0.000580 0.727417 0.532837
0.028290 0.734467 0.539124
0.056122 0.742798 0.546356
0.082855 0.750610 0.552582
0.405060 0.775421 0.578491
0.601532 0.803284 0.613708
0.755981 0.828857 0.629944
0.895996 0.847931 0.644928
0.955444 0.876038 0.668518
0.012909 0.841034 0.568634
0.038696 0.847382 0.574890
0.063171 0.854523 0.583160
0.097748 0.862976 0.591614
0.256287 0.878510 0.613403
0.593536 0.902588 0.642090
0.758881 0.910614 0.660095
0.897400 0.909882 0.670013
0.955109 0.906952 0.691376
0.000000 0.039764 0.425293
0.024353 0.043701 0.457611
0.081360 0.053406 0.502899
0.295135 0.077789 0.529785
0.448761 0.092529 0.542542
0.593079 0.105957 0.531006
0.708832 0.146332 0.528229
0.838470 0.168549 0.542847
0.956970 0.228882 0.565033
0.000000 0.133087 0.471771
0.030060 0.142639 0.495514
0.078613 0.155457 0.523865
0.314728 0.181732 0.539398
0.470184 0.205566 0.554321
0.610657 0.233154 0.549591
0.732880 0.263184 0.545410
0.873260 0.303955 0.566162
0.959991 0.341339 0.588165
0.000000 0.242065 0.506439
0.022186 0.255310 0.531372
0.061646 0.269592 0.544556
0.318512 0.286987 0.554626
0.477631 0.311035 0.568085
0.623199 0.340759 0.567108
0.757904 0.364258 0.564606
0.895050 0.394592 0.587982
0.960022 0.426208 0.611237
0.000000 0.349609 0.533997
0.017303 0.360870 0.544525
0.062469 0.377625 0.562866
0.290771 0.389343 0.579987
0.478271 0.401917 0.585144
0.633057 0.428314 0.581024
0.769867 0.453033 0.587524
0.911163 0.479034 0.609772
0.958801 0.508087 0.631256
0.000000 0.451721 0.535034
0.017700 0.462006 0.543335
0.056732 0.476929 0.563324
0.266479 0.488983 0.588928
0.467651 0.494537 0.605804
0.632019 0.514435 0.598572
0.773285 0.539948 0.609650
0.920013 0.566803 0.631226
0.957611 0.592804 0.654022
0.000000 0.540863 0.544861
0.018677 0.550568 0.551361
0.047089 0.561432 0.560272
0.136353 0.583282 0.583527
0.465302 0.599823 0.612823
0.638763 0.615814 0.620911
0.772644 0.639648 0.637939
0.915619 0.661072 0.662964
0.956696 0.685486 0.684875
0.000000 0.638062 0.566406
0.021545 0.644257 0.572632
0.050934 0.653931 0.581970
0.089844 0.670013 0.595703
0.406830 0.697144 0.624451
0.610565 0.719971 0.653870
0.763977 0.740784 0.673767
0.907135 0.761292 0.693604
0.955719 0.784149 0.718231
0.002899 0.741333 0.606812
0.030334 0.748535 0.614014
0.058563 0.757141 0.621124
0.080322 0.766876 0.628784
0.374146 0.789856 0.647369
0.603088 0.811371 0.677704
0.759552 0.838989 0.698425
0.903412 0.858032 0.714020
0.954498 0.882233 0.736053
0.013977 0.853027 0.633514
0.040558 0.860840 0.640900
0.064697 0.869843 0.649445
0.094543 0.879303 0.658295
0.246674 0.894501 0.678680
0.597260 0.905853 0.701630
0.758240 0.910675 0.727295
0.901703 0.908661 0.733490
0.954376 0.905792 0.753387
0.000000 0.041412 0.514465
0.020752 0.045227 0.534637
0.078644 0.053436 0.572906
0.303741 0.078796 0.607086
0.457306 0.094421 0.625397
0.596130 0.127319 0.630676
0.735138 0.143097 0.624023
0.860321 0.179504 0.623718
0.958893 0.238068 0.637482
0.000000 0.140839 0.554230
0.026001 0.148712 0.580109
0.069794 0.160309 0.598450
0.333923 0.187012 0.617523
0.484589 0.223694 0.642944
0.622253 0.251587 0.651093
0.758728 0.281982 0.644836
0.892792 0.316284 0.645935
0.960114 0.348541 0.661041
0.000000 0.254730 0.594543
0.025879 0.268799 0.616516
0.066956 0.285858 0.629456
0.332794 0.304810 0.640900
0.493927 0.328888 0.653137
0.628510 0.355682 0.666321
0.771790 0.381836 0.663116
0.913757 0.405731 0.666504
0.959290 0.435242 0.682800
0.000000 0.364960 0.621765
0.019501 0.376190 0.631653
0.067322 0.396118 0.652405
0.319977 0.408173 0.668030
0.496155 0.421204 0.673920
0.634583 0.440857 0.677399
0.780151 0.468811 0.683838
0.928986 0.491608 0.687531
0.957855 0.515656 0.701172
0.000000 0.462463 0.627258
0.020508 0.474823 0.639740
0.072388 0.491760 0.662872
0.279175 0.504578 0.685211
0.486084 0.511902 0.694855
0.630463 0.522522 0.694244
0.781158 0.549835 0.695160
0.929688 0.576202 0.705841
0.956177 0.597900 0.722321
0.000000 0.563507 0.637939
0.022858 0.575073 0.647980
0.053131 0.587158 0.659698
0.216492 0.605774 0.686462
0.486389 0.612183 0.700439
0.619629 0.616913 0.710938
0.772064 0.639496 0.710632
0.928619 0.663849 0.726013
0.955200 0.686707 0.743469
0.000000 0.659546 0.655396
0.025513 0.666870 0.661530
0.055664 0.678192 0.670776
0.135590 0.696808 0.686615
0.430969 0.714752 0.706848
0.618195 0.724091 0.723358
0.773376 0.742523 0.734802
0.913239 0.766327 0.752594
0.955017 0.786072 0.774231
0.006622 0.761414 0.675812
0.033661 0.768555 0.682098
0.061005 0.775940 0.688812
0.088409 0.784882 0.696716
0.349579 0.801117 0.710480
0.597046 0.822296 0.742218
0.758942 0.844910 0.768677
0.908173 0.865601 0.782379
0.953339 0.887085 0.802307
0.016174 0.869965 0.707001
0.042969 0.876892 0.712250
0.065887 0.884033 0.718140
0.093475 0.892273 0.726013
0.266235 0.904572 0.744995
0.606232 0.908722 0.763123
0.763550 0.910278 0.790802
0.900940 0.907257 0.802887
0.953857 0.904449 0.819763
0.000000 0.041504 0.597107
0.019470 0.051514 0.622986
0.058319 0.059357 0.655029
0.314575 0.071198 0.683655
0.475220 0.112549 0.704132
0.601013 0.130402 0.717224
0.737427 0.159912 0.721222
0.884003 0.215027 0.715973
0.960052 0.254730 0.719421
0.000000 0.144196 0.641815
0.028687 0.149506 0.670776
0.068390 0.162811 0.682404
0.345459 0.190674 0.699615
0.498016 0.234039 0.722931
0.625153 0.262390 0.736420
0.765594 0.297577 0.738068
0.911621 0.333130 0.737244
0.959534 0.359680 0.743225
0.000000 0.270630 0.689911
0.029938 0.288696 0.705627
0.080566 0.303436 0.718140
0.360901 0.316467 0.723236
0.511078 0.338898 0.736420
0.639130 0.368378 0.750946
0.779388 0.392914 0.752258
0.930603 0.420929 0.757019
0.958252 0.446533 0.760376
0.000000 0.382416 0.709534
0.023041 0.392914 0.720612
0.089447 0.414459 0.744598
0.360962 0.423553 0.755859
0.513397 0.434845 0.758759
0.643768 0.452057 0.762299
0.781372 0.476959 0.769958
0.932617 0.501862 0.771698
0.956757 0.523651 0.778656
0.000000 0.476929 0.725189
0.024933 0.489532 0.739075
0.079895 0.509155 0.757477
0.323730 0.521881 0.775177
0.508636 0.528992 0.780670
0.643463 0.538483 0.781189
0.780579 0.556763 0.780975
0.935852 0.585236 0.789246
0.955231 0.608154 0.799805
0.000000 0.577637 0.725128
0.027679 0.590759 0.738983
0.063080 0.604584 0.754028
0.278625 0.620575 0.778351
0.498627 0.626892 0.792816
0.634918 0.631622 0.799225
0.777283 0.643890 0.796478
0.932220 0.669342 0.803345
0.954590 0.693237 0.815155
0.003723 0.681580 0.746796
0.032410 0.693481 0.756104
0.061066 0.703949 0.765411
0.154663 0.721344 0.781433
0.461243 0.732819 0.797119
0.636810 0.737091 0.805786
0.763885 0.741943 0.815399
0.910706 0.765320 0.823181
0.953888 0.787048 0.839783
0.010406 0.783264 0.764771
0.038147 0.791138 0.771210
0.064301 0.799774 0.777618
0.116547 0.807892 0.781738
0.423035 0.824738 0.797028
0.620819 0.836456 0.817902
0.770966 0.844543 0.832550
0.914337 0.866486 0.845093
0.952972 0.890198 0.866180
0.018494 0.895691 0.784668
0.045959 0.901215 0.788940
0.069366 0.905060 0.793671
0.116913 0.907501 0.798035
0.352234 0.909607 0.807098
0.617279 0.909760 0.822815
0.766388 0.909760 0.857147
0.898804 0.906555 0.875671
0.953522 0.903900 0.881897
0.000000 0.048828 0.703583
0.020477 0.052216 0.725555
0.060760 0.057129 0.742065
0.335571 0.077423 0.759766
0.496948 0.121094 0.782959
0.618958 0.136444 0.798401
0.743439 0.172943 0.805054
0.888000 0.230774 0.809814
0.959503 0.278809 0.813049
0.000000 0.140381 0.746826
0.030029 0.155029 0.760406
0.080109 0.171906 0.769958
0.362091 0.202728 0.783875
0.510681 0.238892 0.801971
0.639954 0.269470 0.815186
0.766144 0.306702 0.825348
0.910614 0.344299 0.830566
0.958771 0.375122 0.831360
0.000000 0.289490 0.782806
0.035889 0.306183 0.797028
0.140350 0.321442 0.808350
0.398499 0.332977 0.813080
0.528137 0.347137 0.817566
0.650818 0.377716 0.832916
0.782013 0.403870 0.842743
0.932648 0.433228 0.847900
0.957123 0.460571 0.853607
0.001587 0.401520 0.810974
0.029907 0.414398 0.823608
0.143433 0.433136 0.843719
0.397980 0.441071 0.849670
0.535950 0.444733 0.842865
0.658081 0.459229 0.844971
0.789032 0.484009 0.856079
0.938385 0.511078 0.860504
0.955566 0.534576 0.872131
0.001556 0.494934 0.821686
0.031189 0.506744 0.833923
0.113983 0.525848 0.854462
0.378784 0.536804 0.871674
0.535187 0.543152 0.875397
0.660858 0.550568 0.871918
0.790192 0.566589 0.869446
0.936859 0.591370 0.875488
0.954651 0.615082 0.882294
0.002289 0.589050 0.826691
0.038269 0.604706 0.842255
0.104431 0.617889 0.856995
0.306946 0.634155 0.876709
0.519409 0.641235 0.885803
0.654694 0.646515 0.885651
0.787445 0.656555 0.883698
0.934113 0.674377 0.883240
0.954254 0.698578 0.885254
0.007996 0.701385 0.838837
0.036957 0.711243 0.848145
0.075745 0.722229 0.860077
0.221130 0.737701 0.878418
0.502228 0.744751 0.886292
0.648926 0.748260 0.888123
0.780090 0.752838 0.887909
0.920074 0.766846 0.886444
0.953583 0.787811 0.886749
0.014343 0.804626 0.858765
0.043060 0.813904 0.868958
0.071411 0.821960 0.876190
0.141937 0.829926 0.881500
0.457153 0.846649 0.888153
0.646088 0.853638 0.888062
0.786194 0.856049 0.887451
0.906036 0.862976 0.886292
0.953278 0.885712 0.884155
0.020477 0.908600 0.878754
0.048401 0.910675 0.882843
0.081635 0.912201 0.886078
0.150024 0.912903 0.887512
0.460480 0.911652 0.887115
0.649323 0.910370 0.887848
0.784119 0.908997 0.886383
0.910370 0.907471 0.884003
0.953033 0.903809 0.881042
