Kodak Vision2 500T (5260) - Look variant.cube
# Created by Benjamin (IWLTBAP) : http://luts.iwltbap.com
# Copyright: (C) Copyright 2010-2017 Triune Films and IWLTBAP SAS
# Cannot be resold, shared or otherwise redistributed
TITLE "Film Print Emulation LUTs Pack (Rec.709, sRGB, DCI-P3)"
LUT_3D_SIZE 5
0.000000 0.000000 0.000000
0.305634 0.055481 0.023071
0.572601 0.073700 0.066040
0.770996 0.092407 0.094604
0.933472 0.125092 0.118622
0.003845 0.099091 0.018219
0.218231 0.199677 0.037659
0.568878 0.231445 0.066223
0.792877 0.265015 0.096130
0.942688 0.289917 0.117859
0.006348 0.230103 0.095154
0.012665 0.325775 0.044739
0.531464 0.465546 0.078430
0.801300 0.491364 0.104065
0.944122 0.507782 0.108704
0.014587 0.403168 0.207764
0.015167 0.456879 0.143463
0.471588 0.682922 0.138641
0.784363 0.726501 0.176971
0.951294 0.733612 0.150574
0.021790 0.547821 0.343842
0.021210 0.574524 0.254669
0.082458 0.739441 0.230072
0.718323 0.857025 0.198700
0.945435 0.894653 0.136749
0.034668 0.020050 0.140900
0.412354 0.049561 0.208466
0.595947 0.070190 0.237610
0.779236 0.098297 0.267273
0.929474 0.127319 0.300354
0.014832 0.186310 0.292694
0.203827 0.203827 0.203674
0.557190 0.249664 0.236725
0.787659 0.278717 0.269562
0.933533 0.292786 0.286682
0.015198 0.328979 0.275452
0.012421 0.339661 0.197083
0.523682 0.466827 0.258240
0.808624 0.478027 0.289154
0.943237 0.485565 0.296234
0.019958 0.471436 0.339813
0.018127 0.481842 0.244629
0.337677 0.676422 0.260803
0.792633 0.730377 0.371460
0.952454 0.721893 0.351807
0.024261 0.574982 0.423157
0.023041 0.581268 0.339081
0.058014 0.724182 0.300934
0.690063 0.859192 0.347168
0.943787 0.898865 0.366791
0.026947 0.090607 0.299347
0.474518 0.047577 0.355682
0.625122 0.062134 0.410400
0.782410 0.082581 0.448212
0.937286 0.139618 0.505646
0.018250 0.235474 0.411438
0.015930 0.167755 0.369995
0.592102 0.233582 0.404449
0.796326 0.262756 0.452637
0.928131 0.289154 0.469604
0.021271 0.347076 0.456696
0.024536 0.363190 0.467377
0.465424 0.465363 0.465363
0.786621 0.502655 0.506622
0.937195 0.500092 0.510864
0.023102 0.501007 0.435211
0.023071 0.528015 0.409088
0.055084 0.655182 0.458435
0.783997 0.741852 0.573334
0.950897 0.723419 0.574554
0.026642 0.596649 0.486206
0.024872 0.594940 0.410889
0.029510 0.694519 0.388306
0.673645 0.860748 0.504395
0.945557 0.903717 0.579071
0.025574 0.093719 0.375244
0.478241 0.048889 0.471039
0.635681 0.061920 0.516663
0.770142 0.085388 0.611023
0.931946 0.124054 0.673859
0.022003 0.278931 0.491180
0.020813 0.174438 0.483765
0.460968 0.189880 0.578552
0.814697 0.239471 0.627106
0.939362 0.284119 0.655640
0.025604 0.367096 0.578125
0.026215 0.364929 0.591461
0.192230 0.386047 0.634766
0.815063 0.459808 0.638824
0.933655 0.484863 0.665894
0.028931 0.520325 0.611115
0.030457 0.569580 0.639832
0.054474 0.648804 0.703247
0.764435 0.764496 0.764435
0.935455 0.738953 0.761505
0.030365 0.627197 0.613800
0.029358 0.635529 0.560333
0.031464 0.687836 0.542145
0.575073 0.849854 0.675659
0.944427 0.911041 0.758545
0.018921 0.187439 0.446350
0.532745 0.058075 0.516449
0.677551 0.066681 0.509491
0.766541 0.087097 0.664703
0.929260 0.147827 0.818481
0.024414 0.326141 0.556335
0.029602 0.161957 0.534119
0.453522 0.160248 0.595306
0.790924 0.216583 0.706329
0.928070 0.295654 0.799072
0.028473 0.403870 0.637909
0.026215 0.347687 0.594666
0.027588 0.243042 0.593140
0.751740 0.367065 0.722137
0.934540 0.463440 0.797302
0.031525 0.513580 0.695496
0.032043 0.499359 0.712769
0.032562 0.489258 0.727631
0.643768 0.622192 0.817749
0.944550 0.702148 0.850250
0.034637 0.623260 0.755646
0.041199 0.654663 0.783142
0.055969 0.687378 0.808838
0.353943 0.786346 0.886261
0.950256 0.950256 0.950256
