Kodak Vision 250D (5246) - Look.cube
# Created by Benjamin (IWLTBAP) : http://luts.iwltbap.com
# Copyright: (C) Copyright 2010-2017 Triune Films and IWLTBAP SAS
# Cannot be resold, shared or otherwise redistributed
TITLE "Film Print Emulation LUTs Pack (Rec.709, sRGB, DCI-P3)"
LUT_3D_SIZE 33
0.000000 0.001617 0.001038
0.025116 0.000000 0.000000
0.058594 0.000000 0.000000
0.092072 0.000000 0.000000
0.125549 0.000000 0.000000
0.159027 0.000000 0.000000
0.192505 0.000000 0.000000
0.226013 0.000000 0.000000
0.259460 0.000000 0.000000
0.292938 0.000000 0.000000
0.326416 0.000000 0.000000
0.359894 0.000000 0.000000
0.393372 0.000000 0.000000
0.426849 0.000000 0.000000
0.460327 0.000000 0.000000
0.493835 0.000000 0.000000
0.527344 0.000000 0.000000
0.560822 0.000000 0.000000
0.594299 0.000000 0.000000
0.627777 0.000000 0.000000
0.661255 0.000000 0.000000
0.694733 0.000000 0.000000
0.728180 0.000000 0.000000
0.761688 0.000000 0.000000
0.795166 0.000000 0.000000
0.828644 0.000000 0.000000
0.862122 0.000000 0.000000
0.895599 0.000000 0.000000
0.929077 0.000000 0.000000
0.962555 0.000000 0.000000
0.996033 0.000000 0.000000
1.000000 0.000000 0.000000
1.000000 0.000000 0.000000
0.000000 0.022034 0.006989
0.021362 0.011139 0.000000
0.058594 0.004364 0.000000
0.092072 0.004364 0.000000
0.125549 0.004364 0.000000
0.159027 0.004364 0.000000
0.192505 0.004364 0.000000
0.226013 0.004364 0.000000
0.259460 0.004364 0.000000
0.292938 0.004364 0.000000
0.326416 0.004364 0.000000
0.359894 0.004364 0.000000
0.393372 0.004364 0.000000
0.426849 0.004364 0.000000
0.460327 0.004364 0.000000
0.493835 0.004364 0.000000
0.527344 0.004364 0.000000
0.560822 0.004364 0.000000
0.594299 0.004364 0.000000
0.627777 0.004364 0.000000
0.661255 0.004364 0.000000
0.694733 0.004364 0.000000
0.728210 0.004364 0.000000
0.761688 0.004364 0.000000
0.795166 0.004364 0.000000
0.828644 0.004364 0.000000
0.862122 0.004364 0.000000
0.895599 0.004364 0.000000
0.929077 0.004364 0.000000
0.962555 0.004364 0.000000
0.996033 0.004364 0.000000
1.000000 0.004364 0.000000
1.000000 0.004364 0.000000
0.000000 0.038239 0.007935
0.011047 0.039917 0.008331
0.047668 0.040497 0.000000
0.092072 0.039307 0.000000
0.125549 0.039307 0.000000
0.159027 0.039307 0.000000
0.192505 0.039307 0.000000
0.226013 0.039307 0.000000
0.259460 0.039307 0.000000
0.292938 0.039307 0.000000
0.326416 0.039307 0.000000
0.359894 0.039307 0.000000
0.393372 0.039307 0.000000
0.426849 0.039307 0.000000
0.460327 0.039307 0.000000
0.493835 0.039307 0.000000
0.527344 0.039307 0.000000
0.560822 0.039307 0.000000
0.594299 0.039307 0.000000
0.627777 0.039307 0.000000
0.661255 0.039307 0.000000
0.694733 0.039307 0.000000
0.728210 0.039307 0.000000
0.761719 0.039307 0.000000
0.795166 0.039307 0.000000
0.828644 0.039307 0.000000
0.862122 0.039307 0.000000
0.895599 0.039307 0.000000
0.929077 0.039307 0.000000
0.962555 0.039307 0.000000
0.996033 0.039307 0.000000
1.000000 0.039307 0.000000
1.000000 0.039307 0.000000
0.000000 0.056244 0.010468
0.008820 0.058136 0.010925
0.026093 0.062134 0.009064
0.078369 0.071167 0.000000
0.124176 0.073944 0.000000
0.159027 0.074249 0.000000
0.192505 0.074249 0.000000
0.226013 0.074249 0.000000
0.259491 0.074249 0.000000
0.292938 0.074249 0.000000
0.326416 0.074249 0.000000
0.359894 0.074249 0.000000
0.393372 0.074249 0.000000
0.426849 0.074249 0.000000
0.460327 0.074249 0.000000
0.493835 0.074249 0.000000
0.527344 0.074249 0.000000
0.560822 0.074249 0.000000
0.594299 0.074249 0.000000
0.627777 0.074249 0.000000
0.661255 0.074249 0.000000
0.694733 0.074249 0.000000
0.728210 0.074249 0.000000
0.761719 0.074249 0.000000
0.795166 0.074249 0.000000
0.828644 0.074249 0.000000
0.862122 0.074249 0.000000
0.895599 0.074249 0.000000
0.929077 0.074249 0.000000
0.962555 0.074249 0.000000
0.996033 0.074249 0.000000
1.000000 0.074249 0.000000
1.000000 0.074249 0.000000
0.000000 0.074432 0.013763
0.008301 0.076538 0.014191
0.023865 0.080597 0.015381
0.059082 0.091492 0.005096
0.114929 0.101868 0.000000
0.155334 0.107788 0.000000
0.192505 0.109192 0.000000
0.226013 0.109192 0.000000
0.259491 0.109192 0.000000
0.292969 0.109192 0.000000
0.326416 0.109192 0.000000
0.359894 0.109192 0.000000
0.393372 0.109192 0.000000
0.426849 0.109192 0.000000
0.460327 0.109192 0.000000
0.493835 0.109192 0.000000
0.527344 0.109192 0.000000
0.560822 0.109192 0.000000
0.594299 0.109192 0.000000
0.627777 0.109192 0.000000
0.661255 0.109192 0.000000
0.694733 0.109192 0.000000
0.728210 0.109192 0.000000
0.761719 0.109192 0.000000
0.795197 0.109192 0.000000
0.828644 0.109192 0.000000
0.862122 0.109192 0.000000
0.895599 0.109192 0.000000
0.929077 0.109192 0.000000
0.962555 0.109192 0.000000
0.996033 0.109192 0.000000
1.000000 0.109192 0.000000
1.000000 0.109192 0.000000
0.000000 0.093506 0.018066
0.007751 0.096039 0.018433
0.024414 0.099701 0.019897
0.047668 0.105469 0.023834
0.107269 0.121643 0.008240
0.149384 0.134766 0.000000
0.187286 0.141693 0.000000
0.226013 0.144135 0.000000
0.259491 0.144135 0.000000
0.292969 0.144135 0.000000
0.326416 0.144135 0.000000
0.359894 0.144135 0.000000
0.393372 0.144135 0.000000
0.426849 0.144135 0.000000
0.460327 0.144135 0.000000
0.493835 0.144135 0.000000
0.527344 0.144135 0.000000
0.560822 0.144135 0.000000
0.594299 0.144135 0.000000
0.627777 0.144135 0.000000
0.661255 0.144135 0.000000
0.694733 0.144135 0.000000
0.728210 0.144135 0.000000
0.761719 0.144135 0.000000
0.795197 0.144135 0.000000
0.828674 0.144135 0.000000
0.862122 0.144135 0.000000
0.895599 0.144135 0.000000
0.929077 0.144135 0.000000
0.962555 0.144135 0.000000
0.996033 0.144135 0.000000
1.000000 0.144135 0.000000
1.000000 0.144135 0.000000
0.000000 0.112274 0.021729
0.008820 0.115479 0.023132
0.026611 0.119904 0.024841
0.053162 0.126160 0.029816
0.102417 0.134094 0.035706
0.148102 0.156219 0.015869
0.183502 0.169586 0.000000
0.220123 0.175995 0.000000
0.257629 0.178619 0.000000
0.292969 0.179077 0.000000
0.326447 0.179077 0.000000
0.359894 0.179077 0.000000
0.393372 0.179077 0.000000
0.426849 0.179077 0.000000
0.460327 0.179077 0.000000
0.493835 0.179077 0.000000
0.527344 0.179077 0.000000
0.560822 0.179077 0.000000
0.594299 0.179077 0.000000
0.627777 0.179077 0.000000
0.661255 0.179077 0.000000
0.694733 0.179077 0.000000
0.728210 0.179077 0.000000
0.761719 0.179077 0.000000
0.795197 0.179077 0.000000
0.828674 0.179077 0.000000
0.862152 0.179077 0.000000
0.895599 0.179077 0.000000
0.929077 0.179077 0.000000
0.962555 0.179077 0.000000
0.996033 0.179077 0.000000
1.000000 0.179077 0.000000
1.000000 0.179077 0.000000
0.000000 0.131622 0.026215
0.011566 0.134827 0.027863
0.029358 0.140137 0.030457
0.061401 0.147064 0.037140
0.108063 0.154755 0.047974
0.151398 0.172546 0.045685
0.184570 0.193726 0.023895
0.217987 0.204742 0.005096
0.253693 0.210754 0.000000
0.290314 0.213501 0.000000
0.326447 0.214020 0.000000
0.359924 0.214020 0.000000
0.393372 0.214020 0.000000
0.426849 0.214020 0.000000
0.460327 0.214020 0.000000
0.493835 0.214020 0.000000
0.527344 0.214020 0.000000
0.560822 0.214020 0.000000
0.594299 0.214020 0.000000
0.627777 0.214020 0.000000
0.661255 0.214020 0.000000
0.694733 0.214020 0.000000
0.728210 0.214020 0.000000
0.761719 0.214020 0.000000
0.795197 0.214020 0.000000
0.828674 0.214020 0.000000
0.862152 0.214020 0.000000
0.895630 0.214020 0.000000
0.929077 0.214020 0.000000
0.962555 0.214020 0.000000
0.996033 0.214020 0.000000
1.000000 0.214020 0.000000
1.000000 0.214020 0.000000
0.000000 0.150146 0.030762
0.014893 0.154114 0.032593
0.031006 0.160675 0.035645
0.069275 0.168274 0.044312
0.115875 0.177063 0.056519
0.159332 0.188019 0.071960
0.190186 0.213562 0.054565
0.220154 0.230164 0.031586
0.253418 0.240143 0.012268
0.288391 0.245941 0.000000
0.323975 0.248474 0.000000
0.359497 0.248993 0.000000
0.393402 0.248962 0.000000
0.426849 0.248962 0.000000
0.460327 0.248962 0.000000
0.493835 0.248962 0.000000
0.527344 0.248962 0.000000
0.560822 0.248962 0.000000
0.594299 0.248962 0.000000
0.627777 0.248962 0.000000
0.661255 0.248962 0.000000
0.694733 0.248962 0.000000
0.728210 0.248962 0.000000
0.761719 0.248962 0.000000
0.795197 0.248962 0.000000
0.828674 0.248962 0.000000
0.862152 0.248962 0.000000
0.895630 0.248962 0.000000
0.929108 0.248962 0.000000
0.962555 0.248962 0.000000
0.996033 0.248962 0.000000
1.000000 0.248962 0.000000
1.000000 0.248962 0.000000
0.002075 0.169220 0.035309
0.015442 0.173798 0.037415
0.037598 0.180267 0.041626
0.076263 0.189270 0.051483
0.123260 0.199341 0.064972
0.167664 0.210846 0.081329
0.200195 0.229218 0.088989
0.226501 0.252197 0.062256
0.256531 0.266632 0.039429
0.289551 0.276031 0.020020
0.324097 0.281433 0.002502
0.358398 0.283691 0.000000
0.392670 0.284058 0.000000
0.426880 0.283905 0.000000
0.460327 0.283905 0.000000
0.493835 0.283905 0.000000
0.527344 0.283905 0.000000
0.560822 0.283905 0.000000
0.594299 0.283905 0.000000
0.627777 0.283905 0.000000
0.661255 0.283905 0.000000
0.694733 0.283905 0.000000
0.728210 0.283905 0.000000
0.761719 0.283905 0.000000
0.795197 0.283905 0.000000
0.828674 0.283905 0.000000
0.862152 0.283905 0.000000
0.895630 0.283905 0.000000
0.929108 0.283905 0.000000
0.962585 0.283905 0.000000
0.996033 0.283905 0.000000
1.000000 0.283905 0.000000
1.000000 0.283905 0.000000
0.003143 0.188690 0.039948
0.016510 0.193573 0.042175
0.045197 0.199799 0.047729
0.082184 0.209869 0.058380
0.129822 0.220856 0.072754
0.175720 0.233368 0.090302
0.210846 0.249817 0.105988
0.236023 0.270020 0.096313
0.262634 0.289825 0.070129
0.293549 0.303284 0.047455
0.326111 0.311951 0.027863
0.359802 0.316711 0.008881
0.393066 0.318756 0.000000
0.426239 0.319061 0.000000
0.460358 0.318878 0.000000
0.493835 0.318878 0.000000
0.527344 0.318878 0.000000
0.560822 0.318878 0.000000
0.594299 0.318878 0.000000
0.627777 0.318878 0.000000
0.661255 0.318878 0.000000
0.694733 0.318878 0.000000
0.728210 0.318878 0.000000
0.761719 0.318878 0.000000
0.795197 0.318878 0.000000
0.828674 0.318878 0.000000
0.862152 0.318878 0.000000
0.895630 0.318878 0.000000
0.929108 0.318878 0.000000
0.962585 0.318878 0.000000
0.996033 0.318878 0.000000
1.000000 0.318878 0.000000
1.000000 0.318878 0.000000
0.004242 0.208099 0.044312
0.021454 0.212463 0.047211
0.052856 0.218842 0.053680
0.088562 0.230347 0.064972
0.135773 0.242340 0.080414
0.182251 0.255463 0.098175
0.220032 0.272369 0.115631
0.247681 0.286072 0.126709
0.271698 0.309296 0.103668
0.300171 0.327484 0.077759
0.330597 0.339630 0.055389
0.363129 0.347687 0.034912
0.395386 0.351898 0.015289
0.427338 0.353546 0.000000
0.459991 0.354034 0.000000
0.493530 0.353912 0.000000
0.527344 0.353821 0.000000
0.560822 0.353821 0.000000
0.594299 0.353821 0.000000
0.627777 0.353821 0.000000
0.661255 0.353821 0.000000
0.694733 0.353821 0.000000
0.728210 0.353821 0.000000
0.761719 0.353821 0.000000
0.795197 0.353821 0.000000
0.828674 0.353821 0.000000
0.862152 0.353821 0.000000
0.895630 0.353821 0.000000
0.929108 0.353821 0.000000
0.962585 0.353821 0.000000
0.996063 0.353821 0.000000
1.000000 0.353821 0.000000
1.000000 0.353821 0.000000
0.006439 0.227203 0.049011
0.029694 0.231293 0.052948
0.059174 0.238373 0.059723
0.094971 0.250427 0.071594
0.141968 0.263275 0.087585
0.187897 0.277313 0.105530
0.228546 0.294281 0.124512
0.256622 0.308411 0.136261
0.282654 0.324402 0.138306
0.308197 0.347565 0.110138
0.336517 0.364197 0.085083
0.367096 0.375519 0.063049
0.399139 0.382721 0.041199
0.430573 0.386749 0.021301
0.461700 0.388245 0.003174
0.493774 0.388824 0.000000
0.526886 0.388916 0.000000
0.560822 0.388763 0.000000
0.594299 0.388763 0.000000
0.627777 0.388763 0.000000
0.661255 0.388763 0.000000
0.694733 0.388763 0.000000
0.728210 0.388763 0.000000
0.761719 0.388763 0.000000
0.795197 0.388763 0.000000
0.828674 0.388763 0.000000
0.862152 0.388763 0.000000
0.895630 0.388763 0.000000
0.929108 0.388763 0.000000
0.962585 0.388763 0.000000
0.996063 0.388763 0.000000
1.000000 0.388763 0.000000
1.000000 0.388763 0.000000
0.014679 0.245697 0.054413
0.037445 0.249939 0.058380
0.064545 0.257141 0.064972
0.100616 0.270050 0.077789
0.146515 0.283325 0.093964
0.191711 0.297913 0.111267
0.235504 0.314575 0.132141
0.263397 0.328583 0.144012
0.290558 0.341339 0.154602
0.316223 0.362518 0.143677
0.342621 0.383636 0.115417
0.371643 0.399139 0.091248
0.402069 0.409760 0.068665
0.433258 0.416504 0.046661
0.464539 0.420593 0.026672
0.495422 0.422363 0.008514
0.527252 0.423187 0.000000
0.560181 0.423645 0.000000
0.594116 0.423706 0.000000
0.627777 0.423706 0.000000
0.661255 0.423706 0.000000
0.694733 0.423706 0.000000
0.728210 0.423706 0.000000
0.761719 0.423706 0.000000
0.795197 0.423706 0.000000
0.828674 0.423706 0.000000
0.862152 0.423706 0.000000
0.895630 0.423706 0.000000
0.929108 0.423706 0.000000
0.962585 0.423706 0.000000
0.996063 0.423706 0.000000
1.000000 0.423706 0.000000
1.000000 0.423706 0.000000
0.022766 0.264221 0.059723
0.043335 0.268250 0.063446
0.069458 0.275391 0.069977
0.105164 0.288483 0.082947
0.149323 0.302032 0.099274
0.193298 0.316864 0.114929
0.240845 0.333221 0.138062
0.267853 0.346649 0.149750
0.294586 0.358948 0.159485
0.322540 0.372467 0.171814
0.347137 0.396973 0.145447
0.374054 0.417053 0.118958
0.403656 0.431671 0.095490
0.434662 0.442078 0.072601
0.465912 0.449097 0.051147
0.497070 0.453339 0.031128
0.528290 0.455627 0.013184
0.560211 0.457001 0.000000
0.593231 0.457916 0.000000
0.627197 0.458466 0.000000
0.661255 0.458649 0.000000
0.694733 0.458649 0.000000
0.728210 0.458649 0.000000
0.761719 0.458649 0.000000
0.795197 0.458649 0.000000
0.828674 0.458649 0.000000
0.862152 0.458649 0.000000
0.895630 0.458649 0.000000
0.929108 0.458649 0.000000
0.962585 0.458649 0.000000
0.996063 0.458649 0.000000
1.000000 0.458649 0.000000
1.000000 0.458649 0.000000
0.029388 0.282776 0.064972
0.049042 0.286560 0.068329
0.073730 0.293243 0.074554
0.109009 0.306488 0.087585
0.150909 0.319641 0.103455
0.194916 0.333862 0.118958
0.244598 0.350311 0.142639
0.271088 0.363342 0.154205
0.297150 0.375153 0.163666
0.324493 0.388275 0.175079
0.350616 0.405060 0.174896
0.376373 0.429535 0.146515
0.404297 0.448608 0.121277
0.433960 0.462952 0.098633
0.466064 0.473480 0.075836
0.497528 0.480804 0.054901
0.529175 0.485535 0.035156
0.560699 0.488464 0.017548
0.592865 0.490387 0.001801
0.626099 0.491882 0.000000
0.660187 0.492920 0.000000
0.694733 0.493561 0.000000
0.728210 0.493561 0.000000
0.761719 0.493561 0.000000
0.795197 0.493561 0.000000
0.828674 0.493561 0.000000
0.862152 0.493591 0.000000
0.895630 0.493591 0.000000
0.929108 0.493591 0.000000
0.962585 0.493591 0.000000
0.996063 0.493591 0.000000
1.000000 0.493591 0.000000
1.000000 0.493591 0.000000
0.034943 0.300842 0.069977
0.053894 0.304291 0.072968
0.077759 0.310699 0.078949
0.111755 0.323730 0.091644
0.150726 0.336426 0.106598
0.194519 0.349609 0.121765
0.241760 0.367676 0.145142
0.273163 0.378998 0.157471
0.298523 0.390289 0.167114
0.325287 0.402832 0.177124
0.351654 0.415009 0.188232
0.377655 0.437042 0.174255
0.404297 0.460785 0.147156
0.433258 0.479156 0.123077
0.463837 0.493622 0.101135
0.496643 0.504333 0.078735
0.528870 0.512207 0.058319
0.561005 0.517548 0.038940
0.592926 0.521057 0.021667
0.625427 0.523621 0.006073
0.658813 0.525574 0.000000
0.693115 0.527100 0.000000
0.727661 0.528168 0.000000
0.761719 0.528534 0.000000
0.795197 0.528534 0.000000
0.828674 0.528534 0.000000
0.862152 0.528534 0.000000
0.895630 0.528534 0.000000
0.929108 0.528534 0.000000
0.962585 0.528534 0.000000
0.996063 0.528534 0.000000
1.000000 0.528534 0.000000
1.000000 0.528534 0.000000
0.039581 0.318512 0.074341
0.058075 0.321808 0.077240
0.080719 0.327423 0.082611
0.113312 0.340302 0.094940
0.149719 0.352356 0.108826
0.190918 0.364990 0.123352
0.234985 0.382904 0.143433
0.273376 0.392731 0.159058
0.298248 0.404083 0.169098
0.324127 0.415588 0.178253
0.349915 0.427399 0.188416
0.376282 0.439331 0.199005
0.402618 0.467102 0.172394
0.430389 0.490204 0.146790
0.460876 0.508636 0.123993
0.492523 0.523224 0.102692
0.526093 0.534485 0.081177
0.559509 0.543091 0.061371
0.592560 0.549225 0.042572
0.624969 0.553375 0.025574
0.657837 0.556519 0.010132
0.691498 0.559052 0.000000
0.725891 0.560974 0.000000
0.760529 0.562469 0.000000
0.795197 0.563477 0.000000
0.828674 0.563477 0.000000
0.862152 0.563477 0.000000
0.895630 0.563477 0.000000
0.929108 0.563477 0.000000
0.962585 0.563477 0.000000
0.996063 0.563477 0.000000
1.000000 0.563477 0.000000
1.000000 0.563477 0.000000
0.044281 0.335938 0.078766
0.061340 0.338593 0.081146
0.082947 0.343903 0.085968
0.114014 0.355652 0.097412
0.148315 0.367676 0.110413
0.185822 0.379669 0.124115
0.227081 0.394958 0.140045
0.266449 0.406555 0.158234
0.297150 0.417023 0.169983
0.321625 0.427490 0.178955
0.346497 0.438324 0.187378
0.372162 0.449768 0.197510
0.398529 0.468079 0.195770
0.426361 0.495728 0.169739
0.455688 0.518677 0.145874
0.487366 0.537170 0.124329
0.520355 0.552216 0.103882
0.555237 0.564331 0.083374
0.589996 0.573822 0.064178
0.623932 0.580597 0.045898
0.656830 0.585449 0.029236
0.690216 0.589172 0.013947
0.724060 0.592224 0.000214
0.758728 0.594666 0.000000
0.793365 0.596527 0.000000
0.828308 0.598114 0.000000
0.862152 0.598419 0.000000
0.895630 0.598419 0.000000
0.929108 0.598419 0.000000
0.962585 0.598419 0.000000
0.996063 0.598419 0.000000
1.000000 0.598419 0.000000
1.000000 0.598419 0.000000
0.048004 0.352753 0.082611
0.064484 0.355072 0.084595
0.084900 0.359802 0.088959
0.113800 0.370667 0.099274
0.145996 0.382080 0.111389
0.180237 0.393402 0.124237
0.219208 0.405365 0.137817
0.254730 0.419373 0.152893
0.295105 0.428589 0.169464
0.319153 0.439178 0.178955
0.342804 0.448883 0.187042
0.367645 0.459717 0.195496
0.393219 0.471008 0.205688
0.420715 0.496399 0.192230
0.450378 0.524109 0.167450
0.481293 0.546997 0.145203
0.514435 0.565948 0.125031
0.549103 0.581726 0.105377
0.585114 0.594543 0.085754
0.620880 0.604614 0.066895
0.655548 0.612000 0.049072
0.689056 0.617432 0.032684
0.722687 0.621704 0.017639
0.756744 0.625275 0.003998
0.791534 0.628143 0.000000
0.826050 0.630341 0.000000
0.861053 0.632263 0.000000
0.895630 0.633362 0.000000
0.929108 0.633362 0.000000
0.962585 0.633362 0.000000
0.996063 0.633362 0.000000
1.000000 0.633362 0.000000
1.000000 0.633362 0.000000
0.051544 0.369568 0.086365
0.067474 0.371429 0.088104
0.086792 0.375549 0.091797
0.113800 0.385529 0.101135
0.144196 0.396393 0.112549
0.175568 0.406982 0.124237
0.209839 0.417236 0.135895
0.245850 0.429718 0.148987
0.282013 0.441254 0.165070
0.317047 0.450897 0.178772
0.339478 0.459747 0.186493
0.363464 0.469757 0.194550
0.388489 0.480621 0.203583
0.414429 0.493652 0.212067
0.444183 0.525299 0.189178
0.475525 0.552917 0.166046
0.508331 0.576080 0.145416
0.542816 0.595612 0.126526
0.579285 0.611847 0.107178
0.615967 0.625214 0.088348
0.652588 0.635681 0.069580
0.687744 0.643524 0.052155
0.721497 0.649445 0.036041
0.755096 0.654205 0.021301
0.789520 0.658173 0.007538
0.824249 0.661407 0.000000
0.858765 0.663849 0.000000
0.893738 0.666138 0.000000
0.929108 0.668304 0.000000
0.962585 0.668304 0.000000
0.996063 0.668304 0.000000
1.000000 0.668304 0.000000
1.000000 0.668304 0.000000
0.053986 0.385986 0.089813
0.070099 0.387756 0.091492
0.088867 0.391418 0.094788
0.115112 0.400970 0.103760
0.144196 0.411285 0.114380
0.173584 0.421417 0.125275
0.205170 0.430756 0.136017
0.239380 0.440796 0.147278
0.271851 0.453247 0.159882
0.312805 0.463318 0.178101
0.337158 0.471252 0.186157
0.360077 0.480408 0.193939
0.384583 0.490814 0.202118
0.410370 0.502472 0.212219
0.438019 0.523560 0.210144
0.469879 0.555359 0.187317
0.502563 0.582855 0.165894
0.537140 0.606049 0.146515
0.572815 0.626007 0.128693
0.610931 0.642578 0.109070
0.648193 0.656219 0.090607
0.685303 0.666901 0.072052
0.720306 0.675110 0.055084
0.753784 0.681274 0.039307
0.787506 0.686493 0.024780
0.822266 0.690826 0.010925
0.856873 0.694275 0.000000
0.891388 0.697021 0.000000
0.926361 0.699707 0.000000
0.961761 0.702240 0.000000
0.996063 0.703247 0.000000
1.000000 0.703247 0.000000
1.000000 0.703247 0.000000
0.055786 0.402161 0.093018
0.071777 0.403687 0.094482
0.090942 0.407318 0.097870
0.116638 0.416412 0.106293
0.144897 0.426361 0.116455
0.173248 0.436279 0.126953
0.203430 0.445282 0.137207
0.234131 0.453888 0.146912
0.266693 0.464661 0.158112
0.301514 0.476624 0.173920
0.335358 0.482971 0.185699
0.357635 0.491852 0.193604
0.381165 0.501495 0.201630
0.407043 0.512939 0.210571
0.433716 0.525208 0.221680
0.464264 0.554535 0.208496
0.497437 0.586273 0.186676
0.531494 0.613434 0.166656
0.567322 0.636688 0.148438
0.605042 0.656708 0.129761
0.643341 0.673676 0.111176
0.681458 0.687347 0.092255
0.718323 0.698242 0.074524
0.752319 0.706451 0.058075
0.785797 0.712952 0.042389
0.819916 0.718475 0.027802
0.854828 0.723083 0.013763
0.889252 0.726654 0.000763
0.923920 0.729828 0.000000
0.958954 0.732941 0.000000
0.994324 0.735901 0.000000
1.000000 0.738190 0.000000
1.000000 0.738190 0.000000
0.057526 0.417877 0.095917
0.073456 0.419434 0.097412
0.091949 0.422913 0.100555
0.116852 0.431396 0.108246
0.144897 0.440826 0.118134
0.172455 0.450500 0.128113
0.201691 0.459534 0.138458
0.229767 0.467010 0.146820
0.262451 0.475647 0.156738
0.292175 0.487885 0.168793
0.328308 0.495758 0.184235
0.355347 0.503296 0.193085
0.378113 0.512329 0.200989
0.403412 0.523285 0.209625
0.430359 0.535706 0.220215
0.458099 0.551086 0.227844
0.491821 0.586060 0.207397
0.525818 0.617462 0.186798
0.561493 0.644226 0.167908
0.598145 0.667664 0.150513
0.637421 0.687744 0.131287
0.676239 0.704803 0.112946
0.714752 0.718506 0.094147
0.750519 0.729492 0.077332
0.784149 0.737549 0.060699
0.817719 0.744385 0.045227
0.852417 0.750092 0.030243
0.887268 0.754852 0.016022
0.921539 0.758698 0.003052
0.956360 0.762390 0.000000
0.991516 0.765869 0.000000
1.000000 0.769226 0.000000
1.000000 0.772491 0.000000
0.058960 0.433502 0.098663
0.074524 0.435028 0.100067
0.092682 0.438080 0.102844
0.115967 0.445740 0.109680
0.143280 0.454651 0.118958
0.170746 0.463867 0.128632
0.198975 0.473022 0.138550
0.225342 0.479980 0.146484
0.255524 0.487579 0.155365
0.285553 0.497772 0.165710
0.316864 0.508331 0.179108
0.352875 0.514099 0.191803
0.375488 0.523346 0.200104
0.399933 0.533722 0.208801
0.426697 0.545959 0.218231
0.454132 0.558624 0.229797
0.485535 0.583008 0.226776
0.520172 0.617981 0.206848
0.555298 0.648651 0.187408
0.591827 0.675385 0.169769
0.630341 0.698700 0.151520
0.670105 0.719025 0.133087
0.709961 0.735992 0.114227
0.747681 0.749817 0.096649
0.782410 0.760284 0.079590
0.815826 0.768372 0.063019
0.849915 0.775391 0.047363
0.884949 0.781372 0.032135
0.919220 0.786224 0.017975
0.953766 0.790588 0.005096
0.988708 0.794586 0.000000
1.000000 0.798492 0.000000
1.000000 0.802246 0.000000
0.060059 0.448914 0.101318
0.075592 0.450317 0.102539
0.093414 0.453278 0.105255
0.115112 0.459656 0.110840
0.140869 0.467834 0.119080
0.167999 0.476898 0.128632
0.195587 0.485901 0.138306
0.221985 0.493042 0.146484
0.249634 0.499908 0.154419
0.280212 0.507599 0.163300
0.307495 0.519073 0.173615
0.342316 0.526978 0.188812
0.373413 0.534729 0.199524
0.397217 0.544678 0.208252
0.423248 0.556366 0.217499
0.450867 0.569275 0.228394
0.479614 0.582458 0.240173
0.514282 0.615692 0.226685
0.549438 0.650513 0.207428
0.586090 0.680634 0.189240
0.623566 0.707397 0.172150
0.664032 0.730621 0.153076
0.704742 0.751038 0.134857
0.743958 0.767578 0.116119
0.780212 0.780945 0.098969
0.813995 0.790771 0.081543
0.847656 0.799103 0.065094
0.882324 0.806244 0.048981
0.916992 0.812256 0.033691
0.951111 0.817352 0.019623
0.985840 0.821991 0.006653
1.000000 0.826508 0.000000
1.000000 0.830841 0.000000
0.061432 0.464172 0.103760
0.076385 0.465424 0.104828
0.093170 0.467804 0.106903
0.113129 0.472626 0.111450
0.137207 0.480255 0.118683
0.164337 0.489166 0.127869
0.191101 0.498322 0.137329
0.217682 0.505615 0.145813
0.244232 0.512238 0.153442
0.273254 0.518982 0.161591
0.302307 0.529236 0.171631
0.333801 0.539642 0.184875
0.372009 0.546509 0.199127
0.395477 0.556458 0.208008
0.420898 0.567566 0.217255
0.448364 0.580414 0.227417
0.476807 0.593811 0.239594
0.508545 0.611969 0.245361
0.544617 0.649780 0.227875
0.581360 0.683929 0.209534
0.618774 0.714111 0.192566
