Kodak 16mm - Only color.cube
# Created by Benjamin (IWLTBAP) : http://luts.iwltbap.com
# Copyright: (C) Copyright 2010-2017 Triune Films and IWLTBAP SAS
# Cannot be resold, shared or otherwise redistributed
TITLE "Film Print Emulation LUTs Pack (Rec.709, sRGB, DCI-P3)"
LUT_3D_SIZE 33
0.030457 0.030457 0.019348
0.034821 0.030365 0.019257
0.065948 0.030121 0.018829
0.091187 0.029907 0.018799
0.111969 0.029724 0.018280
0.128510 0.029572 0.018005
0.147705 0.029419 0.017853
0.166504 0.029266 0.017700
0.178619 0.029144 0.016876
0.190277 0.029053 0.016571
0.202423 0.028931 0.016479
0.214111 0.028778 0.021729
0.228638 0.028595 0.025970
0.243042 0.028473 0.025208
0.258545 0.028351 0.024445
0.273102 0.028198 0.028503
0.291565 0.027985 0.034576
0.313568 0.027802 0.034607
0.333221 0.027527 0.045166
0.347351 0.027435 0.041260
0.360901 0.027405 0.033783
0.373840 0.027283 0.033783
0.389160 0.027069 0.042908
0.405365 0.026886 0.048309
0.420593 0.026733 0.049835
0.438690 0.026459 0.065582
0.454987 0.026215 0.076965
0.468994 0.026031 0.084076
0.488953 0.025818 0.089172
0.505493 0.025635 0.094482
0.519684 0.025452 0.099030
0.534271 0.025330 0.101654
0.547089 0.025208 0.101654
0.030396 0.032867 0.019104
0.034943 0.032990 0.019043
0.066132 0.032349 0.018616
0.091400 0.031708 0.018250
0.113373 0.031677 0.017792
0.129669 0.031616 0.017792
0.150116 0.031586 0.017639
0.168365 0.029358 0.017242
0.180786 0.027863 0.016632
0.193390 0.027802 0.016541
0.204926 0.027069 0.018036
0.218170 0.026459 0.026886
0.233887 0.026337 0.026093
0.248505 0.026245 0.025330
0.263123 0.026154 0.026917
0.277863 0.026001 0.034698
0.300934 0.025848 0.034698
0.322754 0.025940 0.042114
0.339691 0.026367 0.044464
0.354004 0.026184 0.033844
0.366669 0.025421 0.033875
0.381775 0.025208 0.041382
0.398285 0.025055 0.048401
0.412292 0.024963 0.048431
0.431122 0.024719 0.064392
0.447754 0.024506 0.075928
0.463287 0.024353 0.084137
0.483398 0.024170 0.089752
0.500946 0.024078 0.096375
0.515961 0.024292 0.101227
0.531189 0.024292 0.101685
0.545868 0.024200 0.101685
0.561340 0.024048 0.102966
0.030151 0.058624 0.018585
0.034363 0.058746 0.018494
0.066193 0.056763 0.018250
0.091431 0.056213 0.017914
0.114990 0.056213 0.017242
0.130707 0.056183 0.017334
0.154510 0.055634 0.017151
0.170563 0.050385 0.016632
0.184082 0.050385 0.016449
0.196320 0.048706 0.016785
0.209320 0.044495 0.026154
0.225311 0.044464 0.026154
0.240112 0.043793 0.026184
0.255432 0.043793 0.027008
0.270233 0.043091 0.033905
0.291473 0.043060 0.035645
0.315338 0.039581 0.041412
0.333893 0.036774 0.044586
0.348541 0.037476 0.033966
0.361450 0.041626 0.033966
0.376923 0.042938 0.042297
0.393005 0.042938 0.048492
0.406921 0.042908 0.049255
0.425690 0.042877 0.065765
0.442535 0.042816 0.077148
0.458893 0.042786 0.084747
0.479431 0.042755 0.091309
0.497101 0.038666 0.097839
0.514435 0.036560 0.101776
0.529999 0.036530 0.101807
0.546448 0.036530 0.103088
0.561737 0.036499 0.105530
0.574310 0.036499 0.107544
0.029907 0.087341 0.018036
0.034332 0.087494 0.017975
0.066254 0.085724 0.017731
0.091949 0.083435 0.017548
0.115814 0.083435 0.016846
0.132385 0.083405 0.016876
0.158203 0.080963 0.016815
0.172974 0.076172 0.016357
0.187469 0.076172 0.016266
0.199768 0.071136 0.022491
0.215607 0.069244 0.027008
0.230377 0.068787 0.026215
0.246613 0.068787 0.026245
0.262207 0.068756 0.033966
0.282776 0.067322 0.035706
0.304901 0.065002 0.040680
0.326721 0.061279 0.046204
0.342560 0.061737 0.034027
0.355896 0.065857 0.034027
0.372131 0.067230 0.043152
0.388123 0.067200 0.048553
0.402527 0.067200 0.051544
0.419861 0.067169 0.067108
0.436554 0.067139 0.077789
0.456024 0.067108 0.085876
0.474396 0.067078 0.091858
0.492615 0.062347 0.099670
0.510345 0.060913 0.101837
0.527466 0.060883 0.101868
0.545471 0.060852 0.105194
0.560791 0.060852 0.108002
0.574310 0.060822 0.111816
0.586304 0.060791 0.114380
0.029724 0.108337 0.017609
0.033203 0.108490 0.017700
0.066315 0.107178 0.017426
0.091980 0.104858 0.017365
0.116241 0.104858 0.016632
0.134644 0.104828 0.016693
0.160339 0.101898 0.016327
0.176208 0.101288 0.016144
0.189972 0.100037 0.017059
0.204651 0.096436 0.024658
0.220520 0.095825 0.023926
0.236938 0.095215 0.023926
0.252930 0.094604 0.031403
0.272919 0.093658 0.035736
0.295990 0.091827 0.039093
0.318420 0.088715 0.047791
0.334991 0.088715 0.035797
0.349548 0.092041 0.034088
0.365723 0.093475 0.042419
0.382233 0.093445 0.048615
0.397369 0.093414 0.053040
0.414276 0.093353 0.068390
0.430206 0.093292 0.078400
0.449707 0.093231 0.085907
0.469055 0.092896 0.092865
0.487061 0.088928 0.100586
0.505920 0.088257 0.101868
0.525238 0.088226 0.103180
0.543488 0.088196 0.106842
0.559601 0.088165 0.111481
0.574402 0.088104 0.115112
0.586670 0.087158 0.119598
0.597260 0.086151 0.125183
0.029572 0.125183 0.017487
0.032623 0.125366 0.017426
0.066925 0.125366 0.017181
0.093811 0.123291 0.017090
0.116608 0.124176 0.016907
0.139862 0.123871 0.016602
0.163361 0.122101 0.016083
0.178894 0.122437 0.015991
0.195435 0.120361 0.017181
0.211426 0.119781 0.021820
0.226135 0.119476 0.023926
0.242188 0.119476 0.023926
0.262115 0.119171 0.027130
0.283936 0.117920 0.036652
0.309906 0.113434 0.048584
0.327362 0.112793 0.037506
0.342621 0.115051 0.034119
0.358337 0.116333 0.040833
0.376312 0.115051 0.051605
0.390686 0.113770 0.051636
0.408051 0.113434 0.069061
0.424713 0.113403 0.080078
0.444977 0.113403 0.086975
0.463989 0.112427 0.093842
0.481415 0.109467 0.101471
0.500427 0.109131 0.101929
0.521179 0.109131 0.104462
0.539307 0.109131 0.108459
0.557495 0.109131 0.114075
0.573242 0.108459 0.119293
0.584534 0.107117 0.126801
0.597534 0.105438 0.131744
0.608917 0.105072 0.135101
0.029266 0.141113 0.017273
0.033142 0.141022 0.017303
0.066315 0.139740 0.017059
0.099243 0.139740 0.016907
0.120605 0.140991 0.016846
0.140778 0.139709 0.016479
0.167542 0.139221 0.015991
0.183044 0.139740 0.015839
0.200104 0.139801 0.016815
0.216736 0.140320 0.016541
0.233673 0.138031 0.023163
0.247437 0.138306 0.023163
0.271484 0.138275 0.030609
0.296143 0.138000 0.034088
0.319550 0.137726 0.034119
0.337097 0.137207 0.034149
0.352051 0.137207 0.037567
0.368256 0.136932 0.049408
0.384918 0.136658 0.059387
0.401459 0.135590 0.067841
0.418304 0.135071 0.077881
0.438934 0.134766 0.089508
0.456512 0.133698 0.102753
0.473999 0.130188 0.101898
0.493011 0.128815 0.101929
0.513062 0.128235 0.104034
0.532837 0.127960 0.108856
0.551636 0.127930 0.114777
0.569031 0.126526 0.121307
0.583191 0.124786 0.130219
0.594879 0.123901 0.134796
0.609222 0.123901 0.140839
0.621643 0.123871 0.144714
0.028625 0.157867 0.017120
0.035492 0.158020 0.017151
0.068146 0.155090 0.016937
0.099243 0.157990 0.016754
0.124115 0.157959 0.016693
0.146606 0.159943 0.016266
0.169708 0.158630 0.015839
0.188080 0.162140 0.015686
0.205841 0.163483 0.015839
0.223541 0.165192 0.016174
0.239227 0.165405 0.016083
0.257629 0.166901 0.017273
0.281616 0.166260 0.026337
0.305908 0.162201 0.034119
0.327728 0.161957 0.034149
0.345795 0.161743 0.034180
0.362213 0.161499 0.055939
0.378937 0.161255 0.067200
0.395844 0.159485 0.076782
0.413422 0.157928 0.081238
0.432281 0.155914 0.087006
0.450928 0.155670 0.102356
0.466217 0.153839 0.111877
0.484711 0.152222 0.113342
0.505798 0.151276 0.112244
0.524445 0.150330 0.111511
0.545868 0.149139 0.119965
0.562988 0.148651 0.128357
0.579773 0.148193 0.132385
0.594604 0.147461 0.138153
0.608887 0.146973 0.144714
0.622009 0.146729 0.145905
0.633698 0.146698 0.145935
0.027802 0.172943 0.016998
0.041016 0.173462 0.016998
0.075897 0.173645 0.016815
0.101044 0.174835 0.016724
0.125824 0.175995 0.016510
0.150513 0.177979 0.016296
0.172760 0.176605 0.015717
0.191681 0.178772 0.015625
0.210968 0.181335 0.015350
0.229065 0.183838 0.015228
0.245087 0.185394 0.015625
0.267456 0.186157 0.019836
0.293121 0.187103 0.030670
0.316833 0.185944 0.034180
0.336884 0.184998 0.034180
0.353699 0.184967 0.045654
0.370361 0.185333 0.062744
0.388000 0.185120 0.073334
0.403931 0.185120 0.083405
0.425079 0.183594 0.082886
0.444122 0.179901 0.097107
0.460449 0.179291 0.109619
0.477234 0.180054 0.117279
0.498352 0.181427 0.117279
0.517395 0.178284 0.117279
0.536987 0.178101 0.121307
0.557953 0.175507 0.127747
0.575195 0.175293 0.132111
0.590210 0.174469 0.135162
0.604706 0.174072 0.139069
0.619629 0.173462 0.139069
0.633820 0.173035 0.139069
0.645599 0.173859 0.140289
0.027374 0.183014 0.016937
0.048615 0.183472 0.016846
0.079895 0.184784 0.016602
0.106262 0.186462 0.016205
0.130188 0.188141 0.016266
0.155365 0.190155 0.016174
0.175720 0.190521 0.015808
0.195312 0.193817 0.016052
0.214661 0.196533 0.015472
0.233704 0.200806 0.015350
0.250916 0.203125 0.014954
0.275696 0.205963 0.016724
0.301056 0.208374 0.026367
0.325592 0.205780 0.034180
0.344635 0.206451 0.047211
0.361145 0.207123 0.057404
0.378479 0.207794 0.067291
0.395752 0.208466 0.078522
0.412354 0.208313 0.087555
0.432373 0.205872 0.092010
0.451324 0.202026 0.098053
0.467651 0.202026 0.109253
0.490082 0.205505 0.109283
0.510315 0.206726 0.114471
0.530762 0.203766 0.117279
0.549652 0.200592 0.119659
0.571564 0.200043 0.131500
0.587250 0.199493 0.134857
0.602325 0.199677 0.139709
0.620087 0.197174 0.143585
0.635315 0.196808 0.145081
0.648804 0.196625 0.149139
0.662109 0.197876 0.154236
0.027618 0.193481 0.016754
0.050873 0.194244 0.016510
0.084717 0.195862 0.016174
0.107147 0.199249 0.015930
0.133087 0.201324 0.016266
0.160095 0.203430 0.015747
0.181488 0.204956 0.015961
0.199432 0.210785 0.016296
0.217407 0.216309 0.015961
0.237885 0.220276 0.015900
0.260437 0.223572 0.014709
0.285370 0.226166 0.016022
0.311462 0.227936 0.026398
0.333160 0.228394 0.038483
0.352997 0.229950 0.051727
0.367950 0.230865 0.061493
0.385925 0.231659 0.071594
0.402527 0.229004 0.082916
0.421997 0.229614 0.083496
0.442505 0.229462 0.091095
0.459869 0.229279 0.099396
0.478546 0.228973 0.102448
0.501587 0.229126 0.104126
0.521790 0.229584 0.108917
0.542053 0.229584 0.108917
0.564270 0.227844 0.117981
0.582062 0.226440 0.128387
0.597076 0.226593 0.132721
0.615875 0.224335 0.144775
0.633667 0.222900 0.153961
0.649048 0.223541 0.157867
0.665771 0.224487 0.160583
0.679413 0.225464 0.161957
0.027588 0.203613 0.016479
0.050934 0.205078 0.016296
0.089783 0.209015 0.016022
0.112091 0.212036 0.015808
0.135956 0.214844 0.015717
0.163605 0.219635 0.015594
0.186584 0.222534 0.015900
0.205170 0.228577 0.016113
0.222137 0.231842 0.015930
0.243591 0.236938 0.015594
0.267395 0.241058 0.014557
0.294342 0.244934 0.019104
0.319489 0.247528 0.032471
0.340149 0.250244 0.049530
0.359161 0.250244 0.055359
0.377106 0.251923 0.065430
0.394745 0.252625 0.076904
0.413452 0.252747 0.082947
0.434082 0.253448 0.082977
0.453217 0.254150 0.084076
0.469025 0.254272 0.086151
0.492615 0.254547 0.093079
0.514191 0.254272 0.100342
0.533600 0.254669 0.105377
0.554504 0.254120 0.111206
0.575470 0.252563 0.117981
0.591492 0.252838 0.130249
0.609863 0.251587 0.138214
0.629150 0.250031 0.146576
0.645660 0.248291 0.156219
0.660645 0.247711 0.160614
0.674591 0.248871 0.162781
0.688141 0.250153 0.164124
0.028564 0.216370 0.016388
0.063293 0.218719 0.016144
0.096191 0.222595 0.015869
0.119629 0.225311 0.015686
0.145477 0.232941 0.015625
0.169891 0.236755 0.016052
0.191193 0.240356 0.016144
0.209869 0.243164 0.015961
0.229431 0.248260 0.015747
0.251465 0.254791 0.015106
0.276825 0.258728 0.015411
0.303925 0.261719 0.028992
0.328094 0.268158 0.046509
0.348755 0.270844 0.055359
0.367004 0.270966 0.060211
0.385834 0.271973 0.068604
0.405212 0.273834 0.073456
0.423523 0.274933 0.074677
0.442291 0.276276 0.074127
0.461487 0.277008 0.072968
0.482025 0.277710 0.079834
0.503113 0.277924 0.087219
0.525452 0.277771 0.094513
0.547607 0.276093 0.102081
0.567474 0.276184 0.112671
0.583740 0.275085 0.120667
0.602295 0.272858 0.130554
0.622772 0.271484 0.144196
0.640930 0.270966 0.153168
0.657806 0.270447 0.158722
0.671417 0.270813 0.161163
0.684784 0.271942 0.164398
0.700714 0.273041 0.165710
0.039551 0.229126 0.016205
0.073303 0.232544 0.015961
0.101593 0.237885 0.015717
0.126892 0.242615 0.015625
0.151611 0.248383 0.016235
0.176575 0.252228 0.016144
0.195831 0.256409 0.015961
0.215576 0.260498 0.015778
0.234772 0.266510 0.015167
0.258484 0.271698 0.014435
0.284149 0.275665 0.017548
0.311615 0.280914 0.032501
0.333923 0.284821 0.048828
0.354340 0.289001 0.050354
0.374115 0.292633 0.060272
0.394745 0.294495 0.068054
0.413391 0.296326 0.070557
0.433624 0.298157 0.071777
0.451965 0.299103 0.078705
0.472015 0.300201 0.079834
0.493866 0.301056 0.082581
0.514343 0.299957 0.089752
0.535858 0.300018 0.102509
0.558228 0.299347 0.110443
0.575317 0.298157 0.118652
0.592102 0.296509 0.131195
0.613678 0.294952 0.141541
0.634003 0.294830 0.151764
0.651550 0.295898 0.160370
0.666779 0.295563 0.163086
0.681305 0.295776 0.164948
0.698700 0.295868 0.167053
0.716919 0.296509 0.167572
0.044891 0.243103 0.016083
0.079437 0.248749 0.015778
0.109222 0.252136 0.015839
0.131470 0.257111 0.016205
0.160034 0.263824 0.016205
0.182556 0.268158 0.015991
0.201385 0.272278 0.015778
0.220825 0.277832 0.015564
0.242218 0.283295 0.014862
0.266571 0.287140 0.014526
0.293182 0.291168 0.022369
0.319275 0.299561 0.034302
0.341583 0.304382 0.048859
0.361267 0.307709 0.052582
0.381836 0.311584 0.060303
0.403107 0.314331 0.064941
0.422638 0.316284 0.074127
0.443024 0.318390 0.076477
0.462585 0.320038 0.086731
0.482910 0.320251 0.088257
0.505341 0.320587 0.091217
0.526520 0.320374 0.101227
0.547455 0.319702 0.114136
0.568878 0.320251 0.121002
0.586212 0.318939 0.128693
0.605865 0.317810 0.135773
0.629150 0.316498 0.146606
0.645233 0.315826 0.155457
0.661743 0.316284 0.160126
0.677277 0.317505 0.163910
0.694366 0.318054 0.166016
0.716278 0.318481 0.167603
0.735779 0.318481 0.168640
0.050903 0.257721 0.016022
0.091583 0.260529 0.016113
0.116272 0.265289 0.016541
0.138672 0.271637 0.016327
0.170105 0.278442 0.015991
0.189209 0.282471 0.015808
0.205688 0.286255 0.015625
0.225983 0.292328 0.014801
0.247833 0.296814 0.014374
0.272827 0.304932 0.014648
0.303040 0.310120 0.023926
0.326080 0.316071 0.036896
0.347717 0.323547 0.048889
0.368256 0.328156 0.048950
0.389587 0.333344 0.058990
0.411041 0.337494 0.067505
0.431122 0.338440 0.079834
0.451355 0.340210 0.085175
0.472290 0.341248 0.092163
0.494110 0.341949 0.096832
0.516602 0.342255 0.102936
0.538513 0.342346 0.109314
0.559875 0.342163 0.119324
0.580353 0.342957 0.127136
0.598236 0.341553 0.136383
0.618073 0.340637 0.143036
0.638367 0.340637 0.148346
0.657074 0.341461 0.154633
0.674164 0.341553 0.159058
0.692719 0.341248 0.161774
0.713715 0.341858 0.162567
0.735901 0.342133 0.163361
0.750244 0.342133 0.164429
0.067596 0.269653 0.016479
0.100189 0.275299 0.016449
0.124817 0.281433 0.016357
0.154572 0.287170 0.016052
0.180176 0.292297 0.015808
0.194702 0.296661 0.015625
0.210358 0.298218 0.015503
0.233093 0.307709 0.014404
0.258667 0.313385 0.014160
0.279846 0.322296 0.014679
0.312378 0.329010 0.022339
0.335602 0.336426 0.030823
0.355865 0.344208 0.042694
0.376862 0.349426 0.051178
0.398682 0.354797 0.058350
0.420135 0.358521 0.069397
0.439484 0.359589 0.083099
0.463928 0.361969 0.092194
0.480988 0.361450 0.102081
0.504669 0.363007 0.103760
0.528809 0.364502 0.111206
0.551208 0.365082 0.118652
0.571777 0.364990 0.121979
0.589264 0.365143 0.129333
0.608612 0.364624 0.134277
0.628052 0.365112 0.135498
0.647339 0.366302 0.140381
0.665894 0.366486 0.144592
0.683655 0.366730 0.147522
0.707001 0.366547 0.155762
0.728882 0.366852 0.159607
0.746887 0.367096 0.161774
0.763336 0.366913 0.162872
0.078918 0.284393 0.016541
0.110840 0.291229 0.016388
0.142242 0.296356 0.016083
0.167725 0.302185 0.015808
0.186554 0.305389 0.015625
0.200470 0.309143 0.015472
0.216705 0.315826 0.015289
0.240387 0.323883 0.014374
0.266235 0.331940 0.013977
0.290588 0.341583 0.013763
0.320343 0.349457 0.017212
0.343292 0.357941 0.029968
0.363312 0.364685 0.045898
0.387268 0.369171 0.059021
0.408264 0.372742 0.063721
0.429840 0.375519 0.077087
0.449310 0.376068 0.089752
0.471771 0.377747 0.100372
0.492645 0.379822 0.103790
0.516907 0.381592 0.111237
0.539703 0.382812 0.120331
0.563385 0.384064 0.127777
0.581879 0.383911 0.128693
0.601166 0.383484 0.133972
0.621429 0.382446 0.140686
0.640076 0.383606 0.144562
0.658875 0.384705 0.148651
0.677338 0.385803 0.150421
0.702271 0.385864 0.157715
0.728729 0.385864 0.162079
0.747589 0.385590 0.167358
0.765991 0.385498 0.171783
0.778412 0.386017 0.174103
0.094360 0.298798 0.016449
0.130157 0.303680 0.016113
0.158264 0.308929 0.015839
0.177063 0.314606 0.015625
0.190216 0.320282 0.015472
0.204773 0.326080 0.015320
0.221283 0.333588 0.015106
0.247925 0.343445 0.014679
0.272369 0.351196 0.013794
0.300934 0.361328 0.013519
0.330292 0.369476 0.019470
0.351471 0.377258 0.032623
0.372345 0.381836 0.048981
0.395050 0.386566 0.068176
0.418976 0.390594 0.081512
0.437592 0.393311 0.085754
0.458069 0.394714 0.092682
0.478699 0.395966 0.101257
0.502136 0.399902 0.105438
0.528564 0.402374 0.116241
0.552826 0.403107 0.129639
0.572662 0.403259 0.133057
0.592041 0.404785 0.134888
0.613556 0.404236 0.142792
0.636017 0.402985 0.150665
0.654968 0.402985 0.159058
0.673889 0.402740 0.164459
0.697815 0.402832 0.168427
0.724091 0.402405 0.173035
0.749359 0.402069 0.179596
0.768616 0.401917 0.185059
0.782745 0.402832 0.185577
0.793579 0.403961 0.185120
0.117767 0.310974 0.016022
0.147156 0.316040 0.015869
0.168701 0.321472 0.015656
0.183197 0.330536 0.015320
0.194519 0.338898 0.014526
0.209656 0.344177 0.014526
0.229401 0.351349 0.014893
0.255280 0.361206 0.014618
0.281189 0.368469 0.013611
0.310486 0.379242 0.013580
0.337158 0.386200 0.021576
0.361176 0.395508 0.034424
0.382538 0.400848 0.052734
0.403015 0.406281 0.074799
0.427216 0.410309 0.086792
0.446960 0.413483 0.090790
0.465332 0.416504 0.092255
0.486053 0.420990 0.096008
0.511047 0.424866 0.106262
0.538422 0.427948 0.115540
0.564575 0.428558 0.130890
0.585083 0.427948 0.136444
0.605469 0.429077 0.143402
0.627106 0.429321 0.150391
0.646851 0.426483 0.158783
0.667480 0.426636 0.164490
0.689209 0.426544 0.170502
0.716675 0.425995 0.171265
0.740845 0.426453 0.173065
0.760803 0.427155 0.174866
0.780060 0.428406 0.176392
0.791473 0.429169 0.176941
0.803741 0.430176 0.176941
0.132141 0.323578 0.015778
0.159027 0.329010 0.015656
0.174561 0.337494 0.015198
0.187195 0.347565 0.014526
0.199432 0.355652 0.014282
0.213409 0.361450 0.014099
0.235535 0.366486 0.014709
0.262512 0.378357 0.014404
0.288818 0.385590 0.013458
0.320862 0.397430 0.017639
0.344482 0.405426 0.025696
0.367310 0.415497 0.037018
0.388123 0.424194 0.057037
0.409851 0.429718 0.075989
0.433014 0.433350 0.085785
0.455170 0.436829 0.092255
0.475372 0.440948 0.092285
0.494446 0.445801 0.092773
0.521545 0.448944 0.108582
0.549225 0.449951 0.120331
0.577393 0.452759 0.132751
0.597900 0.452454 0.138580
0.616241 0.451965 0.144897
0.637482 0.451752 0.154663
0.657013 0.451172 0.159637
0.677094 0.451172 0.162354
0.699768 0.451080 0.167938
0.730621 0.450073 0.168182
0.751556 0.450195 0.167938
0.773468 0.451019 0.168732
0.784760 0.453033 0.167969
0.797699 0.454498 0.167206
0.810669 0.456726 0.165924
0.145477 0.337677 0.015564
0.166290 0.345825 0.015076
0.179108 0.355225 0.014526
0.192230 0.364807 0.014252
0.203979 0.370697 0.014984
0.220825 0.375977 0.013947
0.246277 0.384216 0.013947
0.273254 0.394287 0.013580
0.299164 0.405304 0.014374
0.328827 0.416840 0.020813
0.351288 0.427429 0.032654
0.372345 0.437286 0.039581
0.394714 0.445099 0.054962
0.416443 0.451111 0.068878
0.440430 0.455566 0.081604
0.461487 0.458252 0.091309
0.483032 0.462128 0.098694
0.505463 0.466614 0.101318
0.531769 0.470062 0.117981
0.560089 0.470581 0.127136
0.587189 0.474121 0.133667
0.607849 0.474640 0.141022
0.626312 0.474091 0.146667
0.648163 0.473358 0.153290
0.667633 0.475433 0.157471
0.687866 0.475586 0.160217
0.714569 0.474030 0.162384
0.742218 0.472168 0.165314
0.765350 0.472382 0.165863
0.779266 0.472748 0.165894
0.790131 0.474243 0.165894
0.802887 0.475922 0.165924
0.814697 0.476685 0.165955
0.155151 0.353455 0.014984
0.170868 0.362579 0.014404
0.184753 0.370148 0.014313
0.196655 0.378448 0.014984
0.210754 0.386200 0.014893
0.227081 0.393158 0.013763
0.254150 0.402435 0.013519
0.282349 0.412842 0.013306
0.307922 0.424500 0.018768
0.336182 0.437744 0.025696
0.357788 0.449371 0.042023
0.377472 0.458832 0.047577
0.399750 0.465271 0.057098
0.424255 0.471039 0.069519
0.449707 0.474335 0.083771
0.469391 0.478394 0.094635
0.492432 0.483154 0.105835
0.516998 0.488770 0.111603
0.543274 0.492401 0.125854
0.571930 0.494293 0.132111
0.595459 0.495239 0.134918
0.615234 0.496918 0.142242
0.636261 0.496765 0.148132
0.658417 0.496033 0.154419
0.676453 0.496460 0.158325
0.699371 0.495453 0.161041
0.728516 0.494690 0.161591
0.755096 0.494354 0.164001
0.775177 0.494934 0.166931
0.786011 0.495636 0.167755
0.797913 0.496887 0.168030
0.812256 0.498749 0.168579
0.825104 0.499481 0.168884
0.161377 0.369385 0.014435
0.177124 0.376526 0.014404
0.189301 0.384125 0.015472
0.203064 0.393585 0.014893
0.217926 0.404175 0.014771
0.238251 0.410858 0.013580
0.261261 0.420898 0.013458
0.291321 0.432434 0.014252
0.317413 0.446106 0.020081
0.343201 0.458130 0.033569
0.364105 0.468933 0.051300
0.385620 0.478851 0.055695
0.408844 0.485016 0.059204
0.434326 0.490997 0.074341
0.457611 0.495392 0.089874
0.477997 0.500549 0.103394
0.503632 0.505707 0.113434
0.529144 0.509949 0.124268
0.556854 0.513123 0.132446
0.582214 0.515045 0.136749
0.603729 0.515656 0.138306
0.622772 0.518494 0.144043
0.645020 0.518433 0.149323
0.667664 0.517242 0.156097
0.687195 0.516907 0.159424
0.713226 0.515503 0.162140
0.741943 0.512909 0.164795
0.763855 0.512787 0.168762
0.780640 0.514435 0.170074
0.794586 0.517273 0.170105
0.807312 0.519348 0.170135
0.821198 0.521667 0.170166
0.835693 0.522369 0.170197
0.167603 0.382446 0.014526
0.181580 0.390869 0.015717
0.195343 0.401276 0.017426
0.210052 0.410309 0.014771
0.228241 0.420074 0.014648
0.245392 0.427216 0.013397
0.268372 0.439056 0.013489
0.298279 0.454987 0.016510
0.323334 0.465759 0.024841
0.350739 0.478973 0.042053
0.372131 0.488770 0.055664
0.394348 0.497375 0.060547
0.417145 0.506500 0.067078
0.443481 0.511780 0.084839
0.466309 0.515106 0.096954
0.490082 0.520844 0.109741
0.514313 0.527405 0.120331
0.540985 0.531982 0.131531
0.569641 0.536530 0.137665
0.590790 0.537231 0.139221
0.611908 0.540039 0.139221
0.631989 0.541260 0.145538
0.656006 0.539062 0.151337
0.675262 0.539459 0.156982
0.699158 0.539551 0.160553
0.727448 0.538971 0.163483
0.754456 0.536530 0.167206
0.778229 0.536163 0.170105
0.789703 0.538666 0.170135
0.804077 0.541779 0.170135
0.816376 0.543732 0.170441
0.831085 0.545868 0.170746
0.848419 0.546631 0.171021
0.172852 0.396912 0.015747
0.187500 0.407745 0.018433
0.202362 0.418335 0.022369
0.220215 0.425873 0.014648
0.236542 0.436707 0.014526
0.252808 0.444397 0.013306
0.274475 0.458588 0.013458
0.306671 0.475037 0.020081
0.329529 0.485687 0.031830
0.357178 0.498322 0.051331
0.380463 0.509918 0.057129
0.404114 0.517487 0.060577
0.428467 0.526520 0.073792
0.453827 0.531921 0.086914
0.477173 0.537262 0.098755
0.502197 0.543304 0.113068
0.524292 0.549011 0.128723
0.552155 0.553925 0.132477
0.577759 0.559631 0.139221
0.599579 0.560883 0.139832
0.619995 0.564117 0.142273
0.640900 0.564178 0.147003
0.664948 0.563416 0.153351
0.686279 0.564423 0.157806
0.710846 0.562439 0.161102
0.743103 0.562683 0.164856
0.767242 0.561676 0.168549
0.787506 0.560852 0.171173
0.801514 0.562897 0.172485
0.814545 0.566040 0.173279
0.828033 0.568085 0.173553
0.846252 0.570099 0.174103
0.858307 0.571106 0.174164
0.179657 0.413910 0.017914
0.194580 0.424866 0.023132
0.212433 0.434357 0.016846
0.228363 0.444275 0.014526
0.244812 0.454865 0.014404
0.259338 0.466644 0.014038
0.281738 0.478516 0.016052
0.314270 0.494019 0.028320
0.337372 0.504913 0.040436
0.364868 0.520355 0.054291
0.388428 0.530457 0.060577
0.411987 0.539215 0.067139
0.440002 0.547943 0.076172
0.463745 0.551819 0.088959
0.486786 0.558685 0.104675
0.510895 0.565369 0.116272
0.533508 0.571594 0.133087
0.564026 0.577240 0.134949
0.586029 0.582245 0.139252
0.607056 0.585632 0.141663
0.629059 0.587219 0.147034
