Kodak Vision2 500T (5218) - Only contrast.cube
# Created by Benjamin (IWLTBAP) : http://luts.iwltbap.com
# Copyright: (C) Copyright 2010-2017 Triune Films and IWLTBAP SAS
# Cannot be resold, shared or otherwise redistributed
TITLE "Film Print Emulation LUTs Pack (Rec.709, sRGB, DCI-P3)"
LUT_3D_SIZE 5
0.001831 0.001831 0.001831
0.177338 0.001770 0.001770
0.430420 0.001160 0.001160
0.721313 0.000305 0.000305
0.981628 0.000000 0.000000
0.001770 0.177338 0.001770
0.177704 0.177704 0.001709
0.431061 0.177521 0.001099
0.722107 0.177094 0.000244
0.981720 0.176910 0.000000
0.001160 0.430420 0.001160
0.177521 0.431061 0.001099
0.431122 0.431122 0.000519
0.722382 0.430969 0.000000
0.981293 0.431000 0.000000
0.000305 0.721313 0.000305
0.177094 0.722107 0.000244
0.430969 0.722382 0.000000
0.722382 0.722382 0.000000
0.980591 0.722595 0.000000
0.000000 0.981628 0.000000
0.176910 0.981720 0.000000
0.431000 0.981293 0.000000
0.722595 0.980591 0.000000
0.980164 0.980042 0.012024
0.001770 0.001770 0.177338
0.177704 0.001709 0.177704
0.431061 0.001099 0.177521
0.722107 0.000244 0.177094
0.981720 0.000000 0.176910
0.001709 0.177704 0.177704
0.178070 0.178070 0.178070
0.431671 0.177887 0.177887
0.722900 0.177460 0.177460
0.981812 0.177246 0.177246
0.001099 0.431061 0.177521
0.177887 0.431671 0.177887
0.431732 0.431732 0.177704
0.723145 0.431580 0.177277
0.981384 0.431610 0.177094
0.000244 0.722107 0.177094
0.177460 0.722900 0.177460
0.431580 0.723145 0.177277
0.723145 0.723145 0.176849
0.980682 0.723389 0.176666
0.000000 0.981720 0.176910
0.177246 0.981812 0.177246
0.431610 0.981384 0.177094
0.723389 0.980682 0.176666
0.980225 0.980225 0.176483
0.001160 0.001160 0.430420
0.177521 0.001099 0.431061
0.431122 0.000519 0.431122
0.722382 0.000000 0.430969
0.981293 0.000000 0.431000
0.001099 0.177521 0.431061
0.177887 0.177887 0.431671
0.431732 0.177704 0.431732
0.723145 0.177277 0.431580
0.981384 0.177094 0.431610
0.000519 0.431122 0.431122
0.177704 0.431732 0.431732
0.431824 0.431824 0.431824
0.723419 0.431641 0.431641
0.980927 0.431702 0.431702
0.000000 0.722382 0.430969
0.177277 0.723145 0.431580
0.431641 0.723419 0.431641
0.723389 0.723389 0.431458
0.980225 0.723633 0.431519
0.000000 0.981293 0.431000
0.177094 0.981384 0.431610
0.431702 0.980927 0.431702
0.723633 0.980225 0.431519
0.979797 0.979797 0.431610
0.000305 0.000305 0.721313
0.177094 0.000244 0.722107
0.430969 0.000000 0.722382
0.722382 0.000000 0.722382
0.980591 0.000000 0.722595
0.000244 0.177094 0.722107
0.177460 0.177460 0.722900
0.431580 0.177277 0.723145
0.723145 0.176849 0.723145
0.980682 0.176666 0.723389
0.000000 0.430969 0.722382
0.177277 0.431580 0.723145
0.431641 0.431641 0.723419
0.723389 0.431458 0.723389
0.980225 0.431519 0.723633
0.000000 0.722382 0.722382
0.176849 0.723145 0.723145
0.431458 0.723389 0.723389
0.723389 0.723389 0.723389
0.979553 0.723602 0.723602
0.000000 0.980591 0.722595
0.176666 0.980682 0.723389
0.431519 0.980225 0.723633
0.723602 0.979553 0.723602
0.979095 0.979095 0.723846
0.000000 0.000000 0.981567
0.176910 0.000000 0.981720
0.431000 0.000000 0.981293
0.722595 0.000000 0.980591
0.980133 0.000000 0.980133
0.000000 0.176910 0.981720
0.177246 0.177246 0.981812
0.431610 0.177094 0.981384
0.723389 0.176666 0.980682
0.980225 0.176483 0.980225
0.000000 0.431000 0.981293
0.177094 0.431610 0.981384
0.431702 0.431702 0.980927
0.723633 0.431519 0.980225
0.979797 0.431610 0.979797
0.000000 0.722595 0.980591
0.176666 0.723389 0.980682
0.431519 0.723633 0.980225
0.723602 0.723602 0.979553
0.979095 0.723846 0.979095
0.000000 0.980133 0.980133
0.176483 0.980225 0.980225
0.431610 0.979797 0.979797
0.723846 0.979095 0.979095
0.978668 0.978668 0.978668
