Kodak Eastman Color Negative 50T (5251) - Only color.cube
# Created by Benjamin (IWLTBAP) : http://luts.iwltbap.com
# Copyright: (C) Copyright 2010-2017 Triune Films and IWLTBAP SAS
# Cannot be resold, shared or otherwise redistributed
TITLE "Film Print Emulation LUTs Pack (Rec.709, sRGB, DCI-P3)"
LUT_3D_SIZE 9
0.000000 0.000000 0.000000
0.119171 0.000122 0.000092
0.256805 0.000153 0.000061
0.407440 0.000092 0.000000
0.548981 0.000061 0.000000
0.678833 0.000122 0.000000
0.797668 0.000275 0.000000
0.900085 0.000549 0.000183
1.000000 0.000793 0.000397
0.000000 0.127350 0.000031
0.119202 0.127350 0.000122
0.256958 0.127228 0.000092
0.407593 0.127014 0.000000
0.549011 0.126862 0.000000
0.678833 0.126831 0.000000
0.797546 0.126831 0.000000
0.899933 0.126953 0.000214
1.000000 0.127075 0.000427
0.000000 0.252167 0.000092
0.119232 0.252197 0.000153
0.257111 0.252136 0.000153
0.407745 0.251953 0.000031
0.549072 0.251831 0.000000
0.678864 0.251831 0.000000
0.797455 0.251862 0.000061
0.899780 0.252014 0.000275
1.000000 0.252167 0.000488
0.000000 0.378082 0.000122
0.119263 0.378113 0.000214
0.257263 0.378052 0.000183
0.407898 0.377869 0.000061
0.549103 0.377777 0.000000
0.678864 0.377747 0.000031
0.797302 0.377808 0.000122
0.899597 0.377991 0.000336
1.000000 0.378143 0.000519
0.000000 0.507568 0.000153
0.119263 0.507660 0.000244
0.257385 0.507599 0.000214
0.408051 0.507446 0.000092
0.549133 0.507385 0.000031
0.678833 0.507385 0.000031
0.797180 0.507477 0.000122
0.899414 0.507660 0.000366
1.000000 0.507843 0.000549
0.000000 0.631897 0.000214
0.119324 0.631897 0.000305
0.257568 0.631775 0.000275
0.408203 0.631561 0.000153
0.549194 0.631409 0.000061
0.678864 0.631348 0.000092
0.797058 0.631348 0.000183
0.899261 0.631470 0.000397
1.000000 0.631592 0.000610
0.000000 0.753571 0.000305
0.119385 0.753601 0.000366
0.257751 0.753510 0.000336
0.408386 0.753326 0.000214
0.549255 0.753204 0.000153
0.678925 0.753143 0.000183
0.796967 0.753174 0.000275
0.899109 0.753326 0.000488
1.000000 0.753479 0.000671
0.000000 0.879059 0.000366
0.119415 0.879089 0.000427
0.257904 0.879028 0.000397
0.408569 0.878845 0.000275
0.549316 0.878754 0.000214
0.678925 0.878723 0.000214
0.796844 0.878784 0.000305
0.898956 0.878967 0.000519
1.000000 0.879120 0.000702
0.000000 1.000000 0.000397
0.119446 1.000000 0.000488
0.258087 1.000000 0.000458
0.408722 1.000000 0.000336
0.549377 1.000000 0.000275
0.678955 1.000000 0.000275
0.796722 1.000000 0.000366
0.898804 1.000000 0.000549
1.000000 1.000000 0.023895
0.000000 0.000061 0.128448
0.119202 0.000214 0.128448
0.256927 0.000214 0.128357
0.407562 0.000153 0.128174
0.549011 0.000153 0.128021
0.678833 0.000214 0.127991
0.797546 0.000366 0.127991
0.899902 0.000641 0.128143
1.000000 0.000885 0.128265
0.000000 0.127289 0.128418
0.119202 0.127289 0.128418
0.257080 0.127167 0.128326
0.407715 0.126953 0.128143
0.549042 0.126831 0.127991
0.678833 0.126770 0.127960
0.797424 0.126801 0.127960
0.899750 0.126923 0.128113
1.000000 0.127045 0.128235
0.000000 0.252136 0.128387
0.119263 0.252197 0.128418
0.257233 0.252106 0.128296
0.407898 0.251923 0.128113
0.549103 0.251831 0.127991
0.678833 0.251801 0.127930
0.797302 0.251862 0.127960
0.899597 0.252014 0.128082
1.000000 0.252167 0.128204
0.000000 0.378052 0.128357
0.119293 0.378113 0.128387
0.257416 0.378021 0.128296
0.408051 0.377869 0.128082
0.549133 0.377777 0.127960
0.678864 0.377747 0.127899
0.797180 0.377808 0.127930
0.899414 0.377991 0.128082
1.000000 0.378143 0.128204
0.000000 0.507599 0.128326
0.119293 0.507660 0.128326
0.257538 0.507629 0.128235
0.408173 0.507477 0.128021
0.549164 0.507416 0.127899
0.678833 0.507416 0.127869
0.797028 0.507507 0.127869
0.899231 0.507690 0.128021
1.000000 0.507874 0.128143
0.000000 0.631836 0.128326
0.119324 0.631836 0.128326
0.257690 0.631714 0.128204
0.408356 0.631500 0.128021
0.549225 0.631348 0.127899
0.678864 0.631287 0.127838
0.796936 0.631317 0.127869
0.899078 0.631439 0.127991
1.000000 0.631531 0.128113
0.000000 0.753540 0.128326
0.119385 0.753571 0.128326
0.257904 0.753479 0.128235
0.408539 0.753296 0.128021
0.549316 0.753174 0.127899
0.678925 0.753113 0.127838
0.796814 0.753143 0.127869
0.898926 0.753296 0.127991
1.000000 0.753448 0.128113
0.000000 0.879059 0.128296
0.119415 0.879089 0.128296
0.258057 0.878998 0.128204
0.408691 0.878845 0.127991
0.549347 0.878754 0.127869
0.678925 0.878723 0.127808
0.796692 0.878784 0.127838
0.898773 0.878967 0.127991
1.000000 0.879120 0.128082
0.000000 1.000000 0.128296
0.119476 1.000000 0.128296
0.258240 1.000000 0.128174
0.408875 1.000000 0.127991
0.549408 1.000000 0.127869
0.678955 1.000000 0.127808
0.796600 1.000000 0.127838
0.898621 1.000000 0.127960
1.000000 1.000000 0.128082
0.000000 0.000244 0.241241
0.119324 0.000397 0.241119
0.257172 0.000427 0.240845
0.407837 0.000336 0.240509
0.549164 0.000336 0.240234
0.678925 0.000427 0.240021
0.797516 0.000580 0.239899
0.899841 0.000824 0.239868
1.000000 0.001068 0.239868
0.000000 0.127350 0.241058
0.119324 0.127350 0.240936
0.257324 0.127228 0.240662
0.407990 0.127014 0.240326
0.549194 0.126892 0.240051
0.678925 0.126831 0.239838
0.797394 0.126862 0.239716
0.899689 0.126984 0.239716
1.000000 0.127136 0.239685
0.000000 0.252258 0.240906
0.119385 0.252289 0.240753
0.257507 0.252197 0.240509
0.408142 0.252014 0.240143
0.549255 0.251923 0.239868
0.678955 0.251892 0.239685
0.797272 0.251953 0.239563
0.899506 0.252106 0.239532
1.000000 0.252258 0.239502
0.000000 0.378174 0.240723
0.119415 0.378204 0.240570
0.257660 0.378143 0.240326
0.408295 0.377960 0.239990
0.549286 0.377869 0.239685
0.678955 0.377869 0.239502
0.797150 0.377930 0.239380
0.899353 0.378082 0.239349
1.000000 0.378235 0.239349
0.000000 0.507721 0.240509
0.119415 0.507782 0.240387
0.257782 0.507751 0.240112
0.408447 0.507599 0.239777
0.549316 0.507538 0.239502
0.678955 0.507538 0.239288
0.796997 0.507629 0.239166
0.899170 0.507812 0.239166
1.000000 0.507996 0.239136
0.000000 0.631897 0.240356
0.119476 0.631897 0.240234
0.257965 0.631775 0.239960
0.408600 0.631561 0.239624
0.549377 0.631409 0.239349
0.678986 0.631348 0.239136
0.796906 0.631378 0.239014
0.899017 0.631500 0.239014
1.000000 0.631592 0.238983
0.000000 0.753632 0.240204
0.119537 0.753662 0.240082
0.258148 0.753540 0.239807
0.408813 0.753357 0.239471
0.549438 0.753235 0.239197
0.679016 0.753204 0.238983
0.796814 0.753235 0.238861
0.898865 0.753387 0.238861
1.000000 0.753540 0.238831
0.000000 0.879150 0.240051
0.119568 0.879181 0.239899
0.258301 0.879120 0.239624
0.408966 0.878967 0.239288
0.549500 0.878845 0.239014
0.679047 0.878845 0.238800
0.796692 0.878906 0.238678
0.898712 0.879089 0.238678
1.000000 0.879242 0.238647
0.000000 1.000000 0.239868
0.119598 1.000000 0.239746
0.258484 1.000000 0.239471
0.409119 1.000000 0.239136
0.549561 1.000000 0.238861
0.679077 1.000000 0.238647
0.796570 1.000000 0.238525
0.898560 1.000000 0.238525
1.000000 1.000000 0.238495
0.000000 0.000549 0.339569
0.119537 0.000702 0.339447
0.257538 0.000702 0.339172
0.408173 0.000641 0.338806
0.549377 0.000641 0.338531
0.679138 0.000702 0.338318
0.797577 0.000854 0.338196
0.899872 0.001129 0.338165
1.000000 0.001373 0.338135
0.000000 0.127502 0.339386
0.119568 0.127502 0.339233
0.257690 0.127380 0.338989
0.408325 0.127197 0.338623
0.549438 0.127045 0.338348
0.679138 0.126984 0.338135
0.797455 0.127014 0.338013
0.899689 0.127167 0.337982
1.000000 0.127289 0.337952
0.000000 0.252441 0.339203
0.119598 0.252472 0.339081
0.257843 0.252380 0.338806
0.408508 0.252228 0.338440
0.549469 0.252106 0.338165
0.679169 0.252075 0.337952
0.797333 0.252136 0.337830
0.899536 0.252289 0.337799
1.000000 0.252441 0.337769
0.000000 0.378357 0.339020
0.119629 0.378418 0.338898
0.257996 0.378326 0.338623
0.408661 0.378174 0.338257
0.549530 0.378082 0.337982
0.679169 0.378052 0.337769
0.797211 0.378113 0.337646
0.899384 0.378296 0.337616
1.000000 0.378448 0.337585
0.000000 0.507935 0.338837
0.119629 0.508026 0.338684
0.258148 0.507965 0.338409
0.408783 0.507812 0.338043
0.549561 0.507751 0.337769
0.679169 0.507751 0.337555
0.797058 0.507843 0.337433
0.899200 0.508057 0.337433
1.000000 0.508209 0.337402
0.000000 0.632050 0.338654
0.119690 0.632050 0.338501
0.258301 0.631927 0.338226
0.408966 0.631714 0.337891
0.549622 0.631561 0.337616
0.679199 0.631500 0.337402
0.796967 0.631531 0.337280
0.899048 0.631653 0.337250
1.000000 0.631744 0.337219
0.000000 0.753815 0.338501
0.119751 0.753815 0.338348
0.258514 0.753723 0.338074
0.409149 0.753540 0.337738
0.549683 0.753418 0.337463
0.679230 0.753387 0.337250
0.796875 0.753418 0.337128
0.898895 0.753571 0.337097
1.000000 0.753723 0.337097
0.000000 0.879364 0.338318
0.119781 0.879395 0.338165
0.258667 0.879303 0.337891
0.409302 0.879150 0.337555
0.549744 0.879059 0.337280
0.679230 0.879028 0.337067
0.796753 0.879120 0.336945
0.898743 0.879272 0.336945
1.000000 0.879425 0.336914
0.000000 1.000000 0.338165
0.119843 1.000000 0.338013
0.258850 1.000000 0.337738
0.409485 1.000000 0.337402
0.549805 1.000000 0.337097
0.679260 1.000000 0.336914
0.796631 1.000000 0.336792
0.898590 1.000000 0.336761
1.000000 1.000000 0.336761
0.000000 0.000793 0.443573
0.119720 0.000946 0.443512
0.257843 0.000977 0.443329
0.408478 0.000916 0.443054
0.549591 0.000885 0.442841
0.679291 0.000946 0.442719
0.797607 0.001099 0.442688
0.899841 0.001373 0.442749
1.000000 0.001617 0.442780
0.000000 0.127625 0.443481
0.119751 0.127625 0.443420
0.257996 0.127502 0.443237
0.408630 0.127289 0.442963
0.549622 0.127167 0.442749
0.679291 0.127106 0.442627
0.797485 0.127136 0.442566
0.899689 0.127289 0.442657
1.000000 0.127411 0.442688
0.000000 0.252594 0.443390
0.119781 0.252625 0.443329
0.258148 0.252533 0.443146
0.408813 0.252350 0.442871
0.549683 0.252258 0.442657
0.679321 0.252228 0.442535
0.797363 0.252289 0.442474
0.899536 0.252441 0.442566
1.000000 0.252594 0.442596
0.000000 0.378510 0.443268
0.119812 0.378571 0.443207
0.258301 0.378479 0.443024
0.408966 0.378326 0.442749
0.549713 0.378235 0.442566
0.679321 0.378204 0.442444
0.797241 0.378265 0.442383
0.899353 0.378448 0.442444
1.000000 0.378601 0.442505
0.000000 0.508118 0.443146
0.119812 0.508209 0.443085
0.258453 0.508148 0.442902
0.409088 0.507996 0.442627
0.549744 0.507935 0.442444
0.679321 0.507935 0.442322
0.797089 0.508026 0.442261
0.899170 0.508209 0.442322
1.000000 0.508392 0.442383
0.000000 0.632172 0.443054
0.119873 0.632172 0.442993
0.258606 0.632019 0.442810
0.409271 0.631805 0.442535
0.549805 0.631683 0.442352
0.679352 0.631622 0.442230
0.796997 0.631622 0.442200
0.899017 0.631744 0.442230
1.000000 0.631866 0.442322
0.000000 0.753937 0.442993
0.119934 0.753967 0.442932
0.258820 0.753845 0.442749
0.409454 0.753662 0.442474
0.549866 0.753540 0.442291
0.679382 0.753510 0.442169
0.796875 0.753540 0.442108
0.898895 0.753693 0.442200
1.000000 0.753845 0.442230
0.000000 0.879517 0.442902
0.119965 0.879547 0.442841
0.258972 0.879456 0.442657
0.409607 0.879303 0.442383
0.549927 0.879211 0.442200
0.679382 0.879181 0.442078
0.796753 0.879242 0.442017
0.898712 0.879425 0.442078
1.000000 0.879578 0.442139
0.000000 1.000000 0.442810
0.120026 1.000000 0.442749
0.259155 1.000000 0.442566
0.409790 1.000000 0.442291
0.549988 1.000000 0.442108
0.679413 1.000000 0.441986
0.796661 1.000000 0.441956
0.898590 1.000000 0.442017
1.000000 1.000000 0.442078
0.000000 0.000946 0.564423
0.119781 0.001099 0.564453
0.258026 0.001099 0.564392
0.408661 0.001038 0.564240
0.549652 0.001038 0.564117
0.679321 0.001099 0.564117
0.797516 0.001251 0.564178
0.899719 0.001495 0.564362
1.000000 0.001740 0.564514
0.000000 0.127625 0.564423
0.119812 0.127625 0.564484
0.258179 0.127502 0.564392
0.408813 0.127319 0.564240
0.549713 0.127167 0.564148
0.679352 0.127136 0.564117
0.797394 0.127167 0.564178
0.899536 0.127289 0.564362
1.000000 0.127411 0.564514
0.000000 0.252625 0.564453
0.119843 0.252655 0.564484
0.258331 0.252563 0.564423
0.408997 0.252380 0.564240
0.549744 0.252289 0.564148
0.679352 0.252258 0.564148
0.797272 0.252319 0.564209
0.899384 0.252472 0.564392
1.000000 0.252625 0.564545
0.000000 0.378571 0.564453
0.119873 0.378601 0.564484
0.258514 0.378510 0.564423
0.409149 0.378357 0.564240
0.549805 0.378265 0.564148
0.679382 0.378235 0.564148
0.797150 0.378296 0.564209
0.899231 0.378479 0.564392
1.000000 0.378632 0.564545
0.000000 0.508209 0.564423
0.119873 0.508270 0.564484
0.258636 0.508209 0.564392
0.409271 0.508057 0.564240
0.549805 0.507996 0.564148
0.679352 0.507996 0.564117
0.796997 0.508087 0.564209
0.899017 0.508270 0.564362
1.000000 0.508453 0.564545
0.000000 0.632141 0.564453
0.119934 0.632141 0.564514
0.258820 0.632019 0.564423
0.409454 0.631805 0.564270
0.549866 0.631653 0.564178
0.679382 0.631592 0.564148
0.796875 0.631622 0.564240
0.898865 0.631744 0.564392
1.000000 0.631836 0.564575
0.000000 0.753967 0.564484
0.119995 0.753967 0.564545
0.259003 0.753876 0.564453
0.409637 0.753662 0.564301
0.549957 0.753571 0.564209
0.679413 0.753510 0.564209
0.796783 0.753571 0.564270
0.898743 0.753723 0.564453
1.000000 0.753845 0.564606
0.000000 0.879547 0.564514
0.120026 0.879578 0.564545
0.259155 0.879486 0.564484
0.409790 0.879333 0.564301
0.549988 0.879242 0.564209
0.679413 0.879211 0.564209
0.796661 0.879303 0.564270
0.898590 0.879456 0.564453
1.000000 0.879608 0.564636
0.000000 1.000000 0.564545
0.120087 1.000000 0.564575
0.259338 1.000000 0.564484
0.409973 1.000000 0.564331
0.550049 1.000000 0.564240
0.679443 1.000000 0.564240
0.796539 1.000000 0.564331
0.898438 1.000000 0.564484
1.000000 1.000000 0.564667
0.000000 0.001007 0.698730
0.119751 0.001129 0.698883
0.258118 0.001129 0.698914
0.408783 0.001068 0.698883
0.549652 0.001068 0.698883
0.679291 0.001129 0.699005
0.797333 0.001282 0.699158
0.899475 0.001526 0.699463
1.000000 0.001770 0.699738
0.000000 0.127533 0.698853
0.119781 0.127533 0.699005
0.258270 0.127411 0.699036
0.408936 0.127228 0.699005
0.549683 0.127075 0.699005
0.679291 0.127045 0.699127
0.797211 0.127075 0.699310
0.899323 0.127197 0.699585
1.000000 0.127319 0.699860
0.000000 0.252563 0.698975
0.119812 0.252594 0.699127
0.258453 0.252502 0.699158
0.409088 0.252319 0.699127
0.549744 0.252228 0.699158
0.679321 0.252197 0.699249
0.797089 0.252258 0.699432
0.899139 0.252411 0.699738
1.000000 0.252563 0.700012
0.000000 0.378510 0.699097
0.119843 0.378540 0.699249
0.258606 0.378448 0.699280
0.409241 0.378296 0.699249
0.549774 0.378204 0.699280
0.679321 0.378174 0.699371
0.796967 0.378235 0.699554
0.898987 0.378418 0.699860
1.000000 0.378571 0.700134
0.000000 0.508179 0.699188
0.119843 0.508240 0.699341
0.258728 0.508179 0.699402
0.409363 0.508026 0.699341
0.549805 0.507965 0.699371
0.679291 0.507965 0.699463
0.796814 0.508057 0.699677
0.898804 0.508240 0.699951
1.000000 0.508423 0.700226
0.000000 0.632050 0.699341
0.119904 0.632050 0.699493
0.258911 0.631897 0.699524
0.409546 0.631683 0.699493
0.549866 0.631561 0.699524
0.679321 0.631500 0.699615
0.796692 0.631500 0.699799
0.898651 0.631622 0.700104
1.000000 0.631744 0.700378
0.000000 0.753876 0.699493
0.119965 0.753876 0.699646
0.259094 0.753784 0.699677
0.409729 0.753601 0.699646
0.549927 0.753479 0.699677
0.679352 0.753448 0.699768
0.796600 0.753479 0.699982
0.898499 0.753632 0.700256
1.000000 0.753754 0.700562
0.000000 0.879486 0.699615
0.119995 0.879517 0.699768
0.259247 0.879425 0.699829
0.409882 0.879272 0.699768
0.549988 0.879181 0.699799
0.679382 0.879150 0.699921
0.796448 0.879242 0.700104
0.898346 0.879395 0.700409
1.000000 0.879547 0.700684
0.000000 1.000000 0.699768
0.120056 1.000000 0.699921
0.259430 1.000000 0.699951
0.410065 1.000000 0.699921
0.550049 1.000000 0.699951
0.679413 1.000000 0.700073
0.796356 1.000000 0.700256
0.898224 1.000000 0.700562
1.000000 1.000000 0.700836
0.000000 0.000946 0.845978
0.119629 0.001068 0.846130
0.258118 0.001099 0.846191
0.408783 0.001007 0.846161
0.549530 0.001007 0.846191
0.679138 0.001068 0.846313
0.797058 0.001221 0.846527
0.899170 0.001465 0.846802
1.000000 0.001709 0.847107
0.000000 0.127350 0.846100
0.119659 0.127350 0.846283
0.258301 0.127228 0.846344
0.408936 0.127045 0.846313
0.549591 0.126923 0.846344
0.679169 0.126862 0.846466
0.796936 0.126892 0.846649
0.898987 0.127045 0.846954
1.000000 0.127167 0.847260
0.000000 0.252411 0.846252
0.119690 0.252441 0.846436
0.258453 0.252350 0.846497
0.409088 0.252167 0.846466
0.549622 0.252075 0.846497
0.679169 0.252045 0.846619
0.796814 0.252106 0.846802
0.898834 0.252258 0.847107
1.000000 0.252411 0.847382
0.000000 0.378357 0.846405
0.119720 0.378418 0.846558
0.258606 0.378326 0.846619
0.409241 0.378143 0.846588
0.549683 0.378052 0.846619
0.679169 0.378052 0.846741
0.796692 0.378113 0.846924
0.898682 0.378265 0.847229
1.000000 0.378418 0.847534
0.000000 0.508057 0.846497
0.119751 0.508118 0.846680
0.258759 0.508057 0.846741
0.409393 0.507904 0.846710
0.549683 0.507843 0.846741
0.679169 0.507843 0.846863
0.796539 0.507935 0.847046
0.898499 0.508118 0.847351
1.000000 0.508301 0.847626
0.000000 0.631866 0.846680
0.119781 0.631836 0.846832
0.258911 0.631714 0.846893
0.409546 0.631500 0.846863
0.549744 0.631378 0.846893
0.679199 0.631287 0.847015
0.796417 0.631317 0.847198
0.898346 0.631439 0.847504
1.000000 0.631561 0.847778
0.000000 0.753723 0.846832
0.119843 0.753723 0.847015
0.259125 0.753601 0.847046
0.409729 0.753418 0.847015
0.549835 0.753326 0.847046
0.679230 0.753265 0.847168
0.796295 0.753326 0.847351
0.898193 0.753479 0.847656
1.000000 0.753601 0.847961
0.000000 0.879333 0.846985
0.119873 0.879395 0.847137
0.259277 0.879303 0.847198
0.409882 0.879120 0.847168
0.549866 0.879028 0.847198
0.679230 0.879028 0.847321
0.796173 0.879089 0.847504
0.898041 0.879242 0.847809
1.000000 0.879425 0.848083
0.000000 1.000000 0.847137
0.119934 1.000000 0.847290
0.259460 1.000000 0.847351
0.410065 1.000000 0.847321
0.549927 1.000000 0.847351
0.679260 1.000000 0.847473
0.796082 1.000000 0.847656
0.897919 1.000000 0.847961
1.000000 1.000000 0.848267
0.000000 0.000885 0.993713
0.119507 0.001038 0.994202
0.258148 0.001038 0.994415
0.408783 0.000946 0.994537
0.549438 0.000946 0.994720
0.678986 0.001007 0.994965
0.796783 0.001129 0.995300
0.898834 0.001373 0.995697
1.000000 0.001617 0.996094
0.000000 0.127167 0.994141
0.119537 0.127167 0.994476
0.258301 0.127045 0.994690
0.408936 0.126862 0.994812
0.549469 0.126740 0.994995
0.679016 0.126678 0.995239
0.796631 0.126709 0.995544
0.898682 0.126862 0.995941
1.000000 0.126984 0.996307
0.000000 0.252258 0.994476
0.119568 0.252289 0.994781
0.258453 0.252197 0.994995
0.409088 0.252014 0.995087
0.549530 0.251923 0.995270
0.679016 0.251892 0.995483
0.796509 0.251953 0.995789
0.898529 0.252106 0.996155
1.000000 0.252258 0.996521
0.000000 0.378204 0.994751
0.119598 0.378265 0.995087
0.258606 0.378174 0.995270
0.409241 0.377991 0.995361
0.549561 0.377899 0.995514
0.679016 0.377899 0.995728
0.796387 0.377960 0.996002
0.898346 0.378113 0.996368
1.000000 0.378265 0.996704
0.000000 0.507935 0.995026
0.119629 0.507996 0.995331
0.258759 0.507935 0.995514
0.409363 0.507782 0.995575
0.549591 0.507690 0.995728
0.679016 0.507690 0.995911
0.796234 0.507782 0.996155
0.898163 0.507965 0.996521
1.000000 0.508148 0.996826
0.000000 0.631653 0.995331
0.119659 0.631653 0.995605
0.258911 0.631531 0.995758
0.409546 0.631317 0.995819
0.549652 0.631165 0.995941
0.679047 0.631104 0.996124
0.796112 0.631104 0.996368
0.898010 0.631226 0.996674
1.000000 0.631348 0.996979
0.000000 0.753540 0.995605
0.119720 0.753540 0.995880
0.259125 0.753448 0.996033
0.409729 0.753265 0.996063
0.549713 0.753143 0.996185
0.679077 0.753082 0.996338
0.796021 0.753143 0.996552
0.897888 0.753296 0.996857
1.000000 0.753418 0.997131
0.000000 0.879211 0.995850
0.119751 0.879242 0.996124
0.259277 0.879150 0.996246
0.409882 0.878967 0.996277
0.549744 0.878876 0.996368
0.679077 0.878876 0.996490
0.795898 0.878937 0.996674
0.897736 0.879089 0.996979
1.000000 0.879272 0.996796
0.000000 1.000000 0.996124
0.119812 1.000000 0.996368
0.259460 1.000000 0.996460
0.410065 1.000000 0.996460
0.549835 1.000000 0.996521
0.679108 1.000000 0.996643
0.795776 1.000000 0.996826
0.897614 1.000000 0.996643
1.000000 1.000000 0.995667
