Kodak Vision2 200T (5217) - Only color.cube
# Created by Benjamin (IWLTBAP) : http://luts.iwltbap.com
# Copyright: (C) Copyright 2010-2017 Triune Films and IWLTBAP SAS
# Cannot be resold, shared or otherwise redistributed
TITLE "Film Print Emulation LUTs Pack (Rec.709, sRGB, DCI-P3)"
LUT_3D_SIZE 33
0.000000 0.000000 0.001160
0.031555 0.000000 0.001129
0.061462 0.002411 0.006226
0.090576 0.008484 0.013733
0.118103 0.015869 0.020355
0.145508 0.022491 0.026001
0.175476 0.025726 0.030396
0.205536 0.029541 0.033936
0.230530 0.032593 0.037445
0.262054 0.035645 0.040100
0.287567 0.037933 0.042664
0.313416 0.040192 0.044342
0.339417 0.041656 0.045197
0.369934 0.043762 0.046753
0.388885 0.045135 0.048309
0.414917 0.045807 0.049072
0.440979 0.047150 0.050537
0.463562 0.049133 0.051971
0.489319 0.050415 0.054077
0.514893 0.052307 0.055450
0.543427 0.054779 0.058075
0.573669 0.057739 0.060608
0.604004 0.061737 0.064270
0.634338 0.066101 0.068390
0.665070 0.071716 0.073456
0.697662 0.077942 0.079468
0.731079 0.084106 0.086273
0.760925 0.091827 0.094727
0.788666 0.101044 0.105164
0.816254 0.113098 0.118622
0.842224 0.131317 0.137604
0.859375 0.145233 0.151703
0.880951 0.146973 0.153473
0.000000 0.015289 0.001038
0.030701 0.028809 0.001953
0.061432 0.033356 0.007202
0.091705 0.037903 0.014893
0.120422 0.041595 0.022400
0.148499 0.045135 0.028625
0.179016 0.049164 0.033051
0.208496 0.052368 0.036560
0.233185 0.055481 0.039215
0.265625 0.058441 0.041840
0.290710 0.060730 0.044342
0.316925 0.062958 0.046753
0.343750 0.064606 0.048309
0.372681 0.066193 0.049805
0.391632 0.067230 0.050537
0.418701 0.068787 0.051270
0.443970 0.070282 0.052673
0.467224 0.071259 0.054749
0.493042 0.072754 0.056091
0.520264 0.074677 0.058075
0.548248 0.077026 0.059998
0.578369 0.080200 0.063049
0.608795 0.084106 0.066620
0.639557 0.088684 0.071198
0.670868 0.094177 0.076752
0.704102 0.100067 0.083679
0.737457 0.106873 0.091278
0.767456 0.114960 0.100494
0.794769 0.124329 0.110687
0.821655 0.137939 0.125793
0.845764 0.156189 0.143921
0.863373 0.171021 0.156830
0.885864 0.169800 0.156219
0.000000 0.036377 0.000854
0.017120 0.044434 0.000519
0.060272 0.057800 0.010437
0.091309 0.061798 0.017181
0.121307 0.065643 0.024261
0.149841 0.068787 0.029541
0.181458 0.072327 0.034821
0.210938 0.075226 0.038330
0.235474 0.078064 0.041840
0.268524 0.080780 0.044342
0.293365 0.083008 0.046722
0.319336 0.084717 0.049072
0.347137 0.086395 0.050568
0.374878 0.088013 0.051971
0.394287 0.089233 0.052704
0.422028 0.090424 0.053406
0.446564 0.091980 0.054779
0.470367 0.093506 0.056122
0.496429 0.095032 0.058075
0.524384 0.096497 0.059998
0.553619 0.099060 0.062469
0.583832 0.102203 0.065460
0.614075 0.105591 0.068939
0.644470 0.109192 0.073456
0.675812 0.114471 0.078949
0.710632 0.120850 0.087311
0.744080 0.128937 0.097168
0.773895 0.137573 0.106598
0.800995 0.147583 0.116943
0.826111 0.164124 0.133057
0.849182 0.184204 0.150391
0.869690 0.192749 0.158905
0.892029 0.192261 0.158936
0.000000 0.047821 0.000763
0.001709 0.056641 0.000671
0.048889 0.071808 0.000000
0.088928 0.085968 0.020416
0.119812 0.090881 0.026031
0.149139 0.094391 0.030426
0.180878 0.096649 0.034851
0.212036 0.098511 0.040100
0.236938 0.100342 0.043518
0.270569 0.102081 0.045959
0.295410 0.103821 0.048279
0.321259 0.105530 0.050568
0.349884 0.107178 0.052032
0.376526 0.108765 0.054108
0.396667 0.110046 0.054810
0.424805 0.111267 0.055481
0.448853 0.112488 0.056793
0.473206 0.114014 0.058105
0.499573 0.115479 0.059998
0.528564 0.117523 0.062500
0.557922 0.119537 0.064880
0.587921 0.122314 0.067810
0.618378 0.125580 0.071228
0.648865 0.129547 0.075684
0.680878 0.135040 0.082153
0.716858 0.142303 0.090851
0.750122 0.150726 0.101013
0.779053 0.161011 0.111206
0.806152 0.172913 0.122131
0.830811 0.192139 0.141083
0.852661 0.205261 0.155579
0.873657 0.212433 0.161591
0.897430 0.213684 0.162598
0.000000 0.065094 0.000641
0.000000 0.069794 0.000580
0.032349 0.084686 0.000214
0.078827 0.101074 0.000641
0.116821 0.112671 0.028656
0.147522 0.117523 0.032196
0.179657 0.120697 0.036621
0.211060 0.123505 0.040985
0.236664 0.124603 0.044373
0.271271 0.124847 0.047546
0.296539 0.125122 0.049835
0.322632 0.125916 0.052032
0.352020 0.126953 0.053436
0.377502 0.128265 0.054810
0.398438 0.129822 0.056824
0.427032 0.131073 0.057465
0.450928 0.132568 0.058746
0.475830 0.133789 0.060028
0.502075 0.135468 0.061890
0.531708 0.137390 0.063721
0.561523 0.139709 0.066101
0.591644 0.142670 0.069550
0.622620 0.146454 0.073486
0.653442 0.150848 0.078430
0.685791 0.156860 0.084808
0.722290 0.165283 0.093353
0.754852 0.174927 0.103882
0.783112 0.186951 0.114410
0.810242 0.195618 0.126740
0.834717 0.215942 0.146942
0.855347 0.230530 0.160278
0.877441 0.235077 0.164215
0.901581 0.237701 0.166473
0.000000 0.081207 0.000488
0.000000 0.083832 0.000488
0.009888 0.094055 0.000305
0.064240 0.111786 0.000000
0.108337 0.127625 0.024323
0.144745 0.138214 0.036591
0.178619 0.144012 0.040131
0.210266 0.147369 0.042725
0.235657 0.149780 0.045197
0.270508 0.150818 0.048340
0.296356 0.149719 0.050598
0.322906 0.149048 0.052765
0.353455 0.148590 0.054840
0.378632 0.148956 0.056854
0.400177 0.150269 0.058167
0.429138 0.151306 0.059418
0.453094 0.152771 0.060669
0.478333 0.154236 0.061920
0.504150 0.155701 0.063141
0.534180 0.157806 0.064941
0.564545 0.160553 0.067871
0.594818 0.164093 0.071259
0.626221 0.169250 0.076263
0.657501 0.174622 0.081665
0.690369 0.180298 0.087891
0.727051 0.189972 0.096802
0.759216 0.196899 0.107635
0.787079 0.206177 0.118835
0.814728 0.219299 0.130829
0.838593 0.242737 0.153259
0.857910 0.252625 0.164215
0.880859 0.255157 0.166809
0.905334 0.258636 0.170258
0.000000 0.097443 0.000366
0.000000 0.098541 0.000366
0.000000 0.104889 0.000305
0.045288 0.120178 0.000000
0.095490 0.139008 0.013031
0.137268 0.154541 0.033997
0.175323 0.166229 0.042694
0.209290 0.173340 0.045990
0.235138 0.176666 0.047577
0.269562 0.178375 0.049133
0.295349 0.178955 0.051361
0.322083 0.177795 0.053497
0.353302 0.176819 0.055573
0.379486 0.175629 0.058167
0.401978 0.175201 0.059479
0.431335 0.175751 0.061340
0.454987 0.176331 0.062561
0.480865 0.177063 0.063751
0.506805 0.178375 0.065552
0.537598 0.180420 0.067291
0.568329 0.184998 0.070160
0.598785 0.188965 0.074066
0.629944 0.192322 0.079529
0.661530 0.196411 0.084839
0.695770 0.201752 0.091949
0.732117 0.210052 0.101135
0.763855 0.220886 0.112701
0.791473 0.232086 0.123932
0.818634 0.244659 0.136322
0.842346 0.267242 0.159332
0.860443 0.273926 0.167114
0.883698 0.274384 0.168091
0.909332 0.279205 0.173370
0.000000 0.113068 0.000244
0.000000 0.113068 0.000244
0.000000 0.117615 0.000183
0.013763 0.129028 0.000000
0.077423 0.147919 0.000000
0.124725 0.168121 0.022644
0.166077 0.186798 0.040161
0.205688 0.196106 0.048340
0.233887 0.200409 0.051361
0.269073 0.203125 0.052094
0.294800 0.204651 0.053528
0.321259 0.205231 0.054230
0.352112 0.205322 0.056946
0.379333 0.203400 0.058868
0.402924 0.201233 0.060150
0.433014 0.199921 0.061981
0.456970 0.199860 0.064392
0.484253 0.200226 0.066162
0.510223 0.200745 0.067902
0.541992 0.201996 0.070190
0.572998 0.204102 0.074127
0.603760 0.207886 0.079010
0.635101 0.212952 0.083801
0.666718 0.218933 0.088959
0.701355 0.226410 0.095886
0.737000 0.235107 0.105835
0.768585 0.244995 0.117584
0.796265 0.255157 0.128479
0.822784 0.269348 0.142731
0.845642 0.289520 0.162323
0.865051 0.295898 0.169342
0.887939 0.295197 0.169678
0.914673 0.301666 0.177582
0.000000 0.129028 0.000092
0.000000 0.129028 0.000092
0.000000 0.131897 0.000092
0.001740 0.140533 0.000000
0.054169 0.154816 0.000000
0.109344 0.179779 0.000000
0.154053 0.198730 0.026245
0.199097 0.211914 0.046814
0.230804 0.222778 0.052795
0.267334 0.228546 0.054901
0.294586 0.232208 0.056274
0.321503 0.234253 0.056946
0.351471 0.235229 0.057617
0.378265 0.235352 0.059540
0.401947 0.233337 0.060791
0.433228 0.230377 0.062622
0.458710 0.228149 0.065033
0.486847 0.227997 0.067383
0.515686 0.228271 0.069672
0.546173 0.229004 0.073029
0.577484 0.230743 0.077942
0.608917 0.233765 0.083282
0.640442 0.238495 0.088440
0.672668 0.243744 0.093445
0.707886 0.249756 0.100708
0.742401 0.257721 0.110931
0.773102 0.267090 0.121887
0.801208 0.277740 0.132874
0.827057 0.294647 0.149200
0.849396 0.312988 0.166199
0.870300 0.318451 0.172150
0.893188 0.319000 0.174286
0.920135 0.325562 0.183075
0.000000 0.145081 0.000000
0.000000 0.144867 0.000000
0.000000 0.145996 0.000000
0.000000 0.153168 0.000000
0.028290 0.166718 0.000000
0.089722 0.189728 0.000000
0.140778 0.209534 0.012390
0.190277 0.229126 0.040283
0.225006 0.242157 0.052094
0.263275 0.250702 0.057587
0.292755 0.255646 0.059540
0.321045 0.258911 0.060822
0.351776 0.260498 0.060822
0.378021 0.261719 0.060181
0.400787 0.262085 0.062073
0.432678 0.260315 0.063263
0.459015 0.258057 0.065643
0.488922 0.256378 0.068542
0.519287 0.256500 0.071930
0.550171 0.257233 0.076355
0.582153 0.258453 0.081726
0.614319 0.261017 0.087921
0.646271 0.264465 0.093445
0.679047 0.268768 0.099274
0.714935 0.273956 0.106812
0.748596 0.281464 0.116333
0.779083 0.291107 0.126892
0.807587 0.302765 0.138306
0.832672 0.323669 0.158081
0.853638 0.336395 0.171814
0.874908 0.339630 0.176697
0.899567 0.341980 0.181396
0.925934 0.348267 0.190887
0.000000 0.162201 0.000000
0.000000 0.162384 0.000000
0.000000 0.163025 0.000000
0.000000 0.168579 0.000000
0.002655 0.180023 0.000000
0.062622 0.196655 0.000000
0.122803 0.218658 0.000000
0.173035 0.242310 0.030701
0.216583 0.257935 0.049194
0.254333 0.268860 0.057617
0.289154 0.276794 0.062042
0.319061 0.281647 0.063873
0.351807 0.285187 0.064484
0.378754 0.287506 0.064484
0.402313 0.289368 0.065063
0.432526 0.289795 0.065643
0.458740 0.288757 0.067383
0.489594 0.287445 0.070831
0.521667 0.286255 0.074738
0.553711 0.287201 0.080170
0.586548 0.288116 0.085388
0.618988 0.290192 0.090973
0.651459 0.293457 0.097351
0.684814 0.297394 0.104034
0.721619 0.301880 0.112335
0.755005 0.308960 0.121521
0.785461 0.318817 0.132538
0.814270 0.329712 0.144592
0.838593 0.349335 0.167480
0.857819 0.357758 0.177887
0.880249 0.359344 0.181122
0.905670 0.362946 0.187744
0.930878 0.371124 0.198273
0.000000 0.180176 0.000000
0.000000 0.180573 0.000000
0.000000 0.180939 0.000000
0.000000 0.188141 0.000000
0.000000 0.196045 0.000000
0.039948 0.205688 0.000000
0.098816 0.227631 0.000000
0.154541 0.251953 0.002167
0.205383 0.271271 0.038605
0.242554 0.285553 0.054962
0.283966 0.296417 0.062042
0.316437 0.304749 0.066254
0.350464 0.310089 0.068024
0.379211 0.314026 0.068573
0.404541 0.316925 0.069702
0.435181 0.318909 0.069702
0.459167 0.320343 0.070251
0.489532 0.320770 0.073059
0.521942 0.320343 0.077454
0.556091 0.319794 0.082825
0.589630 0.320679 0.088470
0.623108 0.322083 0.093933
0.656097 0.324921 0.100739
0.690582 0.328003 0.107788
0.727783 0.332001 0.116364
0.760895 0.337952 0.126129
0.791168 0.346375 0.138336
0.820129 0.357147 0.153076
0.844421 0.376160 0.175476
0.862488 0.382996 0.183350
0.886780 0.383118 0.186127
0.913055 0.388092 0.194763
0.935089 0.397675 0.207123
0.000000 0.198181 0.000000
0.000000 0.198578 0.000000
0.000000 0.199005 0.000000
0.000000 0.201904 0.000000
0.000000 0.208588 0.000000
0.011780 0.221130 0.000000
0.074188 0.238190 0.000000
0.134521 0.259247 0.000000
0.192719 0.282745 0.006256
0.232208 0.301208 0.045380
0.277618 0.315247 0.060181
0.312103 0.325989 0.066254
0.347260 0.333618 0.070312
0.379028 0.338409 0.072510
0.405426 0.341766 0.073639
0.437592 0.344635 0.074738
0.462769 0.346924 0.075287
0.490723 0.348938 0.076385
0.522308 0.350372 0.080170
0.555756 0.350281 0.084900
0.591553 0.350159 0.091003
0.626221 0.351074 0.096893
0.660461 0.353180 0.103577
0.696625 0.355835 0.111481
0.733948 0.359711 0.120300
0.766968 0.366058 0.131012
0.797180 0.375305 0.144287
0.826202 0.388733 0.162079
0.849548 0.403625 0.181091
0.870117 0.409271 0.189056
0.893951 0.410034 0.192444
0.921692 0.416382 0.202972
0.937866 0.425568 0.216003
0.000000 0.213684 0.000000
0.000000 0.214478 0.000000
0.000000 0.215393 0.000000
0.000000 0.217102 0.000000
0.000000 0.224152 0.000000
0.003754 0.236145 0.000000
0.046875 0.247375 0.000000
0.109375 0.267090 0.000000
0.169647 0.290680 0.001343
0.221649 0.315002 0.011932
0.269135 0.331757 0.052887
0.305389 0.343414 0.065674
0.341492 0.352173 0.071991
0.377472 0.358765 0.075287
0.405273 0.363556 0.077484
0.438690 0.367401 0.079102
0.465515 0.370941 0.080688
0.494476 0.374329 0.082306
0.523834 0.378052 0.084381
0.556488 0.380096 0.087982
0.591766 0.380096 0.092499
0.628265 0.380920 0.099304
0.664246 0.383179 0.106873
0.701843 0.386322 0.115082
0.739441 0.391144 0.124512
0.772400 0.398193 0.136475
0.802917 0.407257 0.150696
0.832031 0.419220 0.169403
0.853943 0.430908 0.187439
0.875763 0.435486 0.194000
0.901123 0.437805 0.199036
0.927917 0.445282 0.210785
0.939575 0.452576 0.222137
0.000000 0.232086 0.000000
0.000000 0.233246 0.000000
0.000000 0.234406 0.000000
0.000000 0.234833 0.000000
0.000000 0.239899 0.000000
0.000000 0.249786 0.000000
0.024261 0.260468 0.000000
0.080627 0.274750 0.000000
0.142914 0.297546 0.000000
0.203552 0.323669 0.012970
0.253204 0.344818 0.043823
0.295013 0.357971 0.061432
0.332520 0.369537 0.071442
0.374023 0.379517 0.076935
0.402496 0.386871 0.080170
0.437958 0.392151 0.082275
0.466278 0.396790 0.084869
0.496613 0.400940 0.087433
0.526947 0.405640 0.090485
0.558289 0.410187 0.092468
0.592804 0.411621 0.095428
0.629578 0.412384 0.101685
0.667175 0.414429 0.110107
0.707306 0.418091 0.119873
0.745026 0.422943 0.130219
0.777222 0.429199 0.142487
0.807739 0.437683 0.157196
0.837891 0.448181 0.174011
0.858215 0.459991 0.192444
0.881989 0.463379 0.197784
0.907990 0.467346 0.205414
0.932129 0.475128 0.217987
0.940826 0.480865 0.227844
0.000000 0.249512 0.000000
0.000000 0.250671 0.000000
0.000000 0.251831 0.000000
0.000000 0.252350 0.000000
0.000000 0.254639 0.000000
0.000000 0.262482 0.000000
0.010803 0.273468 0.000000
0.038361 0.284210 0.000000
0.111938 0.304779 0.000000
0.179993 0.330902 0.003265
0.232666 0.353729 0.018494
0.284058 0.371948 0.053589
0.323120 0.387207 0.068024
0.368164 0.399750 0.076935
0.397583 0.409149 0.082275
0.435242 0.415436 0.084900
0.465088 0.421234 0.087952
0.497101 0.426208 0.091461
0.529480 0.431244 0.094910
0.562805 0.436676 0.097351
0.595367 0.441864 0.100250
0.632324 0.443451 0.106384
0.670502 0.445679 0.115082
0.711365 0.449921 0.124542
0.749329 0.455719 0.135712
0.781311 0.461914 0.148590
0.811584 0.469604 0.162445
0.842743 0.479401 0.178802
0.863800 0.490631 0.197998
0.888184 0.492279 0.200745
0.914337 0.497253 0.210999
0.935120 0.504089 0.225433
0.941589 0.508484 0.234283
0.000000 0.265778 0.000000
0.000000 0.267212 0.000000
0.000000 0.268188 0.000000
0.000000 0.268677 0.000000
0.000000 0.269379 0.000000
0.000000 0.275146 0.000000
0.001068 0.286835 0.000000
0.028442 0.298035 0.000000
0.082336 0.312408 0.000000
0.153381 0.337494 0.001343
0.215973 0.361176 0.007599
0.269958 0.384552 0.022217
0.313293 0.404236 0.059570
0.359711 0.418610 0.074188
0.391388 0.429352 0.082275
0.431519 0.438019 0.086945
0.462860 0.445374 0.089966
0.496948 0.452087 0.094910
0.531799 0.457947 0.098297
0.566803 0.463531 0.101654
0.600586 0.470154 0.104950
0.635040 0.476288 0.110992
0.674835 0.478394 0.120697
0.715485 0.482910 0.129822
0.751862 0.488556 0.140625
0.783783 0.494446 0.153473
0.815033 0.501587 0.167572
0.846222 0.509521 0.183350
0.870148 0.520813 0.198975
0.893616 0.524292 0.205139
0.920288 0.529388 0.217194
0.936951 0.535797 0.232117
0.941833 0.540497 0.240509
0.000000 0.281647 0.000000
0.000000 0.282837 0.000000
0.000000 0.284119 0.000000
0.000000 0.284821 0.000000
0.000000 0.285187 0.000000
0.000000 0.288300 0.000000
0.000000 0.300110 0.000000
0.018280 0.312164 0.000000
0.042419 0.323761 0.000000
0.124146 0.343903 0.001312
0.197510 0.368469 0.006470
0.249268 0.395020 0.014435
0.301025 0.418518 0.025726
0.348053 0.435913 0.065674
0.386200 0.449554 0.080170
0.426483 0.460297 0.086945
0.459930 0.469696 0.092438
0.496033 0.478638 0.097321
0.532501 0.485535 0.101624
0.570923 0.491577 0.105865
0.605286 0.497833 0.110046
0.639587 0.504883 0.116333
0.677582 0.509949 0.124908
0.720856 0.513245 0.135681
0.755432 0.522095 0.146088
0.786285 0.527863 0.157501
0.817749 0.535370 0.171295
0.848724 0.543945 0.187927
0.874268 0.551514 0.201172
0.898773 0.556122 0.210968
0.924988 0.560516 0.223846
0.938232 0.565521 0.237427
0.941772 0.570892 0.247162
0.000000 0.297516 0.000000
0.000000 0.298859 0.000000
0.000000 0.299774 0.000000
0.000000 0.300568 0.000000
0.000000 0.300903 0.000000
0.000000 0.302826 0.000000
0.000000 0.313171 0.000000
0.009766 0.325928 0.000000
0.034271 0.337524 0.000000
0.088531 0.349915 0.000427
0.169617 0.375305 0.005341
0.230377 0.404449 0.013306
0.288422 0.430450 0.023987
0.335266 0.452026 0.055664
0.380219 0.468658 0.075287
0.419342 0.481964 0.085907
0.455536 0.493195 0.092896
0.493286 0.502686 0.099213
0.532166 0.511169 0.104889
0.571777 0.521149 0.109985
0.608612 0.527679 0.115387
0.643890 0.536072 0.121490
0.680603 0.543793 0.128967
0.722931 0.550018 0.139832
0.759521 0.554382 0.152039
0.790161 0.560333 0.163086
0.820648 0.567749 0.175812
0.850464 0.576172 0.191589
0.877838 0.584656 0.206543
0.903473 0.588654 0.217194
0.928711 0.591736 0.230286
0.939301 0.596344 0.243500
0.941040 0.601288 0.252686
0.000000 0.313507 0.000000
0.000000 0.314514 0.000000
0.000000 0.315643 0.000000
0.000000 0.316650 0.000000
0.000000 0.317291 0.000000
0.000000 0.319305 0.000000
0.000000 0.326233 0.000000
0.002960 0.338531 0.000000
0.029297 0.349976 0.000000
0.061523 0.361481 0.000000
0.141388 0.381500 0.004242
0.214508 0.413300 0.012146
0.276215 0.442139 0.020477
0.323242 0.466736 0.037964
0.373016 0.486359 0.065613
0.409424 0.501801 0.081726
0.449951 0.513641 0.091919
0.489014 0.528503 0.100159
0.529755 0.539185 0.106750
0.571045 0.548706 0.113586
0.609619 0.556549 0.119324
0.647003 0.564270 0.126068
0.684692 0.574463 0.134491
0.724976 0.582367 0.144226
0.762421 0.587769 0.157471
0.794067 0.593597 0.170013
0.824493 0.600830 0.183289
0.852631 0.608826 0.197388
0.881775 0.618073 0.213409
0.906860 0.621460 0.224121
0.931671 0.623199 0.236877
0.940002 0.628021 0.250336
0.940033 0.631531 0.257294
0.000000 0.328796 0.000000
0.000000 0.330078 0.000000
0.000000 0.331421 0.000000
0.000000 0.332581 0.000000
0.000000 0.333496 0.000000
0.000000 0.334625 0.000000
0.000000 0.338715 0.000000
0.000000 0.350220 0.000000
0.023499 0.362030 0.000000
0.044739 0.374023 0.000427
0.110901 0.391174 0.004150
0.198486 0.421234 0.012085
0.261047 0.452332 0.019592
0.311401 0.479767 0.025757
0.363525 0.501923 0.046234
0.399506 0.522736 0.074127
0.443817 0.538879 0.089386
0.483887 0.552094 0.099670
0.526581 0.564240 0.108093
0.569153 0.574860 0.115784
0.609222 0.585022 0.123108
0.647736 0.594055 0.130493
0.688263 0.603333 0.139801
0.728973 0.614258 0.150269
0.764709 0.621582 0.163025
0.796692 0.626892 0.177277
0.827698 0.634460 0.191284
0.855194 0.642334 0.205292
0.885620 0.650757 0.222046
0.911499 0.654602 0.234100
0.933472 0.654968 0.243195
0.940338 0.658264 0.254791
0.939240 0.660858 0.260590
0.000000 0.342865 0.000000
0.000000 0.344391 0.000000
0.000000 0.345886 0.000000
0.000000 0.346985 0.000000
0.000000 0.347900 0.000000
0.000000 0.348724 0.000000
0.000000 0.352570 0.000000
0.000000 0.361664 0.000000
0.016174 0.374481 0.000000
0.039215 0.387573 0.005005
0.085632 0.401978 0.006165
0.177429 0.429474 0.010925
0.241058 0.461700 0.019562
0.298492 0.491669 0.025726
0.349518 0.517670 0.031860
0.390869 0.541016 0.054199
0.437042 0.559601 0.083252
0.477417 0.576355 0.097717
0.522064 0.589600 0.108551
0.565369 0.600861 0.117523
0.607300 0.612549 0.126404
0.647369 0.624329 0.135559
0.688873 0.634552 0.145264
0.733337 0.645294 0.156769
0.767700 0.653534 0.168732
0.798828 0.660095 0.183258
0.830292 0.667297 0.198608
0.857056 0.674957 0.213135
0.888184 0.682281 0.230804
0.917175 0.686798 0.245026
0.935211 0.686249 0.252777
0.940460 0.687347 0.259308
0.938995 0.689453 0.264160
0.000000 0.355988 0.000000
0.000000 0.357544 0.000000
0.000000 0.358887 0.000000
0.000000 0.360077 0.000000
0.000000 0.361145 0.000000
0.000000 0.361877 0.000000
0.000000 0.364777 0.000000
0.000000 0.373077 0.000000
0.010071 0.386932 0.004974
0.035095 0.400879 0.011475
0.062622 0.413666 0.007202
0.156372 0.437286 0.009766
0.226990 0.470673 0.018585
0.286102 0.502411 0.025696
0.335510 0.533356 0.031860
0.382996 0.558105 0.037903
0.429504 0.580109 0.063690
0.469818 0.598663 0.093842
0.513763 0.614838 0.108063
0.560577 0.627991 0.119232
0.604156 0.640289 0.129211
0.645264 0.652313 0.139343
0.689178 0.664368 0.150604
0.733429 0.674438 0.161713
0.769012 0.684204 0.173676
0.800171 0.690704 0.188660
0.831177 0.697388 0.203796
0.858154 0.705231 0.220245
0.890259 0.712494 0.239105
0.921997 0.717438 0.254608
0.936493 0.717316 0.262573
0.940491 0.717346 0.267609
0.938721 0.718079 0.270111
0.000000 0.369598 0.001251
0.000000 0.371185 0.002106
0.000000 0.372620 0.002106
0.000000 0.373657 0.002991
0.000000 0.374786 0.002991
0.000000 0.375824 0.003937
0.000000 0.376770 0.003937
0.000000 0.385010 0.007019
0.004181 0.399261 0.013672
0.030121 0.413055 0.019073
0.052307 0.426300 0.017059
0.131989 0.446716 0.009705
0.213470 0.479919 0.018555
0.275879 0.512817 0.026550
0.323822 0.547302 0.032715
0.376038 0.574829 0.038727
0.420746 0.599884 0.051361
0.463501 0.621368 0.082703
0.506897 0.639252 0.105743
0.554688 0.654114 0.119232
0.600647 0.666809 0.131195
0.643402 0.679382 0.143036
0.686737 0.690887 0.154388
0.732513 0.701599 0.166534
0.767456 0.711151 0.177582
0.800049 0.720154 0.191284
0.831543 0.727081 0.208008
0.858948 0.734711 0.226746
0.891571 0.741211 0.246002
0.925323 0.746338 0.262329
0.937500 0.747101 0.272003
0.940338 0.746124 0.278870
0.938416 0.746124 0.282196
0.000000 0.383575 0.010254
0.000000 0.385193 0.012482
0.000000 0.386902 0.013611
0.000000 0.388062 0.013611
0.000000 0.389191 0.013611
0.000000 0.390533 0.014709
0.000000 0.391357 0.014709
0.000000 0.397705 0.017975
0.000000 0.410553 0.021942
0.025970 0.424591 0.027161
0.047577 0.438843 0.026306
0.099731 0.455414 0.008484
0.198395 0.489075 0.018524
0.262848 0.526001 0.026550
0.312775 0.559387 0.033539
0.367279 0.590027 0.040436
0.410950 0.618927 0.047668
0.456635 0.643127 0.070648
0.500549 0.662170 0.099152
0.547028 0.677612 0.117065
0.593231 0.691010 0.130402
0.638367 0.703400 0.143768
0.682922 0.715302 0.156738
0.729980 0.727173 0.169678
0.766205 0.737671 0.181915
0.798370 0.747162 0.195160
0.833740 0.753998 0.213470
0.860016 0.760620 0.232971
0.893585 0.766785 0.252625
0.927277 0.771271 0.268585
0.938324 0.773193 0.285461
0.939880 0.771515 0.290131
0.938141 0.770203 0.292053
0.000000 0.397583 0.020966
0.000000 0.399323 0.022797
0.000000 0.401123 0.024536
0.000000 0.402649 0.024536
0.000000 0.403717 0.024536
0.000000 0.405212 0.024536
0.000000 0.406250 0.025391
0.000000 0.410614 0.026276
0.000000 0.422516 0.029785
0.020782 0.436737 0.033264
0.043152 0.452209 0.037628
0.085541 0.467773 0.026337
0.176727 0.496796 0.018494
0.247986 0.537170 0.026520
0.303528 0.573273 0.034393
0.358551 0.606689 0.041290
0.401611 0.636810 0.047668
0.449585 0.662445 0.059296
0.493225 0.682922 0.087341
0.538452 0.699799 0.111328
0.584900 0.713867 0.128021
0.630310 0.727173 0.142334
0.677277 0.739410 0.156769
0.726746 0.750916 0.172485
0.764862 0.760925 0.186340
0.797974 0.770111 0.200684
0.834747 0.777313 0.219360
0.862823 0.784424 0.240234
0.896027 0.791382 0.258453
0.929535 0.796326 0.276398
0.938690 0.798065 0.293915
0.939026 0.796295 0.300964
0.937866 0.793610 0.301636
0.000000 0.412048 0.030640
0.000000 0.413818 0.031525
0.000000 0.415314 0.032379
0.000000 0.416901 0.033264
0.000000 0.418549 0.033264
0.000000 0.419861 0.034149
0.000000 0.421112 0.034149
0.000000 0.423553 0.035004
0.000000 0.435303 0.037628
0.016479 0.449799 0.041077
0.039154 0.465729 0.045197
0.061981 0.479065 0.034180
0.155334 0.506439 0.020325
0.235413 0.549011 0.027374
0.296448 0.587982 0.035248
0.348602 0.623840 0.042114
0.392548 0.654510 0.049133
0.441132 0.680023 0.055389
0.483704 0.701935 0.069489
0.529022 0.720917 0.101593
0.576904 0.737061 0.123962
