Kodak 16mm (Variant) - Only contrast.cube
# Created by Benjamin (IWLTBAP) : http://luts.iwltbap.com
# Copyright: (C) Copyright 2010-2017 Triune Films and IWLTBAP SAS
# Cannot be resold, shared or otherwise redistributed
TITLE "Film Print Emulation LUTs Pack (Rec.709, sRGB, DCI-P3)"
LUT_3D_SIZE 33
0.000000 0.000000 0.000000
0.030548 0.000000 0.000000
0.057251 0.000031 0.000031
0.080566 0.000061 0.000061
0.104736 0.000122 0.000122
0.132751 0.000122 0.000122
0.162079 0.000153 0.000153
0.192139 0.000153 0.000153
0.222992 0.000153 0.000153
0.257233 0.000122 0.000122
0.291718 0.000092 0.000092
0.328217 0.000061 0.000061
0.362183 0.000031 0.000031
0.393555 0.000031 0.000031
0.426361 0.000000 0.000000
0.457855 0.000000 0.000000
0.492157 0.000000 0.000000
0.529175 0.000000 0.000000
0.564392 0.000000 0.000000
0.596436 0.000000 0.000000
0.627136 0.000000 0.000000
0.659668 0.000000 0.000000
0.693848 0.000000 0.000000
0.727448 0.000000 0.000000
0.761200 0.000000 0.000000
0.795105 0.000000 0.000000
0.829803 0.000000 0.000000
0.862488 0.000000 0.000000
0.891876 0.000000 0.000000
0.915924 0.000000 0.000000
0.938751 0.000000 0.000000
0.965912 0.000000 0.000000
0.999237 0.000000 0.000000
0.000000 0.030548 0.000000
0.030548 0.030548 0.000000
0.057190 0.030548 0.000031
0.080536 0.030609 0.000061
0.104706 0.030640 0.000122
0.132751 0.030640 0.000122
0.162079 0.030640 0.000153
0.192139 0.030640 0.000153
0.222992 0.030640 0.000153
0.257263 0.030609 0.000122
0.291748 0.030548 0.000092
0.328247 0.030518 0.000061
0.362213 0.030487 0.000031
0.393555 0.030457 0.000031
0.426392 0.030426 0.000000
0.457855 0.030426 0.000000
0.492188 0.030365 0.000000
0.529236 0.030334 0.000000
0.564392 0.030273 0.000000
0.596436 0.030243 0.000000
0.627167 0.030243 0.000000
0.659698 0.030212 0.000000
0.693878 0.030182 0.000000
0.727448 0.030151 0.000000
0.761230 0.030121 0.000000
0.795135 0.030090 0.000000
0.829834 0.030029 0.000000
0.862488 0.029999 0.000000
0.891876 0.029999 0.000000
0.915863 0.030029 0.000000
0.938690 0.030090 0.000000
0.965942 0.030090 0.000000
0.999268 0.030060 0.000000
0.000031 0.057251 0.000031
0.030548 0.057190 0.000031
0.057190 0.057190 0.000031
0.080505 0.057190 0.000092
0.104706 0.057190 0.000122
0.132751 0.057159 0.000153
0.162079 0.057129 0.000153
0.192169 0.057098 0.000153
0.223053 0.057037 0.000153
0.257294 0.056976 0.000153
0.291809 0.056885 0.000122
0.328308 0.056824 0.000092
0.362244 0.056732 0.000031
0.393616 0.056702 0.000031
0.426422 0.056641 0.000031
0.457886 0.056580 0.000031
0.492279 0.056519 0.000000
0.529297 0.056427 0.000000
0.564453 0.056335 0.000000
0.596466 0.056274 0.000000
0.627197 0.056213 0.000000
0.659760 0.056152 0.000000
0.693909 0.056091 0.000000
0.727509 0.056030 0.000000
0.761261 0.055939 0.000000
0.795166 0.055878 0.000000
0.829895 0.055786 0.000000
0.862488 0.055725 0.000000
0.891876 0.055695 0.000000
0.915833 0.055695 0.000000
0.938690 0.055695 0.000000
0.966003 0.055664 0.000000
0.999298 0.055603 0.000000
0.000061 0.080566 0.000061
0.030609 0.080536 0.000061
0.057190 0.080505 0.000092
0.080505 0.080505 0.000153
0.104736 0.080505 0.000183
0.132812 0.080475 0.000214
0.162140 0.080444 0.000214
0.192200 0.080383 0.000214
0.223114 0.080353 0.000214
0.257385 0.080261 0.000183
0.291901 0.080200 0.000153
0.328400 0.080109 0.000122
0.362305 0.080048 0.000092
0.393646 0.079987 0.000092
0.426514 0.079926 0.000061
0.457947 0.079865 0.000061
0.492371 0.079803 0.000031
0.529388 0.079681 0.000000
0.564514 0.079620 0.000000
0.596527 0.079559 0.000000
0.627228 0.079498 0.000000
0.659821 0.079437 0.000000
0.694000 0.079376 0.000000
0.727570 0.079315 0.000000
0.761353 0.079224 0.000000
0.795258 0.079163 0.000000
0.829987 0.079071 0.000000
0.862549 0.079010 0.000000
0.891907 0.078979 0.000000
0.915833 0.078979 0.000000
0.938690 0.078979 0.000000
0.966064 0.078949 0.000000
0.999390 0.078888 0.000000
0.000122 0.104736 0.000122
0.030640 0.104706 0.000122
0.057190 0.104706 0.000122
0.080505 0.104736 0.000183
0.104736 0.104736 0.000244
0.132843 0.104736 0.000244
0.162170 0.104706 0.000244
0.192261 0.104706 0.000244
0.223175 0.104675 0.000244
0.257446 0.104614 0.000214
0.291962 0.104553 0.000214
0.328491 0.104492 0.000153
0.362366 0.104431 0.000122
0.393707 0.104401 0.000122
0.426544 0.104370 0.000122
0.458008 0.104340 0.000122
0.492432 0.104279 0.000092
0.529480 0.104218 0.000031
0.564575 0.104156 0.000000
0.596588 0.104126 0.000000
0.627289 0.104095 0.000000
0.659882 0.104034 0.000000
0.694061 0.104004 0.000000
0.727631 0.103943 0.000000
0.761414 0.103912 0.000000
0.795319 0.103851 0.000000
0.830048 0.103790 0.000000
0.862579 0.103760 0.000000
0.891937 0.103760 0.000000
0.915833 0.103760 0.000000
0.938660 0.103790 0.000000
0.966125 0.103790 0.000000
0.999420 0.103760 0.000000
0.000122 0.132751 0.000122
0.030640 0.132751 0.000122
0.057159 0.132751 0.000153
0.080475 0.132812 0.000214
0.104736 0.132843 0.000244
0.132843 0.132843 0.000275
0.162170 0.132843 0.000275
0.192261 0.132843 0.000275
0.223236 0.132812 0.000275
0.257507 0.132782 0.000244
0.291992 0.132751 0.000244
0.328552 0.132690 0.000183
0.362396 0.132660 0.000153
0.393738 0.132629 0.000153
0.426575 0.132629 0.000153
0.458038 0.132599 0.000122
0.492493 0.132568 0.000122
0.529541 0.132507 0.000061
0.564606 0.132477 0.000031
0.596588 0.132446 0.000000
0.627289 0.132446 0.000000
0.659943 0.132416 0.000000
0.694092 0.132385 0.000000
0.727692 0.132355 0.000000
0.761444 0.132324 0.000000
0.795349 0.132263 0.000000
0.830078 0.132233 0.000000
0.862579 0.132202 0.000000
0.891907 0.132202 0.000000
0.915771 0.132263 0.000000
0.938629 0.132294 0.000000
0.966187 0.132294 0.000000
0.999451 0.132263 0.000000
0.000153 0.162079 0.000153
0.030640 0.162079 0.000153
0.057129 0.162079 0.000153
0.080444 0.162140 0.000214
0.104706 0.162170 0.000244
0.132843 0.162170 0.000275
0.162201 0.162201 0.000275
0.192291 0.162170 0.000275
0.223267 0.162170 0.000275
0.257538 0.162140 0.000275
0.292053 0.162109 0.000244
0.328583 0.162079 0.000214
0.362396 0.162048 0.000183
0.393738 0.162018 0.000183
0.426605 0.162018 0.000153
0.458038 0.161987 0.000153
0.492523 0.161957 0.000122
0.529602 0.161896 0.000092
0.564636 0.161865 0.000031
0.596619 0.161865 0.000031
0.627319 0.161865 0.000031
0.659973 0.161835 0.000000
0.694122 0.161804 0.000000
0.727692 0.161774 0.000000
0.761475 0.161743 0.000000
0.795380 0.161713 0.000000
0.830139 0.161682 0.000000
0.862610 0.161682 0.000000
0.891907 0.161682 0.000000
0.915741 0.161713 0.000000
0.938599 0.161774 0.000000
0.966217 0.161774 0.000000
0.999481 0.161743 0.000000
0.000153 0.192139 0.000153
0.030640 0.192139 0.000153
0.057098 0.192169 0.000153
0.080383 0.192200 0.000214
0.104706 0.192261 0.000244
0.132843 0.192261 0.000275
0.162170 0.192291 0.000275
0.192291 0.192291 0.000305
0.223267 0.192261 0.000305
0.257568 0.192261 0.000275
0.292084 0.192230 0.000244
0.328644 0.192169 0.000214
0.362427 0.192139 0.000183
0.393768 0.192139 0.000183
0.426636 0.192139 0.000153
0.458069 0.192108 0.000153
0.492584 0.192078 0.000122
0.529633 0.192047 0.000092
0.564667 0.192017 0.000061
0.596619 0.192017 0.000031
0.627319 0.191986 0.000031
0.659973 0.191986 0.000031
0.694153 0.191956 0.000000
0.727722 0.191925 0.000000
0.761505 0.191895 0.000000
0.795410 0.191895 0.000000
0.830170 0.191864 0.000000
0.862579 0.191833 0.000000
0.891876 0.191833 0.000000
0.915680 0.191895 0.000000
0.938538 0.191925 0.000000
0.966248 0.191956 0.000031
0.999512 0.191925 0.000000
0.000153 0.222992 0.000153
0.030640 0.222992 0.000153
0.057037 0.223053 0.000153
0.080353 0.223114 0.000214
0.104675 0.223175 0.000244
0.132812 0.223236 0.000275
0.162170 0.223267 0.000275
0.192261 0.223267 0.000305
0.223297 0.223297 0.000305
0.257599 0.223297 0.000275
0.292084 0.223297 0.000244
0.328674 0.223267 0.000183
0.362427 0.223267 0.000183
0.393768 0.223297 0.000183
0.426636 0.223297 0.000153
0.458069 0.223328 0.000153
0.492615 0.223328 0.000122
0.529663 0.223297 0.000061
0.564697 0.223297 0.000031
0.596619 0.223328 0.000031
0.627319 0.223328 0.000031
0.660004 0.223358 0.000031
0.694183 0.223358 0.000000
0.727753 0.223358 0.000000
0.761536 0.223358 0.000000
0.795441 0.223358 0.000000
0.830200 0.223358 0.000000
0.862579 0.223389 0.000000
0.891846 0.223419 0.000000
0.915619 0.223480 0.000000
0.938477 0.223572 0.000000
0.966248 0.223602 0.000000
0.999512 0.223633 0.000000
0.000122 0.257233 0.000122
0.030609 0.257263 0.000122
0.056976 0.257294 0.000153
0.080261 0.257385 0.000183
0.104614 0.257446 0.000214
0.132782 0.257507 0.000244
0.162140 0.257538 0.000275
0.192261 0.257568 0.000275
0.223297 0.257599 0.000275
0.257599 0.257599 0.000244
0.292084 0.257599 0.000214
0.328674 0.257568 0.000183
0.362427 0.257568 0.000153
0.393738 0.257599 0.000153
0.426636 0.257629 0.000122
0.458038 0.257629 0.000122
0.492615 0.257629 0.000092
0.529694 0.257629 0.000061
0.564667 0.257599 0.000031
0.596588 0.257629 0.000000
0.627289 0.257660 0.000000
0.660004 0.257660 0.000000
0.694183 0.257660 0.000000
0.727722 0.257690 0.000000
0.761505 0.257690 0.000000
0.795441 0.257690 0.000000
0.830200 0.257690 0.000000
0.862549 0.257690 0.000000
0.891815 0.257721 0.000000
0.915558 0.257812 0.000000
0.938385 0.257874 0.000000
0.966248 0.257935 0.000000
0.999512 0.257935 0.000000
0.000092 0.291718 0.000092
0.030548 0.291748 0.000092
0.056885 0.291809 0.000122
0.080200 0.291901 0.000153
0.104553 0.291962 0.000214
0.132751 0.291992 0.000244
0.162109 0.292053 0.000244
0.192230 0.292084 0.000244
0.223297 0.292084 0.000244
0.257599 0.292084 0.000214
0.292084 0.292084 0.000183
0.328674 0.292084 0.000153
0.362396 0.292084 0.000122
0.393738 0.292114 0.000122
0.426636 0.292114 0.000092
0.458038 0.292145 0.000092
0.492645 0.292145 0.000061
0.529724 0.292114 0.000031
0.564667 0.292114 0.000000
0.596558 0.292145 0.000000
0.627258 0.292175 0.000000
0.660004 0.292175 0.000000
0.694183 0.292175 0.000000
0.727722 0.292175 0.000000
0.761505 0.292206 0.000000
0.795441 0.292206 0.000000
0.830200 0.292206 0.000000
0.862518 0.292206 0.000000
0.891754 0.292267 0.000000
0.915466 0.292328 0.000000
0.938324 0.292419 0.000000
0.966248 0.292480 0.000000
0.999481 0.292480 0.000000
0.000061 0.328217 0.000061
0.030518 0.328247 0.000061
0.056824 0.328308 0.000092
0.080109 0.328400 0.000122
0.104492 0.328491 0.000153
0.132690 0.328552 0.000183
0.162079 0.328583 0.000214
0.192169 0.328644 0.000214
0.223267 0.328674 0.000183
0.257568 0.328674 0.000183
0.292084 0.328674 0.000153
0.328674 0.328674 0.000092
0.362366 0.328705 0.000092
0.393707 0.328735 0.000061
0.426605 0.328735 0.000061
0.458008 0.328766 0.000061
0.492645 0.328766 0.000031
0.529724 0.328766 0.000000
0.564636 0.328766 0.000000
0.596527 0.328796 0.000000
0.627228 0.328827 0.000000
0.659973 0.328827 0.000000
0.694153 0.328857 0.000000
0.727722 0.328857 0.000000
0.761505 0.328857 0.000000
0.795410 0.328857 0.000000
0.830200 0.328857 0.000000
0.862457 0.328888 0.000000
0.891693 0.328918 0.000000
0.915375 0.329010 0.000000
0.938232 0.329071 0.000000
0.966248 0.329132 0.000000
0.999451 0.329132 0.000000
0.000031 0.362183 0.000031
0.030487 0.362213 0.000031
0.056732 0.362244 0.000031
0.080048 0.362305 0.000092
0.104431 0.362366 0.000122
0.132660 0.362396 0.000153
0.162048 0.362396 0.000183
0.192139 0.362427 0.000183
0.223267 0.362427 0.000183
0.257568 0.362427 0.000153
0.292084 0.362396 0.000122
0.328705 0.362366 0.000092
0.362366 0.362366 0.000061
0.393677 0.362366 0.000061
0.426605 0.362366 0.000031
0.457977 0.362366 0.000031
0.492645 0.362366 0.000000
0.529724 0.362335 0.000000
0.564636 0.362305 0.000000
0.596527 0.362305 0.000000
0.627197 0.362305 0.000000
0.659973 0.362305 0.000000
0.694153 0.362305 0.000000
0.727722 0.362274 0.000000
0.761505 0.362274 0.000000
0.795410 0.362244 0.000000
0.830200 0.362244 0.000000
0.862457 0.362244 0.000000
0.891663 0.362244 0.000000
0.915283 0.362305 0.000000
0.938141 0.362366 0.000000
0.966248 0.362396 0.000000
0.999451 0.362396 0.000000
0.000031 0.393555 0.000031
0.030457 0.393555 0.000031
0.056702 0.393616 0.000031
0.079987 0.393646 0.000092
0.104401 0.393707 0.000122
0.132629 0.393738 0.000153
0.162018 0.393738 0.000183
0.192139 0.393768 0.000183
0.223297 0.393768 0.000183
0.257599 0.393738 0.000153
0.292114 0.393738 0.000122
0.328735 0.393707 0.000061
0.362366 0.393677 0.000061
0.393677 0.393677 0.000061
0.426605 0.393677 0.000031
0.457977 0.393677 0.000031
0.492676 0.393677 0.000000
0.529785 0.393616 0.000000
0.564636 0.393616 0.000000
0.596527 0.393616 0.000000
0.627197 0.393616 0.000000
0.660004 0.393616 0.000000
0.694183 0.393585 0.000000
0.727722 0.393585 0.000000
0.761505 0.393585 0.000000
0.795441 0.393555 0.000000
0.830231 0.393555 0.000000
0.862427 0.393555 0.000000
0.891632 0.393585 0.000000
0.915222 0.393646 0.000000
0.938080 0.393707 0.000000
0.966278 0.393738 0.000000
0.999481 0.393707 0.000000
0.000000 0.426361 0.000000
0.030426 0.426392 0.000000
0.056641 0.426422 0.000031
0.079926 0.426514 0.000061
0.104370 0.426544 0.000122
0.132629 0.426575 0.000153
0.162018 0.426605 0.000153
0.192139 0.426636 0.000153
0.223297 0.426636 0.000153
0.257629 0.426636 0.000122
0.292114 0.426636 0.000092
0.328735 0.426605 0.000061
0.362366 0.426605 0.000031
0.393677 0.426605 0.000031
0.426605 0.426605 0.000000
0.457977 0.426605 0.000000
0.492706 0.426605 0.000000
0.529785 0.426575 0.000000
0.564667 0.426544 0.000000
0.596497 0.426544 0.000000
0.627197 0.426575 0.000000
0.660004 0.426575 0.000000
0.694183 0.426544 0.000000
0.727722 0.426544 0.000000
0.761536 0.426544 0.000000
0.795441 0.426544 0.000000
0.830261 0.426514 0.000000
0.862396 0.426514 0.000000
0.891571 0.426544 0.000000
0.915161 0.426605 0.000000
0.938019 0.426666 0.000000
0.966278 0.426697 0.000000
0.999481 0.426697 0.000000
0.000000 0.457855 0.000000
0.030426 0.457855 0.000000
0.056580 0.457886 0.000031
0.079865 0.457947 0.000061
0.104340 0.458008 0.000122
0.132599 0.458038 0.000122
0.161987 0.458038 0.000153
0.192108 0.458069 0.000153
0.223328 0.458069 0.000153
0.257629 0.458038 0.000122
0.292145 0.458038 0.000092
0.328766 0.458008 0.000061
0.362366 0.457977 0.000031
0.393677 0.457977 0.000031
0.426605 0.457977 0.000000
0.457977 0.457977 0.000000
0.492737 0.457977 0.000000
0.529846 0.457947 0.000000
0.564667 0.457916 0.000000
0.596497 0.457916 0.000000
0.627197 0.457947 0.000000
0.660034 0.457947 0.000000
0.694214 0.457916 0.000000
0.727753 0.457916 0.000000
0.761536 0.457916 0.000000
0.795471 0.457916 0.000000
0.830261 0.457886 0.000000
0.862396 0.457886 0.000000
0.891541 0.457916 0.000000
0.915100 0.457977 0.000000
0.937958 0.458038 0.000000
0.966309 0.458099 0.000000
0.999481 0.458069 0.000000
0.000000 0.492157 0.000000
0.030365 0.492188 0.000000
0.056519 0.492279 0.000000
0.079803 0.492371 0.000031
0.104279 0.492432 0.000092
0.132568 0.492493 0.000122
0.161957 0.492523 0.000122
0.192078 0.492584 0.000122
0.223328 0.492615 0.000122
0.257629 0.492615 0.000092
0.292145 0.492645 0.000061
0.328766 0.492645 0.000031
0.362366 0.492645 0.000000
0.393677 0.492676 0.000000
0.426605 0.492706 0.000000
0.457977 0.492737 0.000000
0.492737 0.492737 0.000000
0.529846 0.492737 0.000000
0.564636 0.492767 0.000000
0.596466 0.492798 0.000000
0.627167 0.492828 0.000000
0.660004 0.492859 0.000000
0.694214 0.492859 0.000000
0.727722 0.492889 0.000000
0.761536 0.492889 0.000000
0.795441 0.492920 0.000000
0.830261 0.492920 0.000000
0.862366 0.492950 0.000000
0.891479 0.493011 0.000000
0.915009 0.493073 0.000000
0.937897 0.493195 0.000000
0.966278 0.493225 0.000000
0.999481 0.493256 0.000000
0.000000 0.529175 0.000000
0.030334 0.529236 0.000000
0.056427 0.529297 0.000000
0.079681 0.529388 0.000000
0.104218 0.529480 0.000031
0.132507 0.529541 0.000061
0.161896 0.529602 0.000092
0.192047 0.529633 0.000092
0.223297 0.529663 0.000061
0.257629 0.529694 0.000061
0.292114 0.529724 0.000031
0.328766 0.529724 0.000000
0.362335 0.529724 0.000000
0.393616 0.529785 0.000000
0.426575 0.529785 0.000000
0.457947 0.529846 0.000000
0.492737 0.529846 0.000000
0.529846 0.529846 0.000000
0.564636 0.529846 0.000000
0.596436 0.529877 0.000000
0.627136 0.529938 0.000000
0.660004 0.529968 0.000000
0.694183 0.529968 0.000000
0.727722 0.529999 0.000000
0.761505 0.529999 0.000000
0.795441 0.530029 0.000000
0.830261 0.530029 0.000000
0.862305 0.530060 0.000000
0.891418 0.530121 0.000000
0.914917 0.530212 0.000000
0.937775 0.530304 0.000000
0.966278 0.530334 0.000000
0.999451 0.530365 0.000000
0.000000 0.564392 0.000000
0.030273 0.564392 0.000000
0.056335 0.564453 0.000000
0.079620 0.564514 0.000000
0.104156 0.564575 0.000000
0.132477 0.564606 0.000031
0.161865 0.564636 0.000031
0.192017 0.564667 0.000061
0.223297 0.564697 0.000031
0.257599 0.564667 0.000031
0.292114 0.564667 0.000000
0.328766 0.564636 0.000000
0.362305 0.564636 0.000000
0.393616 0.564636 0.000000
0.426544 0.564667 0.000000
0.457916 0.564667 0.000000
0.492767 0.564636 0.000000
0.529846 0.564636 0.000000
0.564606 0.564606 0.000000
0.596405 0.564606 0.000000
0.627106 0.564636 0.000000
0.659973 0.564636 0.000000
0.694183 0.564636 0.000000
0.727692 0.564606 0.000000
0.761505 0.564606 0.000000
0.795441 0.564606 0.000000
0.830261 0.564575 0.000000
0.862274 0.564606 0.000000
0.891357 0.564606 0.000000
0.914856 0.564667 0.000000
0.937714 0.564758 0.000000
0.966278 0.564758 0.000000
0.999420 0.564758 0.000000
0.000000 0.596436 0.000000
0.030243 0.596436 0.000000
0.056274 0.596466 0.000000
0.079559 0.596527 0.000000
0.104126 0.596588 0.000000
0.132446 0.596588 0.000000
0.161865 0.596619 0.000031
0.192017 0.596619 0.000031
0.223328 0.596619 0.000031
0.257629 0.596588 0.000000
0.292145 0.596558 0.000000
0.328796 0.596527 0.000000
0.362305 0.596527 0.000000
0.393616 0.596527 0.000000
0.426544 0.596497 0.000000
0.457916 0.596497 0.000000
0.492798 0.596466 0.000000
0.529877 0.596436 0.000000
0.564606 0.596405 0.000000
0.596405 0.596405 0.000000
0.627106 0.596405 0.000000
0.660004 0.596405 0.000000
0.694183 0.596375 0.000000
0.727722 0.596375 0.000000
0.761505 0.596344 0.000000
0.795441 0.596344 0.000000
0.830292 0.596313 0.000000
0.862244 0.596313 0.000000
0.891327 0.596313 0.000000
0.914795 0.596375 0.000000
0.937653 0.596436 0.000000
0.966278 0.596436 0.000000
0.999420 0.596436 0.000000
0.000000 0.627136 0.000000
0.030243 0.627167 0.000000
0.056213 0.627197 0.000000
0.079498 0.627228 0.000000
0.104095 0.627289 0.000000
0.132446 0.627289 0.000000
0.161865 0.627319 0.000031
0.191986 0.627319 0.000031
0.223328 0.627319 0.000031
0.257660 0.627289 0.000000
0.292175 0.627258 0.000000
0.328827 0.627228 0.000000
0.362305 0.627197 0.000000
0.393616 0.627197 0.000000
0.426575 0.627197 0.000000
0.457947 0.627197 0.000000
0.492828 0.627167 0.000000
0.529938 0.627136 0.000000
0.564636 0.627106 0.000000
0.596405 0.627106 0.000000
0.627106 0.627106 0.000000
0.660034 0.627075 0.000000
0.694214 0.627075 0.000000
0.727722 0.627045 0.000000
0.761536 0.627045 0.000000
0.795471 0.627014 0.000000
0.830322 0.626984 0.000000
0.862244 0.626984 0.000000
0.891296 0.627014 0.000000
0.914734 0.627075 0.000000
0.937592 0.627136 0.000000
0.966309 0.627136 0.000000
0.999451 0.627136 0.000000
0.000000 0.659668 0.000000
0.030212 0.659698 0.000000
0.056152 0.659760 0.000000
0.079437 0.659821 0.000000
0.104034 0.659882 0.000000
0.132416 0.659943 0.000000
0.161835 0.659973 0.000000
0.191986 0.659973 0.000031
0.223358 0.660004 0.000031
0.257660 0.660004 0.000000
0.292175 0.660004 0.000000
0.328827 0.659973 0.000000
0.362305 0.659973 0.000000
0.393616 0.660004 0.000000
0.426575 0.660004 0.000000
0.457947 0.660034 0.000000
0.492859 0.660004 0.000000
0.529968 0.660004 0.000000
0.564636 0.659973 0.000000
0.596405 0.660004 0.000000
0.627075 0.660034 0.000000
0.660034 0.660034 0.000000
0.694214 0.660034 0.000000
0.727753 0.660034 0.000000
0.761536 0.660034 0.000000
0.795471 0.660034 0.000000
0.830322 0.660034 0.000000
0.862213 0.660034 0.000000
0.891266 0.660065 0.000000
0.914642 0.660156 0.000000
0.937531 0.660217 0.000000
0.966339 0.660248 0.000000
0.999451 0.660278 0.000000
0.000000 0.693848 0.000000
0.030182 0.693878 0.000000
0.056091 0.693909 0.000000
0.079376 0.694000 0.000000
0.104004 0.694061 0.000000
0.132385 0.694092 0.000000
0.161804 0.694122 0.000000
0.191956 0.694153 0.000000
0.223358 0.694183 0.000000
0.257660 0.694183 0.000000
0.292175 0.694183 0.000000
0.328857 0.694153 0.000000
0.362305 0.694153 0.000000
0.393585 0.694183 0.000000
0.426544 0.694183 0.000000
0.457916 0.694214 0.000000
0.492859 0.694214 0.000000
0.529968 0.694183 0.000000
0.564636 0.694183 0.000000
0.596375 0.694183 0.000000
0.627075 0.694214 0.000000
0.660034 0.694214 0.000000
0.694214 0.694214 0.000000
0.727722 0.694214 0.000000
0.761536 0.694244 0.000000
0.795471 0.694244 0.000000
0.830322 0.694214 0.000000
0.862183 0.694244 0.000000
0.891205 0.694275 0.000000
0.914581 0.694336 0.000000
0.937439 0.694427 0.000000
0.966339 0.694458 0.000000
0.999451 0.694458 0.000000
0.000000 0.727448 0.000000
0.030151 0.727448 0.000000
0.056030 0.727509 0.000000
0.079315 0.727570 0.000000
0.103943 0.727631 0.000000
0.132355 0.727692 0.000000
0.161774 0.727692 0.000000
0.191925 0.727722 0.000000
0.223358 0.727753 0.000000
0.257690 0.727722 0.000000
0.292175 0.727722 0.000000
0.328857 0.727722 0.000000
0.362274 0.727722 0.000000
0.393585 0.727722 0.000000
0.426544 0.727722 0.000000
0.457916 0.727753 0.000000
0.492889 0.727722 0.000000
0.529999 0.727722 0.000000
0.564606 0.727692 0.000000
0.596375 0.727722 0.000000
0.627045 0.727722 0.000000
0.660034 0.727753 0.000000
0.694214 0.727722 0.000000
0.727722 0.727722 0.000000
0.761536 0.727722 0.000000
0.795471 0.727722 0.000000
0.830353 0.727722 0.000000
0.862183 0.727722 0.000000
0.891144 0.727783 0.000000
0.914520 0.727844 0.000000
0.937378 0.727905 0.000000
0.966339 0.727936 0.000000
0.999420 0.727966 0.000000
0.000000 0.761200 0.000000
0.030121 0.761230 0.000000
0.055939 0.761261 0.000000
0.079224 0.761353 0.000000
0.103912 0.761414 0.000000
0.132324 0.761444 0.000000
0.161743 0.761475 0.000000
0.191895 0.761505 0.000000
0.223358 0.761536 0.000000
0.257690 0.761505 0.000000
0.292206 0.761505 0.000000
0.328857 0.761505 0.000000
0.362274 0.761505 0.000000
0.393585 0.761505 0.000000
0.426544 0.761536 0.000000
0.457916 0.761536 0.000000
0.492889 0.761536 0.000000
0.529999 0.761505 0.000000
0.564606 0.761505 0.000000
0.596344 0.761505 0.000000
0.627045 0.761536 0.000000
0.660034 0.761536 0.000000
0.694244 0.761536 0.000000
0.727722 0.761536 0.000000
0.761536 0.761536 0.000000
0.795471 0.761536 0.000000
0.830353 0.761536 0.000000
0.862152 0.761566 0.000000
0.891083 0.761597 0.000000
0.914429 0.761658 0.000000
0.937286 0.761749 0.000000
0.966339 0.761780 0.000000
0.999420 0.761780 0.000000
0.000000 0.795105 0.000000
0.030090 0.795135 0.000000
0.055878 0.795166 0.000000
0.079163 0.795258 0.000000
0.103851 0.795319 0.000000
0.132263 0.795349 0.000000
0.161713 0.795380 0.000000
0.191895 0.795410 0.000000
0.223358 0.795441 0.000000
0.257690 0.795441 0.000000
0.292206 0.795441 0.000000
0.328857 0.795410 0.000000
0.362244 0.795410 0.000000
0.393555 0.795441 0.000000
0.426544 0.795441 0.000000
0.457916 0.795471 0.000000
0.492920 0.795441 0.000000
0.530029 0.795441 0.000000
0.564606 0.795441 0.000000
0.596344 0.795441 0.000000
0.627014 0.795471 0.000000
0.660034 0.795471 0.000000
0.694244 0.795471 0.000000
0.727722 0.795471 0.000000
0.761536 0.795471 0.000000
0.795471 0.795471 0.000000
0.830353 0.795471 0.000000
0.862122 0.795502 0.000000
0.891052 0.795532 0.000000
0.914337 0.795593 0.000000
0.937225 0.795685 0.000000
0.966339 0.795715 0.000000
0.999420 0.795715 0.000000
0.000000 0.829803 0.000000
0.030029 0.829834 0.000000
0.055786 0.829895 0.000000
0.079071 0.829987 0.000000
0.103790 0.830048 0.000000
0.132233 0.830078 0.000000
0.161682 0.830139 0.000000
0.191864 0.830170 0.000000
0.223358 0.830200 0.000000
0.257690 0.830200 0.000000
0.292206 0.830200 0.000000
0.328857 0.830200 0.000000
0.362244 0.830200 0.000000
0.393555 0.830231 0.000000
0.426514 0.830261 0.000000
0.457886 0.830261 0.000000
0.492920 0.830261 0.000000
0.530029 0.830261 0.000000
0.564575 0.830261 0.000000
0.596313 0.830292 0.000000
0.626984 0.830322 0.000000
