Kodak Vision3 500T (5219) - Look variant 2.cube
# Created by Benjamin (IWLTBAP) : http://luts.iwltbap.com
# Copyright: (C) Copyright 2010-2017 Triune Films and IWLTBAP SAS
# Cannot be resold, shared or otherwise redistributed
TITLE "Film Print Emulation LUTs Pack (Rec.709, sRGB, DCI-P3)"
LUT_3D_SIZE 33
0.000244 0.000244 0.000244
0.011719 0.001923 0.000244
0.023621 0.003601 0.000244
0.041046 0.006958 0.000214
0.064270 0.009888 0.000153
0.084564 0.015137 0.000122
0.104462 0.022095 0.000092
0.126282 0.030060 0.000061
0.144775 0.040314 0.000000
0.164276 0.046661 0.000000
0.184937 0.050690 0.000000
0.205231 0.054871 0.000000
0.223633 0.060516 0.000000
0.241882 0.066620 0.000000
0.261169 0.072968 0.000000
0.281006 0.079742 0.000000
0.301086 0.086761 0.000000
0.321503 0.094330 0.000000
0.344360 0.100555 0.000000
0.364807 0.108856 0.000000
0.387726 0.115753 0.000000
0.409241 0.123779 0.000000
0.430908 0.132141 0.000000
0.451385 0.141876 0.000000
0.471069 0.152985 0.000000
0.491638 0.163544 0.000000
0.512878 0.173492 0.000000
0.532837 0.184906 0.000000
0.554413 0.194977 0.000000
0.573547 0.207642 0.000000
0.595459 0.218842 0.000000
0.616455 0.231110 0.000000
0.643219 0.239349 0.000000
0.006134 0.014771 0.000244
0.022675 0.015686 0.000244
0.042358 0.019775 0.000214
0.064606 0.021179 0.000153
0.085907 0.023071 0.000122
0.105438 0.027771 0.000092
0.122131 0.034119 0.000061
0.136841 0.042877 0.000031
0.153656 0.049500 0.000000
0.172028 0.053741 0.000000
0.192810 0.057068 0.000000
0.211517 0.061188 0.000000
0.231598 0.065063 0.000000
0.249054 0.071808 0.000000
0.266785 0.078979 0.000000
0.287140 0.084442 0.000000
0.306915 0.091705 0.000000
0.327087 0.098999 0.000000
0.349579 0.104614 0.000000
0.369476 0.113373 0.000000
0.392212 0.119720 0.000000
0.414032 0.127075 0.000000
0.434631 0.136017 0.000000
0.454163 0.146484 0.000000
0.475983 0.155396 0.000000
0.495300 0.166595 0.000000
0.517151 0.175964 0.000000
0.536163 0.187775 0.000000
0.555725 0.199677 0.000000
0.576569 0.210632 0.000000
0.596527 0.223267 0.000000
0.619568 0.233673 0.000000
0.644165 0.243683 0.000000
0.014771 0.033203 0.000244
0.027802 0.033661 0.000214
0.046539 0.034546 0.000183
0.066833 0.039795 0.000122
0.098938 0.045746 0.000061
0.118958 0.047424 0.000031
0.134766 0.051422 0.000000
0.148804 0.056305 0.000000
0.162842 0.060181 0.000000
0.180267 0.064087 0.000000
0.198364 0.067566 0.000000
0.217102 0.071228 0.000000
0.238220 0.073853 0.000000
0.256622 0.079010 0.000000
0.273865 0.085114 0.000000
0.293793 0.090576 0.000000
0.314209 0.096344 0.000000
0.333923 0.103638 0.000000
0.355011 0.109955 0.000000
0.376221 0.116974 0.000000
0.397003 0.124512 0.000000
0.418457 0.131866 0.000000
0.439484 0.140106 0.000000
0.459534 0.149689 0.000000
0.478668 0.160583 0.000000
0.499329 0.170532 0.000000
0.519196 0.181122 0.000000
0.539856 0.191376 0.000000
0.559265 0.203064 0.000000
0.580109 0.214081 0.000000
0.599731 0.226593 0.000000
0.622772 0.236969 0.000000
0.647400 0.246857 0.000000
0.022644 0.056549 0.000183
0.036285 0.057648 0.000153
0.051331 0.057983 0.000122
0.067139 0.059723 0.000092
0.091919 0.062408 0.000031
0.126373 0.072937 0.000000
0.146118 0.074677 0.000000
0.160492 0.075806 0.000000
0.175415 0.077728 0.000000
0.189484 0.080811 0.000000
0.206329 0.083405 0.000000
0.225098 0.085602 0.000000
0.244751 0.087860 0.000000
0.264618 0.090027 0.000000
0.284058 0.093994 0.000000
0.302338 0.099731 0.000000
0.322296 0.104980 0.000000
0.342682 0.110779 0.000000
0.363220 0.116699 0.000000
0.384186 0.123260 0.000000
0.405121 0.130188 0.000000
0.424744 0.138245 0.000000
0.445953 0.145874 0.000000
0.464783 0.156158 0.000000
0.485229 0.165314 0.000000
0.503906 0.176300 0.000000
0.523132 0.187164 0.000000
0.543488 0.197021 0.000000
0.562805 0.208527 0.000000
0.583313 0.219696 0.000000
0.603058 0.231842 0.000000
0.625366 0.242676 0.000000
0.651733 0.251068 0.000000
0.036285 0.082733 0.000092
0.048981 0.083191 0.000061
0.061066 0.083191 0.000031
0.079987 0.082458 0.000000
0.097290 0.082703 0.000000
0.113831 0.083649 0.000000
0.146851 0.096191 0.000000
0.173859 0.100800 0.000000
0.188568 0.100250 0.000000
0.203796 0.100403 0.000000
0.218445 0.101593 0.000000
0.234009 0.103271 0.000000
0.252472 0.104767 0.000000
0.272949 0.106232 0.000000
0.292755 0.108643 0.000000
0.312103 0.112701 0.000000
0.331696 0.117188 0.000000
0.352692 0.121216 0.000000
0.372864 0.126617 0.000000
0.393341 0.132446 0.000000
0.413727 0.138885 0.000000
0.434204 0.145782 0.000000
0.454010 0.153748 0.000000
0.472504 0.163696 0.000000
0.492462 0.172607 0.000000
0.510712 0.183197 0.000000
0.530426 0.192932 0.000000
0.549194 0.203949 0.000000
0.569244 0.214478 0.000000
0.587952 0.226593 0.000000
0.609161 0.237427 0.000000
0.632355 0.247284 0.000000
0.656555 0.257202 0.000000
0.054413 0.102570 0.000031
0.063690 0.102570 0.000000
0.075745 0.102203 0.000000
0.088959 0.102203 0.000000
0.103027 0.102539 0.000000
0.117737 0.103210 0.000000
0.134094 0.103882 0.000000
0.165466 0.115936 0.000000
0.200043 0.125366 0.000000
0.216980 0.124664 0.000000
0.231598 0.123657 0.000000
0.247498 0.123779 0.000000
0.263214 0.124878 0.000000
0.282135 0.125946 0.000000
0.301514 0.127808 0.000000
0.321014 0.130615 0.000000
0.341339 0.133331 0.000000
0.361664 0.136963 0.000000
0.382233 0.141113 0.000000
0.401672 0.146698 0.000000
0.423096 0.151093 0.000000
0.444977 0.155945 0.000000
0.463074 0.164520 0.000000
0.481750 0.173309 0.000000
0.499603 0.183105 0.000000
0.518890 0.192230 0.000000
0.538116 0.201691 0.000000
0.556244 0.212585 0.000000
0.576111 0.222809 0.000000
0.594482 0.234650 0.000000
0.615540 0.245239 0.000000
0.638123 0.255310 0.000000
0.662415 0.264923 0.000000
0.070251 0.120941 0.000000
0.078217 0.121216 0.000000
0.086731 0.121216 0.000000
0.097992 0.121216 0.000000
0.110260 0.121918 0.000000
0.121796 0.123047 0.000000
0.139618 0.122772 0.000000
0.154144 0.123871 0.000000
0.183472 0.133942 0.000000
0.219513 0.146088 0.000000
0.246277 0.149994 0.000000
0.260895 0.148132 0.000000
0.277222 0.147614 0.000000
0.294037 0.148346 0.000000
0.311493 0.150177 0.000000
0.330994 0.151611 0.000000
0.350708 0.153900 0.000000
0.371490 0.155823 0.000000
0.391724 0.159180 0.000000
0.412262 0.162720 0.000000
0.432556 0.167175 0.000000
0.452881 0.172211 0.000000
0.473022 0.177917 0.000000
0.491882 0.185486 0.000000
0.510742 0.193787 0.000000
0.528961 0.202789 0.000000
0.546112 0.213074 0.000000
0.564941 0.222839 0.000000
0.582611 0.234070 0.000000
0.602875 0.243958 0.000000
0.623260 0.254730 0.000000
0.646606 0.263855 0.000000
0.669922 0.273804 0.000000
0.082489 0.140625 0.000000
0.088959 0.140625 0.000000
0.096008 0.140869 0.000000
0.106049 0.141113 0.000000
0.117432 0.141388 0.000000
0.128937 0.142151 0.000000
0.141022 0.143646 0.000000
0.158630 0.143646 0.000000
0.175140 0.144745 0.000000
0.202454 0.152954 0.000000
0.239807 0.167114 0.000000
0.274902 0.176483 0.000000
0.292206 0.174896 0.000000
0.308624 0.173981 0.000000
0.325775 0.174072 0.000000
0.343750 0.174957 0.000000
0.362274 0.176392 0.000000
0.381775 0.178040 0.000000
0.402527 0.179688 0.000000
0.422791 0.182251 0.000000
0.442352 0.186096 0.000000
0.461914 0.190735 0.000000
0.482025 0.195679 0.000000
0.502869 0.200439 0.000000
0.520813 0.208313 0.000000
0.538971 0.216461 0.000000
0.557159 0.225220 0.000000
0.574463 0.235291 0.000000
0.593506 0.244904 0.000000
0.612762 0.255005 0.000000
0.633179 0.265350 0.000000
0.656281 0.274261 0.000000
0.679382 0.283966 0.000000
0.090912 0.161194 0.000000
0.097626 0.161316 0.000000
0.105377 0.161346 0.000000
0.114258 0.161682 0.000000
0.124298 0.162292 0.000000
0.136536 0.162781 0.000000
0.148926 0.164215 0.000000
0.161133 0.165955 0.000000
0.178833 0.166901 0.000000
0.198669 0.167358 0.000000
0.222198 0.173462 0.000000
0.261078 0.188171 0.000000
0.297485 0.199341 0.000000
0.324707 0.202850 0.000000
0.341156 0.201141 0.000000
0.358093 0.200531 0.000000
0.375641 0.200897 0.000000
0.394501 0.201599 0.000000
0.413574 0.203064 0.000000
0.433411 0.204895 0.000000
0.452881 0.207703 0.000000
0.471893 0.211548 0.000000
0.491211 0.215973 0.000000
0.512299 0.219879 0.000000
0.530975 0.225800 0.000000
0.550049 0.232178 0.000000
0.568115 0.240295 0.000000
0.586395 0.248993 0.000000
0.603363 0.259338 0.000000
0.622467 0.268982 0.000000
0.643677 0.278229 0.000000
0.667358 0.286285 0.000000
0.690704 0.295441 0.000000
0.100769 0.183655 0.000000
0.106995 0.183868 0.000000
0.114105 0.183899 0.000000
0.123291 0.184113 0.000000
0.132874 0.184662 0.000000
0.144867 0.185333 0.000000
0.156952 0.186279 0.000000
0.170044 0.187683 0.000000
0.183411 0.189667 0.000000
0.201965 0.190613 0.000000
0.222961 0.191040 0.000000
0.244629 0.194366 0.000000
0.283081 0.209625 0.000000
0.320129 0.222198 0.000000
0.356628 0.231262 0.000000
0.373657 0.229218 0.000000
0.390472 0.228119 0.000000
0.407959 0.228119 0.000000
0.426727 0.228271 0.000000
0.445618 0.229309 0.000000
0.464508 0.231323 0.000000
0.484100 0.233673 0.000000
0.502167 0.237793 0.000000
0.521332 0.241791 0.000000
0.540619 0.246490 0.000000
0.560547 0.251404 0.000000
0.580688 0.257141 0.000000
0.598236 0.265533 0.000000
0.615479 0.275055 0.000000
0.634399 0.284363 0.000000
0.656799 0.291962 0.000000
0.678741 0.300873 0.000000
0.703247 0.308685 0.000000
0.109711 0.207428 0.000000
0.116486 0.207336 0.000000
0.122009 0.207642 0.000000
0.131409 0.207642 0.000000
0.141968 0.208038 0.000000
0.153656 0.208557 0.000000
0.165955 0.209412 0.000000
0.178833 0.210693 0.000000
0.192902 0.212219 0.000000
0.206421 0.214386 0.000000
0.223419 0.215820 0.000000
0.247955 0.215332 0.000000
0.268005 0.216736 0.000000
0.305573 0.231567 0.000000
0.342834 0.244873 0.000000
0.379364 0.254974 0.000000
0.406128 0.257843 0.000000
0.423248 0.256134 0.000000
0.440826 0.255554 0.000000
0.458099 0.256165 0.000000
0.476685 0.257111 0.000000
0.496277 0.258453 0.000000
0.515442 0.260498 0.000000
0.533661 0.264008 0.000000
0.551819 0.268555 0.000000
0.570618 0.273468 0.000000
0.590302 0.278687 0.000000
0.610687 0.284393 0.000000
0.628784 0.292694 0.000000
0.649109 0.300293 0.000000
0.670349 0.308319 0.000000
0.693268 0.315826 0.000000
0.715332 0.324554 0.000000
0.119537 0.231842 0.000000
0.126556 0.231689 0.000000
0.131775 0.232056 0.000000
0.140320 0.232056 0.000000
0.150360 0.232330 0.000000
0.162292 0.232697 0.000000
0.175018 0.233490 0.000000
0.188202 0.234467 0.000000
0.201782 0.235687 0.000000
0.215820 0.237396 0.000000
0.230682 0.239288 0.000000
0.245483 0.241760 0.000000
0.272278 0.240662 0.000000
0.293579 0.241516 0.000000
0.328278 0.253937 0.000000
0.365723 0.267517 0.000000
0.402252 0.278473 0.000000
0.438690 0.286987 0.000000
0.456024 0.285034 0.000000
0.473450 0.283997 0.000000
0.491241 0.283966 0.000000
0.508728 0.285034 0.000000
0.527161 0.286591 0.000000
0.546509 0.288452 0.000000
0.565918 0.291351 0.000000
0.584259 0.295654 0.000000
0.603241 0.300720 0.000000
0.622803 0.306335 0.000000
0.643372 0.312347 0.000000
0.664612 0.318726 0.000000
0.685577 0.326111 0.000000
0.707886 0.333221 0.000000
0.730469 0.340485 0.000000
0.131104 0.256165 0.000000
0.136200 0.256317 0.000000
0.142181 0.256500 0.000000
0.149841 0.256653 0.000000
0.159302 0.256927 0.000000
0.170593 0.257233 0.000000
0.184998 0.257416 0.000000
0.198059 0.258209 0.000000
0.211548 0.259338 0.000000
0.225311 0.260834 0.000000
0.239716 0.262665 0.000000
0.255005 0.264526 0.000000
0.269867 0.267090 0.000000
0.295837 0.266541 0.000000
0.319763 0.266541 0.000000
0.348999 0.277618 0.000000
0.388916 0.290497 0.000000
0.425598 0.302216 0.000000
0.462463 0.311951 0.000000
0.488617 0.314392 0.000000
0.506226 0.312958 0.000000
0.524323 0.312531 0.000000
0.541901 0.313385 0.000000
0.560150 0.315063 0.000000
0.579102 0.317230 0.000000
0.599396 0.319702 0.000000
0.618164 0.324097 0.000000
0.637421 0.329163 0.000000
0.657715 0.334503 0.000000
0.680542 0.339111 0.000000
0.702606 0.345032 0.000000
0.722961 0.352325 0.000000
0.744507 0.359192 0.000000
0.149597 0.279755 0.007599
0.153015 0.279907 0.002075
0.156891 0.280334 0.000000
0.162262 0.280853 0.000000
0.170349 0.281372 0.000000
0.181305 0.281616 0.000000
0.193420 0.282135 0.000000
0.207886 0.282501 0.000000
0.221924 0.283386 0.000000
0.236023 0.284546 0.000000
0.250122 0.286133 0.000000
0.264771 0.288025 0.000000
0.280151 0.290100 0.000000
0.295685 0.292664 0.000000
0.320160 0.292664 0.000000
0.345581 0.292297 0.000000
0.373077 0.300323 0.000000
0.412872 0.313721 0.000000
0.449341 0.326141 0.000000
0.486298 0.336395 0.000000
0.521576 0.344177 0.000000
0.539551 0.342560 0.000000
0.557922 0.341919 0.000000
0.576294 0.342468 0.000000
0.594757 0.344116 0.000000
0.613647 0.346558 0.000000
0.633575 0.349304 0.000000
0.653015 0.353516 0.000000
0.674286 0.357483 0.000000
0.695831 0.362091 0.000000
0.717499 0.367157 0.000000
0.739929 0.372162 0.000000
0.760590 0.379028 0.000000
0.169800 0.303436 0.023254
0.174164 0.303436 0.027130
0.178833 0.303436 0.032288
0.184387 0.303864 0.029480
0.190643 0.304474 0.020752
0.198273 0.305267 0.008728
0.207184 0.306244 0.000000
0.218506 0.307068 0.000000
0.232269 0.307892 0.000000
0.247040 0.308838 0.000000
0.261322 0.310059 0.000000
0.275696 0.311768 0.000000
0.290588 0.313782 0.000000
0.307220 0.315582 0.000000
0.323090 0.317963 0.000000
0.345490 0.318909 0.000000
0.371643 0.318420 0.000000
0.398041 0.323456 0.000000
0.437531 0.337555 0.000000
0.474487 0.350342 0.000000
0.511047 0.361420 0.000000
0.548309 0.370605 0.000000
0.573792 0.372955 0.000000
0.592651 0.372192 0.000000
0.611908 0.372375 0.000000
0.630707 0.373962 0.000000
0.650299 0.376160 0.000000
0.670227 0.379150 0.000000
0.691132 0.382446 0.000000
0.711670 0.386597 0.000000
0.733154 0.390747 0.000000
0.754791 0.395355 0.000000
0.778229 0.399994 0.000000
0.189484 0.327576 0.041382
0.193451 0.327576 0.044403
0.197693 0.327576 0.047729
0.203796 0.327667 0.051697
0.211578 0.327789 0.056183
0.219330 0.328308 0.053619
0.227539 0.329224 0.041382
0.235901 0.330627 0.020630
0.245453 0.332092 0.000000
0.257965 0.333313 0.000000
0.272125 0.334412 0.000000
0.286652 0.335968 0.000000
0.300842 0.337952 0.000000
0.315369 0.340149 0.000000
0.335724 0.341217 0.000000
0.351715 0.343903 0.000000
0.371674 0.345673 0.000000
0.398865 0.345337 0.000000
0.423706 0.347595 0.000000
0.463196 0.362183 0.000000
0.501099 0.375275 0.000000
0.537354 0.387146 0.000000
0.574493 0.396942 0.000000
0.608643 0.404205 0.000000
0.627991 0.403351 0.000000
0.648102 0.403290 0.000000
0.667419 0.404663 0.000000
0.687317 0.406586 0.000000
0.707886 0.409149 0.000000
0.728729 0.412079 0.000000
0.748901 0.415924 0.000000
0.771027 0.419800 0.000000
0.793793 0.424225 0.000000
0.206238 0.352142 0.049744
0.209656 0.352264 0.051697
0.213470 0.352325 0.053589
0.218933 0.352509 0.055420
0.225891 0.352661 0.058929
0.234406 0.352966 0.061951
0.243774 0.353424 0.063568
0.250671 0.355042 0.043549
0.259674 0.356415 0.017639
0.269684 0.358154 0.000000
0.283234 0.359528 0.000000
0.297577 0.360901 0.000000
0.312347 0.362640 0.000000
0.327057 0.364838 0.000000
0.341919 0.367371 0.000000
0.362244 0.368713 0.000000
0.381287 0.370819 0.000000
0.399414 0.373627 0.000000
0.427490 0.373505 0.000000
0.452362 0.374664 0.000000
0.490021 0.388672 0.000000
0.528809 0.401489 0.000000
0.565308 0.413605 0.000000
0.601807 0.424103 0.000000
0.638641 0.433014 0.000000
0.664032 0.434906 0.000000
0.684448 0.434692 0.000000
0.704651 0.435516 0.000000
0.724548 0.437286 0.000000
0.744629 0.439453 0.000000
0.765991 0.442108 0.000000
0.787598 0.445679 0.000000
0.810486 0.449188 0.000000
0.221313 0.377960 0.046478
0.224609 0.378143 0.047729
0.228210 0.378265 0.049744
0.233246 0.378448 0.052460
0.239746 0.378601 0.055420
0.248016 0.378906 0.059601
0.257477 0.379303 0.064209
0.268524 0.379730 0.068298
0.277008 0.381317 0.054321
0.285156 0.383392 0.020477
0.295166 0.385376 0.000000
0.309631 0.386841 0.000000
0.324524 0.388580 0.000000
0.339508 0.390564 0.000000
0.354523 0.393036 0.000000
0.369690 0.395844 0.000000
0.389404 0.397888 0.000000
0.411133 0.399597 0.000000
0.429199 0.402863 0.000000
0.457581 0.403046 0.000000
0.483734 0.404236 0.000000
0.515594 0.416931 0.000000
0.557648 0.428680 0.000000
0.594360 0.440704 0.000000
0.630432 0.451416 0.000000
0.666931 0.460602 0.000000
0.700317 0.466675 0.000000
0.721161 0.466156 0.000000
0.741119 0.466675 0.000000
0.761017 0.468231 0.000000
0.782532 0.470154 0.000000
0.804382 0.472748 0.000000
0.825958 0.475830 0.000000
0.243652 0.403595 0.073578
0.245483 0.403961 0.070099
0.247650 0.404358 0.067047
0.250641 0.404968 0.061218
0.254791 0.405670 0.053558
0.262604 0.406036 0.057159
0.271790 0.406464 0.061890
0.282379 0.406952 0.067017
0.294128 0.407623 0.071838
0.304901 0.408936 0.066406
0.313416 0.411316 0.034454
0.322723 0.413910 0.000000
0.336914 0.415741 0.000000
0.352570 0.417664 0.000000
0.367615 0.419983 0.000000
0.382874 0.422791 0.000000
0.398590 0.425842 0.000000
0.417816 0.428345 0.000000
0.440308 0.430176 0.000000
0.461945 0.432495 0.000000
0.488770 0.433533 0.000000
0.515839 0.434509 0.000000
0.545807 0.444519 0.000000
0.587311 0.456329 0.000000
0.623810 0.468292 0.000000
0.659851 0.479004 0.000000
0.696167 0.488403 0.000000
0.732269 0.496399 0.000000
0.756775 0.497864 0.000000
0.778351 0.497955 0.000000
0.799927 0.499146 0.000000
0.820923 0.501038 0.000000
0.841339 0.503387 0.000000
0.271667 0.429352 0.109131
0.273407 0.429688 0.106537
0.275299 0.430084 0.104065
0.278137 0.430573 0.100464
0.281738 0.431366 0.095337
0.286407 0.432312 0.088898
0.291901 0.433411 0.080933
0.298370 0.434845 0.070648
0.308899 0.435760 0.071228
0.321442 0.436646 0.075958
0.334137 0.437836 0.077484
0.343262 0.440460 0.049652
0.352936 0.443207 0.000000
0.365906 0.445709 0.000000
0.381042 0.447968 0.000000
0.396851 0.450409 0.000000
0.412781 0.453217 0.000000
0.428528 0.456512 0.000000
0.447021 0.459290 0.000000
0.469940 0.461212 0.000000
0.492889 0.463379 0.000000
0.519745 0.464386 0.000000
0.547668 0.465240 0.000000
0.576874 0.472321 0.000000
0.617004 0.484497 0.000000
0.654022 0.496124 0.000000
0.689850 0.506897 0.000000
0.725464 0.516296 0.000000
0.761017 0.524506 0.000000
0.794189 0.529541 0.000000
0.816742 0.529144 0.000000
0.836914 0.530243 0.000000
0.856232 0.531921 0.000000
0.298096 0.456421 0.137115
0.300415 0.456604 0.137878
0.302826 0.456879 0.138153
0.306122 0.457214 0.137878
0.309540 0.457886 0.133698
0.313965 0.458771 0.128357
0.319214 0.459900 0.121704
0.325348 0.461243 0.113495
0.332367 0.462860 0.103058
0.340240 0.464630 0.091034
0.349915 0.466461 0.081238
0.364044 0.467499 0.087280
0.373657 0.470154 0.065643
0.383728 0.473236 0.014679
0.395844 0.476074 0.000000
0.410950 0.478516 0.000000
0.426758 0.481171 0.000000
0.442688 0.484161 0.000000
0.458801 0.487396 0.000000
0.477173 0.490479 0.000000
0.501465 0.492096 0.000000
0.524933 0.494202 0.000000
0.550629 0.495697 0.000000
0.579681 0.496338 0.000000
0.607849 0.500671 0.000000
0.647247 0.512909 0.000000
0.684662 0.524170 0.000000
0.720062 0.534943 0.000000
0.754974 0.544373 0.000000
0.791687 0.552673 0.000000
0.828156 0.559967 0.000000
0.851685 0.560852 0.000000
0.871338 0.561584 0.000000
0.324066 0.484009 0.161560
0.326080 0.484161 0.161560
0.328369 0.484344 0.161774
0.331604 0.484711 0.162628
0.336090 0.485077 0.163452
0.341461 0.485596 0.164520
0.346619 0.486603 0.159851
0.352356 0.487823 0.153107
0.358978 0.489380 0.144989
0.366425 0.491119 0.135254
0.374664 0.493042 0.123779
0.383606 0.495331 0.109558
0.393524 0.497711 0.094055
0.404602 0.500183 0.077271
0.414856 0.503387 0.035645
0.425903 0.506714 0.000000
0.441040 0.509277 0.000000
0.456787 0.512024 0.000000
0.473175 0.515076 0.000000
0.489685 0.518341 0.000000
0.506897 0.521851 0.000000
0.533203 0.522949 0.000000
0.557190 0.524963 0.000000
0.582550 0.526672 0.000000
0.611542 0.527344 0.000000
0.638855 0.529266 0.000000
0.677490 0.541565 0.000000
0.715302 0.552460 0.000000
0.749908 0.563049 0.000000
0.786041 0.572571 0.000000
0.822449 0.581055 0.000000
0.856506 0.588348 0.000000
0.886108 0.592651 0.000000
0.350952 0.511383 0.189697
0.352692 0.511566 0.189697
0.354828 0.511810 0.189697
0.357727 0.512115 0.189697
0.361633 0.512543 0.189697
0.366486 0.513031 0.189484
0.372498 0.513702 0.189453
0.379272 0.514557 0.189240
0.385529 0.515991 0.182800
0.392578 0.517670 0.174713
0.400116 0.519623 0.164398
0.408417 0.521820 0.152100
0.417267 0.524292 0.137177
0.426910 0.527008 0.119049
0.436523 0.530090 0.097839
0.447235 0.533295 0.071472
0.458527 0.536713 0.014313
0.471954 0.539978 0.000000
0.487854 0.542847 0.000000
0.504089 0.546021 0.000000
0.520782 0.549377 0.000000
0.537537 0.553070 0.000000
0.564270 0.554108 0.000000
0.589661 0.555756 0.000000
0.614319 0.557709 0.000000
0.643799 0.558411 0.000000
0.671875 0.559631 0.000000
0.704590 0.571899 0.000000
0.745575 0.581207 0.000000
0.781647 0.591675 0.000000
0.817993 0.601135 0.000000
0.851990 0.609558 0.000000
0.885651 0.617004 0.000000
0.376343 0.539001 0.214996
0.378021 0.539124 0.214813
0.379913 0.539368 0.214600
0.382599 0.539673 0.214417
0.386139 0.540192 0.214050
0.390594 0.540741 0.213562
0.396027 0.541412 0.212982
0.402344 0.542236 0.212402
0.409729 0.543243 0.211548
0.416748 0.544708 0.205200
0.423889 0.546631 0.195129
0.431763 0.548798 0.184631
0.440399 0.551147 0.172333
0.449707 0.553772 0.157867
0.459473 0.556549 0.140350
0.469574 0.559662 0.119720
0.479797 0.563202 0.094971
0.491394 0.566803 0.061432
0.503387 0.570557 0.000000
0.518799 0.573761 0.000000
0.535156 0.576874 0.000000
0.551910 0.580322 0.000000
0.569000 0.584076 0.000000
0.594879 0.585510 0.000000
0.622345 0.586670 0.000000
0.646729 0.589050 0.000000
0.676880 0.589600 0.000000
0.705505 0.590790 0.000000
0.735291 0.601196 0.000000
0.777893 0.609985 0.000000
0.814636 0.620331 0.000000
0.848602 0.629852 0.000000
0.881317 0.638336 0.000000
0.400177 0.566956 0.235779
0.401794 0.567139 0.235626
0.403564 0.567383 0.235626
0.406067 0.567688 0.235260
0.409393 0.568085 0.234833
0.413757 0.568604 0.234558
0.418854 0.569305 0.234192
0.424866 0.570068 0.233582
0.431793 0.570984 0.232849
0.439606 0.572021 0.232056
0.447937 0.573456 0.229126
0.455444 0.575592 0.217316
0.463623 0.577911 0.204285
0.472595 0.580383 0.192078
0.482208 0.583038 0.177826
0.492401 0.586029 0.161133
0.502838 0.589325 0.141205
0.513153 0.592926 0.117523
0.524200 0.596802 0.087982
0.536499 0.600677 0.037170
0.550293 0.604431 0.000000
0.566711 0.607849 0.000000
0.583435 0.611481 0.000000
0.600830 0.615326 0.000000
0.625793 0.617218 0.000000
0.654114 0.618256 0.000000
0.680450 0.620148 0.000000
0.710297 0.620880 0.000000
0.738678 0.622101 0.000000
0.768280 0.630066 0.000000
0.811554 0.639038 0.000000
0.846069 0.649231 0.000000
0.878265 0.658752 0.000000
0.425415 0.594330 0.260223
0.426483 0.594727 0.259186
0.427795 0.595062 0.258148
0.429626 0.595459 0.256287
0.432678 0.595856 0.255646
0.436737 0.596375 0.255310
0.441589 0.597015 0.254974
0.447357 0.597778 0.254333
0.453949 0.598694 0.253845
0.461517 0.599701 0.253082
0.469971 0.600861 0.252350
0.479156 0.602173 0.251434
0.487213 0.604401 0.240631
0.495789 0.606934 0.227112
0.504974 0.609619 0.211487
0.514893 0.612549 0.197449
0.525330 0.615692 0.180908
0.536194 0.619019 0.162079
0.546783 0.622833 0.139618
0.557861 0.626862 0.112244
0.569946 0.631042 0.076630
0.582886 0.635223 0.000000
0.599091 0.638885 0.000000
0.615784 0.642670 0.000000
0.632965 0.646729 0.000000
0.657257 0.648956 0.000000
0.686127 0.650055 0.000000
0.714203 0.651367 0.000000
0.743225 0.652283 0.000000
0.772888 0.653259 0.000000
0.803223 0.659119 0.000000
0.843475 0.668213 0.000000
0.876312 0.678131 0.000000
0.454315 0.620880 0.293427
0.455383 0.621185 0.292511
0.456512 0.621521 0.291534
0.458282 0.621887 0.289948
0.460632 0.622498 0.287994
0.463531 0.623230 0.285461
0.467072 0.624176 0.282257
0.471283 0.625244 0.278259
0.476532 0.626495 0.274872
0.483795 0.627472 0.274261
0.491852 0.628601 0.273560
0.500763 0.629913 0.272797
0.510437 0.631348 0.272003
0.519440 0.633484 0.263672
0.528320 0.636169 0.250153
0.537842 0.639099 0.234558
0.547852 0.642212 0.216888
0.558655 0.645477 0.200745
0.569885 0.648987 0.182312
0.580780 0.652924 0.161469
0.592102 0.657104 0.135834
