Kodak Vision2 250D (5205) - Only contrast.cube
# Created by Benjamin (IWLTBAP) : http://luts.iwltbap.com
# Copyright: (C) Copyright 2010-2017 Triune Films and IWLTBAP SAS
# Cannot be resold, shared or otherwise redistributed
TITLE "Film Print Emulation LUTs Pack (Rec.709, sRGB, DCI-P3)"
LUT_3D_SIZE 9
0.000610 0.000610 0.000610
0.080414 0.000397 0.000397
0.201172 0.000000 0.000000
0.322083 0.000000 0.000000
0.431244 0.000000 0.000000
0.536957 0.000000 0.000000
0.649139 0.000000 0.000000
0.772644 0.000000 0.000000
0.915833 0.000000 0.000000
0.000397 0.080414 0.000397
0.080688 0.080688 0.000153
0.201447 0.080688 0.000000
0.322296 0.080658 0.000000
0.431427 0.080750 0.000000
0.537170 0.080841 0.000000
0.649384 0.080902 0.000000
0.772980 0.080872 0.000000
0.916260 0.080719 0.000000
0.000000 0.201172 0.000000
0.080688 0.201447 0.000000
0.201447 0.201447 0.000000
0.322235 0.201447 0.000000
0.431335 0.201538 0.000000
0.537109 0.201630 0.000000
0.649384 0.201691 0.000000
0.773041 0.201691 0.000000
0.916443 0.201538 0.000000
0.000000 0.322083 0.000000
0.080658 0.322296 0.000000
0.201447 0.322235 0.000000
0.322174 0.322174 0.000000
0.431244 0.322205 0.000000
0.537018 0.322235 0.000000
0.649384 0.322235 0.000000
0.773102 0.322144 0.000000
0.916626 0.321930 0.000000
0.000000 0.431244 0.000000
0.080750 0.431427 0.000000
0.201538 0.431335 0.000000
0.322205 0.431244 0.000000
0.431244 0.431244 0.000000
0.537018 0.431274 0.000000
0.649445 0.431244 0.000000
0.773254 0.431122 0.000000
0.916870 0.430908 0.000000
0.000000 0.536957 0.000000
0.080841 0.537170 0.000000
0.201630 0.537109 0.000000
0.322235 0.537018 0.000000
0.431274 0.537018 0.000000
0.537048 0.537048 0.000000
0.649536 0.537048 0.000000
0.773438 0.536926 0.000000
0.917145 0.536713 0.000000
0.000000 0.649139 0.000000
0.080902 0.649384 0.000000
0.201691 0.649384 0.000000
0.322235 0.649384 0.000000
0.431244 0.649445 0.000000
0.537048 0.649536 0.000000
0.649597 0.649597 0.000000
0.773590 0.649567 0.000000
0.917358 0.649414 0.000000
0.000000 0.772644 0.000000
0.080872 0.772980 0.000000
0.201691 0.773041 0.000000
0.322144 0.773102 0.000000
0.431122 0.773254 0.000000
0.536926 0.773438 0.000000
0.649567 0.773590 0.000000
0.773651 0.773651 0.000000
0.917511 0.773560 0.000000
0.000000 0.915833 0.000000
0.080719 0.916260 0.000000
0.201538 0.916443 0.000000
0.321930 0.916626 0.000000
0.430908 0.916870 0.000000
0.536713 0.917145 0.000000
0.649414 0.917358 0.000000
0.773560 0.917511 0.000000
0.917633 0.917450 0.002716
0.000397 0.000397 0.080414
0.080688 0.000153 0.080688
0.201447 0.000000 0.080688
0.322296 0.000000 0.080658
0.431427 0.000000 0.080750
0.537170 0.000000 0.080841
0.649384 0.000000 0.080902
0.772980 0.000000 0.080872
0.916260 0.000000 0.080719
0.000153 0.080688 0.080688
0.080963 0.080963 0.080963
0.201721 0.080933 0.080933
0.322510 0.080933 0.080933
0.431610 0.080994 0.080994
0.537354 0.081085 0.081085
0.649628 0.081146 0.081146
0.773285 0.081116 0.081116
0.916687 0.080933 0.080933
0.000000 0.201447 0.080688
0.080933 0.201721 0.080933
0.201721 0.201721 0.080933
0.322449 0.201721 0.080933
0.431519 0.201782 0.080994
0.537262 0.201904 0.081085
0.649628 0.201965 0.081146
0.773346 0.201935 0.081116
0.916840 0.201752 0.080933
0.000000 0.322296 0.080658
0.080933 0.322510 0.080933
0.201721 0.322449 0.080933
0.322357 0.322357 0.080902
0.431427 0.322388 0.080994
0.537201 0.322418 0.081085
0.649628 0.322418 0.081116
0.773438 0.322327 0.081085
0.917023 0.322083 0.080933
0.000000 0.431427 0.080750
0.080994 0.431610 0.080994
0.201782 0.431519 0.080994
0.322388 0.431427 0.080994
0.431427 0.431427 0.081055
0.537201 0.431427 0.081146
0.649689 0.431396 0.081207
0.773590 0.431305 0.081177
0.917267 0.431030 0.080994
0.000000 0.537170 0.080841
0.081085 0.537354 0.081085
0.201904 0.537262 0.081085
0.322418 0.537201 0.081085
0.431427 0.537201 0.081146
0.537231 0.537231 0.081238
0.649780 0.537201 0.081299
0.773773 0.537109 0.081268
0.917542 0.536865 0.081085
0.000000 0.649384 0.080902
0.081146 0.649628 0.081146
0.201965 0.649628 0.081146
0.322418 0.649628 0.081116
0.431396 0.649689 0.081207
0.537201 0.649780 0.081299
0.649841 0.649841 0.081329
0.773895 0.649811 0.081299
0.917755 0.649628 0.081146
0.000000 0.772980 0.080872
0.081116 0.773285 0.081116
0.201935 0.773346 0.081116
0.322327 0.773438 0.081085
0.431305 0.773590 0.081177
0.537109 0.773773 0.081268
0.649811 0.773895 0.081299
0.773956 0.773956 0.081268
0.917908 0.773895 0.081085
0.000000 0.916260 0.080719
0.080933 0.916687 0.080933
0.201752 0.916840 0.080933
0.322083 0.917023 0.080933
0.431030 0.917267 0.080994
0.536865 0.917542 0.081085
0.649628 0.917755 0.081146
0.773895 0.917908 0.081085
0.917908 0.917908 0.080933
0.000000 0.000000 0.201172
0.080688 0.000000 0.201447
0.201447 0.000000 0.201447
0.322235 0.000000 0.201447
0.431335 0.000000 0.201538
0.537109 0.000000 0.201630
0.649384 0.000000 0.201691
0.773041 0.000000 0.201691
0.916443 0.000000 0.201538
0.000000 0.080688 0.201447
0.080933 0.080933 0.201721
0.201721 0.080933 0.201721
0.322449 0.080933 0.201721
0.431519 0.080994 0.201782
0.537262 0.081085 0.201904
0.649628 0.081146 0.201965
0.773346 0.081116 0.201935
0.916840 0.080933 0.201752
0.000000 0.201447 0.201447
0.080933 0.201721 0.201721
0.201721 0.201721 0.201721
0.322357 0.201721 0.201721
0.431427 0.201782 0.201782
0.537201 0.201904 0.201904
0.649628 0.201935 0.201935
0.773438 0.201935 0.201935
0.917023 0.201752 0.201752
0.000000 0.322235 0.201447
0.080933 0.322449 0.201721
0.201721 0.322357 0.201721
0.322296 0.322296 0.201721
0.431335 0.322327 0.201782
0.537109 0.322357 0.201904
0.649597 0.322327 0.201935
0.773499 0.322235 0.201935
0.917175 0.322021 0.201752
0.000000 0.431335 0.201538
0.080994 0.431519 0.201782
0.201782 0.431427 0.201782
0.322327 0.431335 0.201782
0.431335 0.431335 0.201874
0.537109 0.431335 0.201965
0.649689 0.431305 0.202026
0.773651 0.431213 0.201996
0.917450 0.430939 0.201843
0.000000 0.537109 0.201630
0.081085 0.537262 0.201904
0.201904 0.537201 0.201904
0.322357 0.537109 0.201904
0.431335 0.537109 0.201965
0.537140 0.537140 0.202057
0.649780 0.537109 0.202118
0.773834 0.537018 0.202087
0.917694 0.536774 0.201935
0.000000 0.649384 0.201691
0.081146 0.649628 0.201965
0.201935 0.649628 0.201935
0.322327 0.649597 0.201935
0.431305 0.649689 0.202026
0.537109 0.649780 0.202118
0.649811 0.649811 0.202179
0.773987 0.649780 0.202148
0.917938 0.649628 0.201965
0.000000 0.773041 0.201691
0.081116 0.773346 0.201935
0.201935 0.773438 0.201935
0.322235 0.773499 0.201935
0.431213 0.773651 0.201996
0.537018 0.773834 0.202087
0.649780 0.773987 0.202148
0.774048 0.774048 0.202118
0.918060 0.773987 0.201935
0.000000 0.916443 0.201538
0.080933 0.916840 0.201752
0.201752 0.917023 0.201752
0.322021 0.917175 0.201752
0.430939 0.917450 0.201843
0.536774 0.917694 0.201935
0.649628 0.917938 0.201965
0.773987 0.918060 0.201935
0.918060 0.918060 0.201782
0.000000 0.000000 0.322083
0.080658 0.000000 0.322296
0.201447 0.000000 0.322235
0.322174 0.000000 0.322174
0.431244 0.000000 0.322205
0.537018 0.000000 0.322235
0.649384 0.000000 0.322235
0.773102 0.000000 0.322144
0.916626 0.000000 0.321930
0.000000 0.080658 0.322296
0.080933 0.080933 0.322510
0.201721 0.080933 0.322449
0.322357 0.080902 0.322357
0.431427 0.080994 0.322388
0.537201 0.081085 0.322418
0.649628 0.081116 0.322418
0.773438 0.081085 0.322327
0.917023 0.080933 0.322083
0.000000 0.201447 0.322235
0.080933 0.201721 0.322449
0.201721 0.201721 0.322357
0.322296 0.201721 0.322296
0.431335 0.201782 0.322327
0.537109 0.201904 0.322357
0.649597 0.201935 0.322327
0.773499 0.201935 0.322235
0.917175 0.201752 0.322021
0.000000 0.322174 0.322174
0.080902 0.322357 0.322357
0.201721 0.322296 0.322296
0.322235 0.322235 0.322235
0.431244 0.322266 0.322266
0.537048 0.322296 0.322296
0.649597 0.322266 0.322266
0.773590 0.322174 0.322174
0.917358 0.321960 0.321960
0.000000 0.431244 0.322205
0.080994 0.431427 0.322388
0.201782 0.431335 0.322327
0.322266 0.431244 0.322266
0.431244 0.431244 0.322266
0.537048 0.431274 0.322296
0.649658 0.431213 0.322296
0.773743 0.431091 0.322174
0.917603 0.430847 0.321960
0.000000 0.537018 0.322235
0.081085 0.537201 0.322418
0.201904 0.537109 0.322357
0.322296 0.537048 0.322296
0.431274 0.537048 0.322296
0.537079 0.537079 0.322327
0.649780 0.537048 0.322327
0.773926 0.536926 0.322235
0.917877 0.536682 0.321991
0.000000 0.649384 0.322235
0.081116 0.649628 0.322418
0.201935 0.649597 0.322327
0.322266 0.649597 0.322266
0.431213 0.649658 0.322296
0.537048 0.649780 0.322327
0.649811 0.649811 0.322296
0.774078 0.649780 0.322205
0.918091 0.649628 0.321960
0.000000 0.773102 0.322144
0.081085 0.773438 0.322327
0.201935 0.773499 0.322235
0.322174 0.773590 0.322174
0.431091 0.773743 0.322174
0.536926 0.773926 0.322235
0.649780 0.774078 0.322205
0.774139 0.774139 0.322113
0.918243 0.774078 0.321869
0.000000 0.916626 0.321930
0.080933 0.917023 0.322083
0.201752 0.917175 0.322021
0.321960 0.917358 0.321960
0.430847 0.917603 0.321960
0.536682 0.917877 0.321991
0.649628 0.918091 0.321960
0.774078 0.918243 0.321869
0.918243 0.918243 0.321625
0.000000 0.000000 0.431244
0.080750 0.000000 0.431427
0.201538 0.000000 0.431335
0.322205 0.000000 0.431244
0.431244 0.000000 0.431244
0.537018 0.000000 0.431274
0.649445 0.000000 0.431244
0.773254 0.000000 0.431122
0.916870 0.000000 0.430908
0.000000 0.080750 0.431427
0.080994 0.080994 0.431610
0.201782 0.080994 0.431519
0.322388 0.080994 0.431427
0.431427 0.081055 0.431427
0.537201 0.081146 0.431427
0.649689 0.081207 0.431396
0.773590 0.081177 0.431305
0.917267 0.080994 0.431030
0.000000 0.201538 0.431335
0.080994 0.201782 0.431519
0.201782 0.201782 0.431427
0.322327 0.201782 0.431335
0.431335 0.201874 0.431335
0.537109 0.201965 0.431335
0.649689 0.202026 0.431305
0.773651 0.201996 0.431213
0.917450 0.201843 0.430939
0.000000 0.322205 0.431244
0.080994 0.322388 0.431427
0.201782 0.322327 0.431335
0.322266 0.322266 0.431244
0.431244 0.322266 0.431244
0.537048 0.322296 0.431274
0.649658 0.322296 0.431213
0.773743 0.322174 0.431091
0.917603 0.321960 0.430847
0.000000 0.431244 0.431244
0.081055 0.431427 0.431427
0.201874 0.431335 0.431335
0.322266 0.431244 0.431244
0.431244 0.431244 0.431244
0.537048 0.431244 0.431244
0.649750 0.431213 0.431213
0.773895 0.431091 0.431091
0.917847 0.430817 0.430817
0.000000 0.537018 0.431274
0.081146 0.537201 0.431427
0.201965 0.537109 0.431335
0.322296 0.537048 0.431274
0.431244 0.537048 0.431244
0.537048 0.537048 0.431244
0.649841 0.537018 0.431213
0.774109 0.536926 0.431091
0.918121 0.536652 0.430817
0.000000 0.649445 0.431244
0.081207 0.649689 0.431396
0.202026 0.649689 0.431305
0.322296 0.649658 0.431213
0.431213 0.649750 0.431213
0.537018 0.649841 0.431213
0.649902 0.649902 0.431152
0.774231 0.649872 0.431030
0.918335 0.649719 0.430756
0.000000 0.773254 0.431122
0.081177 0.773590 0.431305
0.201996 0.773651 0.431213
0.322174 0.773743 0.431091
0.431091 0.773895 0.431091
0.536926 0.774109 0.431091
0.649872 0.774231 0.431030
0.774323 0.774323 0.430878
0.918488 0.774261 0.430603
0.000000 0.916870 0.430908
0.080994 0.917267 0.431030
0.201843 0.917450 0.430939
0.321960 0.917603 0.430847
0.430817 0.917847 0.430817
0.536652 0.918121 0.430817
0.649719 0.918335 0.430756
0.774261 0.918488 0.430603
0.918488 0.918488 0.430328
0.000000 0.000000 0.536957
0.080841 0.000000 0.537170
0.201630 0.000000 0.537109
0.322235 0.000000 0.537018
0.431274 0.000000 0.537018
0.537048 0.000000 0.537048
0.649536 0.000000 0.537048
0.773438 0.000000 0.536926
0.917145 0.000000 0.536713
0.000000 0.080841 0.537170
0.081085 0.081085 0.537354
0.201904 0.081085 0.537262
0.322418 0.081085 0.537201
0.431427 0.081146 0.537201
0.537231 0.081238 0.537231
0.649780 0.081299 0.537201
0.773773 0.081268 0.537109
0.917542 0.081085 0.536865
0.000000 0.201630 0.537109
0.081085 0.201904 0.537262
0.201904 0.201904 0.537201
0.322357 0.201904 0.537109
0.431335 0.201965 0.537109
0.537140 0.202057 0.537140
0.649780 0.202118 0.537109
0.773834 0.202087 0.537018
0.917694 0.201935 0.536774
0.000000 0.322235 0.537018
0.081085 0.322418 0.537201
0.201904 0.322357 0.537109
0.322296 0.322296 0.537048
0.431274 0.322296 0.537048
0.537079 0.322327 0.537079
0.649780 0.322327 0.537048
0.773926 0.322235 0.536926
0.917877 0.321991 0.536682
0.000000 0.431274 0.537018
0.081146 0.431427 0.537201
0.201965 0.431335 0.537109
0.322296 0.431274 0.537048
0.431244 0.431244 0.537048
0.537048 0.431244 0.537048
0.649841 0.431213 0.537018
0.774109 0.431091 0.536926
0.918121 0.430817 0.536652
0.000000 0.537048 0.537048
0.081238 0.537231 0.537231
0.202057 0.537140 0.537140
0.322327 0.537079 0.537079
0.431244 0.537048 0.537048
0.537079 0.537079 0.537079
0.649963 0.537048 0.537048
0.774292 0.536926 0.536926
0.918396 0.536682 0.536682
0.000000 0.649536 0.537048
0.081299 0.649780 0.537201
0.202118 0.649780 0.537109
0.322327 0.649780 0.537048
0.431213 0.649841 0.537018
0.537048 0.649963 0.537048
0.649994 0.649994 0.537018
0.774445 0.649963 0.536865
0.918610 0.649811 0.536621
0.000000 0.773438 0.536926
0.081268 0.773773 0.537109
0.202087 0.773834 0.537018
0.322235 0.773926 0.536926
0.431091 0.774109 0.536926
0.536926 0.774292 0.536926
0.649963 0.774445 0.536865
0.774506 0.774506 0.536743
0.918762 0.774445 0.536499
0.000000 0.917145 0.536713
0.081085 0.917542 0.536865
0.201935 0.917694 0.536774
0.321991 0.917877 0.536682
0.430817 0.918121 0.536652
0.536682 0.918396 0.536682
0.649811 0.918610 0.536621
0.774445 0.918762 0.536499
0.918762 0.918762 0.536224
0.000000 0.000000 0.649139
0.080902 0.000000 0.649384
0.201691 0.000000 0.649384
0.322235 0.000000 0.649384
0.431244 0.000000 0.649445
0.537048 0.000000 0.649536
0.649597 0.000000 0.649597
0.773590 0.000000 0.649567
0.917358 0.000000 0.649414
0.000000 0.080902 0.649384
0.081146 0.081146 0.649628
0.201965 0.081146 0.649628
0.322418 0.081116 0.649628
0.431396 0.081207 0.649689
0.537201 0.081299 0.649780
0.649841 0.081329 0.649841
0.773895 0.081299 0.649811
0.917755 0.081146 0.649628
0.000000 0.201691 0.649384
0.081146 0.201965 0.649628
0.201935 0.201935 0.649628
0.322327 0.201935 0.649597
0.431305 0.202026 0.649689
0.537109 0.202118 0.649780
0.649811 0.202179 0.649811
0.773987 0.202148 0.649780
0.917938 0.201965 0.649628
0.000000 0.322235 0.649384
0.081116 0.322418 0.649628
0.201935 0.322327 0.649597
0.322266 0.322266 0.649597
0.431213 0.322296 0.649658
0.537048 0.322327 0.649780
0.649811 0.322296 0.649811
0.774078 0.322205 0.649780
0.918091 0.321960 0.649628
0.000000 0.431244 0.649445
0.081207 0.431396 0.649689
0.202026 0.431305 0.649689
0.322296 0.431213 0.649658
0.431213 0.431213 0.649750
0.537018 0.431213 0.649841
0.649902 0.431152 0.649902
0.774231 0.431030 0.649872
0.918335 0.430756 0.649719
0.000000 0.537048 0.649536
0.081299 0.537201 0.649780
0.202118 0.537109 0.649780
0.322327 0.537048 0.649780
0.431213 0.537018 0.649841
0.537048 0.537048 0.649963
0.649994 0.537018 0.649994
0.774445 0.536865 0.649963
0.918610 0.536621 0.649811
0.000000 0.649597 0.649597
0.081329 0.649841 0.649841
0.202179 0.649811 0.649811
0.322296 0.649811 0.649811
0.431152 0.649902 0.649902
0.537018 0.649994 0.649994
0.650055 0.650055 0.650055
0.774597 0.650024 0.650024
0.918823 0.649872 0.649872
0.000000 0.773590 0.649567
0.081299 0.773895 0.649811
0.202148 0.773987 0.649780
0.322205 0.774078 0.649780
0.431030 0.774231 0.649872
0.536865 0.774445 0.649963
0.650024 0.774597 0.650024
0.774658 0.774658 0.650024
0.918976 0.774597 0.649872
0.000000 0.917358 0.649414
0.081146 0.917755 0.649628
0.201965 0.917938 0.649628
0.321960 0.918091 0.649628
0.430756 0.918335 0.649719
0.536621 0.918610 0.649811
0.649872 0.918823 0.649872
0.774597 0.918976 0.649872
0.918976 0.918976 0.649719
0.000000 0.000000 0.772644
0.080872 0.000000 0.772980
0.201691 0.000000 0.773041
0.322144 0.000000 0.773102
0.431122 0.000000 0.773254
0.536926 0.000000 0.773438
0.649567 0.000000 0.773590
0.773651 0.000000 0.773651
0.917511 0.000000 0.773560
0.000000 0.080872 0.772980
0.081116 0.081116 0.773285
0.201935 0.081116 0.773346
0.322327 0.081085 0.773438
0.431305 0.081177 0.773590
0.537109 0.081268 0.773773
0.649811 0.081299 0.773895
0.773956 0.081268 0.773956
0.917908 0.081085 0.773895
0.000000 0.201691 0.773041
0.081116 0.201935 0.773346
0.201935 0.201935 0.773438
0.322235 0.201935 0.773499
0.431213 0.201996 0.773651
0.537018 0.202087 0.773834
0.649780 0.202148 0.773987
0.774048 0.202118 0.774048
0.918060 0.201935 0.773987
0.000000 0.322144 0.773102
0.081085 0.322327 0.773438
0.201935 0.322235 0.773499
0.322174 0.322174 0.773590
0.431091 0.322174 0.773743
0.536926 0.322235 0.773926
0.649780 0.322205 0.774078
0.774139 0.322113 0.774139
0.918243 0.321869 0.774078
0.000000 0.431122 0.773254
0.081177 0.431305 0.773590
0.201996 0.431213 0.773651
0.322174 0.431091 0.773743
0.431091 0.431091 0.773895
0.536926 0.431091 0.774109
0.649872 0.431030 0.774231
0.774323 0.430878 0.774323
0.918488 0.430603 0.774261
0.000000 0.536926 0.773438
0.081268 0.537109 0.773773
0.202087 0.537018 0.773834
0.322235 0.536926 0.773926
0.431091 0.536926 0.774109
0.536926 0.536926 0.774292
0.649963 0.536865 0.774445
0.774506 0.536743 0.774506
0.918762 0.536499 0.774445
0.000000 0.649567 0.773590
0.081299 0.649811 0.773895
0.202148 0.649780 0.773987
0.322205 0.649780 0.774078
0.431030 0.649872 0.774231
0.536865 0.649963 0.774445
0.650024 0.650024 0.774597
0.774658 0.650024 0.774658
0.918976 0.649872 0.774597
0.000000 0.773651 0.773651
0.081268 0.773956 0.773956
0.202118 0.774048 0.774048
0.322113 0.774139 0.774139
0.430878 0.774323 0.774323
0.536743 0.774506 0.774506
0.650024 0.774658 0.774658
0.774750 0.774750 0.774750
0.919128 0.774689 0.774689
0.000000 0.917511 0.773560
0.081085 0.917908 0.773895
0.201935 0.918060 0.773987
0.321869 0.918243 0.774078
0.430603 0.918488 0.774261
0.536499 0.918762 0.774445
0.649872 0.918976 0.774597
0.774689 0.919128 0.774689
0.919128 0.919128 0.774628
0.000000 0.000000 0.915741
0.080719 0.000000 0.916260
0.201538 0.000000 0.916443
0.321930 0.000000 0.916626
0.430908 0.000000 0.916870
0.536713 0.000000 0.917145
0.649414 0.000000 0.917358
0.773560 0.000000 0.917511
0.917511 0.000000 0.917511
0.000000 0.080719 0.916260
0.080933 0.080933 0.916687
0.201752 0.080933 0.916840
0.322083 0.080933 0.917023
0.431030 0.080994 0.917267
0.536865 0.081085 0.917542
0.649628 0.081146 0.917755
0.773895 0.081085 0.917908
0.917908 0.080933 0.917908
0.000000 0.201538 0.916443
0.080933 0.201752 0.916840
0.201752 0.201752 0.917023
0.322021 0.201752 0.917175
0.430939 0.201843 0.917450
0.536774 0.201935 0.917694
0.649628 0.201965 0.917938
0.773987 0.201935 0.918060
0.918060 0.201782 0.918060
0.000000 0.321930 0.916626
0.080933 0.322083 0.917023
0.201752 0.322021 0.917175
0.321960 0.321960 0.917358
0.430847 0.321960 0.917603
0.536682 0.321991 0.917877
0.649628 0.321960 0.918091
0.774078 0.321869 0.918243
0.918243 0.321625 0.918243
0.000000 0.430908 0.916870
0.080994 0.431030 0.917267
0.201843 0.430939 0.917450
0.321960 0.430847 0.917603
0.430817 0.430817 0.917847
0.536652 0.430817 0.918121
0.649719 0.430756 0.918335
0.774261 0.430603 0.918488
0.918488 0.430328 0.918488
0.000000 0.536713 0.917145
0.081085 0.536865 0.917542
0.201935 0.536774 0.917694
0.321991 0.536682 0.917877
0.430817 0.536652 0.918121
0.536682 0.536682 0.918396
0.649811 0.536621 0.918610
0.774445 0.536499 0.918762
0.918762 0.536224 0.918762
0.000000 0.649414 0.917358
0.081146 0.649628 0.917755
0.201965 0.649628 0.917938
0.321960 0.649628 0.918091
0.430756 0.649719 0.918335
0.536621 0.649811 0.918610
0.649872 0.649872 0.918823
0.774597 0.649872 0.918976
0.918976 0.649719 0.918976
0.000000 0.773560 0.917511
0.081085 0.773895 0.917908
0.201935 0.773987 0.918060
0.321869 0.774078 0.918243
0.430603 0.774261 0.918488
0.536499 0.774445 0.918762
0.649872 0.774597 0.918976
0.774689 0.774689 0.919128
0.919128 0.774628 0.919128
0.000000 0.917511 0.917511
0.080933 0.917908 0.917908
0.201782 0.918060 0.918060
0.321625 0.918243 0.918243
0.430328 0.918488 0.918488
0.536224 0.918762 0.918762
0.649719 0.918976 0.918976
0.774628 0.919128 0.919128
0.919128 0.919128 0.919128
