Kodak Vision2 100T (5212) - Look.cube
# Created by Benjamin (IWLTBAP) : http://luts.iwltbap.com
# Copyright: (C) Copyright 2010-2017 Triune Films and IWLTBAP SAS
# Cannot be resold, shared or otherwise redistributed
TITLE "Film Print Emulation LUTs Pack (Rec.709, sRGB, DCI-P3)"
LUT_3D_SIZE 5
0.000000 0.000000 0.000000
0.164368 0.000000 0.007629
0.331726 0.000000 0.015503
0.506378 0.000000 0.023926
0.702362 0.000000 0.033447
0.045166 0.202118 0.037872
0.234070 0.174408 0.000000
0.391998 0.161255 0.000000
0.704529 0.064240 0.006226
0.707062 0.064240 0.033813
0.182068 0.460175 0.169525
0.272888 0.451935 0.130005
0.488373 0.424072 0.072113
0.674591 0.395020 0.000000
0.831390 0.402679 0.000000
0.326935 0.728607 0.308655
0.391113 0.715302 0.308289
0.530518 0.700104 0.232086
0.754791 0.672333 0.107819
0.953491 0.626160 0.000000
0.437866 0.978210 0.413361
0.488373 0.966492 0.420624
0.605194 0.962769 0.305511
0.787415 0.922699 0.304504
0.981476 0.893005 0.000000
0.000000 0.070526 0.217590
0.125916 0.047211 0.101624
0.345306 0.000000 0.076172
0.505005 0.000000 0.088043
0.701202 0.000000 0.097626
0.000000 0.250000 0.133392
0.201569 0.201324 0.177399
0.455170 0.161499 0.064240
0.700806 0.080139 0.064270
0.705902 0.064240 0.097961
0.166626 0.489105 0.224823
0.271759 0.464508 0.247742
0.503479 0.433075 0.193634
0.664764 0.425568 0.105957
0.832886 0.406067 0.064240
0.318848 0.744965 0.344879
0.385773 0.728241 0.357941
0.531128 0.712585 0.297424
0.756561 0.677856 0.236267
0.964050 0.631592 0.064240
0.431488 0.989380 0.442017
0.482147 0.977692 0.450073
0.603577 0.966003 0.381561
0.786896 0.931854 0.382233
0.989502 0.902771 0.064240
0.000000 0.133148 0.480774
0.000000 0.180756 0.398773
0.270081 0.115784 0.224335
0.405975 0.080200 0.214935
0.712219 0.018372 0.128510
0.000000 0.288391 0.338928
0.005005 0.341278 0.416473
0.345642 0.268127 0.319427
0.545410 0.232574 0.248566
0.685486 0.107025 0.128510
0.103912 0.569275 0.356659
0.214233 0.546387 0.380219
0.474670 0.474274 0.433624
0.721588 0.442078 0.324249
0.969238 0.392303 0.128510
0.236511 0.822968 0.432068
0.340668 0.787201 0.453827
0.529724 0.733612 0.484863
0.770020 0.693939 0.428253
0.942017 0.682526 0.322510
0.404816 1.000000 0.522705
0.465271 1.000000 0.534119
0.597595 0.978546 0.551483
0.784729 0.957825 0.501465
1.000000 0.931427 0.328705
0.000000 0.266479 0.747406
0.000000 0.255585 0.749512
0.293640 0.280945 0.437134
0.459167 0.234619 0.398590
0.557587 0.141815 0.360840
0.000000 0.396667 0.653900
0.000000 0.409454 0.684387
0.280396 0.400238 0.589478
0.520111 0.363861 0.474060
0.646149 0.316254 0.455231
0.000000 0.675751 0.585846
0.076080 0.679291 0.617950
0.315582 0.616455 0.698700
0.623016 0.548279 0.599396
0.824615 0.515869 0.531799
0.248413 0.870483 0.610626
0.316742 0.856079 0.625244
0.483734 0.814056 0.662018
0.740814 0.740601 0.702881
0.999969 0.701508 0.575134
0.274384 1.000000 0.646301
0.343231 1.000000 0.660736
0.538452 1.000000 0.702301
0.778809 0.986908 0.730255
1.000000 0.951782 0.651764
0.000000 0.606964 1.000000
0.000000 0.594421 1.000000
0.000031 0.610168 1.000000
0.569885 0.456085 0.633850
0.695770 0.417603 0.635223
0.000000 0.682861 1.000000
0.000000 0.671814 1.000000
0.000031 0.689026 1.000000
0.560516 0.538452 0.722473
0.728271 0.507141 0.675690
0.000000 0.879456 0.925049
0.000000 0.873199 0.927521
0.109436 0.843750 1.000000
0.554016 0.699097 0.917023
0.803833 0.656403 0.768738
0.338409 0.965637 0.884277
0.367493 0.962372 0.895355
0.432129 0.953217 0.922546
0.599060 0.897888 0.996124
0.898468 0.826447 0.881805
0.529144 1.000000 0.859192
0.561035 1.000000 0.868530
0.655212 1.000000 0.896118
0.801636 1.000000 0.945587
0.996796 0.996796 0.996826
