Kodak Vision3 500T (5230) - Look.cube
# Created by Benjamin (IWLTBAP) : http://luts.iwltbap.com
# Copyright: (C) Copyright 2010-2017 Triune Films and IWLTBAP SAS
# Cannot be resold, shared or otherwise redistributed
TITLE "Film Print Emulation LUTs Pack (Rec.709, sRGB, DCI-P3)"
LUT_3D_SIZE 5
0.001587 0.000000 0.000000
0.220734 0.018127 0.000000
0.437927 0.038818 0.000000
0.632660 0.053406 0.000000
0.798370 0.062317 0.000000
0.027588 0.140015 0.000000
0.186340 0.175232 0.000000
0.473999 0.241211 0.000000
0.674591 0.253387 0.000000
0.838959 0.255219 0.000000
0.101074 0.295258 0.001556
0.259003 0.338898 0.000000
0.459106 0.392487 0.000000
0.705566 0.468292 0.000000
0.898071 0.490417 0.023071
0.207794 0.475250 0.000000
0.379486 0.523132 0.000000
0.563141 0.570587 0.003937
0.694183 0.603729 0.036011
0.878052 0.656647 0.030701
0.346130 0.643372 0.049683
0.491882 0.686462 0.060455
0.636993 0.711670 0.080078
0.751770 0.723877 0.114655
0.840851 0.751495 0.136902
0.000000 0.027588 0.131805
0.143951 0.031525 0.141724
0.425964 0.024139 0.197510
0.635498 0.026520 0.194580
0.811737 0.037354 0.187469
0.000000 0.141449 0.166046
0.232605 0.217651 0.206635
0.488739 0.248260 0.221252
0.692993 0.257172 0.222260
0.864532 0.255524 0.215118
0.059265 0.288147 0.166534
0.279846 0.371704 0.182861
0.489197 0.421143 0.179443
0.740417 0.502289 0.248260
0.921387 0.510925 0.259094
0.187347 0.462891 0.183502
0.375580 0.547516 0.223816
0.576385 0.595276 0.244812
0.702362 0.620850 0.238220
0.898132 0.684296 0.265900
0.262787 0.629852 0.229584
0.465393 0.690765 0.292114
0.631989 0.725098 0.327118
0.746765 0.734161 0.328247
0.838623 0.763580 0.332062
0.000000 0.075653 0.250061
0.027588 0.071564 0.329010
0.321747 0.077637 0.291107
0.561798 0.081085 0.336243
0.828461 0.038574 0.404877
0.000000 0.170776 0.300995
0.085632 0.233246 0.387756
0.438995 0.262787 0.366791
0.646210 0.279633 0.409454
0.874481 0.258820 0.432312
0.000000 0.292480 0.321167
0.055573 0.359528 0.371124
0.556000 0.507446 0.453064
0.738678 0.528625 0.473602
0.917053 0.513245 0.478577
0.003174 0.447601 0.350067
0.188812 0.519714 0.390350
0.561462 0.607971 0.444946
0.684875 0.631042 0.451080
0.926514 0.727753 0.511749
0.170776 0.597290 0.383118
0.374725 0.665680 0.419678
0.607819 0.730225 0.486542
0.735107 0.746704 0.508026
0.831787 0.774109 0.506165
0.003143 0.121094 0.371155
0.007874 0.124634 0.420746
0.290833 0.132996 0.498108
0.502960 0.116730 0.452057
0.680298 0.130829 0.442474
0.007874 0.212585 0.417816
0.014191 0.259735 0.490723
0.363281 0.289551 0.550507
0.614685 0.308716 0.525055
0.762177 0.324005 0.518707
0.008667 0.314972 0.425323
0.014191 0.375488 0.488312
0.470856 0.514130 0.608093
0.705200 0.547852 0.606476
0.826538 0.556091 0.622772
0.013428 0.455933 0.469147
0.110077 0.515106 0.522278
0.462280 0.580902 0.559387
0.759155 0.725800 0.670563
0.887756 0.748596 0.687897
0.014984 0.568848 0.483185
0.168182 0.623657 0.530548
0.538971 0.710968 0.593933
0.719025 0.749390 0.628815
0.812714 0.766327 0.640869
0.011841 0.156189 0.470947
0.015778 0.175781 0.521149
0.221039 0.171478 0.615479
0.491150 0.194946 0.642761
0.651855 0.153351 0.599365
0.015778 0.245422 0.520416
0.020508 0.280396 0.576660
0.282654 0.324554 0.664612
0.556824 0.342590 0.678711
0.727539 0.338989 0.657745
0.018158 0.351105 0.543396
0.022888 0.403992 0.594543
0.421082 0.537567 0.723145
0.629242 0.534363 0.713104
0.794861 0.552643 0.718811
0.018921 0.456573 0.547943
0.053650 0.507843 0.599854
0.414062 0.600006 0.672485
0.721069 0.723328 0.765503
0.860168 0.750336 0.785461
0.022888 0.581604 0.590698
0.168427 0.629272 0.631134
0.461273 0.677521 0.665222
0.681335 0.746948 0.717957
0.907196 0.877258 0.830322
