Kodachrome 25 (K-14) - Only contrast.cube
# Copyright: (C) Copyright 2017 by IWLTBAP
# Cannot be resold, shared or otherwise redistributed
# Website: https://luts.iwltbap.com
TITLE "Kodak Kodachrome 25 (K-14) - Contrast (Rec.709 sRGB)"
LUT_3D_SIZE 33
0.000000 0.000000 0.000000
0.014983 0.000000 0.000000
0.029966 0.000000 0.000000
0.065085 0.000000 0.000000
0.100309 0.000000 0.000000
0.143129 0.000000 0.000000
0.186287 0.000000 0.000000
0.238805 0.000000 0.000000
0.288014 0.000000 0.000000
0.336646 0.000000 0.000000
0.380622 0.000000 0.000000
0.419534 0.000000 0.000000
0.454796 0.000000 0.000000
0.483994 0.000000 0.000000
0.509330 0.000000 0.000000
0.533165 0.000000 0.000000
0.558423 0.000000 0.000000
0.582573 0.000000 0.000000
0.603071 0.000000 0.000000
0.621514 0.000000 0.000000
0.640387 0.000000 0.000000
0.660373 0.000000 0.000000
0.679563 0.000000 0.000000
0.700735 0.000000 0.000000
0.724561 0.000000 0.000000
0.749059 0.000000 0.000000
0.775937 0.000000 0.000000
0.807014 0.000000 0.000000
0.841568 0.000000 0.000000
0.877772 0.000000 0.000000
0.922037 0.000000 0.000000
0.956437 0.000000 0.000000
0.984932 0.000000 0.000000
0.000000 0.015771 0.000000
0.014983 0.014983 0.000000
0.030754 0.014983 0.000000
0.065646 0.014983 0.000000
0.099522 0.014983 0.000000
0.145068 0.014983 0.000000
0.187131 0.014983 0.000000
0.238805 0.014194 0.000000
0.288789 0.014194 0.000000
0.336323 0.014194 0.000000
0.381362 0.013406 0.000000
0.420273 0.013406 0.000000
0.454722 0.013406 0.000000
0.484337 0.013406 0.000000
0.509072 0.013406 0.000000
0.533226 0.013406 0.000000
0.558480 0.012617 0.000000
0.582628 0.012617 0.000000
0.603123 0.012617 0.000000
0.621565 0.012617 0.000000
0.640483 0.012617 0.000000
0.660650 0.012617 0.000000
0.679652 0.012617 0.000000
0.700606 0.012617 0.000000
0.724479 0.012617 0.000000
0.749177 0.012617 0.000000
0.776087 0.012617 0.000000
0.807014 0.011829 0.000000
0.841737 0.011829 0.000000
0.877804 0.011829 0.000000
0.922515 0.011829 0.000000
0.956522 0.011829 0.000000
0.985151 0.011040 0.000000
0.000000 0.030754 0.000000
0.015771 0.031543 0.000000
0.031543 0.031543 0.000000
0.065085 0.030754 0.000000
0.099522 0.030754 0.000000
0.145068 0.031543 0.000000
0.187552 0.031543 0.000000
0.238805 0.030754 0.000000
0.289046 0.031543 0.000000
0.336323 0.030754 0.000000
0.381454 0.030754 0.000000
0.420273 0.030754 0.000000
0.455390 0.030754 0.000000
0.484612 0.030754 0.000000
0.509136 0.030754 0.000000
0.533226 0.030754 0.000000
0.558480 0.030754 0.000000
0.582845 0.030754 0.000000
0.603175 0.031543 0.000000
0.621714 0.030754 0.000000
0.640579 0.030754 0.000000
0.660558 0.030754 0.000000
0.679696 0.031543 0.000000
0.700649 0.031543 0.000000
0.724479 0.031543 0.000000
0.749138 0.031543 0.000000
0.776200 0.031543 0.000000
0.807085 0.031543 0.000000
0.841770 0.031543 0.000000
0.877995 0.031543 0.000000
0.922664 0.031543 0.000000
0.956636 0.031543 0.000000
0.985178 0.032332 0.000000
0.000000 0.065085 0.000000
0.014983 0.065085 0.000000
0.030754 0.065085 0.000000
0.066202 0.066202 0.000000
0.099916 0.065646 0.000000
0.145343 0.065646 0.000000
0.187762 0.065646 0.000000
0.238805 0.065646 0.000000
0.288789 0.065085 0.000000
0.336753 0.065085 0.000000
0.381638 0.065085 0.000000
0.420436 0.065085 0.000000
0.455242 0.065085 0.000000
0.484406 0.065085 0.000000
0.509072 0.065085 0.000000
0.533165 0.065085 0.000000
0.558423 0.065646 0.000000
0.582519 0.065646 0.000000
0.602968 0.065646 0.000000
0.621415 0.065646 0.000000
0.640531 0.065646 0.000000
0.660466 0.065646 0.000000
0.679607 0.066202 0.000000
0.700521 0.066202 0.000000
0.724520 0.066202 0.000000
0.749216 0.066202 0.000000
0.776087 0.066202 0.000000
0.807156 0.066202 0.000000
0.841838 0.066202 0.000000
0.878027 0.066202 0.000000
0.922724 0.066202 0.000000
0.956551 0.066202 0.000000
0.985178 0.066202 0.000000
0.000000 0.099916 0.000000
0.014983 0.100309 0.000000
0.031543 0.099916 0.000000
0.065646 0.099522 0.000000
0.099916 0.099916 0.000000
0.145068 0.099916 0.000000
0.187131 0.099916 0.000000
0.238965 0.099522 0.000000
0.288789 0.099522 0.000000
0.336968 0.099522 0.000000
0.381269 0.099522 0.000000
0.420191 0.099522 0.000000
0.455019 0.099522 0.000000
0.484200 0.099522 0.000000
0.509136 0.099522 0.000000
0.533226 0.099522 0.000000
0.558480 0.099522 0.000000
0.582519 0.099916 0.000000
0.602760 0.099916 0.000000
0.621165 0.099916 0.000000
0.640290 0.099916 0.000000
0.660373 0.100309 0.000000
0.679518 0.100309 0.000000
0.700649 0.100700 0.000000
0.724438 0.100700 0.000000
0.749098 0.100700 0.000000
0.776125 0.100700 0.000000
0.807192 0.101090 0.000000
0.841838 0.101090 0.000000
0.878027 0.101090 0.000000
0.922992 0.101090 0.000000
0.956522 0.101090 0.000000
0.985014 0.101090 0.000000
0.000000 0.143964 0.000000
0.014983 0.144517 0.000000
0.031543 0.144517 0.000000
0.065646 0.145068 0.000000
0.099916 0.144793 0.000000
0.144793 0.144793 0.000000
0.187342 0.144793 0.000000
0.239286 0.145068 0.000000
0.288789 0.144793 0.000000
0.337289 0.144793 0.000000
0.381269 0.144517 0.000000
0.420109 0.144517 0.000000
0.455167 0.144793 0.000000
0.483994 0.144793 0.000000
0.508943 0.144793 0.000000
0.532983 0.145068 0.000000
0.558136 0.145343 0.000000
0.582465 0.145343 0.000000
0.602604 0.145618 0.000000
0.621165 0.145618 0.000000
0.640242 0.145891 0.000000
0.660142 0.145891 0.000000
0.679251 0.146165 0.000000
0.700478 0.146437 0.000000
0.724274 0.146437 0.000000
0.748941 0.146710 0.000000
0.775937 0.146710 0.000000
0.807014 0.146710 0.000000
0.841669 0.146710 0.000000
0.878027 0.146981 0.000000
0.922813 0.146981 0.000000
0.956380 0.146981 0.000000
0.984960 0.146981 0.000000
0.000000 0.186709 0.000000
0.014983 0.186709 0.000000
0.031543 0.187131 0.000000
0.065646 0.186920 0.000000
0.099916 0.187342 0.000000
0.144793 0.186920 0.000000
0.187552 0.187552 0.000000
0.239446 0.187342 0.000000
0.288660 0.187342 0.000000
0.337182 0.187342 0.000000
0.381362 0.187342 0.000000
0.420109 0.187342 0.000000
0.455093 0.187552 0.000000
0.483925 0.187552 0.000000
0.508814 0.187762 0.000000
0.532983 0.187972 0.000000
0.557964 0.187972 0.000000
0.582193 0.188181 0.000000
0.602500 0.188390 0.000000
0.621064 0.188599 0.000000
0.640050 0.188808 0.000000
0.660096 0.189016 0.000000
0.679117 0.189225 0.000000
0.700350 0.189433 0.000000
0.724110 0.189640 0.000000
0.748745 0.189848 0.000000
0.775862 0.190055 0.000000
0.807049 0.190055 0.000000
0.841703 0.190262 0.000000
0.877995 0.190262 0.000000
0.922932 0.190262 0.000000
0.956323 0.190469 0.000000
0.984877 0.190675 0.000000
0.000000 0.238322 0.000000
0.014194 0.238644 0.000000
0.030754 0.238805 0.000000
0.065646 0.239286 0.000000
0.099522 0.239126 0.000000
0.144793 0.238965 0.000000
0.187342 0.238965 0.000000
0.239126 0.239126 0.000000
0.288789 0.239286 0.000000
0.337289 0.239126 0.000000
0.381177 0.239126 0.000000
0.419945 0.239286 0.000000
0.454945 0.239446 0.000000
0.483856 0.239606 0.000000
0.508685 0.239766 0.000000
0.532618 0.239926 0.000000
0.557734 0.240086 0.000000
0.582084 0.240405 0.000000
0.602187 0.240405 0.000000
0.620714 0.240724 0.000000
0.639857 0.240883 0.000000
0.659864 0.241042 0.000000
0.678894 0.241360 0.000000
0.700092 0.241518 0.000000
0.723987 0.241677 0.000000
0.748549 0.241835 0.000000
0.775825 0.242152 0.000000
0.806836 0.242152 0.000000
0.841636 0.242310 0.000000
0.877899 0.242310 0.000000
0.922873 0.242310 0.000000
0.956095 0.242468 0.000000
0.984740 0.242626 0.000000
0.000000 0.288014 0.000000
0.014194 0.288531 0.000000
0.030754 0.288402 0.000000
0.065085 0.288660 0.000000
0.099522 0.288531 0.000000
0.144517 0.288789 0.000000
0.187342 0.288660 0.000000
0.239126 0.288918 0.000000
0.288660 0.288660 0.000000
0.337075 0.288789 0.000000
0.380992 0.288660 0.000000
0.419699 0.288789 0.000000
0.454648 0.288918 0.000000
0.483650 0.289046 0.000000
0.508427 0.289433 0.000000
0.532557 0.289561 0.000000
0.557849 0.289818 0.000000
0.581813 0.289690 0.000000
0.602031 0.289946 0.000000
0.620514 0.290203 0.000000
0.639568 0.290587 0.000000
0.659587 0.290587 0.000000
0.678582 0.290715 0.000000
0.699964 0.290971 0.000000
0.723741 0.291099 0.000000
0.748431 0.291226 0.000000
0.775600 0.291737 0.000000
0.806765 0.291864 0.000000
0.841534 0.291864 0.000000
0.877708 0.291991 0.000000
0.923022 0.291991 0.000000
0.955953 0.292246 0.000000
0.984576 0.292118 0.000000
0.000000 0.336323 0.000000
0.014194 0.336753 0.000000
0.030754 0.336860 0.000000
0.065085 0.336860 0.000000
0.099522 0.336968 0.000000
0.144517 0.337182 0.000000
0.187342 0.337182 0.000000
0.239126 0.336968 0.000000
0.288918 0.337075 0.000000
0.336968 0.336968 0.000000
0.381084 0.337182 0.000000
0.419945 0.337289 0.000000
0.454722 0.337397 0.000000
0.483444 0.337397 0.000000
0.508168 0.337504 0.000000
0.532313 0.337611 0.000000
0.557562 0.337718 0.000000
0.581758 0.338146 0.000000
0.601979 0.338252 0.000000
0.620414 0.338466 0.000000
0.639376 0.338466 0.000000
0.659448 0.338893 0.000000
0.678448 0.338999 0.000000
0.699664 0.338999 0.000000
0.723617 0.339212 0.000000
0.748195 0.339531 0.000000
0.775375 0.339425 0.000000
0.806515 0.339531 0.000000
0.841467 0.339638 0.000000
0.877612 0.339744 0.000000
0.922962 0.339744 0.000000
0.955810 0.339850 0.000000
0.984549 0.340169 0.000000
0.000000 0.381084 0.000000
0.013406 0.381084 0.000000
0.030754 0.381084 0.000000
0.065085 0.381362 0.000000
0.099522 0.381546 0.000000
0.144793 0.381362 0.000000
0.187342 0.381362 0.000000
0.239286 0.381269 0.000000
0.288918 0.381177 0.000000
0.336968 0.380992 0.000000
0.381084 0.381084 0.000000
0.419781 0.381177 0.000000
0.454499 0.381177 0.000000
0.483513 0.381269 0.000000
0.508039 0.381362 0.000000
0.532192 0.381546 0.000000
0.557562 0.381638 0.000000
0.581540 0.381731 0.000000
0.601667 0.381823 0.000000
0.620263 0.382007 0.000000
0.639279 0.382192 0.000000
0.659309 0.382376 0.000000
0.678269 0.382468 0.000000
0.699664 0.382652 0.000000
0.723535 0.382744 0.000000
0.748077 0.382836 0.000000
0.775337 0.382927 0.000000
0.806515 0.383019 0.000000
0.841400 0.383019 0.000000
0.877708 0.383019 0.000000
0.923022 0.383019 0.000000
0.955696 0.383111 0.000000
0.984357 0.383203 0.000000
0.000000 0.419863 0.000000
0.013406 0.420027 0.000000
0.030754 0.420027 0.000000
0.065085 0.420191 0.000000
0.099522 0.420273 0.000000
0.144517 0.420109 0.000000
0.187342 0.419945 0.000000
0.239286 0.420027 0.000000
0.289046 0.420027 0.000000
0.336968 0.419781 0.000000
0.380992 0.419616 0.000000
0.419616 0.419616 0.000000
0.454425 0.419781 0.000000
0.483444 0.419863 0.000000
0.508104 0.419863 0.000000
0.532070 0.419945 0.000000
0.557390 0.420027 0.000000
0.581377 0.420109 0.000000
0.601615 0.420273 0.000000
0.620063 0.420436 0.000000
0.639086 0.420518 0.000000
0.659077 0.420682 0.000000
0.678091 0.420764 0.000000
0.699492 0.420927 0.000000
0.723412 0.421009 0.000000
0.748077 0.421009 0.000000
0.775262 0.421091 0.000000
0.806480 0.421173 0.000000
0.841366 0.421173 0.000000
0.877580 0.421173 0.000000
0.923171 0.421091 0.000000
0.955668 0.421091 0.000000
0.984357 0.421254 0.000000
0.000000 0.454871 0.000000
0.013406 0.455093 0.000000
0.030754 0.455019 0.000000
0.065085 0.455167 0.000000
0.099522 0.455093 0.000000
0.144793 0.455019 0.000000
0.187552 0.455019 0.000000
0.239446 0.454871 0.000000
0.289046 0.454648 0.000000
0.337182 0.454573 0.000000
0.381177 0.454499 0.000000
0.419781 0.454499 0.000000
0.454425 0.454425 0.000000
0.483237 0.454425 0.000000
0.507910 0.454499 0.000000
0.532070 0.454648 0.000000
0.557275 0.454648 0.000000
0.581323 0.454722 0.000000
0.601510 0.454796 0.000000
0.620013 0.454871 0.000000
0.638990 0.454945 0.000000
0.659077 0.455019 0.000000
0.678091 0.455167 0.000000
0.699449 0.455167 0.000000
0.723412 0.455242 0.000000
0.747999 0.455316 0.000000
0.775187 0.455316 0.000000
0.806444 0.455316 0.000000
0.841332 0.455316 0.000000
0.877612 0.455242 0.000000
0.923201 0.455093 0.000000
0.955554 0.455093 0.000000
0.984302 0.455167 0.000000
0.000000 0.484268 0.000000
0.013406 0.484200 0.000000
0.030754 0.484474 0.000000
0.065085 0.484268 0.000000
0.099522 0.484337 0.000000
0.144793 0.484062 0.000000
0.187552 0.483994 0.000000
0.239606 0.483788 0.000000
0.289175 0.483650 0.000000
0.337504 0.483581 0.000000
0.381177 0.483375 0.000000
0.419781 0.483237 0.000000
0.454499 0.483306 0.000000
0.483168 0.483168 0.000000
0.507845 0.483237 0.000000
0.532009 0.483237 0.000000
0.557160 0.483168 0.000000
0.581268 0.483237 0.000000
0.601458 0.483306 0.000000
0.619862 0.483306 0.000000
0.638990 0.483444 0.000000
0.658938 0.483375 0.000000
0.678001 0.483444 0.000000
0.699406 0.483444 0.000000
0.723330 0.483444 0.000000
0.747920 0.483444 0.000000
0.775375 0.483513 0.000000
0.806551 0.483513 0.000000
0.841366 0.483306 0.000000
0.877708 0.483237 0.000000
0.923380 0.483168 0.000000
0.955554 0.483100 0.000000
0.984275 0.483031 0.000000
0.000000 0.509201 0.000000
0.013406 0.509136 0.000000
0.030754 0.509201 0.000000
0.065085 0.509136 0.000000
0.099522 0.509136 0.000000
0.145068 0.508878 0.000000
0.187762 0.508878 0.000000
0.239766 0.508620 0.000000
0.289433 0.508427 0.000000
0.337611 0.508233 0.000000
0.381362 0.508168 0.000000
0.419863 0.508039 0.000000
0.454499 0.507975 0.000000
0.483237 0.507975 0.000000
0.507910 0.507910 0.000000
0.532009 0.507910 0.000000
0.557217 0.507910 0.000000
0.581214 0.507845 0.000000
0.601354 0.507910 0.000000
0.619812 0.507975 0.000000
0.638893 0.508104 0.000000
0.658938 0.508039 0.000000
0.677957 0.508104 0.000000
0.699449 0.508168 0.000000
0.723330 0.508104 0.000000
0.747920 0.508104 0.000000
0.775375 0.508168 0.000000
0.806622 0.508039 0.000000
0.841534 0.507975 0.000000
0.877836 0.507910 0.000000
0.923559 0.507781 0.000000
0.955639 0.507781 0.000000
0.984357 0.507716 0.000000
0.000000 0.533165 0.000000
0.013406 0.533287 0.000000
0.030754 0.533226 0.000000
0.065085 0.533165 0.000000
0.099522 0.533105 0.000000
0.145068 0.533044 0.000000
0.187972 0.532922 0.000000
0.239926 0.532618 0.000000
0.289561 0.532496 0.000000
0.337611 0.532252 0.000000
0.381454 0.532252 0.000000
0.420027 0.532131 0.000000
0.454573 0.532131 0.000000
0.483306 0.532070 0.000000
0.507910 0.531948 0.000000
0.532009 0.532009 0.000000
0.557217 0.532009 0.000000
0.581268 0.532070 0.000000
0.601406 0.532070 0.000000
0.619812 0.532070 0.000000
0.638749 0.532070 0.000000
0.658938 0.532192 0.000000
0.677912 0.532131 0.000000
0.699363 0.532192 0.000000
0.723289 0.532192 0.000000
0.747959 0.532192 0.000000
0.775337 0.532131 0.000000
0.806622 0.532070 0.000000
0.841602 0.532009 0.000000
0.877772 0.531948 0.000000
0.923767 0.531887 0.000000
0.955611 0.531704 0.000000
0.984302 0.531765 0.000000
0.000000 0.558308 0.000000
0.012617 0.558480 0.000000
0.030754 0.558480 0.000000
0.065646 0.558423 0.000000
0.099522 0.558365 0.000000
0.145343 0.558136 0.000000
0.188181 0.558021 0.000000
0.240086 0.557964 0.000000
0.289561 0.557677 0.000000
0.337718 0.557619 0.000000
0.381638 0.557447 0.000000
0.420027 0.557332 0.000000
0.454648 0.557217 0.000000
0.483168 0.557160 0.000000
0.507910 0.557275 0.000000
0.532070 0.557275 0.000000
0.557217 0.557217 0.000000
0.581159 0.557275 0.000000
0.601302 0.557390 0.000000
0.619662 0.557332 0.000000
0.638797 0.557447 0.000000
0.658892 0.557504 0.000000
0.677823 0.557447 0.000000
0.699321 0.557504 0.000000
0.723330 0.557562 0.000000
0.747920 0.557562 0.000000
0.775375 0.557562 0.000000
0.806729 0.557504 0.000000
0.841703 0.557447 0.000000
0.877931 0.557390 0.000000
0.923857 0.557217 0.000000
0.955639 0.557160 0.000000
0.984302 0.557102 0.000000
0.000000 0.582573 0.000000
0.012617 0.582682 0.000000
0.030754 0.582628 0.000000
0.065646 0.582573 0.000000
0.099916 0.582519 0.000000
0.145343 0.582410 0.000000
0.188390 0.582302 0.000000
0.240246 0.582084 0.000000
0.289946 0.581921 0.000000
0.337932 0.581649 0.000000
0.381731 0.581595 0.000000
0.420191 0.581432 0.000000
0.454722 0.581323 0.000000
0.483306 0.581323 0.000000
0.507845 0.581214 0.000000
0.531948 0.581159 0.000000
0.557332 0.581214 0.000000
0.581214 0.581214 0.000000
0.601250 0.581268 0.000000
0.619712 0.581268 0.000000
0.638749 0.581268 0.000000
0.658892 0.581268 0.000000
0.677867 0.581323 0.000000
0.699363 0.581268 0.000000
0.723330 0.581323 0.000000
0.747959 0.581214 0.000000
0.775375 0.581159 0.000000
0.806765 0.581105 0.000000
0.841737 0.581050 0.000000
0.878090 0.580996 0.000000
0.924155 0.580832 0.000000
0.955639 0.580669 0.000000
0.984412 0.580669 0.000000
0.000000 0.603020 0.000000
0.012617 0.603123 0.000000
0.030754 0.603071 0.000000
0.065646 0.603020 0.000000
0.099916 0.602864 0.000000
0.145618 0.602760 0.000000
0.188390 0.602552 0.000000
0.240405 0.602292 0.000000
0.289946 0.602083 0.000000
0.338039 0.601875 0.000000
0.381823 0.601667 0.000000
0.420273 0.601562 0.000000
0.454722 0.601406 0.000000
0.483237 0.601354 0.000000
0.507910 0.601406 0.000000
0.532070 0.601406 0.000000
0.557390 0.601354 0.000000
0.581159 0.601250 0.000000
0.601302 0.601302 0.000000
0.619662 0.601250 0.000000
0.638797 0.601250 0.000000
0.658892 0.601250 0.000000
0.677867 0.601250 0.000000
0.699449 0.601197 0.000000
0.723330 0.601197 0.000000
0.747959 0.601093 0.000000
0.775525 0.601093 0.000000
0.806907 0.601041 0.000000
0.841905 0.600884 0.000000
0.878186 0.600780 0.000000
0.924304 0.600571 0.000000
0.955668 0.600467 0.000000
0.984494 0.600414 0.000000
0.000000 0.621614 0.000000
0.012617 0.621565 0.000000
0.030754 0.621664 0.000000
0.065646 0.621465 0.000000
0.099916 0.621315 0.000000
0.145618 0.621114 0.000000
0.188599 0.620964 0.000000
0.240724 0.620714 0.000000
0.290459 0.620564 0.000000
0.338252 0.620314 0.000000
0.382007 0.620213 0.000000
0.420436 0.620063 0.000000
0.454871 0.619913 0.000000
0.483306 0.619862 0.000000
0.507975 0.619812 0.000000
0.532131 0.619812 0.000000
0.557390 0.619712 0.000000
0.581214 0.619662 0.000000
0.601250 0.619662 0.000000
0.619712 0.619712 0.000000
0.638797 0.619712 0.000000
0.658892 0.619612 0.000000
0.677867 0.619662 0.000000
0.699406 0.619612 0.000000
0.723412 0.619662 0.000000
0.748038 0.619561 0.000000
0.775562 0.619511 0.000000
0.807014 0.619461 0.000000
0.841972 0.619310 0.000000
0.878377 0.619210 0.000000
0.924423 0.618959 0.000000
0.955696 0.618909 0.000000
0.984576 0.618858 0.000000
0.000000 0.640531 0.000000
0.012617 0.640531 0.000000
0.030754 0.640579 0.000000
0.065646 0.640435 0.000000
0.099916 0.640338 0.000000
0.145891 0.640098 0.000000
0.188808 0.640002 0.000000
0.240883 0.639857 0.000000
0.290587 0.639568 0.000000
0.338466 0.639424 0.000000
0.382192 0.639183 0.000000
0.420518 0.639086 0.000000
0.454945 0.638990 0.000000
0.483375 0.638893 0.000000
0.507975 0.638845 0.000000
0.532131 0.638893 0.000000
0.557447 0.638797 0.000000
0.581214 0.638797 0.000000
0.601250 0.638797 0.000000
0.619712 0.638797 0.000000
0.638797 0.638797 0.000000
0.658892 0.638797 0.000000
0.677823 0.638797 0.000000
0.699449 0.638700 0.000000
0.723453 0.638749 0.000000
0.748038 0.638652 0.000000
0.775638 0.638604 0.000000
0.807049 0.638556 0.000000
0.842073 0.638411 0.000000
0.878473 0.638314 0.000000
0.924631 0.638121 0.000000
0.955810 0.638073 0.000000
0.984604 0.638073 0.000000
0.000000 0.660558 0.000000
0.012617 0.660512 0.000000
0.030754 0.660604 0.000000
0.065646 0.660466 0.000000
0.100309 0.660419 0.000000
0.145891 0.660235 0.000000
0.189016 0.660049 0.000000
0.241042 0.659772 0.000000
0.290715 0.659587 0.000000
0.338679 0.659448 0.000000
0.382376 0.659263 0.000000
0.420682 0.659124 0.000000
0.455019 0.659031 0.000000
0.483375 0.658938 0.000000
0.508039 0.658938 0.000000
0.532192 0.658938 0.000000
0.557504 0.658892 0.000000
0.581268 0.658846 0.000000
0.601250 0.658892 0.000000
0.619612 0.658846 0.000000
0.638797 0.658892 0.000000
0.658846 0.658846 0.000000
0.677867 0.658938 0.000000
0.699449 0.658892 0.000000
0.723453 0.658846 0.000000
0.748117 0.658799 0.000000
0.775712 0.658799 0.000000
0.807156 0.658660 0.000000
0.842242 0.658660 0.000000
0.878600 0.658521 0.000000
0.924839 0.658335 0.000000
0.955896 0.658289 0.000000
0.984686 0.658196 0.000000
0.000000 0.679652 0.000000
0.012617 0.679652 0.000000
0.031543 0.679652 0.000000
0.066202 0.679563 0.000000
0.100309 0.679429 0.000000
0.146165 0.679295 0.000000
0.189225 0.679072 0.000000
0.241360 0.678849 0.000000
0.290843 0.678671 0.000000
0.338893 0.678448 0.000000
0.382560 0.678314 0.000000
0.420764 0.678180 0.000000
0.455093 0.678001 0.000000
0.483444 0.678001 0.000000
0.508104 0.677957 0.000000
0.532131 0.677912 0.000000
0.557504 0.677912 0.000000
0.581323 0.677867 0.000000
0.601250 0.677867 0.000000
0.619712 0.677867 0.000000
0.638797 0.677823 0.000000
0.658938 0.677867 0.000000
0.677823 0.677823 0.000000
0.699535 0.677867 0.000000
0.723494 0.677778 0.000000
0.748195 0.677823 0.000000
0.775825 0.677689 0.000000
0.807263 0.677599 0.000000
0.842376 0.677554 0.000000
0.878727 0.677376 0.000000
0.925018 0.677241 0.000000
0.955924 0.677197 0.000000
0.984823 0.677152 0.000000
0.000000 0.700692 0.000000
0.012617 0.700735 0.000000
0.031543 0.700735 0.000000
0.066202 0.700606 0.000000
0.100700 0.700606 0.000000
0.146437 0.700435 0.000000
0.189433 0.700307 0.000000
0.241518 0.700135 0.000000
0.291226 0.699964 0.000000
0.338999 0.699750 0.000000
0.382652 0.699578 0.000000
0.420927 0.699535 0.000000
0.455242 0.699406 0.000000
0.483444 0.699406 0.000000
0.508039 0.699321 0.000000
0.532192 0.699406 0.000000
0.557562 0.699321 0.000000
0.581323 0.699363 0.000000
0.601197 0.699406 0.000000
0.619662 0.699406 0.000000
0.638749 0.699449 0.000000
0.658892 0.699492 0.000000
0.677823 0.699492 0.000000
0.699535 0.699535 0.000000
0.723494 0.699535 0.000000
0.748195 0.699535 0.000000
0.775862 0.699449 0.000000
0.807405 0.699406 0.000000
0.842444 0.699321 0.000000
0.878855 0.699278 0.000000
0.925167 0.699106 0.000000
0.955981 0.699020 0.000000
0.984795 0.699020 0.000000
0.000000 0.724520 0.000000
0.012617 0.724602 0.000000
0.031543 0.724602 0.000000
0.066202 0.724561 0.000000
0.100700 0.724520 0.000000
0.146437 0.724315 0.000000
0.189640 0.724192 0.000000
0.241677 0.724069 0.000000
0.291354 0.723823 0.000000
0.339212 0.723659 0.000000
0.382744 0.723494 0.000000
0.420927 0.723412 0.000000
0.455242 0.723371 0.000000
0.483444 0.723371 0.000000
0.508104 0.723330 0.000000
0.532252 0.723330 0.000000
0.557562 0.723330 0.000000
0.581214 0.723330 0.000000
0.601197 0.723330 0.000000
0.619612 0.723371 0.000000
0.638749 0.723453 0.000000
0.658799 0.723453 0.000000
0.677778 0.723494 0.000000
0.699492 0.723494 0.000000
0.723494 0.723494 0.000000
0.748195 0.723535 0.000000
0.775862 0.723494 0.000000
0.807441 0.723453 0.000000
0.842511 0.723371 0.000000
0.878918 0.723289 0.000000
0.925404 0.723125 0.000000
0.956010 0.723084 0.000000
0.984850 0.723001 0.000000
0.000000 0.749059 0.000000
0.012617 0.749177 0.000000
0.031543 0.749177 0.000000
0.066202 0.749059 0.000000
0.100700 0.749059 0.000000
0.146710 0.748863 0.000000
0.189848 0.748784 0.000000
0.241835 0.748588 0.000000
0.291482 0.748431 0.000000
0.339319 0.748234 0.000000
0.382836 0.748077 0.000000
0.421009 0.747999 0.000000
0.455316 0.747959 0.000000
0.483444 0.747920 0.000000
0.508104 0.747999 0.000000
0.532252 0.747999 0.000000
0.557562 0.747920 0.000000
0.581268 0.747920 0.000000
0.601145 0.747959 0.000000
0.619561 0.748038 0.000000
0.638700 0.748117 0.000000
0.658799 0.748117 0.000000
0.677778 0.748156 0.000000
0.699535 0.748195 0.000000
0.723494 0.748156 0.000000
0.748195 0.748195 0.000000
0.775975 0.748234 0.000000
0.807476 0.748156 0.000000
0.842612 0.748038 0.000000
0.879046 0.747999 0.000000
0.925553 0.747881 0.000000
0.956010 0.747881 0.000000
0.984850 0.747802 0.000000
0.000000 0.775937 0.000000
0.012617 0.776087 0.000000
0.031543 0.776125 0.000000
0.066202 0.776125 0.000000
0.100700 0.776012 0.000000
0.146710 0.775937 0.000000
0.190055 0.775900 0.000000
0.241994 0.775712 0.000000
0.291737 0.775562 0.000000
0.339425 0.775375 0.000000
0.382927 0.775337 0.000000
0.421091 0.775262 0.000000
0.455316 0.775225 0.000000
0.483444 0.775300 0.000000
0.508104 0.775300 0.000000
0.532131 0.775337 0.000000
0.557562 0.775375 0.000000
0.581268 0.775487 0.000000
0.601145 0.775525 0.000000
0.619511 0.775600 0.000000
0.638604 0.775638 0.000000
0.658799 0.775675 0.000000
0.677733 0.775825 0.000000
