Kodak Vision 500T (5279) - Only color.cube
# Created by Benjamin (IWLTBAP) : http://luts.iwltbap.com
# Copyright: (C) Copyright 2010-2017 Triune Films and IWLTBAP SAS
# Cannot be resold, shared or otherwise redistributed
TITLE "Film Print Emulation LUTs Pack (Rec.709, sRGB, DCI-P3)"
LUT_3D_SIZE 33
0.002136 0.000000 0.000000
0.037598 0.000000 0.000000
0.073822 0.000153 0.000000
0.095551 0.005615 0.000000
0.127380 0.012451 0.000000
0.151917 0.018433 0.002350
0.179321 0.023712 0.008881
0.202850 0.028900 0.014252
0.228699 0.034943 0.016388
0.250793 0.040771 0.016693
0.275574 0.046051 0.018829
0.305359 0.051514 0.024536
0.332428 0.056519 0.032471
0.360870 0.058258 0.041290
0.382294 0.060455 0.047668
0.403870 0.064026 0.052917
0.426575 0.067749 0.059204
0.450409 0.071777 0.064789
0.473450 0.074890 0.071045
0.496796 0.077637 0.078125
0.522766 0.081299 0.086670
0.549225 0.086243 0.096344
0.575836 0.094055 0.106323
0.601654 0.094757 0.114532
0.629364 0.091248 0.121582
0.657837 0.092438 0.126282
0.687256 0.102386 0.130737
0.718872 0.122650 0.135681
0.751526 0.135986 0.141937
0.783783 0.146301 0.149078
0.812073 0.150909 0.156555
0.839508 0.155396 0.164032
0.870087 0.158142 0.172729
0.001923 0.026031 0.000000
0.024139 0.030457 0.000000
0.070526 0.033112 0.000000
0.098358 0.038239 0.001495
0.132080 0.043091 0.004456
0.155914 0.047455 0.010498
0.182495 0.052216 0.017914
0.206848 0.056610 0.021912
0.232483 0.061188 0.024017
0.254211 0.065247 0.027740
0.280853 0.069397 0.031036
0.310730 0.074219 0.036652
0.338470 0.078247 0.042236
0.365082 0.081879 0.048584
0.386719 0.085480 0.054626
0.408173 0.090668 0.059204
0.431213 0.096863 0.064117
0.454865 0.101379 0.069672
0.478271 0.104706 0.076782
0.502441 0.107574 0.084808
0.528473 0.110718 0.093445
0.554932 0.114410 0.102570
0.581116 0.118652 0.111053
0.607269 0.120422 0.118958
0.635651 0.122711 0.125183
0.664398 0.127838 0.131073
0.695038 0.138123 0.136017
0.727509 0.154816 0.141602
0.759003 0.165192 0.148102
0.791534 0.173828 0.155609
0.821747 0.179871 0.163422
0.850433 0.188812 0.170685
0.882141 0.193909 0.179413
0.001709 0.054688 0.000000
0.018097 0.059021 0.001465
0.050720 0.060760 0.000244
0.093964 0.063965 0.004395
0.134827 0.067749 0.013977
0.157684 0.071747 0.019745
0.184479 0.075653 0.025482
0.209229 0.080139 0.029114
0.234650 0.084656 0.033539
0.257111 0.089508 0.035706
0.284851 0.094025 0.039490
0.314667 0.098816 0.044098
0.343231 0.103241 0.049500
0.368988 0.108093 0.055450
0.390045 0.111877 0.059967
0.411743 0.116486 0.063477
0.434753 0.121857 0.068298
0.458374 0.126709 0.074707
0.482239 0.129730 0.081573
0.506927 0.132996 0.089874
0.533081 0.136169 0.099274
0.559753 0.139832 0.108490
0.585480 0.143921 0.115601
0.612305 0.149384 0.122070
0.641388 0.152008 0.128723
0.670441 0.156952 0.135010
0.701782 0.169312 0.140900
0.733612 0.182739 0.147095
0.765808 0.193848 0.154663
0.799286 0.201508 0.162201
0.830505 0.206970 0.169800
0.860474 0.216309 0.177429
0.892670 0.224365 0.185242
0.001495 0.079254 0.003021
0.015320 0.083313 0.002228
0.040588 0.085144 0.001495
0.073639 0.088257 0.002319
0.129181 0.092468 0.015961
0.158569 0.097137 0.027191
0.185150 0.101013 0.032043
0.210663 0.105713 0.036591
0.235474 0.109863 0.039429
0.258881 0.114227 0.042267
0.287628 0.118164 0.045959
0.318085 0.121704 0.052155
0.346588 0.125702 0.056274
0.371521 0.130981 0.060699
0.392944 0.135010 0.064850
0.414551 0.139252 0.068298
0.437866 0.144379 0.072571
0.461731 0.149323 0.078918
0.485840 0.153381 0.086792
0.510681 0.156891 0.095306
0.536835 0.160736 0.104828
0.564087 0.165131 0.113647
0.589539 0.169189 0.120361
0.616638 0.173981 0.125580
0.645966 0.180847 0.131714
0.675262 0.185730 0.137756
0.707214 0.196869 0.145752
0.739136 0.208801 0.152740
0.771423 0.218811 0.160370
0.805450 0.225708 0.168030
0.837524 0.231628 0.176025
0.868774 0.241516 0.183899
0.900970 0.251129 0.192017
0.001312 0.104523 0.001434
0.014587 0.108154 0.000793
0.029999 0.110077 0.000000
0.058990 0.112579 0.000763
0.100800 0.116547 0.007446
0.151581 0.120667 0.025635
0.184784 0.124390 0.035645
0.211304 0.128632 0.041290
0.235901 0.133301 0.045013
0.260223 0.137054 0.049561
0.290802 0.140686 0.053040
0.320587 0.144257 0.057831
0.349548 0.148224 0.061432
0.373688 0.153290 0.066254
0.395416 0.159088 0.070435
0.417572 0.163788 0.074738
0.441315 0.168762 0.078918
0.464966 0.172943 0.084900
0.488861 0.177032 0.091766
0.514099 0.181000 0.101013
0.540222 0.185455 0.109619
0.567261 0.190216 0.117615
0.593414 0.195831 0.124084
0.621185 0.201660 0.129425
0.650665 0.208679 0.135040
0.680420 0.214233 0.141998
0.712372 0.224152 0.150452
0.744629 0.233643 0.157257
0.777313 0.243256 0.165619
0.811737 0.250732 0.174011
0.843903 0.258606 0.182251
0.876190 0.269135 0.190277
0.908478 0.278473 0.198090
0.001099 0.128723 0.003113
0.007812 0.131531 0.000793
0.026306 0.134521 0.001465
0.048553 0.137177 0.004517
0.081116 0.140320 0.012451
0.130219 0.144592 0.025665
0.172577 0.149536 0.033539
0.207275 0.153656 0.040405
0.236206 0.158081 0.046844
0.259979 0.162415 0.052216
0.291229 0.165924 0.057098
0.322357 0.169525 0.062164
0.351379 0.173279 0.066956
0.375641 0.177551 0.072601
0.398163 0.182709 0.076874
0.420776 0.187927 0.080963
0.444794 0.193024 0.085571
0.468567 0.196899 0.091187
0.492310 0.201050 0.098816
0.518005 0.206024 0.107544
0.544037 0.210480 0.115692
0.570831 0.215332 0.122528
0.597290 0.220581 0.128418
0.625885 0.227112 0.133392
0.655731 0.233734 0.139893
0.686005 0.241669 0.147491
0.717834 0.250183 0.155670
0.750183 0.259521 0.162872
0.783630 0.269318 0.171051
0.818817 0.278412 0.180023
0.850708 0.285370 0.188202
0.883362 0.294739 0.196442
0.915588 0.303986 0.204254
0.000885 0.153687 0.004272
0.003113 0.155853 0.003265
0.021027 0.159576 0.005737
0.039337 0.162292 0.010529
0.069214 0.165161 0.017975
0.109314 0.169220 0.029053
0.157013 0.174225 0.036621
0.197388 0.179321 0.038574
0.232330 0.183258 0.043243
0.260712 0.186951 0.052246
0.290070 0.191101 0.057861
0.321045 0.194824 0.064240
0.352203 0.199036 0.071198
0.376984 0.203339 0.076874
0.400421 0.207550 0.082977
0.424011 0.212341 0.088104
0.448334 0.217438 0.092987
0.472198 0.221069 0.098816
0.496368 0.224854 0.107056
0.522156 0.229462 0.114227
0.548279 0.234589 0.121704
0.574829 0.239227 0.128082
0.601349 0.244995 0.133423
0.630798 0.252136 0.138855
0.660797 0.260559 0.146149
0.691895 0.268921 0.154053
0.724091 0.276611 0.161041
0.756622 0.284943 0.168365
0.790222 0.294189 0.176636
0.826416 0.303467 0.186371
0.858978 0.312561 0.196198
0.891052 0.320831 0.203613
0.922913 0.329132 0.211395
0.000671 0.178558 0.007050
0.001526 0.180786 0.010284
0.017303 0.183746 0.013916
0.034973 0.186829 0.019684
0.057434 0.189301 0.023621
0.095703 0.192871 0.032135
0.146790 0.197296 0.038513
0.188751 0.202026 0.041351
0.225494 0.206818 0.043274
0.256439 0.210815 0.048737
0.292389 0.214661 0.057892
0.320190 0.219849 0.063568
0.350128 0.223999 0.070496
0.376801 0.228180 0.078308
0.401642 0.231262 0.086853
0.426819 0.235046 0.094788
0.452240 0.240112 0.102753
0.477173 0.244934 0.109161
0.501648 0.248779 0.115723
0.527161 0.253784 0.122162
0.552917 0.259979 0.128113
0.579681 0.266510 0.134064
0.606781 0.272430 0.139923
0.636719 0.279022 0.146149
0.666260 0.286499 0.152771
0.697540 0.294128 0.160095
0.730682 0.301758 0.167175
0.763153 0.310364 0.174042
0.797485 0.320374 0.182861
0.834656 0.330048 0.193817
0.868439 0.337860 0.204285
0.900726 0.344604 0.212280
0.932587 0.351349 0.220276
0.000427 0.203064 0.017456
0.001038 0.204529 0.019440
0.015198 0.206635 0.023315
0.029816 0.209259 0.027039
0.052734 0.212006 0.031952
0.086639 0.215546 0.035675
0.137665 0.219299 0.039459
0.180359 0.223694 0.044128
0.218597 0.228058 0.047821
0.250549 0.232635 0.050537
0.287537 0.236969 0.057159
0.323425 0.241730 0.064972
0.350708 0.246979 0.071259
0.375916 0.251831 0.078339
0.401672 0.255951 0.088165
0.427948 0.259613 0.099976
0.455383 0.264099 0.110718
0.481293 0.269226 0.117676
0.506653 0.273956 0.123352
0.532349 0.279205 0.128784
0.558350 0.285156 0.134430
0.584991 0.291809 0.140289
0.613037 0.298798 0.146820
0.643188 0.305573 0.153748
0.672241 0.312592 0.159790
0.703888 0.320557 0.166260
0.737793 0.328186 0.173767
0.770660 0.335632 0.180634
0.805573 0.343719 0.190063
0.843719 0.352722 0.202271
0.878967 0.360779 0.213409
0.910492 0.367371 0.222290
0.942017 0.374237 0.230408
0.000153 0.227325 0.028473
0.000122 0.228821 0.031586
0.004120 0.230194 0.033112
0.020172 0.232239 0.035522
0.041016 0.235474 0.038422
0.068329 0.238647 0.041260
0.115845 0.242218 0.044983
0.167877 0.247009 0.050446
0.210663 0.251587 0.054749
0.244598 0.256317 0.056366
0.278595 0.261444 0.060822
0.318268 0.265900 0.065674
0.353729 0.270142 0.071991
0.377441 0.275940 0.080414
0.401764 0.280487 0.090637
0.428284 0.284332 0.102783
0.456421 0.288513 0.115265
0.483704 0.292999 0.123779
0.510468 0.299103 0.130157
0.538025 0.305054 0.136780
0.564484 0.311401 0.142731
0.591248 0.318665 0.148499
0.619629 0.325958 0.154419
0.649292 0.332062 0.160431
0.678558 0.337646 0.167175
0.711609 0.344391 0.174347
0.745636 0.351624 0.181763
0.778961 0.359070 0.189575
0.814301 0.367340 0.199066
0.853699 0.376160 0.210968
0.888916 0.383911 0.221893
0.921112 0.390991 0.231934
0.950989 0.397614 0.240479
0.000000 0.251862 0.039215
0.000000 0.253174 0.040131
0.000153 0.254822 0.041107
0.007660 0.256592 0.042969
0.025360 0.259674 0.045776
0.047302 0.262909 0.049438
0.093750 0.267120 0.053009
0.153351 0.271667 0.057098
0.200256 0.276642 0.062195
0.237671 0.280823 0.064972
0.271149 0.284973 0.067078
0.311035 0.289764 0.071289
0.348145 0.294708 0.077698
0.380157 0.299805 0.085022
0.405823 0.305969 0.096039
0.429596 0.310333 0.107117
0.457062 0.315308 0.118195
0.484619 0.320496 0.127441
0.512604 0.326050 0.135803
0.541260 0.331848 0.143799
0.568817 0.337128 0.149506
0.596100 0.342682 0.153778
0.624969 0.349060 0.159821
0.654907 0.355164 0.166290
0.685181 0.361023 0.173187
0.719727 0.367981 0.180389
0.753937 0.375305 0.189331
0.787689 0.383118 0.197449
0.823700 0.390930 0.206787
0.863708 0.399902 0.219238
0.898712 0.407562 0.230011
0.930695 0.414795 0.239868
0.955627 0.422272 0.249084
0.000000 0.278229 0.050171
0.000000 0.279419 0.050171
0.000000 0.280914 0.051086
0.004028 0.282379 0.052856
0.014343 0.284973 0.056183
0.029663 0.287933 0.059265
0.069580 0.291473 0.063538
0.135406 0.295715 0.068329
0.187286 0.300232 0.071869
0.230103 0.304413 0.076904
0.264435 0.308655 0.079041
0.306183 0.313660 0.081757
0.343292 0.319183 0.087585
0.376678 0.324249 0.094269
0.406372 0.329803 0.103363
0.433777 0.334625 0.112305
0.458588 0.339630 0.121796
0.485565 0.344849 0.130157
0.513184 0.349731 0.139252
0.542847 0.355072 0.148529
0.570923 0.360718 0.154114
0.599121 0.366364 0.157959
0.629639 0.372284 0.163574
0.660400 0.377899 0.171417
0.691925 0.384430 0.178436
0.726654 0.391602 0.186707
0.761597 0.399384 0.197479
0.796906 0.407654 0.207245
0.833313 0.416351 0.215881
0.873566 0.425293 0.228485
0.909729 0.433136 0.239899
0.941498 0.440033 0.248688
0.957825 0.447418 0.258362
0.000000 0.302246 0.059906
0.000000 0.303680 0.060638
0.000000 0.305328 0.062042
0.002686 0.307007 0.064819
0.009888 0.308533 0.066193
0.024017 0.312469 0.070953
0.051605 0.316315 0.075928
0.109924 0.320557 0.079468
0.166321 0.324982 0.084198
0.217285 0.329529 0.089966
0.258240 0.333374 0.093658
0.301025 0.337402 0.096039
0.339264 0.341553 0.098907
0.374573 0.346619 0.105530
0.403809 0.351288 0.113312
0.434387 0.356201 0.120087
0.463501 0.361450 0.126038
0.487762 0.367004 0.133148
0.514526 0.373291 0.142090
0.543427 0.378357 0.151184
0.572754 0.383698 0.157654
0.601562 0.389404 0.162323
0.633423 0.395111 0.167847
0.664764 0.401215 0.173798
0.697937 0.408295 0.182922
0.734894 0.416260 0.195099
0.770264 0.424683 0.208374
0.805908 0.432434 0.218567
0.843384 0.440796 0.228516
0.883331 0.449677 0.240112
0.919525 0.457733 0.250397
0.951355 0.465454 0.260254
0.959473 0.471893 0.269135
0.000000 0.328918 0.069519
0.000000 0.330292 0.071564
0.000000 0.331848 0.074402
0.003265 0.333527 0.077911
0.011383 0.334961 0.080627
0.019287 0.336578 0.083282
0.037872 0.340210 0.089050
0.069427 0.343689 0.094543
0.128235 0.346924 0.095215
0.197388 0.350922 0.098206
0.246796 0.354218 0.103333
0.291595 0.358154 0.107666
0.333771 0.362305 0.110779
0.372131 0.367188 0.115326
0.402740 0.372437 0.121399
0.432373 0.377594 0.127838
0.462921 0.382721 0.133148
0.493317 0.388336 0.137512
0.517914 0.395264 0.145203
0.545197 0.401184 0.153809
0.574005 0.406952 0.160492
0.604187 0.412994 0.166626
0.636780 0.419189 0.173828
0.668274 0.426147 0.180145
0.701752 0.433350 0.189087
0.739410 0.441559 0.202576
0.774994 0.449493 0.216797
0.811768 0.457092 0.229187
0.851501 0.464844 0.240723
0.892914 0.473511 0.250397
0.929749 0.481720 0.260254
0.955322 0.488770 0.269897
0.960388 0.494720 0.279907
0.000000 0.350830 0.081909
0.000000 0.351807 0.082581
0.000000 0.353271 0.086456
0.003906 0.354919 0.091431
0.011353 0.356171 0.095581
0.018036 0.357422 0.097900
0.027557 0.360107 0.102386
0.053162 0.363922 0.107269
0.094696 0.368073 0.109467
0.168091 0.371582 0.109558
0.230896 0.375275 0.113739
0.279541 0.379089 0.118225
0.327576 0.383606 0.122253
0.369263 0.388580 0.125000
0.401550 0.393280 0.126801
0.431274 0.398651 0.132202
0.460327 0.404297 0.138947
0.491455 0.410461 0.146240
0.524475 0.417206 0.152527
0.549194 0.423798 0.157349
0.576904 0.430573 0.162964
0.607422 0.437073 0.172913
0.640228 0.443634 0.181244
0.673248 0.451355 0.191162
0.707764 0.458527 0.201202
0.742889 0.465637 0.211060
0.778107 0.473602 0.223724
0.816040 0.481262 0.236847
0.857513 0.488800 0.249115
0.900085 0.496887 0.260254
0.938477 0.504639 0.270538
0.956970 0.512115 0.280426
0.960999 0.518433 0.291840
0.000000 0.372070 0.096100
0.000000 0.373047 0.095520
0.000000 0.374359 0.098419
0.004578 0.375732 0.102356
0.011322 0.376923 0.107727
0.017975 0.377930 0.109283
0.026215 0.380096 0.112396
0.048279 0.383667 0.116882
0.073883 0.387939 0.121674
0.135803 0.391846 0.121735
0.209900 0.396179 0.122650
0.265686 0.400818 0.126587
0.319672 0.405640 0.131317
0.366364 0.410950 0.134247
0.399994 0.415833 0.135529
0.430267 0.420624 0.136536
0.459961 0.427094 0.144531
0.489075 0.433411 0.152863
0.522156 0.439484 0.161133
0.556671 0.445679 0.166656
0.583588 0.453033 0.171143
0.612335 0.460358 0.180420
0.644867 0.467499 0.191162
0.677795 0.475311 0.203033
0.712128 0.482697 0.213715
0.746857 0.489899 0.222626
0.782379 0.497498 0.233490
0.821198 0.505188 0.244720
0.861572 0.512787 0.255951
0.904022 0.520599 0.268677
0.943390 0.528656 0.281342
0.958069 0.535950 0.291534
0.961182 0.542633 0.303650
0.000000 0.393860 0.109741
0.000000 0.395050 0.108704
0.000000 0.396271 0.110291
0.004547 0.397583 0.113342
0.012054 0.398407 0.115356
0.017914 0.399353 0.116333
0.025574 0.401337 0.119263
0.039612 0.404846 0.123779
0.069855 0.409760 0.128723
0.128967 0.414673 0.130432
0.197937 0.419342 0.130402
0.251984 0.424469 0.134369
0.309540 0.429535 0.139374
0.363342 0.434723 0.143890
0.397980 0.439117 0.145935
0.429169 0.443756 0.147614
0.459778 0.449615 0.150940
0.489777 0.456207 0.158630
0.521332 0.462524 0.167572
0.555450 0.468262 0.177002
0.588654 0.475250 0.183746
0.619537 0.483215 0.192169
0.650574 0.490845 0.202148
0.681946 0.498749 0.213959
0.715240 0.506104 0.224182
0.750793 0.513672 0.234772
0.787231 0.521393 0.245514
0.825317 0.529358 0.255249
0.865601 0.537384 0.265747
0.907379 0.546143 0.278900
0.946930 0.553864 0.293304
0.958649 0.560516 0.306427
0.961090 0.567017 0.317139
0.000000 0.417236 0.118683
0.000000 0.418274 0.116302
0.000000 0.419586 0.117279
0.004517 0.420807 0.119232
0.012024 0.421844 0.121124
0.018463 0.422729 0.122467
0.023682 0.423920 0.124176
0.035919 0.427155 0.126892
0.063934 0.432678 0.132446
0.126038 0.437500 0.136993
0.186249 0.442291 0.137329
0.243164 0.447174 0.141144
0.302490 0.452454 0.147003
0.358856 0.457550 0.152924
0.396484 0.462524 0.157715
0.427917 0.467041 0.159912
0.459564 0.472443 0.163300
0.491669 0.479156 0.167267
0.523041 0.485229 0.175598
0.555145 0.491577 0.186462
0.588715 0.498260 0.197784
0.624237 0.505463 0.205750
0.658173 0.513489 0.214844
0.686890 0.521393 0.224823
0.719482 0.529694 0.235199
0.754120 0.537476 0.245361
0.791473 0.545288 0.256012
0.829529 0.553680 0.266113
0.869629 0.562317 0.276794
0.911316 0.570557 0.290009
0.949524 0.578918 0.305542
0.958893 0.585693 0.318939
0.960815 0.591827 0.328491
0.000000 0.440063 0.125702
0.000000 0.440826 0.124512
0.000000 0.441895 0.124146
0.004517 0.443024 0.124969
0.011993 0.444092 0.126129
0.017822 0.445129 0.127625
0.023651 0.446472 0.129425
0.030060 0.448212 0.131439
0.049347 0.452850 0.135040
0.091919 0.459229 0.143158
0.169586 0.464722 0.145905
0.234741 0.470001 0.148651
0.297516 0.475128 0.155518
0.354858 0.480377 0.161774
0.393280 0.484985 0.166992
0.427765 0.489899 0.171478
0.459656 0.495422 0.175598
0.491669 0.501862 0.179901
0.525024 0.509003 0.186218
0.557007 0.514893 0.195892
0.589020 0.521423 0.208008
0.624847 0.528717 0.218842
0.660461 0.536102 0.227234
0.695190 0.544830 0.238312
0.725555 0.553223 0.246521
0.758453 0.561340 0.254730
0.795135 0.569153 0.265259
0.833252 0.578125 0.276978
0.873352 0.586945 0.289093
0.915558 0.595612 0.303497
0.951538 0.603912 0.316681
0.958923 0.611176 0.328400
0.960571 0.617401 0.336731
0.000000 0.462250 0.132050
0.000000 0.462982 0.131409
0.000000 0.463837 0.131409
0.005219 0.464783 0.131744
0.011993 0.465912 0.131744
0.018372 0.467194 0.133087
0.024200 0.468750 0.134705
0.031372 0.470581 0.136658
0.041382 0.473358 0.139313
0.070587 0.479675 0.146881
0.134003 0.487305 0.158295
0.218445 0.493286 0.160217
0.286041 0.498779 0.166107
0.349640 0.503632 0.171509
0.389221 0.508270 0.177032
0.424927 0.513062 0.182404
0.459991 0.518372 0.187042
0.492218 0.524933 0.192474
0.525635 0.531647 0.198975
0.559723 0.538818 0.207581
0.590942 0.545227 0.217743
0.624969 0.552032 0.229218
0.661133 0.560150 0.241180
0.697693 0.567841 0.250275
0.734131 0.576355 0.258728
0.765320 0.584686 0.266327
0.800049 0.593781 0.275146
0.836517 0.602570 0.287354
0.876312 0.611694 0.302338
0.918121 0.620148 0.316254
0.952789 0.628296 0.327271
0.959106 0.635315 0.335663
0.960358 0.641235 0.342560
0.000000 0.484619 0.138916
0.000000 0.485077 0.136597
0.000000 0.486053 0.137268
0.005219 0.487244 0.137939
0.012695 0.488495 0.139618
0.018890 0.490021 0.140656
0.024170 0.491547 0.142395
0.031342 0.493317 0.144135
0.039581 0.495575 0.146515
0.058228 0.499756 0.149872
0.098389 0.507965 0.164764
0.185791 0.515961 0.173798
0.262054 0.521667 0.177643
0.336578 0.526978 0.182434
0.386627 0.532288 0.189178
0.423004 0.537323 0.195465
0.459381 0.542938 0.200867
0.492828 0.549072 0.206512
0.526154 0.555664 0.213776
0.559814 0.562622 0.221741
0.592957 0.570099 0.231354
0.627289 0.576782 0.241791
0.662567 0.584137 0.251801
0.698639 0.592407 0.262299
0.737915 0.600647 0.271149
0.774689 0.608765 0.279938
0.807343 0.617920 0.289124
0.841217 0.627014 0.300415
0.879303 0.635651 0.314362
0.920197 0.643738 0.326813
0.953186 0.651794 0.335510
0.959198 0.658875 0.342285
0.960144 0.664459 0.347046
0.000000 0.507294 0.152069
0.000000 0.508240 0.151093
0.000000 0.509277 0.150146
0.005951 0.510406 0.150452
0.013336 0.511719 0.151123
0.019409 0.513092 0.153412
0.024719 0.514679 0.155670
0.032623 0.516479 0.158203
0.041931 0.518829 0.161041
0.055695 0.521729 0.161652
0.089050 0.529510 0.172852
0.136871 0.538513 0.189880
0.223663 0.545197 0.190735
0.316223 0.551086 0.194061
0.378265 0.556915 0.200684
0.420929 0.562897 0.208527
0.457489 0.568268 0.215118
0.492645 0.574646 0.222443
0.527344 0.581116 0.231598
0.560822 0.587463 0.239349
0.594055 0.595184 0.247864
0.630432 0.603577 0.256195
0.665741 0.610504 0.264771
0.701996 0.618439 0.275513
0.738556 0.625916 0.286285
0.777893 0.633301 0.295227
0.814423 0.641785 0.306915
0.847198 0.650635 0.316589
0.883270 0.658722 0.324890
0.922241 0.667084 0.333557
0.953766 0.675537 0.341553
0.959229 0.682800 0.347656
0.959839 0.688568 0.351562
0.000000 0.530853 0.168823
0.000000 0.531952 0.168854
0.000275 0.533051 0.169434
0.007446 0.534363 0.169159
0.014587 0.535614 0.170074
0.020477 0.536804 0.170685
0.027222 0.538422 0.172180
0.035187 0.540009 0.173645
0.044220 0.542175 0.176575
0.055145 0.545044 0.178589
0.073486 0.549408 0.181458
0.128082 0.559814 0.200684
0.184875 0.568695 0.207489
0.283508 0.575623 0.210815
0.370697 0.582367 0.216919
0.416199 0.588135 0.224182
0.455841 0.594330 0.232239
0.491821 0.600555 0.240387
0.528778 0.607574 0.249573
0.564209 0.614502 0.257111
0.596924 0.621521 0.263916
0.633026 0.629303 0.270142
0.669861 0.637115 0.278015
0.704956 0.643524 0.287720
0.741638 0.650940 0.299835
0.778168 0.658081 0.310394
0.814789 0.665405 0.318726
0.849976 0.673553 0.328217
0.888397 0.682220 0.335632
0.925293 0.691010 0.341064
0.953766 0.699738 0.348450
0.959045 0.707367 0.354248
0.959625 0.713623 0.358521
0.000000 0.554565 0.185699
0.000000 0.555542 0.185699
0.001526 0.556763 0.186279
0.008209 0.557892 0.187103
0.015106 0.559265 0.187897
0.020966 0.560608 0.188995
0.027191 0.562073 0.189270
0.034485 0.563721 0.190582
0.044189 0.565430 0.192139
0.055634 0.567932 0.193176
0.072784 0.571930 0.197144
0.112671 0.579803 0.207031
0.160919 0.592834 0.222992
0.258301 0.601013 0.227295
0.357819 0.608551 0.234131
0.410034 0.614349 0.240601
0.453522 0.620575 0.248474
0.493042 0.627808 0.256958
0.531372 0.634308 0.264435
0.567932 0.640930 0.272186
0.600861 0.647400 0.278015
0.636597 0.655121 0.284668
0.672150 0.662292 0.289948
0.707703 0.669159 0.299988
0.743958 0.675598 0.313202
0.779816 0.682617 0.323303
0.813965 0.689880 0.332489
0.849548 0.697601 0.338867
0.888855 0.705658 0.345337
0.929260 0.714935 0.351135
0.954224 0.723328 0.356628
0.959076 0.730835 0.362427
0.959137 0.736755 0.367188
0.000000 0.577209 0.201294
0.000000 0.578247 0.201294
0.000824 0.579468 0.202454
0.008179 0.581085 0.203827
0.015656 0.582855 0.205200
0.021484 0.584412 0.205872
0.027832 0.586151 0.206543
0.035736 0.587891 0.207672
0.045319 0.589813 0.209656
0.056641 0.592285 0.211182
0.069885 0.595154 0.211853
0.099182 0.601471 0.218597
0.158630 0.616241 0.237610
0.246979 0.626434 0.243835
0.345825 0.633453 0.249268
0.403015 0.640259 0.256653
0.449921 0.646545 0.263763
0.494354 0.654297 0.272552
0.533539 0.660706 0.279327
0.570709 0.666595 0.284851
0.604736 0.673035 0.291351
0.640472 0.680298 0.298920
0.674042 0.686951 0.304626
0.709076 0.694366 0.312927
0.744934 0.701233 0.322357
0.780640 0.707886 0.332092
0.814331 0.714539 0.340759
0.848267 0.721436 0.348541
0.887695 0.728821 0.354980
0.928345 0.736847 0.360596
0.955048 0.745850 0.366852
0.959198 0.753235 0.371368
0.958557 0.759430 0.375946
0.000000 0.601746 0.220856
0.000000 0.602417 0.220001
0.000763 0.603638 0.220215
0.008911 0.605438 0.221771
0.016144 0.607483 0.223724
0.022583 0.609222 0.225067
0.029846 0.610962 0.225739
0.038208 0.613190 0.226624
0.046997 0.615112 0.227722
0.061462 0.617584 0.231171
0.072937 0.620636 0.233551
0.098450 0.625671 0.238159
0.144348 0.638000 0.251068
0.228516 0.650482 0.262207
0.326721 0.659485 0.266266
0.400085 0.666931 0.272217
0.449524 0.673859 0.278534
0.494141 0.681000 0.286621
0.534882 0.687408 0.296051
0.573090 0.693024 0.301666
0.606873 0.698822 0.306976
0.642792 0.704926 0.310699
0.676300 0.711975 0.317871
0.710693 0.719025 0.326447
0.746002 0.725800 0.333374
0.781647 0.732819 0.342041
0.815643 0.738922 0.350220
0.849396 0.745300 0.358032
0.887726 0.752289 0.365173
0.928223 0.759674 0.370087
0.954651 0.767303 0.375061
0.959137 0.774963 0.379944
0.957977 0.780731 0.383240
0.000000 0.627991 0.241882
0.000000 0.629364 0.242523
0.003601 0.630157 0.242737
0.011719 0.631439 0.243744
0.018402 0.633118 0.244965
0.025024 0.635101 0.246552
0.031799 0.637054 0.247345
0.041779 0.639557 0.248901
0.051361 0.641846 0.249664
0.065094 0.644531 0.251953
0.075714 0.647278 0.254181
0.098480 0.651245 0.256561
0.138184 0.661316 0.266510
0.202820 0.675629 0.281647
0.305634 0.686371 0.286682
0.392944 0.694000 0.288574
0.450592 0.700928 0.293579
0.495148 0.707153 0.299713
0.536713 0.713196 0.306976
0.574341 0.718658 0.315308
0.609100 0.725067 0.321167
