Kodak 8mm - Only color.cube
# Created by Benjamin (IWLTBAP) : http://luts.iwltbap.com
# Copyright: (C) Copyright 2010-2017 Triune Films and IWLTBAP SAS
# Cannot be resold, shared or otherwise redistributed
TITLE "Film Print Emulation LUTs Pack (Rec.709, sRGB, DCI-P3)"
LUT_3D_SIZE 5
0.000610 0.000610 0.000000
0.203644 0.025970 0.027405
0.351654 0.034576 0.054047
0.515900 0.081665 0.100250
0.678314 0.112885 0.137573
0.055908 0.141724 0.066925
0.237610 0.220398 0.046356
0.423889 0.237152 0.094452
0.621155 0.251434 0.146118
0.790558 0.260620 0.176758
0.093994 0.230713 0.074280
0.262543 0.326355 0.093018
0.475922 0.407928 0.121613
0.690094 0.429993 0.170013
0.891479 0.447449 0.199493
0.151764 0.323669 0.103638
0.316193 0.450134 0.160675
0.538574 0.564789 0.166168
0.759338 0.620453 0.193390
0.996185 0.638336 0.209869
0.197815 0.395081 0.134735
0.376465 0.560181 0.197876
0.613037 0.684631 0.220764
0.828278 0.775787 0.225098
1.000000 0.813263 0.210876
0.062225 0.079529 0.175018
0.200134 0.064636 0.224609
0.370331 0.063507 0.247498
0.534424 0.101349 0.257751
0.691772 0.128723 0.276367
0.104340 0.189484 0.230743
0.252594 0.244049 0.253265
0.443329 0.275909 0.293884
0.640991 0.288330 0.311646
0.808533 0.297363 0.327271
0.144989 0.288849 0.252441
0.279449 0.387695 0.287079
0.497040 0.450256 0.296021
0.717529 0.475220 0.312897
0.925262 0.486420 0.326324
0.209564 0.395447 0.278503
0.323273 0.538147 0.311676
0.569855 0.634186 0.298676
0.780334 0.680481 0.305573
1.000000 0.696350 0.316895
0.254730 0.481171 0.338593
0.368286 0.660767 0.373901
0.640076 0.787933 0.375122
0.850830 0.866699 0.345673
1.000000 0.906250 0.338867
0.082336 0.094666 0.290924
0.170929 0.114227 0.336395
0.347778 0.102051 0.392548
0.541565 0.116943 0.415833
0.697021 0.141815 0.428741
0.151733 0.229919 0.374878
0.238220 0.285706 0.435913
0.435150 0.304657 0.470001
0.639618 0.312592 0.491028
0.807098 0.322479 0.504456
0.191315 0.337158 0.417206
0.270508 0.429932 0.474060
0.502350 0.491302 0.506653
0.708618 0.513367 0.522675
0.916412 0.529083 0.535004
0.230927 0.440887 0.445068
0.309631 0.585236 0.511688
0.565735 0.676361 0.535187
0.764801 0.710052 0.528412
1.000000 0.731262 0.543549
0.272156 0.525848 0.515228
0.353912 0.712036 0.574280
0.624695 0.840424 0.599731
0.826447 0.914032 0.577789
1.000000 0.955170 0.568115
0.125305 0.142975 0.385254
0.184296 0.166626 0.442139
0.324158 0.172058 0.501740
0.507568 0.156433 0.551270
0.690094 0.158112 0.586853
0.195526 0.270844 0.506439
0.241943 0.330444 0.592285
0.441528 0.360840 0.640320
0.626282 0.346436 0.669617
0.800018 0.347168 0.688599
0.232605 0.380737 0.565338
0.277618 0.479034 0.650482
0.516418 0.540161 0.687683
0.700806 0.549133 0.709473
0.897186 0.552094 0.724030
0.269653 0.483856 0.608521
0.324036 0.623779 0.693268
0.562988 0.707550 0.723083
0.755188 0.740143 0.755066
1.000000 0.753967 0.744537
0.298218 0.560669 0.655273
0.351654 0.741760 0.732727
0.603577 0.872986 0.774963
0.810852 0.952118 0.778015
1.000000 0.995789 0.765656
0.152863 0.178589 0.468109
0.195923 0.203369 0.542694
0.322418 0.221100 0.596832
0.485626 0.212738 0.664398
0.648102 0.200531 0.715973
0.220428 0.316284 0.617798
0.256470 0.379303 0.733337
0.450623 0.426422 0.796997
0.629456 0.415192 0.846680
0.785034 0.398560 0.865997
0.265076 0.422852 0.688965
0.302155 0.519287 0.802704
0.507233 0.599640 0.873291
0.703430 0.608215 0.925659
0.865967 0.593689 0.946930
0.294800 0.520142 0.738953
0.331299 0.655426 0.839417
0.535583 0.756775 0.934113
0.761780 0.791290 1.000000
0.946198 0.780518 0.995300
0.313690 0.579956 0.767487
0.345367 0.754883 0.852142
0.549225 0.888397 0.977295
0.790771 0.999176 1.000000
0.999969 0.999969 0.999969
