Kodak Eastman EXR 100T (5248) - Only contrast.cube
# Created by Benjamin (IWLTBAP) : http://luts.iwltbap.com
# Copyright: (C) Copyright 2010-2017 Triune Films and IWLTBAP SAS
# Cannot be resold, shared or otherwise redistributed
TITLE "Film Print Emulation LUTs Pack (Rec.709, sRGB, DCI-P3)"
LUT_3D_SIZE 9
0.009705 0.009705 0.009705
0.103760 0.025146 0.009766
0.190063 0.044159 0.009674
0.280457 0.056366 0.014679
0.380493 0.074493 0.016785
0.486481 0.091919 0.023926
0.596527 0.135162 0.031372
0.705261 0.175446 0.047363
0.813080 0.227509 0.076721
0.030853 0.093445 0.030151
0.127655 0.108032 0.037567
0.230835 0.122040 0.019928
0.326233 0.134857 0.017578
0.428375 0.151978 0.025391
0.533997 0.175568 0.035309
0.648010 0.204193 0.058014
0.763458 0.242249 0.095642
0.861206 0.287018 0.151215
0.071686 0.185455 0.051910
0.162567 0.207550 0.058624
0.266571 0.233124 0.064545
0.372986 0.246429 0.032196
0.475159 0.260132 0.029297
0.575836 0.279358 0.040314
0.679565 0.300415 0.065247
0.786163 0.327515 0.092896
0.877350 0.360992 0.129242
0.119843 0.282135 0.079742
0.206482 0.308533 0.086090
0.307465 0.335083 0.092285
0.409973 0.359558 0.104828
0.518158 0.373260 0.074524
0.623566 0.386230 0.069397
0.724670 0.405945 0.089447
0.826324 0.429443 0.114380
0.905945 0.456940 0.153107
0.182922 0.389221 0.115051
0.258698 0.418121 0.127930
0.351196 0.443909 0.135590
0.453033 0.468079 0.145264
0.557037 0.490662 0.160522
0.663574 0.504883 0.148071
0.772858 0.518585 0.126495
0.867218 0.538208 0.150940
0.937012 0.561737 0.185425
0.254822 0.497314 0.159607
0.313690 0.527283 0.178253
0.398621 0.553436 0.189789
0.495300 0.577087 0.201263
0.599396 0.600403 0.212250
0.704102 0.621674 0.225952
0.806122 0.638824 0.232849
0.902191 0.654968 0.208374
0.965729 0.675293 0.233093
0.317841 0.608673 0.211182
0.372864 0.641602 0.232422
0.451111 0.668640 0.244690
0.543304 0.693176 0.252502
0.642426 0.714539 0.263428
0.747131 0.735931 0.275085
0.846741 0.755524 0.290985
0.928772 0.776001 0.308380
0.985718 0.791565 0.300598
0.385040 0.725037 0.264282
0.434753 0.760132 0.287598
0.504944 0.787384 0.301788
0.592834 0.811157 0.311432
0.688019 0.832336 0.322632
0.791046 0.850830 0.334381
0.883942 0.867554 0.347992
0.956757 0.883575 0.365662
0.991791 0.897919 0.390656
0.451172 0.836395 0.325592
0.494598 0.863861 0.354187
0.560547 0.884857 0.372162
0.640289 0.902222 0.384491
0.733307 0.919189 0.395386
0.827881 0.933899 0.406952
0.914276 0.948059 0.419800
0.972992 0.959259 0.435181
0.999146 0.966827 0.455322
0.009766 0.022949 0.065277
0.097137 0.036987 0.070648
0.196320 0.047394 0.077209
0.287994 0.066528 0.081299
0.388794 0.083832 0.091003
0.493561 0.105011 0.105347
0.605255 0.149567 0.124359
0.711365 0.191864 0.145935
0.817749 0.242950 0.171051
0.017914 0.103149 0.102814
0.117310 0.117310 0.117310
0.231720 0.134766 0.096313
0.332642 0.149200 0.101929
0.438019 0.167511 0.114014
0.542389 0.193756 0.135651
0.655060 0.224243 0.163940
0.769836 0.260101 0.201782
0.863739 0.303833 0.250824
0.048370 0.199097 0.115479
0.155762 0.218048 0.127441
0.260712 0.246277 0.147705
0.374664 0.261261 0.123352
0.482269 0.276794 0.125305
0.583405 0.297028 0.144958
0.685669 0.318298 0.167358
0.792816 0.345215 0.194702
0.881592 0.377441 0.226227
0.104095 0.296509 0.147705
0.193420 0.321320 0.164703
0.303528 0.346069 0.183472
0.401733 0.372467 0.203308
0.519684 0.388275 0.167572
0.629700 0.402557 0.164520
0.729614 0.421844 0.188599
0.831421 0.445251 0.213928
0.909576 0.472321 0.242767
0.155212 0.403687 0.186340
0.246918 0.431213 0.204956
0.347778 0.455688 0.219727
0.449249 0.480255 0.235260
0.553467 0.503510 0.249329
0.666168 0.518829 0.232483
0.777496 0.532837 0.217773
0.871735 0.552582 0.238251
0.939819 0.575653 0.267456
0.240173 0.511719 0.225037
0.306610 0.541168 0.246155
0.396484 0.567078 0.258575
0.495972 0.590363 0.271301
0.599579 0.613586 0.282440
0.705658 0.635498 0.296143
0.810242 0.652008 0.296356
0.906372 0.668488 0.280334
0.968567 0.688995 0.302246
0.313110 0.622711 0.265289
0.370270 0.656036 0.286865
0.451294 0.682556 0.300323
0.545319 0.707489 0.311371
0.645264 0.728790 0.322693
0.750488 0.750092 0.334686
0.850128 0.769775 0.349670
0.931702 0.789795 0.364929
0.987000 0.804840 0.355957
0.382812 0.739624 0.310150
0.435364 0.774780 0.335175
0.506104 0.801208 0.350342
0.596497 0.824066 0.361542
0.692566 0.844818 0.372345
0.795959 0.862762 0.384125
0.888062 0.878937 0.396210
0.960114 0.894104 0.412689
0.993317 0.908081 0.435944
0.451172 0.847748 0.365936
0.495544 0.873901 0.394684
0.563995 0.894287 0.412384
0.643677 0.910919 0.424500
0.738098 0.927612 0.434998
0.832275 0.942047 0.446594
0.918091 0.955872 0.459930
0.975067 0.966705 0.477020
0.999298 0.972778 0.519073
0.012665 0.034271 0.125214
0.076141 0.044830 0.138367
0.190704 0.055481 0.158539
0.290009 0.062469 0.178009
0.392029 0.082153 0.196350
0.497437 0.120697 0.212921
0.607788 0.165344 0.232758
0.713715 0.206085 0.254333
0.819916 0.258118 0.278107
0.009735 0.110718 0.188995
0.072815 0.124176 0.206177
0.226868 0.144684 0.203918
0.333740 0.157806 0.219208
0.439697 0.178467 0.232697
0.545105 0.212036 0.248901
0.657379 0.240631 0.271820
0.772186 0.275513 0.301910
0.864990 0.318970 0.342987
0.045380 0.214905 0.227509
0.118469 0.235321 0.246063
0.264862 0.264862 0.264679
0.368408 0.284668 0.241913
0.476501 0.298065 0.251190
0.585602 0.314880 0.263306
0.688354 0.334747 0.279053
0.795044 0.361511 0.301147
0.883179 0.394348 0.328033
0.084869 0.314972 0.243042
0.173584 0.337463 0.257599
0.305054 0.362427 0.272125
0.398926 0.390869 0.294586
0.512054 0.406342 0.280365
0.630829 0.418213 0.278015
0.731689 0.437164 0.295776
0.833282 0.460571 0.316589
0.910706 0.487823 0.341064
0.136230 0.420349 0.279175
0.228241 0.445282 0.296021
0.343781 0.466003 0.313660
0.445160 0.489319 0.334137
0.538300 0.515076 0.355865
0.663513 0.531860 0.326355
0.778412 0.546539 0.319641
0.872192 0.566864 0.338562
0.939941 0.590454 0.362274
0.214142 0.526947 0.311005
0.288330 0.555237 0.330963
0.388824 0.579498 0.346344
0.491302 0.601501 0.360687
0.590210 0.624939 0.377899
0.696136 0.647919 0.390350
0.808563 0.664276 0.378937
0.906311 0.681335 0.369537
0.968201 0.702209 0.388702
0.291107 0.638184 0.344208
0.353546 0.669830 0.366943
0.442108 0.696198 0.381592
0.539520 0.720947 0.393677
0.640228 0.741272 0.405640
0.745972 0.762543 0.417114
0.845856 0.781921 0.430786
0.929413 0.801300 0.439819
0.987305 0.815338 0.428284
0.367126 0.753693 0.382080
0.422882 0.787750 0.406616
0.499054 0.812744 0.421844
0.590240 0.834839 0.433075
0.687714 0.854614 0.444092
0.792389 0.872589 0.456390
0.884918 0.888245 0.469299
0.958435 0.903412 0.486145
0.992493 0.916748 0.513336
0.440216 0.857727 0.427887
0.487610 0.882812 0.457031
0.557770 0.903015 0.475098
0.638214 0.918793 0.487762
0.733459 0.935364 0.499542
0.829193 0.949707 0.511993
0.915497 0.962860 0.525208
0.974365 0.972595 0.541168
0.998657 0.977570 0.595795
0.029327 0.044128 0.191376
0.067963 0.055573 0.214111
0.186676 0.066437 0.239532
0.290009 0.075928 0.265869
0.395447 0.097748 0.290222
0.500977 0.120300 0.312042
0.611298 0.169586 0.332397
0.715271 0.222992 0.350067
0.821045 0.272797 0.370819
0.023560 0.119385 0.255035
0.073425 0.138153 0.277893
0.217621 0.155762 0.290741
0.330109 0.171936 0.309479
0.441040 0.191986 0.330963
0.547577 0.217316 0.350800
0.660034 0.246429 0.372009
0.772278 0.291809 0.396973
0.865997 0.334717 0.431274
0.015991 0.218658 0.301880
0.051086 0.242340 0.334839
0.236420 0.273163 0.358917
0.370239 0.298065 0.347504
0.479004 0.311127 0.362427
0.587006 0.324615 0.373566
0.686493 0.351074 0.382996
0.794556 0.376984 0.398102
0.883575 0.409454 0.420532
0.074493 0.333405 0.354492
0.148895 0.355347 0.372345
0.278992 0.380615 0.387543
0.410034 0.410034 0.409943
0.511780 0.427887 0.387634
0.619049 0.439514 0.392853
0.729614 0.453491 0.399292
0.833069 0.475647 0.413788
0.910645 0.502563 0.435120
0.154022 0.445099 0.372589
0.229767 0.463501 0.382874
0.343262 0.484131 0.395325
0.449707 0.508667 0.415741
0.537109 0.536194 0.440521
0.655548 0.549835 0.422821
0.778595 0.560394 0.415161
0.872070 0.581024 0.432404
0.939392 0.604645 0.454315
0.191071 0.544708 0.402313
0.268829 0.570007 0.419464
0.379791 0.593567 0.433716
0.489288 0.612183 0.452515
0.586548 0.635223 0.473785
0.679596 0.660645 0.494751
0.806427 0.676361 0.463348
0.906281 0.692963 0.457458
0.966888 0.714691 0.478333
0.261536 0.654541 0.432526
0.330139 0.684570 0.453888
0.428314 0.709900 0.468475
0.531677 0.733368 0.483185
0.634735 0.752808 0.497345
0.734802 0.773560 0.513550
0.838440 0.795197 0.525055
0.928040 0.812012 0.519379
0.986237 0.825928 0.512665
0.339020 0.768158 0.465454
0.402008 0.800354 0.489868
0.481873 0.823914 0.505188
0.579590 0.845459 0.517883
0.679260 0.864471 0.528473
0.784180 0.881439 0.539948
0.879639 0.897034 0.553070
0.954926 0.911682 0.568451
0.991516 0.924927 0.592285
0.420013 0.868439 0.506439
0.470642 0.891754 0.533691
0.545258 0.910858 0.550751
0.629578 0.926575 0.563629
0.725342 0.942505 0.574219
0.822388 0.956299 0.586700
0.911011 0.968933 0.600952
0.973083 0.977295 0.616486
0.997772 0.981934 0.680115
0.043915 0.055450 0.268280
0.077820 0.070679 0.294922
0.187744 0.078003 0.315979
0.291016 0.094147 0.343109
0.396271 0.116943 0.371368
0.503662 0.143738 0.397644
0.612976 0.187775 0.420258
0.717804 0.228455 0.440857
0.822937 0.282013 0.460846
0.046936 0.134613 0.322296
0.078400 0.158905 0.352325
0.213104 0.171112 0.368713
0.327576 0.188416 0.389648
0.439148 0.210663 0.413208
0.547119 0.235504 0.435852
0.659576 0.263000 0.459595
0.774963 0.298798 0.488220
0.867859 0.343689 0.520264
0.030182 0.231140 0.387695
0.058807 0.259308 0.421295
0.219940 0.284363 0.431915
0.363800 0.305817 0.432983
0.474670 0.324036 0.447479
0.582214 0.339783 0.463593
0.688141 0.359192 0.478821
0.796234 0.385620 0.495972
0.884125 0.422211 0.513977
0.058624 0.337891 0.428864
0.091675 0.365936 0.454346
0.203339 0.390564 0.483551
0.390991 0.417450 0.499268
0.512695 0.443085 0.485199
0.622833 0.453766 0.496643
0.730286 0.464600 0.506927
0.830688 0.489532 0.515137
0.909271 0.517181 0.528717
0.133667 0.460449 0.477417
0.196808 0.481354 0.494019
0.316193 0.501404 0.509003
0.431152 0.525909 0.527832
0.552429 0.552429 0.552521
0.657806 0.569275 0.528290
0.765747 0.580933 0.528320
0.868561 0.596527 0.531708
0.937897 0.618744 0.547607
0.231567 0.576935 0.508179
0.311768 0.594238 0.518005
0.405701 0.611847 0.518158
0.495422 0.630280 0.530579
0.589783 0.653503 0.554993
0.674316 0.679871 0.582275
0.801147 0.691589 0.555389
0.905640 0.705841 0.547729
0.966034 0.728119 0.566772
0.236237 0.674164 0.523041
0.311951 0.700043 0.540771
0.416107 0.723267 0.554108
0.523712 0.744934 0.567535
0.630920 0.762909 0.585938
0.727722 0.782715 0.608124
0.821594 0.805664 0.625031
0.927734 0.821442 0.595245
0.986450 0.835327 0.595245
0.319519 0.785553 0.553253
0.385773 0.814453 0.575500
0.468719 0.835938 0.589966
0.566956 0.855896 0.602264
0.670319 0.875000 0.615570
0.776276 0.890930 0.629272
0.871887 0.905518 0.644165
0.949554 0.920532 0.658600
0.992004 0.932007 0.666840
0.404114 0.879456 0.588593
0.454895 0.900909 0.615479
0.530396 0.918610 0.632812
0.616211 0.934143 0.646484
0.714996 0.950012 0.659851
0.813812 0.962982 0.670990
0.904480 0.974121 0.684723
0.970306 0.981323 0.699249
0.997040 0.985260 0.755798
0.072174 0.068512 0.345154
0.088379 0.095428 0.383667
0.194885 0.094940 0.394257
0.296814 0.115295 0.420685
0.399292 0.139374 0.448334
0.505310 0.169281 0.476898
0.614960 0.211029 0.502777
0.720032 0.250000 0.526123
0.824799 0.297913 0.548615
0.068298 0.151825 0.397003
0.081696 0.190369 0.438477
0.214966 0.190186 0.445007
0.329285 0.207581 0.466309
0.438629 0.230438 0.490906
0.546631 0.254303 0.517609
0.660156 0.282776 0.543365
0.776642 0.318207 0.573944
0.870605 0.361603 0.605499
0.058746 0.253143 0.459808
0.071869 0.289215 0.500458
0.224396 0.300751 0.502289
0.358002 0.318665 0.514526
0.470764 0.336914 0.528625
0.579010 0.355865 0.546997
0.686188 0.376251 0.564667
0.795441 0.403015 0.584595
0.884796 0.435364 0.606110
0.050842 0.344727 0.506622
0.067474 0.382477 0.543335
0.202423 0.405518 0.569397
0.380493 0.428406 0.575684
0.508911 0.448547 0.570770
0.619934 0.466278 0.583374
0.726105 0.480865 0.596130
0.831482 0.502533 0.611176
0.910187 0.528137 0.627258
0.106049 0.469543 0.555511
0.138123 0.498413 0.580750
0.243073 0.514526 0.595154
0.371765 0.538055 0.625061
0.538666 0.560577 0.641876
0.657562 0.582764 0.623627
0.767609 0.594482 0.631165
0.868713 0.607971 0.640411
0.937897 0.629242 0.648621
0.168274 0.589111 0.599091
0.229095 0.610931 0.615997
0.354095 0.628113 0.628723
0.469055 0.648041 0.646576
0.569397 0.670166 0.668427
0.692841 0.692841 0.692902
0.802399 0.707977 0.664185
0.897430 0.722504 0.658875
0.962189 0.742340 0.666656
0.293579 0.711853 0.636932
0.366028 0.726929 0.646973
0.459290 0.744263 0.657867
0.563782 0.761322 0.658447
0.640167 0.777344 0.667450
0.730774 0.796906 0.692078
0.810974 0.818909 0.718109
0.925354 0.832092 0.684052
0.985535 0.844574 0.684357
0.310852 0.806915 0.647186
0.375244 0.829407 0.665222
0.460022 0.848236 0.678040
0.559784 0.866791 0.689850
0.661377 0.883270 0.701843
0.768646 0.897827 0.718018
0.863708 0.910767 0.737976
0.941589 0.927734 0.748901
0.993622 0.937683 0.735657
0.390076 0.891693 0.678619
0.441742 0.910675 0.702271
0.518066 0.926483 0.717133
0.604126 0.941010 0.729279
0.701721 0.955811 0.740540
0.803436 0.968414 0.752289
0.897095 0.978210 0.765564
0.966766 0.984863 0.780792
0.996307 0.988770 0.831573
0.096832 0.088715 0.428345
0.114044 0.120087 0.467957
0.204468 0.121735 0.475769
0.305847 0.138428 0.499786
0.407043 0.163940 0.528473
0.510773 0.199097 0.556976
0.619995 0.236023 0.584473
0.724396 0.274353 0.608490
0.828766 0.320740 0.633789
0.095276 0.174133 0.477631
0.122681 0.216797 0.522766
0.222839 0.215454 0.526886
0.336914 0.230865 0.547028
0.445160 0.252014 0.571899
0.551056 0.276337 0.597168
0.664398 0.305145 0.626099
0.780853 0.340546 0.659027
0.875031 0.383972 0.691986
0.095795 0.278809 0.534973
0.118927 0.319153 0.578094
0.236938 0.322601 0.577026
0.361206 0.336639 0.591736
0.473694 0.354431 0.609314
0.580322 0.373932 0.627594
0.687897 0.395264 0.648224
0.797028 0.422058 0.669922
0.886444 0.454285 0.693726
0.069092 0.371338 0.594940
0.087616 0.415680 0.639130
0.211243 0.425873 0.644836
0.383575 0.444580 0.647095
0.506836 0.461700 0.654175
0.618134 0.478912 0.666931
0.724426 0.497070 0.681641
0.829132 0.518524 0.698120
0.909180 0.544037 0.716553
0.078156 0.475311 0.630524
0.101257 0.524475 0.676117
0.182648 0.529633 0.685577
0.377319 0.552521 0.715363
0.531128 0.571991 0.719086
0.654633 0.589783 0.711243
0.764893 0.607056 0.720062
0.863892 0.624207 0.731659
0.934937 0.645630 0.745392
0.149628 0.601776 0.681396
0.191254 0.637207 0.712738
0.311096 0.644775 0.717438
0.425476 0.663147 0.736847
0.527618 0.683228 0.765900
0.680176 0.701080 0.782166
0.799103 0.719543 0.760834
0.896667 0.734680 0.766083
0.960968 0.753174 0.776215
0.244232 0.720978 0.722656
0.304596 0.745056 0.742645
0.401794 0.757233 0.750854
0.509033 0.776062 0.766052
0.610168 0.793518 0.785217
0.702881 0.813080 0.808563
0.828400 0.828400 0.828522
0.925690 0.842316 0.799469
0.980316 0.856171 0.794189
0.360626 0.839905 0.762054
0.411072 0.851349 0.771210
0.493744 0.864868 0.781586
0.587646 0.878601 0.793457
0.695679 0.893768 0.802551
0.781464 0.906738 0.808868
0.865814 0.919495 0.822968
0.930298 0.935822 0.841766
0.994568 0.944519 0.818970
0.384674 0.907349 0.772949
0.434601 0.922119 0.790771
0.510101 0.935760 0.802612
0.595276 0.948883 0.813232
0.693756 0.962921 0.824951
0.792938 0.973572 0.835754
0.888000 0.982086 0.847534
0.961578 0.987854 0.861816
0.994690 0.992218 0.899323
0.131866 0.118073 0.516846
0.156403 0.148956 0.555664
0.219971 0.154633 0.565582
0.319305 0.167603 0.584106
0.418671 0.194885 0.610962
0.520782 0.229523 0.640228
0.627808 0.262512 0.668671
0.732330 0.302277 0.695709
0.835083 0.346893 0.723236
0.141602 0.199951 0.562195
0.165619 0.241821 0.606781
0.237762 0.245789 0.615387
0.347809 0.256348 0.631226
0.454254 0.276855 0.655792
0.560547 0.301910 0.683990
0.672302 0.331055 0.715179
0.788818 0.366791 0.749725
0.881714 0.411041 0.782715
0.141266 0.304047 0.615295
0.156738 0.345184 0.660400
0.247986 0.350708 0.665619
0.369049 0.360077 0.677032
0.480072 0.376343 0.694641
0.586700 0.396057 0.715912
0.692749 0.417816 0.738037
0.801575 0.444550 0.760712
0.889832 0.477264 0.785065
0.112366 0.403778 0.676819
0.121857 0.445892 0.724030
0.228668 0.454193 0.724945
0.390564 0.466736 0.728424
0.509644 0.482025 0.740509
0.620697 0.499359 0.755219
0.726837 0.518097 0.771362
0.831116 0.539734 0.789032
0.910919 0.566010 0.807861
0.096130 0.503052 0.731201
0.116394 0.546906 0.772125
0.208832 0.554993 0.780457
0.382111 0.572571 0.794891
0.532166 0.590820 0.794739
0.650696 0.606293 0.797699
0.761688 0.624237 0.808899
0.862427 0.643555 0.821533
0.934235 0.665649 0.835358
0.142883 0.617279 0.766754
0.181763 0.662201 0.804871
0.263306 0.663879 0.806427
0.383575 0.680023 0.826508
0.532776 0.698578 0.849915
0.673065 0.717255 0.853699
0.792694 0.732056 0.846924
0.892517 0.751404 0.854248
0.957916 0.770874 0.863739
0.235199 0.736053 0.806976
0.273438 0.779358 0.840851
0.365356 0.775848 0.837006
0.473419 0.791107 0.848938
0.573425 0.808136 0.866150
0.673645 0.824829 0.891846
0.814819 0.837494 0.903473
0.918213 0.852814 0.888458
0.978882 0.865479 0.892151
0.323730 0.848846 0.842499
0.359314 0.870361 0.861572
0.443207 0.876038 0.864594
0.542480 0.888855 0.876312
0.644501 0.902405 0.890320
0.746185 0.915833 0.907043
0.832733 0.928619 0.925323
0.939026 0.938965 0.941467
0.996185 0.948029 0.918701
0.415619 0.928772 0.874634
0.458160 0.937317 0.882965
0.528564 0.946289 0.889832
0.611115 0.956635 0.899292
0.711548 0.968262 0.911316
0.812225 0.976593 0.921997
0.898712 0.984009 0.927887
0.961365 0.989929 0.933319
0.996124 0.994354 0.960480
0.177490 0.152893 0.609985
0.193085 0.180420 0.638977
0.232574 0.193848 0.651917
0.332947 0.205109 0.674103
0.432434 0.231842 0.702209
0.531494 0.262512 0.730377
0.637238 0.296021 0.756836
0.741302 0.334991 0.782440
0.840912 0.376770 0.806061
0.182556 0.230896 0.655273
0.193359 0.266754 0.680664
0.242065 0.281403 0.693787
0.356262 0.286743 0.711182
0.460327 0.305450 0.733765
0.561768 0.330475 0.756287
0.666138 0.358124 0.778351
0.769257 0.390320 0.800140
0.859192 0.426849 0.820435
0.174591 0.332001 0.706390
0.187561 0.367004 0.726929
0.248596 0.382233 0.739044
0.375885 0.387238 0.752808
0.484772 0.402985 0.769989
0.587738 0.423065 0.787933
0.689758 0.445312 0.805786
0.791718 0.471588 0.823822
0.877502 0.502319 0.839996
0.155609 0.433289 0.757050
0.171356 0.465881 0.773590
0.247681 0.481384 0.784119
0.396851 0.490387 0.793884
0.512299 0.505035 0.807281
0.618469 0.523010 0.820984
0.720734 0.543030 0.835175
0.820557 0.565826 0.849152
0.900208 0.594086 0.863373
0.132721 0.527863 0.805725
0.154205 0.559296 0.819122
0.238403 0.576172 0.832703
0.399384 0.591156 0.842194
0.534637 0.609680 0.848389
0.648926 0.627563 0.855225
0.753662 0.646454 0.865326
0.851440 0.668213 0.876556
0.923004 0.692505 0.887817
0.138214 0.627716 0.834503
0.172058 0.660553 0.844757
0.260468 0.677185 0.859955
0.406525 0.693329 0.878784
0.539032 0.711243 0.896057
0.675873 0.734283 0.899048
0.786194 0.752136 0.897949
0.881927 0.775024 0.906097
0.945709 0.797424 0.913025
0.232574 0.740570 0.862335
0.283325 0.769653 0.872375
0.364563 0.781067 0.882538
0.465912 0.795532 0.896332
0.557556 0.812836 0.912872
0.699066 0.830414 0.927704
0.816437 0.848114 0.933319
0.909821 0.868652 0.936371
0.966644 0.887878 0.940460
0.315521 0.845062 0.890625
0.364044 0.864349 0.898499
0.452820 0.873444 0.907684
0.552155 0.886749 0.918793
0.658905 0.902557 0.930756
0.758148 0.916901 0.942383
0.853546 0.933197 0.965881
0.939880 0.948547 0.987213
0.982819 0.964630 0.994629
0.388245 0.917328 0.912140
0.449127 0.928009 0.918335
0.537598 0.937988 0.926727
0.641205 0.950562 0.936218
0.761292 0.963104 0.955383
0.866333 0.973206 0.983185
0.939575 0.981079 0.995392
0.977051 0.988922 0.997620
0.997894 0.997894 0.997711
