Kodak Vision2 500T Expression (5229) - Only color.cube
# Created by Benjamin (IWLTBAP) : http://luts.iwltbap.com
# Copyright: (C) Copyright 2010-2017 Triune Films and IWLTBAP SAS
# Cannot be resold, shared or otherwise redistributed
TITLE "Film Print Emulation LUTs Pack (Rec.709, sRGB, DCI-P3)"
LUT_3D_SIZE 5
0.000763 0.002350 0.003143
0.254791 0.001526 0.001129
0.425934 0.011353 0.000000
0.571930 0.016876 0.000000
0.738220 0.036591 0.000000
0.066071 0.300537 0.064880
0.296692 0.235443 0.032928
0.530548 0.254395 0.000000
0.727448 0.219482 0.000000
0.865326 0.211060 0.000000
0.189117 0.536652 0.093079
0.313934 0.442444 0.048248
0.549316 0.410797 0.052856
0.837677 0.451080 0.041168
0.970062 0.441711 0.053528
0.274994 0.801941 0.118561
0.365875 0.679352 0.076355
0.539673 0.656067 0.059082
0.802368 0.572144 0.084625
0.973145 0.612762 0.141907
0.329498 0.967834 0.125305
0.418243 0.920074 0.106506
0.555603 0.858185 0.072998
0.803192 0.878357 0.073975
0.970215 0.754883 0.138031
0.000000 0.001495 0.105530
0.087921 0.001190 0.053619
0.285492 0.000000 0.042084
0.460815 0.000000 0.043518
0.638641 0.000000 0.055511
0.076904 0.293182 0.244324
0.259949 0.255768 0.234344
0.471436 0.250031 0.201752
0.691437 0.250061 0.187714
0.853027 0.251953 0.193665
0.273773 0.575989 0.304871
0.339691 0.519196 0.298981
0.527466 0.450287 0.258026
0.811676 0.486877 0.269897
0.963165 0.464386 0.265778
0.288269 0.800629 0.287903
0.395996 0.793182 0.317902
0.542603 0.699158 0.298767
0.785217 0.636200 0.277557
0.971558 0.665955 0.308258
0.310913 0.964722 0.270905
0.458710 0.966644 0.327209
0.576721 0.927399 0.318146
0.801819 0.911011 0.306702
0.969879 0.818420 0.318390
0.000000 0.024902 0.143158
0.061462 0.002350 0.135376
0.159515 0.000397 0.085785
0.314117 0.000000 0.085693
0.469086 0.000000 0.095947
0.042755 0.131622 0.203796
0.170288 0.231110 0.325989
0.335327 0.237305 0.277527
0.517242 0.236511 0.264587
0.759552 0.233368 0.269623
0.211517 0.551605 0.452911
0.205170 0.493103 0.449493
0.501160 0.510223 0.488953
0.752930 0.513275 0.476440
0.924835 0.514404 0.469299
0.336517 0.814178 0.477234
0.395355 0.802399 0.480988
0.555573 0.796448 0.536285
0.767426 0.718231 0.530273
0.969238 0.763489 0.525604
0.377289 0.938019 0.444031
0.483490 0.955811 0.449707
0.635803 0.963440 0.540588
0.812927 0.948883 0.546722
0.968262 0.897461 0.542206
0.000000 0.051849 0.200012
0.030945 0.044006 0.222687
0.135071 0.004425 0.161804
0.213684 0.000000 0.111633
0.350952 0.000000 0.118622
0.000000 0.047119 0.132965
0.131775 0.241394 0.394714
0.292633 0.257965 0.363434
0.389648 0.236664 0.306763
0.548096 0.235046 0.305450
0.088104 0.366211 0.417145
0.078705 0.347412 0.444885
0.428467 0.472351 0.566650
0.580261 0.504425 0.550262
0.800659 0.503906 0.544128
0.287354 0.804291 0.632629
0.274536 0.761017 0.655243
0.416992 0.736694 0.680908
0.747559 0.760345 0.742767
0.960968 0.777130 0.735748
0.346680 0.930359 0.614319
0.434265 0.938995 0.654633
0.621124 0.955658 0.700165
0.848755 0.958771 0.799530
0.965271 0.953400 0.778687
0.025299 0.091156 0.247040
0.022858 0.079895 0.289703
0.115540 0.034790 0.224548
0.187378 0.000000 0.155548
0.270935 0.000000 0.132812
0.000000 0.048767 0.178192
0.084137 0.255402 0.455170
0.268799 0.270447 0.431671
0.348877 0.251373 0.368073
0.441528 0.237122 0.324158
0.071686 0.272247 0.375732
0.073608 0.273407 0.412201
0.406677 0.464478 0.621277
0.526917 0.497284 0.604706
0.643890 0.505463 0.581451
0.189728 0.579407 0.594238
0.173706 0.541504 0.624268
0.274445 0.565338 0.709167
0.685028 0.694489 0.784424
0.830231 0.759888 0.810913
0.305084 0.912842 0.773682
0.297699 0.895111 0.786194
0.407501 0.896637 0.812286
0.676025 0.924194 0.873016
0.962891 0.956543 0.954773
