Kodak Vision2 500T (5260) - Only color.cube
# Created by Benjamin (IWLTBAP) : http://luts.iwltbap.com
# Copyright: (C) Copyright 2010-2017 Triune Films and IWLTBAP SAS
# Cannot be resold, shared or otherwise redistributed
TITLE "Film Print Emulation LUTs Pack (Rec.709, sRGB, DCI-P3)"
LUT_3D_SIZE 5
0.000000 0.000000 0.000000
0.351410 0.079651 0.048889
0.595886 0.104065 0.099823
0.780334 0.128357 0.131500
1.000000 0.168335 0.156769
0.005676 0.135406 0.042114
0.268524 0.253784 0.065857
0.592255 0.290222 0.099945
0.805328 0.323761 0.133057
1.000000 0.347504 0.155975
0.010254 0.288635 0.131592
0.020050 0.382599 0.074493
0.559326 0.525757 0.113617
0.815796 0.550690 0.141663
1.000000 0.564667 0.146423
0.022949 0.460114 0.244995
0.023621 0.516602 0.182098
0.507904 0.706696 0.177338
0.796234 0.741882 0.214325
1.000000 0.747650 0.188354
0.031647 0.599945 0.364807
0.030914 0.622040 0.288696
0.115601 0.753540 0.267059
0.727661 0.874634 0.236206
1.000000 0.924591 0.175140
0.045197 0.033203 0.179932
0.450134 0.072510 0.245758
0.616730 0.099915 0.273834
0.789612 0.136139 0.299408
0.998596 0.171234 0.327423
0.023132 0.238770 0.321991
0.252533 0.258514 0.240601
0.581726 0.308746 0.272705
0.799408 0.336975 0.301086
1.000000 0.350311 0.315369
0.023743 0.385529 0.306885
0.020081 0.395874 0.234253
0.552490 0.527191 0.291199
0.825012 0.538391 0.317780
1.000000 0.545013 0.323456
0.029510 0.532074 0.361359
0.027313 0.542297 0.279968
0.378479 0.701813 0.293549
0.806488 0.745178 0.388275
0.999664 0.737488 0.370758
0.034424 0.622314 0.434479
0.033051 0.627502 0.360687
0.080750 0.740479 0.328674
0.700745 0.877411 0.367035
0.999023 0.931427 0.383514
0.036987 0.125122 0.327942
0.510986 0.070526 0.375183
0.643280 0.090149 0.423126
0.793579 0.116760 0.456696
1.000000 0.186005 0.503174
0.027496 0.294556 0.424225
0.024658 0.217163 0.387970
0.613007 0.292694 0.417511
0.810120 0.321686 0.460297
0.997009 0.346893 0.474670
0.031097 0.403473 0.464478
0.034637 0.419739 0.473938
0.501984 0.525818 0.471497
0.798981 0.560608 0.503815
0.999847 0.557922 0.506409
0.033112 0.559845 0.445221
0.033081 0.583221 0.421936
0.076782 0.685883 0.465851
0.796692 0.755096 0.553955
0.998383 0.738861 0.554352
0.037079 0.639893 0.489441
0.035095 0.638519 0.423584
0.040253 0.716248 0.403656
0.686096 0.879608 0.501984
0.997589 0.939270 0.557281
0.035645 0.129272 0.392731
0.514435 0.072601 0.477081
0.652832 0.090210 0.512573
0.780151 0.120911 0.583313
0.999420 0.168335 0.628967
0.031891 0.337524 0.493744
0.030548 0.225220 0.488068
0.497864 0.243805 0.558899
0.833099 0.299072 0.594788
1.000000 0.342285 0.615265
0.035980 0.423889 0.559204
0.036621 0.421692 0.569244
0.240631 0.442932 0.601135
0.833923 0.520599 0.603027
0.998413 0.544586 0.622406
0.039703 0.576691 0.583771
0.041626 0.617950 0.605164
0.077057 0.680969 0.651611
0.774872 0.775757 0.701477
0.997498 0.752228 0.698334
0.041595 0.664246 0.585724
0.040314 0.670776 0.545471
0.042877 0.711060 0.531769
0.597748 0.867340 0.630035
0.996521 0.950714 0.695404
0.028320 0.240387 0.455414
0.560883 0.084930 0.512512
0.690094 0.096436 0.507111
0.776367 0.123230 0.623108
0.997620 0.195984 0.756012
0.034668 0.383026 0.542847
0.040100 0.210876 0.526489
0.490662 0.209351 0.571625
0.804382 0.275208 0.653412
0.996521 0.353668 0.735687
0.039185 0.461426 0.603973
0.036652 0.404297 0.571686
0.038055 0.302612 0.570709
0.761230 0.424164 0.666016
0.998260 0.524292 0.733887
0.042938 0.570953 0.645996
0.043610 0.558594 0.659180
0.044250 0.549561 0.671234
0.659760 0.659302 0.755737
0.997528 0.720673 0.789734
0.047577 0.661163 0.694214
0.057587 0.685547 0.719696
0.079834 0.710480 0.746277
0.394318 0.797943 0.833557
0.993530 0.969818 0.890503
