Kodak Vision3 200T (5213) - Only color.cube
# Created by Benjamin (IWLTBAP) : http://luts.iwltbap.com
# Copyright: (C) Copyright 2010-2017 Triune Films and IWLTBAP SAS
# Cannot be resold, shared or otherwise redistributed
TITLE "Film Print Emulation LUTs Pack (Rec.709, sRGB, DCI-P3)"
LUT_3D_SIZE 5
0.000793 0.000793 0.000793
0.261810 0.056030 0.033813
0.423798 0.121277 0.049347
0.568237 0.168457 0.044312
0.756287 0.208954 0.047882
0.046051 0.193848 0.066956
0.235504 0.267181 0.093750
0.466095 0.314667 0.071838
0.669800 0.330353 0.065430
0.944336 0.356934 0.064362
0.116669 0.406708 0.186462
0.251282 0.461578 0.179382
0.468597 0.476685 0.164459
0.704895 0.521088 0.148529
0.964813 0.531189 0.095184
0.249969 0.584076 0.300781
0.299561 0.618500 0.317566
0.480133 0.674805 0.182739
0.712280 0.679962 0.223602
0.964508 0.718140 0.210449
0.310608 0.752411 0.341675
0.335571 0.786804 0.449188
0.446503 0.873932 0.406067
0.748932 0.920868 0.320923
0.946869 0.897461 0.379852
0.014221 0.072113 0.173737
0.167542 0.061584 0.236694
0.442078 0.103210 0.245819
0.634094 0.129272 0.203400
0.855865 0.191071 0.191040
0.030548 0.238770 0.208435
0.160950 0.289642 0.296570
0.462769 0.330139 0.294769
0.672424 0.354401 0.289490
0.946869 0.375519 0.275146
0.088440 0.417847 0.305939
0.218018 0.482483 0.295319
0.480103 0.510681 0.334869
0.699799 0.531464 0.326355
0.965088 0.529877 0.300049
0.242523 0.596954 0.344818
0.287506 0.631226 0.372742
0.364990 0.700256 0.375702
0.724945 0.712738 0.401855
0.967407 0.742554 0.374176
0.303009 0.767242 0.457336
0.319244 0.811523 0.543335
0.441498 0.889343 0.444427
0.739746 0.937256 0.426025
0.957764 0.918640 0.510437
0.060089 0.192230 0.386444
0.152313 0.169281 0.395691
0.354828 0.098999 0.436127
0.614960 0.132477 0.437775
0.860718 0.150848 0.408875
0.058594 0.335938 0.399048
0.126404 0.337036 0.464630
0.407562 0.300415 0.501678
0.676605 0.342957 0.481293
0.943970 0.356323 0.460205
0.110352 0.481293 0.459167
0.171295 0.509735 0.483887
0.435028 0.529266 0.537567
0.674957 0.537750 0.510590
0.959625 0.555176 0.509308
0.207611 0.626282 0.512177
0.254181 0.670013 0.544983
0.426910 0.724396 0.558960
0.728363 0.741547 0.558289
0.967041 0.763184 0.538300
0.286713 0.804413 0.583527
0.360504 0.858429 0.668518
0.478821 0.922150 0.630737
0.706940 0.958832 0.573395
0.964447 0.944916 0.682068
0.098114 0.281097 0.526031
0.221771 0.250946 0.570648
0.319122 0.147705 0.573883
0.593536 0.181854 0.593475
0.824982 0.197632 0.612640
0.108215 0.445740 0.575592
0.221161 0.435425 0.622375
0.403473 0.360535 0.661652
0.669403 0.380188 0.659698
0.902252 0.386536 0.673798
0.135071 0.551544 0.614685
0.241241 0.581573 0.645477
0.458313 0.586456 0.686157
0.702698 0.559875 0.704315
0.939453 0.566986 0.690857
0.225647 0.682831 0.674072
0.330658 0.729462 0.713104
0.479523 0.762146 0.745697
0.713379 0.774200 0.762238
0.955536 0.788971 0.753204
0.333618 0.861969 0.760559
0.432159 0.909088 0.835052
0.545471 0.942932 0.833221
0.730835 0.968445 0.824493
0.965424 0.969116 0.887604
0.120026 0.362915 0.646088
0.326813 0.388184 0.793091
0.472046 0.287292 0.802216
0.656525 0.287598 0.782715
0.820251 0.267761 0.800812
0.247131 0.541260 0.805511
0.380890 0.535004 0.852295
0.482422 0.450897 0.864746
0.721466 0.410889 0.882233
0.913055 0.429047 0.902130
0.279297 0.644562 0.799652
0.372986 0.673187 0.828247
0.552856 0.687775 0.889282
0.716888 0.589752 0.929077
0.943024 0.605988 0.935425
0.332581 0.775543 0.868469
0.400391 0.827850 0.921051
0.543488 0.850708 0.938293
0.724915 0.850769 0.957947
0.962585 0.806213 0.978485
0.427185 0.932770 0.948792
0.529144 0.948517 0.963501
0.645233 0.958954 0.973083
0.791626 0.969574 0.981018
0.963409 0.971191 0.980103
