Kodak Vision 320T (5277) - Only color.cube
# Created by Benjamin (IWLTBAP) : http://luts.iwltbap.com
# Copyright: (C) Copyright 2010-2017 Triune Films and IWLTBAP SAS
# Cannot be resold, shared or otherwise redistributed
TITLE "Film Print Emulation LUTs Pack (Rec.709, sRGB, DCI-P3)"
LUT_3D_SIZE 33
0.000610 0.002594 0.000854
0.034424 0.002075 0.000427
0.073669 0.001617 0.000061
0.111694 0.001770 0.000000
0.147797 0.003632 0.001038
0.183075 0.010132 0.004120
0.220001 0.018951 0.010040
0.256592 0.028015 0.017883
0.290710 0.035980 0.022461
0.323120 0.043030 0.026215
0.355835 0.050232 0.029297
0.387634 0.057281 0.031677
0.418488 0.063751 0.033386
0.449158 0.069733 0.035034
0.479797 0.075836 0.036591
0.509979 0.081482 0.038116
0.540558 0.087250 0.039581
0.570953 0.094482 0.042023
0.600281 0.100830 0.044342
0.629333 0.107971 0.047485
0.656860 0.115082 0.050934
0.682770 0.121796 0.054596
0.707703 0.128479 0.057678
0.730988 0.134491 0.060272
0.753845 0.140228 0.062775
0.776184 0.145660 0.065186
0.797241 0.150543 0.067200
0.818024 0.155243 0.069153
0.837860 0.160004 0.071411
0.857086 0.164581 0.073273
0.876404 0.169250 0.075104
0.895538 0.173798 0.077209
0.915649 0.178650 0.079285
0.000366 0.030701 0.000549
0.036346 0.031586 0.000244
0.074371 0.032501 0.000275
0.111755 0.035156 0.001556
0.147400 0.039581 0.004120
0.183716 0.044739 0.008240
0.221039 0.051025 0.014587
0.257935 0.057343 0.020599
0.292603 0.063171 0.024963
0.324921 0.068024 0.028046
0.357422 0.073730 0.030518
0.389587 0.079041 0.032257
0.420532 0.084503 0.033936
0.451050 0.089203 0.035522
0.481720 0.094116 0.037079
0.511963 0.098389 0.038605
0.542542 0.104095 0.040558
0.573059 0.110657 0.042450
0.602570 0.117218 0.045685
0.631561 0.124146 0.048798
0.659058 0.130676 0.052155
0.684723 0.137177 0.055359
0.709564 0.143311 0.058411
0.732758 0.148590 0.061340
0.755585 0.153870 0.063782
0.777771 0.158905 0.065857
0.798889 0.163513 0.067841
0.819580 0.167999 0.070129
0.839355 0.172577 0.072021
0.858551 0.177002 0.073883
0.877838 0.181519 0.076019
0.897003 0.185913 0.077789
0.917053 0.190613 0.079834
0.000122 0.062103 0.000183
0.035431 0.063324 0.000031
0.075012 0.063934 0.000000
0.111786 0.065186 0.004913
0.146667 0.067566 0.009186
0.182465 0.071625 0.012817
0.220032 0.076538 0.018646
0.258209 0.082184 0.023102
0.293549 0.086975 0.026825
0.326233 0.091553 0.029297
0.358734 0.095947 0.031677
0.391296 0.100983 0.033386
0.422363 0.105377 0.034454
0.453156 0.109222 0.036041
0.483765 0.112946 0.037598
0.513947 0.117279 0.039062
0.544708 0.122833 0.041504
0.575256 0.129120 0.043396
0.605072 0.135376 0.046570
0.634033 0.141876 0.050049
0.661407 0.147736 0.053345
0.687073 0.153564 0.056885
0.711639 0.159088 0.059875
0.734772 0.164185 0.062042
0.757690 0.168854 0.064484
0.779663 0.173584 0.066833
0.800751 0.177979 0.068817
0.821320 0.182465 0.071045
0.840942 0.186829 0.072937
0.860291 0.191284 0.075104
0.879639 0.195618 0.076874
0.898743 0.200043 0.078674
0.918701 0.204193 0.080688
0.000000 0.093201 0.000183
0.032471 0.094482 0.000000
0.076355 0.094452 0.000000
0.114258 0.095276 0.000000
0.147461 0.096558 0.012848
0.182190 0.099060 0.020081
0.217987 0.102753 0.022522
0.257599 0.107849 0.026245
0.294342 0.112732 0.029327
0.327545 0.116364 0.031128
0.360626 0.120239 0.032837
0.393402 0.124664 0.034485
0.424652 0.128265 0.035522
0.455444 0.131744 0.037079
0.486298 0.135162 0.038605
0.516449 0.139343 0.040070
0.547394 0.144775 0.042450
0.578125 0.150208 0.045227
0.608307 0.156128 0.048340
0.637207 0.161774 0.051727
0.664368 0.166962 0.054932
0.689819 0.171967 0.057983
0.714142 0.176819 0.060944
0.737244 0.181519 0.063416
0.760071 0.185883 0.065826
0.781921 0.190552 0.067810
0.802856 0.194702 0.070099
0.823395 0.198944 0.071991
0.842987 0.203125 0.074158
0.862305 0.207367 0.075989
0.881683 0.211517 0.078064
0.900696 0.215607 0.079803
0.920624 0.219604 0.081787
0.000000 0.123322 0.000763
0.022888 0.124664 0.000000
0.074432 0.124939 0.000000
0.115753 0.125214 0.000000
0.151337 0.126190 0.000000
0.184753 0.127502 0.020020
0.218292 0.130371 0.027588
0.255646 0.134125 0.030029
0.293823 0.138641 0.031769
0.328705 0.142151 0.032867
0.362640 0.145508 0.033966
0.395874 0.149323 0.035583
0.427277 0.152740 0.036591
0.458282 0.156036 0.037598
0.489197 0.159973 0.039581
0.519531 0.164032 0.041504
0.550568 0.168427 0.044342
0.581543 0.172913 0.047028
0.611816 0.177917 0.050476
0.640564 0.182770 0.053741
0.667480 0.187286 0.056854
0.692963 0.191864 0.059845
0.716888 0.196350 0.062714
0.739838 0.200562 0.065125
0.762726 0.204834 0.067139
0.784241 0.209045 0.069427
0.805328 0.212982 0.071655
0.825714 0.217010 0.073517
0.845215 0.220795 0.075653
0.864532 0.224854 0.077454
0.883850 0.228668 0.079498
0.902924 0.232452 0.081207
0.922699 0.236359 0.083160
0.000000 0.152466 0.002838
0.018372 0.153748 0.000000
0.071075 0.154175 0.000000
0.114838 0.154907 0.000000
0.152130 0.155884 0.000000
0.188171 0.156616 0.000000
0.221985 0.157806 0.024994
0.256592 0.160492 0.033020
0.293488 0.164062 0.034668
0.329529 0.167297 0.035126
0.364227 0.170715 0.035614
0.398071 0.174255 0.036621
0.430023 0.177704 0.037628
0.461548 0.181274 0.039124
0.492310 0.184998 0.041046
0.522766 0.188812 0.043915
0.553833 0.192169 0.046631
0.585144 0.196014 0.049652
0.615387 0.200378 0.052948
0.644104 0.204803 0.056091
0.670776 0.208954 0.059113
0.696198 0.213043 0.061981
0.719818 0.217072 0.064423
0.742828 0.220978 0.066803
0.765594 0.225037 0.069092
0.786896 0.228668 0.071320
0.807983 0.232422 0.073181
0.828247 0.236145 0.075317
0.847595 0.239807 0.077118
0.866882 0.243591 0.079163
0.886200 0.247314 0.080902
0.905334 0.250885 0.082855
0.924957 0.254395 0.084808
0.000000 0.179993 0.004272
0.008087 0.181091 0.000000
0.066193 0.181793 0.000000
0.112396 0.182770 0.000000
0.153290 0.183746 0.000000
0.188202 0.184723 0.000000
0.224579 0.184723 0.001709
0.259674 0.186310 0.031189
0.295013 0.189087 0.036285
0.330658 0.192627 0.036774
0.365234 0.195709 0.037750
0.400146 0.199280 0.038177
0.432648 0.202637 0.039673
0.464478 0.206085 0.041595
0.495575 0.209473 0.043457
0.526154 0.212799 0.046661
0.557556 0.215912 0.049683
0.588806 0.219482 0.052582
0.619080 0.223663 0.055725
0.647675 0.227936 0.058746
0.674194 0.231659 0.061615
0.699402 0.235352 0.064056
0.722931 0.238983 0.066437
0.745850 0.242615 0.069061
0.768524 0.246185 0.070984
0.789764 0.249573 0.073181
0.810852 0.253052 0.075317
0.830963 0.256500 0.077393
0.850220 0.260071 0.079132
0.869568 0.263580 0.081146
0.888824 0.267181 0.082825
0.907867 0.270477 0.084778
0.927429 0.273865 0.086670
0.000000 0.206696 0.005859
0.001740 0.208008 0.000122
0.059448 0.208801 0.000000
0.108398 0.209778 0.000000
0.151459 0.210968 0.000000
0.190704 0.211975 0.000000
0.224060 0.212799 0.000000
0.261200 0.212402 0.008392
0.297974 0.214478 0.036804
0.332916 0.217743 0.038849
0.367249 0.221100 0.040283
0.401978 0.224396 0.041718
0.435120 0.227478 0.043091
0.467468 0.230530 0.044922
0.498932 0.233704 0.047150
0.529785 0.236847 0.049744
0.561401 0.240265 0.053040
0.592560 0.243805 0.056152
0.622803 0.247772 0.059143
0.651367 0.251556 0.061646
0.677704 0.254974 0.064056
0.702637 0.258240 0.066437
0.725983 0.261444 0.069061
0.748993 0.264771 0.071289
0.771606 0.268066 0.073456
0.792847 0.271301 0.075592
0.813843 0.274658 0.077667
0.833801 0.277985 0.079681
0.853058 0.281250 0.081390
0.872406 0.284607 0.083344
0.891418 0.287933 0.085266
0.910645 0.291077 0.087158
0.930145 0.294067 0.089020
0.000000 0.233368 0.008514
0.000000 0.234528 0.000031
0.053925 0.235199 0.000000
0.103699 0.236542 0.000000
0.148438 0.238068 0.000000
0.189240 0.239563 0.000000
0.225647 0.240601 0.000000
0.260101 0.240997 0.000000
0.299408 0.240509 0.016266
0.336212 0.242828 0.040833
0.370209 0.246338 0.043213
0.404388 0.249786 0.045502
0.437561 0.252930 0.047272
0.470123 0.255707 0.049408
0.502228 0.258911 0.051483
0.533569 0.261932 0.054291
0.565308 0.265045 0.056976
0.596436 0.268402 0.059906
0.626770 0.272156 0.062378
0.655121 0.275574 0.064758
0.681061 0.278564 0.067108
0.705811 0.281525 0.069366
0.729218 0.284729 0.071899
0.752350 0.287781 0.074066
0.774750 0.290894 0.076141
0.795959 0.293854 0.078217
0.816833 0.296906 0.080231
0.836761 0.300049 0.082214
0.856049 0.303162 0.084137
0.875366 0.306213 0.086060
0.894348 0.309235 0.087921
0.913574 0.312225 0.089752
0.933228 0.315063 0.091797
0.000000 0.259857 0.010345
0.000000 0.260895 0.000885
0.049805 0.261658 0.000000
0.099915 0.263336 0.000000
0.144958 0.265137 0.000000
0.187439 0.266907 0.000000
0.225708 0.268555 0.000000
0.260803 0.269775 0.000000
0.298157 0.269592 0.000000
0.337708 0.268890 0.023315
0.373535 0.271820 0.047394
0.406952 0.275360 0.050385
0.440460 0.278839 0.052429
0.473480 0.281769 0.054810
0.505981 0.284912 0.056671
0.537750 0.287750 0.058899
0.569641 0.290710 0.061401
0.600616 0.293732 0.063812
0.630768 0.296875 0.066132
0.658722 0.299713 0.068085
0.684631 0.302521 0.070312
0.709106 0.305450 0.072815
0.732483 0.308350 0.074951
0.755615 0.311066 0.077026
0.777924 0.313904 0.079346
0.799164 0.316711 0.081329
0.819977 0.319489 0.083282
0.839844 0.322357 0.085205
0.859161 0.325195 0.087097
0.878510 0.328125 0.088928
0.897461 0.331024 0.090729
0.916626 0.333801 0.092773
0.936646 0.336456 0.094513
0.000000 0.286987 0.011292
0.000000 0.287628 0.003510
0.048981 0.288605 0.001953
0.097748 0.290344 0.000000
0.143402 0.292480 0.000000
0.185303 0.294586 0.000000
0.224243 0.296417 0.000000
0.261078 0.298126 0.000000
0.299805 0.299561 0.000000
0.337097 0.297943 0.000000
0.375977 0.297668 0.032562
0.410706 0.300903 0.055328
0.443909 0.304504 0.057953
0.477325 0.308197 0.060120
0.510376 0.311462 0.061859
0.542297 0.314240 0.063904
0.574127 0.316956 0.066223
0.605164 0.319550 0.068176
0.634796 0.322021 0.070068
0.662567 0.324371 0.072235
0.688446 0.326935 0.074036
0.712708 0.329498 0.076141
0.736084 0.332123 0.078491
0.759186 0.334778 0.080475
0.781219 0.337372 0.082703
0.802551 0.339996 0.084625
0.823334 0.342682 0.086517
0.843109 0.345123 0.088379
0.862396 0.347778 0.090454
0.881714 0.350494 0.092224
0.900726 0.353210 0.094238
0.919830 0.355804 0.095947
0.940369 0.358368 0.098114
0.000000 0.313965 0.016602
0.000000 0.314545 0.008636
0.052399 0.315613 0.006775
0.098907 0.317413 0.003387
0.142242 0.319641 0.000427
0.184723 0.321960 0.000000
0.222992 0.324158 0.000000
0.259613 0.326111 0.000000
0.298401 0.328033 0.000000
0.342285 0.329407 0.000000
0.376740 0.326660 0.008514
0.414154 0.326752 0.043488
0.447632 0.329956 0.063049
0.481262 0.333740 0.065399
0.514618 0.337463 0.067352
0.546906 0.340546 0.069580
0.578827 0.343262 0.071106
0.609894 0.345734 0.073242
0.639404 0.348022 0.075012
0.666870 0.350189 0.076752
0.692627 0.352234 0.078491
0.716705 0.354492 0.080475
0.739929 0.356842 0.082428
0.763000 0.359070 0.084351
0.784851 0.361389 0.086212
0.806152 0.363708 0.088318
0.826721 0.366089 0.090149
0.846405 0.368561 0.091949
0.865692 0.371002 0.093933
0.885010 0.373444 0.095917
0.904083 0.376068 0.097595
0.923096 0.378662 0.099518
0.944611 0.381165 0.101624
0.000000 0.340942 0.021454
0.005066 0.341492 0.017456
0.061188 0.342743 0.014893
0.104431 0.344818 0.012238
0.146301 0.346954 0.007690
0.187286 0.349579 0.003296
0.224854 0.352020 0.000000
0.259888 0.354004 0.000000
0.295532 0.355988 0.000000
0.340790 0.358948 0.000000
0.383057 0.359192 0.000000
0.416534 0.356079 0.021759
0.451904 0.355988 0.053528
0.485138 0.359100 0.070984
0.518524 0.362640 0.072784
0.551025 0.366150 0.074860
0.583710 0.369202 0.076599
0.614990 0.372253 0.078308
0.644470 0.374725 0.080261
0.671631 0.376984 0.082184
0.697113 0.379059 0.083832
0.720978 0.381073 0.085419
0.744171 0.383026 0.087006
0.767273 0.385101 0.089111
0.788879 0.387146 0.090637
0.810089 0.389099 0.092651
0.830383 0.391235 0.094391
0.849854 0.393250 0.096100
0.869049 0.395447 0.097809
0.888184 0.397705 0.099457
0.907501 0.400146 0.101349
0.926544 0.402557 0.103210
0.949005 0.404907 0.105042
0.000000 0.368683 0.030334
0.032257 0.369202 0.027679
0.073456 0.370911 0.025055
0.112793 0.372864 0.021790
0.153290 0.375366 0.018524
0.193726 0.377960 0.014801
0.230194 0.380432 0.010437
0.264008 0.382538 0.004089
0.297058 0.384552 0.000061
0.333160 0.386627 0.000000
0.382965 0.390106 0.000000
0.422699 0.389557 0.004028
0.455688 0.386261 0.033997
0.489502 0.385559 0.062866
0.522156 0.388031 0.078186
0.554688 0.391449 0.079865
0.587769 0.394897 0.081757
0.619720 0.398346 0.083923
0.649261 0.401398 0.085480
0.676270 0.403992 0.087311
0.701691 0.406219 0.089111
0.725342 0.408386 0.090912
0.748779 0.410431 0.092651
0.771729 0.412384 0.094360
0.793152 0.414246 0.095825
0.814301 0.416077 0.097504
0.834320 0.417755 0.098938
0.853546 0.419586 0.100586
0.872864 0.421417 0.102234
0.891937 0.423401 0.103851
0.911224 0.425537 0.105469
0.930298 0.427765 0.107300
0.953949 0.429993 0.109100
0.000000 0.395752 0.041962
0.049988 0.396973 0.038727
0.085632 0.398621 0.036499
0.122070 0.400757 0.033600
0.162537 0.403320 0.030518
0.201416 0.405945 0.026611
0.237152 0.408447 0.022736
0.270538 0.410583 0.018188
0.301239 0.412140 0.011322
0.334137 0.413788 0.002380
0.375488 0.416382 0.000000
0.425110 0.419678 0.000000
0.460938 0.418274 0.019684
0.493713 0.415497 0.045990
0.526398 0.414673 0.071106
0.558502 0.417145 0.085388
0.591248 0.420288 0.087463
0.623627 0.423737 0.089203
0.653442 0.427002 0.091217
0.680542 0.429779 0.092682
0.705750 0.432373 0.094391
0.729584 0.434814 0.096100
0.753235 0.437256 0.097992
0.775909 0.439362 0.099640
0.797394 0.441376 0.101013
0.818451 0.443481 0.102417
0.838470 0.445343 0.104034
0.857819 0.447021 0.105408
0.877075 0.448792 0.107025
0.895935 0.450500 0.108368
0.915039 0.452332 0.109955
0.934448 0.454285 0.111755
0.959229 0.456451 0.113708
0.030365 0.422638 0.051056
0.066620 0.424194 0.048798
0.098053 0.425934 0.046448
0.132935 0.428345 0.044464
0.171661 0.430969 0.041443
0.209137 0.433594 0.038300
0.244110 0.436249 0.034393
0.277130 0.438599 0.029572
0.307465 0.440155 0.023804
0.338196 0.441650 0.016724
0.371429 0.443207 0.005005
0.422760 0.447144 0.000000
0.463959 0.448547 0.006836
0.498077 0.446411 0.032654
0.530426 0.443939 0.056000
0.562714 0.444031 0.079163
0.594910 0.446442 0.093079
0.627167 0.449554 0.094727
0.657196 0.452759 0.096619
0.684387 0.455627 0.098267
0.709564 0.458435 0.099884
0.733490 0.461121 0.101501
0.757355 0.463745 0.103088
0.779968 0.466278 0.104462
0.801758 0.468811 0.106293
0.822906 0.471222 0.107880
0.842804 0.473389 0.109222
0.862183 0.475250 0.110565
0.881409 0.476868 0.111908
0.900177 0.478455 0.113220
0.919067 0.480042 0.114777
0.938965 0.481873 0.116516
0.964478 0.483673 0.118439
0.050964 0.450653 0.059448
0.081451 0.452240 0.057831
0.111023 0.454193 0.056213
0.144623 0.456726 0.054108
0.181610 0.459381 0.051514
0.217072 0.462067 0.049255
0.251556 0.464905 0.046021
0.284302 0.467224 0.042603
0.314911 0.469147 0.037994
0.344299 0.470520 0.031799
0.375336 0.471832 0.022980
0.417511 0.474091 0.002380
0.465454 0.477631 0.001465
0.501831 0.477814 0.022705
0.534485 0.475189 0.044403
0.566467 0.472473 0.064301
0.598663 0.473206 0.087616
0.630768 0.475769 0.100433
0.660522 0.478668 0.102020
0.687927 0.481628 0.103577
0.713135 0.484680 0.105377
0.737152 0.487457 0.106750
0.761322 0.490448 0.108307
0.784149 0.493439 0.109863
0.806183 0.496338 0.111176
0.827240 0.499023 0.112518
0.847168 0.501495 0.113831
0.866608 0.503540 0.115143
0.885559 0.505280 0.116455
0.904266 0.506897 0.117981
0.922913 0.508423 0.119263
0.943604 0.510010 0.120758
0.969696 0.511627 0.122620
0.069611 0.479156 0.068542
0.095947 0.480865 0.067139
0.124207 0.482849 0.065704
0.156616 0.485260 0.063507
0.191956 0.487915 0.061615
0.226257 0.490631 0.059326
0.259613 0.493530 0.056549
0.291412 0.496094 0.053680
0.321960 0.498108 0.049805
0.350616 0.499512 0.045258
0.380676 0.500916 0.038818
0.413940 0.502289 0.026031
0.465698 0.505798 0.004150
0.505005 0.508148 0.015656
0.538971 0.507233 0.036346
0.570770 0.504089 0.054626
0.602417 0.501678 0.072052
0.634308 0.502869 0.096100
0.664093 0.505493 0.106995
0.691345 0.508392 0.108551
0.716553 0.511505 0.110077
0.740906 0.514648 0.111603
0.765167 0.517792 0.113129
0.787933 0.520966 0.114441
0.810120 0.523956 0.115967
0.831177 0.526917 0.117249
0.851227 0.529633 0.118317
0.870789 0.532043 0.119598
0.889679 0.533997 0.120880
0.908234 0.535583 0.122162
0.926605 0.536987 0.123444
0.948090 0.538300 0.124695
0.974518 0.539917 0.125885
0.085938 0.508270 0.077606
0.110687 0.509918 0.076019
0.137848 0.512177 0.074432
0.169525 0.514557 0.072479
0.202637 0.517242 0.070465
0.235779 0.520020 0.068085
0.267975 0.522858 0.065643
0.298676 0.525269 0.063446
0.328766 0.527344 0.060486
0.357330 0.529022 0.056641
0.386322 0.530487 0.052155
0.416229 0.531799 0.044128
0.465790 0.534821 0.023987
0.507751 0.537262 0.012878
0.542969 0.538605 0.030060
0.576050 0.536804 0.048309
0.606873 0.533569 0.063416
0.637665 0.532166 0.079742
0.667603 0.533752 0.102173
0.695068 0.536346 0.110962
0.720001 0.539368 0.114868
0.744537 0.542358 0.116364
0.768799 0.545471 0.117645
0.791595 0.548492 0.119141
0.813995 0.551636 0.120605
0.834991 0.554657 0.121674
0.855133 0.557648 0.122925
0.874908 0.560333 0.124176
0.893585 0.562378 0.125214
0.912140 0.563965 0.126068
0.930511 0.565369 0.127106
0.952942 0.566742 0.128113
0.979462 0.568268 0.129272
0.103394 0.537720 0.085480
0.126648 0.539490 0.084076
0.152283 0.541534 0.082336
0.181854 0.543854 0.080536
0.213287 0.546387 0.078400
0.244934 0.549194 0.075928
0.276245 0.551910 0.074005
0.306396 0.554230 0.072052
0.335724 0.556427 0.069427
0.364532 0.558228 0.066711
0.392517 0.559662 0.063171
0.420563 0.560974 0.057983
0.464722 0.563873 0.044922
0.510651 0.566711 0.026367
0.547546 0.568695 0.028778
0.581116 0.568634 0.044617
0.612457 0.566162 0.059021
0.642120 0.563629 0.072205
0.670898 0.563049 0.087067
0.698669 0.564941 0.104828
0.723724 0.567566 0.115906
0.748199 0.570374 0.121216
0.772461 0.573242 0.122650
0.795410 0.576324 0.123901
0.817810 0.579468 0.125336
0.838806 0.582458 0.126373
0.858948 0.585388 0.127380
0.878601 0.588013 0.128204
0.897400 0.590363 0.129211
0.915924 0.592224 0.130035
0.934723 0.593872 0.130829
0.958099 0.595276 0.131805
0.984619 0.596802 0.132965
0.121155 0.567383 0.092529
0.142944 0.569092 0.091187
0.166901 0.570892 0.089813
0.194611 0.573151 0.087921
0.224182 0.575592 0.085938
0.254761 0.578308 0.083954
0.284607 0.580872 0.082214
0.313995 0.583282 0.080414
0.343079 0.585632 0.078308
0.371796 0.587616 0.075867
0.398468 0.588928 0.073029
0.425995 0.590363 0.069153
0.462280 0.592926 0.061523
0.513550 0.596588 0.045197
0.551666 0.598877 0.036713
0.586304 0.599854 0.044098
0.618256 0.598724 0.056702
0.647430 0.596222 0.068604
0.674988 0.594574 0.080414
0.701813 0.594727 0.093903
0.727203 0.596436 0.109070
0.751984 0.598907 0.121185
0.776062 0.601685 0.127930
0.799103 0.604492 0.128754
0.821442 0.607391 0.129944
0.842346 0.610199 0.130737
0.862640 0.613007 0.131714
0.882202 0.615662 0.132507
0.901093 0.618256 0.133301
0.919495 0.620422 0.134277
0.938904 0.622131 0.135071
0.962921 0.623474 0.135803
0.989319 0.624847 0.136932
0.138489 0.597809 0.099548
0.159119 0.599426 0.098297
0.182007 0.601257 0.097015
0.208496 0.603333 0.095490
0.236481 0.605682 0.093658
0.265442 0.608215 0.092072
0.293915 0.610779 0.090729
0.322693 0.613190 0.089111
0.351440 0.615662 0.087189
0.379730 0.617645 0.084961
0.405609 0.618988 0.082397
0.432281 0.620422 0.079193
0.462646 0.622406 0.074371
0.515564 0.626923 0.062042
0.555511 0.629333 0.050781
0.591461 0.630981 0.048981
0.623962 0.631012 0.057007
0.653290 0.629364 0.067566
0.680023 0.627289 0.077454
0.705719 0.626160 0.087982
0.730408 0.626282 0.099609
0.755493 0.627777 0.112549
0.779510 0.630219 0.126099
0.802551 0.632843 0.134186
0.824829 0.635376 0.134949
0.845642 0.638031 0.135712
0.865997 0.640808 0.136475
0.885712 0.643585 0.137238
0.904602 0.646271 0.138000
0.922943 0.648773 0.138763
0.942932 0.650604 0.139709
0.967224 0.651978 0.140594
0.993164 0.653229 0.141693
0.156250 0.629028 0.107025
0.175873 0.630493 0.106079
0.197998 0.632202 0.104889
0.223022 0.634216 0.103668
0.249725 0.636597 0.102448
0.276642 0.639099 0.101227
0.304108 0.641602 0.099762
0.332153 0.644073 0.098511
0.360168 0.646545 0.096741
0.387878 0.648560 0.094482
0.413727 0.650085 0.092163
0.439575 0.651520 0.089264
0.466644 0.653107 0.085754
0.516663 0.657623 0.076599
0.559174 0.660339 0.066040
0.595734 0.662140 0.057770
0.629211 0.663055 0.059540
0.658936 0.662689 0.067474
0.685669 0.661255 0.076202
0.710480 0.659637 0.084991
0.734528 0.658478 0.094025
0.758911 0.658356 0.104187
0.782715 0.659485 0.115326
0.805847 0.661743 0.129852
0.828217 0.664093 0.136047
0.848938 0.666687 0.140869
0.869232 0.669189 0.141785
0.888947 0.672028 0.142731
0.907898 0.674774 0.143463
0.926117 0.677399 0.144379
0.946899 0.679413 0.145264
0.971252 0.680847 0.146118
0.996582 0.681915 0.147186
0.174316 0.661133 0.116180
0.192993 0.662537 0.115265
0.214111 0.664124 0.114349
0.237610 0.666077 0.113434
0.262390 0.668274 0.112274
0.287872 0.670685 0.111115
0.314514 0.673157 0.109711
0.341888 0.675720 0.108307
0.369232 0.678009 0.106445
0.396118 0.679962 0.104340
0.421661 0.681519 0.101746
0.446838 0.682831 0.099335
0.472137 0.684235 0.096161
0.514801 0.687958 0.089539
0.561829 0.691071 0.079071
0.600098 0.693329 0.071106
0.633698 0.694183 0.064453
0.663727 0.694824 0.068390
0.690979 0.694550 0.076141
0.715668 0.693542 0.083832
0.739532 0.692230 0.091187
0.763489 0.691071 0.099243
0.786224 0.690613 0.108215
0.809082 0.691376 0.118073
0.831390 0.693207 0.129822
0.852173 0.695404 0.138824
0.872345 0.697906 0.147278
0.891846 0.700592 0.148346
0.910797 0.703400 0.149384
0.929138 0.705933 0.150452
0.950531 0.708069 0.151459
0.974884 0.709442 0.152466
0.999420 0.710602 0.153625
0.192780 0.692993 0.125732
0.210358 0.694305 0.124878
0.230042 0.695984 0.124207
0.251678 0.697693 0.123138
0.274750 0.699615 0.121826
0.299408 0.701935 0.120514
0.325287 0.704437 0.119202
0.351746 0.706848 0.117645
0.378296 0.708954 0.115662
0.404419 0.710724 0.113007
0.429565 0.712280 0.110291
0.454041 0.713684 0.107788
0.479187 0.714966 0.105011
0.513000 0.717590 0.100311
0.563446 0.721588 0.091431
0.603333 0.723846 0.082581
0.637634 0.725189 0.076477
0.667816 0.725922 0.072174
0.695709 0.726807 0.076965
0.720886 0.726807 0.084045
0.744934 0.726044 0.090607
0.768402 0.724792 0.097504
0.790649 0.723724 0.104309
0.812622 0.722870 0.112183
0.834167 0.723206 0.121002
0.854950 0.724609 0.130402
0.875244 0.726807 0.142639
0.894623 0.729279 0.148651
0.913361 0.731873 0.155426
0.931885 0.734406 0.156586
0.953857 0.736542 0.157562
0.978058 0.738007 0.158691
1.000000 0.739105 0.160004
0.210999 0.724365 0.134186
0.226837 0.725555 0.133362
0.244873 0.726929 0.132568
0.265076 0.728577 0.131531
0.287018 0.730438 0.130310
0.310699 0.732727 0.129059
0.335724 0.735138 0.127808
0.361328 0.737396 0.125946
0.387146 0.739471 0.123627
0.412567 0.741272 0.120667
0.437378 0.742920 0.118073
0.461639 0.744202 0.115448
0.486176 0.745514 0.112976
0.513702 0.747162 0.109619
0.563110 0.751434 0.102692
0.605133 0.754181 0.094269
0.641113 0.756134 0.087585
0.671509 0.756989 0.082123
0.699280 0.757996 0.080383
0.724976 0.758759 0.085327
0.749603 0.758667 0.091583
0.773102 0.758026 0.097687
0.795197 0.757050 0.103790
0.816803 0.755951 0.109680
0.837494 0.755188 0.116516
0.857727 0.755249 0.124115
0.877655 0.756287 0.132111
0.896790 0.758209 0.141174
0.915527 0.760712 0.151031
0.934387 0.763245 0.158203
0.956696 0.765472 0.163757
0.980713 0.766846 0.165009
1.000000 0.767975 0.166412
0.227661 0.755524 0.141785
0.242340 0.756653 0.141205
0.259125 0.757935 0.140442
0.277893 0.759521 0.139465
0.298981 0.761353 0.138306
0.321808 0.763458 0.137146
0.346100 0.765747 0.135773
0.371033 0.767853 0.133606
0.396027 0.769928 0.131042
0.420868 0.771851 0.127991
0.445435 0.773529 0.125305
0.469299 0.774902 0.122803
0.493164 0.775970 0.120453
0.517761 0.777008 0.117859
0.561768 0.780975 0.112793
0.605988 0.784332 0.105743
0.643738 0.786743 0.098724
0.674927 0.787933 0.093597
0.702423 0.788788 0.088470
0.728119 0.789764 0.088470
0.753448 0.790558 0.093750
