Kodak 8mm - Only color.cube
# Created by Benjamin (IWLTBAP) : http://luts.iwltbap.com
# Copyright: (C) Copyright 2010-2017 Triune Films and IWLTBAP SAS
# Cannot be resold, shared or otherwise redistributed
TITLE "Film Print Emulation LUTs Pack (Rec.709, sRGB, DCI-P3)"
LUT_3D_SIZE 33
0.000610 0.000610 0.000000
0.033173 0.000153 0.000000
0.065796 0.000214 0.000000
0.090698 0.005005 0.000793
0.118958 0.009735 0.005341
0.143799 0.014709 0.014709
0.162109 0.019623 0.018433
0.184723 0.022003 0.022217
0.203644 0.025970 0.027405
0.221039 0.030701 0.035919
0.239685 0.031494 0.040833
0.258606 0.033051 0.044739
0.275665 0.033813 0.047729
0.294037 0.034607 0.050629
0.313232 0.033813 0.049927
0.332489 0.033813 0.048492
0.351654 0.034576 0.054047
0.372192 0.040710 0.062561
0.393585 0.047791 0.068329
0.415253 0.052368 0.072266
0.434937 0.057861 0.078522
0.453278 0.065704 0.082397
0.472382 0.069366 0.085815
0.494080 0.075287 0.094360
0.515900 0.081665 0.100250
0.539368 0.086304 0.106537
0.564514 0.092255 0.115356
0.584991 0.097443 0.119690
0.605682 0.100311 0.124786
0.624390 0.102417 0.130554
0.643280 0.105194 0.133789
0.660522 0.109589 0.135834
0.678314 0.112885 0.137573
0.000427 0.020447 0.000000
0.033173 0.032288 0.000000
0.065765 0.033081 0.000183
0.091125 0.036957 0.007599
0.119965 0.039978 0.014709
0.145782 0.047852 0.017639
0.165771 0.053680 0.020721
0.189301 0.056702 0.025177
0.208099 0.059662 0.032715
0.226196 0.062469 0.039246
0.245453 0.063049 0.044739
0.264404 0.060242 0.047729
0.281372 0.061920 0.051331
0.300995 0.057312 0.050629
0.319977 0.056702 0.049957
0.339447 0.054901 0.052704
0.360016 0.058472 0.060272
0.381042 0.065735 0.066803
0.401581 0.069366 0.070312
0.423950 0.074341 0.077545
0.443237 0.082153 0.081909
0.462799 0.085938 0.085785
0.482239 0.090759 0.093445
0.504608 0.097504 0.099823
0.527252 0.102112 0.105743
0.552063 0.107605 0.115021
0.575409 0.114197 0.120026
0.595795 0.116730 0.125092
0.616486 0.119507 0.132324
0.634827 0.122559 0.134644
0.654755 0.127319 0.136993
0.670776 0.129059 0.139313
0.688995 0.130768 0.142731
0.000183 0.035461 0.004120
0.029144 0.043030 0.002289
0.065765 0.060303 0.000732
0.091156 0.065277 0.010101
0.120667 0.070984 0.018463
0.146637 0.074890 0.021484
0.168091 0.081360 0.023712
0.191589 0.084381 0.028137
0.210632 0.087311 0.035950
0.229431 0.088104 0.041656
0.249542 0.087708 0.046265
0.267639 0.086029 0.050629
0.286896 0.084351 0.052032
0.307159 0.081329 0.050659
0.326935 0.076263 0.051361
0.346680 0.077667 0.059113
0.366455 0.081299 0.064728
0.389099 0.084747 0.069824
0.410889 0.089630 0.075653
0.431732 0.096100 0.080444
0.452148 0.101837 0.085327
0.471802 0.106323 0.092529
0.492065 0.113281 0.098938
0.515137 0.117401 0.104950
0.538574 0.122009 0.114319
0.563843 0.128510 0.119354
0.586121 0.131378 0.125702
0.606720 0.133636 0.132324
0.627533 0.138092 0.135834
0.646210 0.140808 0.137878
0.665955 0.142944 0.141876
0.683899 0.144531 0.143860
0.700043 0.147400 0.145569
0.009857 0.057404 0.024567
0.029144 0.058563 0.024536
0.060974 0.075867 0.019226
0.095184 0.090973 0.015839
0.123016 0.097015 0.020752
0.148621 0.101654 0.024475
0.171356 0.105438 0.025940
0.196686 0.111115 0.035156
0.214752 0.114990 0.040070
0.236450 0.116272 0.045532
0.256226 0.115295 0.047791
0.275543 0.114990 0.050659
0.293335 0.110443 0.051392
0.316589 0.107422 0.051392
0.336517 0.106384 0.057922
0.356842 0.106018 0.064728
0.378021 0.107391 0.069336
0.400818 0.108032 0.075165
0.421692 0.115570 0.080475
0.442932 0.118988 0.085327
0.465240 0.125916 0.094391
0.485779 0.129700 0.100281
0.506012 0.132538 0.105743
0.531250 0.137543 0.115021
0.554779 0.141907 0.120331
0.577759 0.144531 0.126617
0.601807 0.147675 0.133789
0.622375 0.152496 0.136993
0.643127 0.155243 0.141571
0.662689 0.157440 0.144135
0.680267 0.161743 0.146393
0.698242 0.163849 0.148041
0.717010 0.165497 0.149963
0.018372 0.074951 0.033539
0.033997 0.076843 0.035126
0.058472 0.087799 0.030457
0.091187 0.108185 0.025970
0.125336 0.120361 0.024475
0.150848 0.124542 0.026672
0.175293 0.130646 0.031189
0.200012 0.133759 0.038452
0.219330 0.137085 0.044037
0.240845 0.138428 0.048523
0.262695 0.139801 0.049957
0.281586 0.138184 0.049988
0.301270 0.135681 0.050720
0.324799 0.133728 0.055389
0.345856 0.134003 0.062012
0.366974 0.133148 0.067841
0.388123 0.133148 0.073730
0.409637 0.133698 0.080475
0.432587 0.135101 0.084869
0.454803 0.140320 0.093933
0.477661 0.143524 0.101166
0.497803 0.146393 0.106964
0.521759 0.151001 0.115356
0.545441 0.154999 0.121002
0.570343 0.157684 0.128448
0.592804 0.161987 0.134369
0.615417 0.166870 0.138428
0.636322 0.169586 0.143280
0.657837 0.174500 0.146362
0.677185 0.176880 0.148315
0.696838 0.178833 0.151550
0.714264 0.180328 0.154205
0.730988 0.181610 0.156036
0.027527 0.091797 0.042389
0.034027 0.095581 0.042389
0.055206 0.101685 0.042389
0.090729 0.123993 0.033539
0.125031 0.137909 0.029694
0.155243 0.146698 0.028168
0.180023 0.152313 0.032745
0.203430 0.156494 0.040100
0.224335 0.158447 0.044800
0.246735 0.160370 0.050659
0.267670 0.161560 0.050690
0.288452 0.162018 0.048584
0.309143 0.158936 0.051422
0.333527 0.161072 0.060883
0.354492 0.159637 0.066284
0.377655 0.162262 0.072754
0.398071 0.159882 0.079041
0.421051 0.163879 0.083405
0.442017 0.162720 0.092560
0.467041 0.165741 0.100739
0.489075 0.168945 0.108521
0.512299 0.171173 0.116394
0.534821 0.175140 0.121307
0.560730 0.178406 0.128754
0.583435 0.180969 0.134674
0.606354 0.183929 0.139282
0.630615 0.188293 0.144409
0.652039 0.189728 0.147491
0.673981 0.191956 0.151306
0.692902 0.193542 0.154449
0.711609 0.196899 0.156830
0.728607 0.198456 0.158630
0.747131 0.199982 0.160400
0.036469 0.110199 0.055969
0.046753 0.113129 0.057251
0.053192 0.116943 0.058502
0.086578 0.135468 0.049194
0.123383 0.150818 0.041656
0.153076 0.163666 0.037628
0.182770 0.172333 0.034363
0.206787 0.178436 0.040100
0.228790 0.181824 0.045593
0.252930 0.183319 0.048553
0.273438 0.184143 0.047852
0.295135 0.184357 0.047882
0.318024 0.185822 0.056702
0.341034 0.187256 0.063660
0.362701 0.189117 0.069305
0.386261 0.189941 0.077087
0.407593 0.191132 0.081940
0.430939 0.192139 0.090668
0.454224 0.193756 0.099426
0.478210 0.193939 0.106964
0.502838 0.195129 0.116730
0.524750 0.197296 0.121307
0.550598 0.198639 0.127838
0.573639 0.199982 0.134949
0.597076 0.201141 0.139862
0.621368 0.202820 0.144989
0.644531 0.206177 0.148590
0.666077 0.207794 0.153687
0.688293 0.209229 0.156555
0.707062 0.210480 0.158630
0.727112 0.212769 0.161652
0.745850 0.215179 0.165375
0.762604 0.216553 0.167786
0.048981 0.128082 0.062073
0.053192 0.130676 0.062073
0.057220 0.132111 0.062073
0.088928 0.144897 0.059143
0.121368 0.162750 0.052704
0.153076 0.178436 0.049225
0.184784 0.188263 0.041687
0.210632 0.198822 0.042511
0.234131 0.201508 0.045593
0.257568 0.203979 0.047821
0.279083 0.206024 0.047119
0.300507 0.207672 0.052094
0.324799 0.208588 0.060303
0.348541 0.209656 0.066284
0.370575 0.210907 0.073730
0.394958 0.212494 0.080505
0.415833 0.213531 0.085876
0.440186 0.216797 0.097656
0.464966 0.217468 0.104980
0.487976 0.218658 0.115021
0.512573 0.218811 0.120667
0.538086 0.219818 0.126007
0.561493 0.220642 0.132904
0.584595 0.223785 0.138153
0.609802 0.224915 0.143585
0.632477 0.226532 0.147766
0.657318 0.227814 0.153168
0.679932 0.229095 0.156311
0.701752 0.230042 0.159637
0.721191 0.231934 0.163666
0.739960 0.233795 0.167572
0.758820 0.235046 0.169739
0.776489 0.236267 0.172119
0.055908 0.141724 0.066925
0.058502 0.144897 0.065887
0.061035 0.147247 0.065887
0.090759 0.154816 0.065857
0.125031 0.172974 0.060913
0.153900 0.188904 0.056641
0.185425 0.201324 0.050659
0.210968 0.213226 0.047089
0.237610 0.220398 0.046356
0.262268 0.222046 0.047119
0.283295 0.225677 0.047882
0.307343 0.227295 0.055420
0.330750 0.229218 0.063629
0.354218 0.230957 0.069305
0.378418 0.234070 0.079041
0.401794 0.235626 0.083923
0.423889 0.237152 0.094452
0.448486 0.238800 0.101624
0.474060 0.241974 0.112579
0.499023 0.243591 0.119385
0.524200 0.244476 0.124786
0.549713 0.245361 0.132019
0.572174 0.246521 0.136108
0.597351 0.249573 0.142181
0.621155 0.251434 0.146118
0.644257 0.252289 0.150238
0.670471 0.252716 0.155792
0.692322 0.253693 0.159668
0.714996 0.254669 0.166840
0.734924 0.255371 0.169739
0.754883 0.256073 0.172577
0.771759 0.258850 0.174683
0.790558 0.260620 0.176758
0.062256 0.152557 0.068970
0.065735 0.156769 0.068970
0.070496 0.161102 0.068939
0.097473 0.168304 0.070435
0.126953 0.183716 0.065857
0.155548 0.199982 0.064240
0.184784 0.212311 0.059143
0.212769 0.226166 0.054077
0.239716 0.234894 0.050690
0.266113 0.243225 0.047150
0.287811 0.245148 0.048615
0.313995 0.247192 0.059143
0.336334 0.249817 0.066284
0.361206 0.252808 0.074677
0.385437 0.254211 0.081482
0.407257 0.256042 0.087830
0.431000 0.258942 0.098145
0.456543 0.261414 0.105408
0.481781 0.263031 0.115356
0.506104 0.264923 0.122589
0.533539 0.265869 0.129944
0.558838 0.268524 0.134674
0.581329 0.269836 0.138733
0.606171 0.272430 0.144745
0.630432 0.273590 0.148346
0.655823 0.276550 0.154510
0.680939 0.277039 0.159149
0.703522 0.278198 0.165894
0.725769 0.279083 0.170471
0.745880 0.280457 0.173523
0.765381 0.280823 0.176086
0.782715 0.281952 0.179718
0.801910 0.283569 0.182617
0.070496 0.166229 0.070953
0.074402 0.169434 0.071442
0.076294 0.173431 0.071442
0.102631 0.182678 0.072357
0.127289 0.193329 0.069916
0.154999 0.209290 0.066345
0.187164 0.223206 0.063690
0.212769 0.237946 0.057922
0.241516 0.248383 0.056061
0.268890 0.258301 0.050751
0.291473 0.264343 0.052795
0.317719 0.267670 0.062012
0.342133 0.270691 0.068817
0.367218 0.272400 0.079041
0.392090 0.274597 0.083954
0.414429 0.277893 0.094513
0.438202 0.280182 0.101654
0.464325 0.282166 0.110809
0.489777 0.286133 0.118408
0.514862 0.288208 0.124786
0.542694 0.290131 0.133209
0.566315 0.291351 0.137299
0.590607 0.293762 0.142761
0.616211 0.296539 0.146973
0.639709 0.298126 0.152649
0.664307 0.299438 0.157379
0.691650 0.300903 0.165405
0.714081 0.301758 0.170227
0.736420 0.302856 0.174225
0.756805 0.305145 0.177460
0.777191 0.307098 0.182190
0.793701 0.308533 0.183960
0.814270 0.309723 0.185699
0.076294 0.179504 0.071411
0.077698 0.183533 0.072388
0.079590 0.186432 0.072388
0.102631 0.195526 0.074280
0.124695 0.203400 0.071869
0.156372 0.221252 0.069397
0.188873 0.234406 0.066833
0.216675 0.249969 0.062042
0.243103 0.262299 0.057312
0.269836 0.272919 0.056702
0.295502 0.280487 0.058563
0.323914 0.288269 0.065216
0.347626 0.290558 0.072266
0.371674 0.293457 0.080536
0.396332 0.297150 0.086426
0.421692 0.300049 0.098602
0.445648 0.301605 0.105011
0.471619 0.305481 0.115021
0.495544 0.308014 0.121307
0.522430 0.310394 0.127838
0.550659 0.311584 0.134674
0.574554 0.313843 0.139313
0.599060 0.316406 0.145020
0.622559 0.318024 0.149139
0.648743 0.319641 0.155823
0.674133 0.322937 0.160675
0.701324 0.324402 0.169037
0.723694 0.326050 0.173065
0.746582 0.326813 0.176788
0.767517 0.328003 0.181732
0.787781 0.328979 0.184387
0.804901 0.330902 0.186340
0.827362 0.332764 0.188049
0.078644 0.188110 0.071411
0.080505 0.192749 0.072388
0.082397 0.198639 0.072388
0.105103 0.206757 0.072357
0.123047 0.214966 0.073303
0.153931 0.229858 0.071838
0.190155 0.245453 0.068359
0.217194 0.260925 0.063690
0.246765 0.273956 0.061462
0.272491 0.286438 0.062012
0.297943 0.295624 0.064178
0.326233 0.305237 0.068817
0.352661 0.311066 0.076630
0.377686 0.314972 0.082977
0.402832 0.317749 0.091705
0.427734 0.320068 0.101257
0.451477 0.323486 0.109680
0.477722 0.326599 0.118042
0.502808 0.329010 0.124146
0.530823 0.333038 0.132019
0.559204 0.334381 0.136993
0.582123 0.335938 0.143341
0.607605 0.337585 0.147247
0.631012 0.340729 0.153168
0.658539 0.343140 0.158661
0.683319 0.344452 0.166138
0.710632 0.346436 0.171417
0.733398 0.349457 0.175415
0.757141 0.350616 0.182404
0.777954 0.351776 0.185059
0.798187 0.352844 0.187653
0.816620 0.353912 0.190186
0.840515 0.355255 0.193329
0.082397 0.199982 0.072388
0.085205 0.204926 0.072388
0.087097 0.211121 0.073334
0.106750 0.218567 0.074280
0.125031 0.227966 0.074280
0.156647 0.242035 0.071838
0.191193 0.256226 0.068878
0.219818 0.273315 0.066315
0.249268 0.287537 0.068329
0.275848 0.300171 0.069824
0.302917 0.311188 0.069305
0.331451 0.321198 0.074677
0.357941 0.328125 0.082001
0.384033 0.335358 0.084961
0.409363 0.337921 0.095459
0.433350 0.342499 0.102966
0.458221 0.344482 0.113983
0.484283 0.347168 0.121002
0.510101 0.351379 0.126312
0.538849 0.353302 0.134094
0.567047 0.354950 0.140198
0.590302 0.358551 0.145874
0.613861 0.360168 0.149689
0.639496 0.362213 0.156342
0.667267 0.363708 0.161438
0.692352 0.366516 0.168091
0.718445 0.368896 0.173553
0.742798 0.370270 0.178375
0.766663 0.371368 0.184631
0.787048 0.374542 0.187225
0.807922 0.376068 0.190613
0.828125 0.377228 0.193359
0.852875 0.378387 0.194794
0.087097 0.211670 0.072388
0.088959 0.215851 0.073334
0.090790 0.220276 0.073334
0.109131 0.230347 0.074280
0.125366 0.240723 0.074280
0.154480 0.249542 0.074249
0.194061 0.266876 0.071838
0.221924 0.284485 0.073730
0.254150 0.299438 0.077118
0.278259 0.312958 0.078094
0.306641 0.326141 0.076630
0.334595 0.336426 0.080048
0.361603 0.346313 0.085938
0.388153 0.353058 0.088379
0.414429 0.360199 0.097748
0.439331 0.362732 0.105438
0.464966 0.366455 0.116394
0.490509 0.369324 0.123199
0.517731 0.372162 0.130829
0.545502 0.374146 0.136139
0.572693 0.377563 0.143616
0.598145 0.379425 0.148071
0.621674 0.381836 0.154236
0.647888 0.385254 0.158905
0.673370 0.386749 0.165649
0.701019 0.388458 0.170715
0.728302 0.390625 0.176117
0.751404 0.392761 0.181763
0.775604 0.394989 0.185699
0.796082 0.396759 0.188293
0.816498 0.398773 0.192108
0.840759 0.401123 0.193756
0.865021 0.402466 0.195007
0.089874 0.219940 0.073334
0.092163 0.227325 0.074280
0.094879 0.231323 0.074280
0.110657 0.242371 0.073334
0.128571 0.251984 0.074280
0.160431 0.262299 0.075226
0.197052 0.277069 0.079010
0.227417 0.296112 0.083893
0.257874 0.310822 0.085846
0.283844 0.326263 0.084900
0.312958 0.341034 0.084930
0.340302 0.351135 0.087860
0.367249 0.362122 0.091248
0.394073 0.372070 0.095490
0.420288 0.378937 0.102570
0.446228 0.384247 0.109711
0.471527 0.387909 0.119049
0.496796 0.390320 0.125397
0.524139 0.394348 0.133484
0.551910 0.396637 0.138458
0.579742 0.398346 0.145874
0.604980 0.400940 0.151611
0.628845 0.403839 0.156860
0.655914 0.406006 0.161194
0.681488 0.407806 0.167847
0.709473 0.411377 0.172852
0.736053 0.412994 0.178406
0.760895 0.414459 0.183319
0.784485 0.415924 0.186798
0.803040 0.419067 0.189362
0.828064 0.420532 0.193146
0.852661 0.421814 0.194611
0.874664 0.422882 0.196259
0.093994 0.230713 0.074280
0.097534 0.238129 0.074280
0.100983 0.242676 0.073334
0.118286 0.253693 0.073303
0.132324 0.264099 0.074280
0.164368 0.272675 0.080475
0.199005 0.287537 0.088196
0.228607 0.307465 0.090149
0.262543 0.326355 0.093018
0.286774 0.339081 0.092133
0.318420 0.354797 0.096802
0.345276 0.368164 0.097260
0.372467 0.378326 0.096832
0.399414 0.389221 0.105835
0.426208 0.398102 0.109344
0.451019 0.403870 0.116730
0.475922 0.407928 0.121613
0.501617 0.411591 0.128754
0.530457 0.413605 0.135559
0.558807 0.416107 0.142212
0.587158 0.419647 0.148346
0.610901 0.421570 0.154785
0.636871 0.423584 0.159668
0.662720 0.426575 0.166412
0.690094 0.429993 0.170013
0.718109 0.432465 0.174957
0.745392 0.434174 0.182434
0.769836 0.436615 0.185944
0.792877 0.439484 0.190643
0.815063 0.441406 0.193970
0.840820 0.443390 0.196045
0.865936 0.445648 0.197662
0.891479 0.447449 0.199493
0.100128 0.242371 0.073334
0.104309 0.247681 0.073334
0.107544 0.254974 0.072357
0.121735 0.267303 0.074280
0.135071 0.276428 0.078552
0.170227 0.287659 0.087708
0.202057 0.300507 0.096619
0.236938 0.322418 0.098938
0.269226 0.340912 0.102448
0.295441 0.357880 0.108551
0.325653 0.371094 0.107788
0.352570 0.384949 0.107025
0.378723 0.397858 0.106232
0.406281 0.407501 0.113281
0.432190 0.415771 0.116730
0.457642 0.422211 0.123199
0.482605 0.428162 0.126312
0.509399 0.432739 0.132599
0.538361 0.435333 0.137604
0.566498 0.439636 0.145050
0.593964 0.442322 0.153473
0.618744 0.444519 0.157623
0.645569 0.447693 0.163452
0.672424 0.451385 0.170013
0.699432 0.453949 0.173798
0.725616 0.458008 0.180420
0.755157 0.459839 0.186584
0.778595 0.461700 0.190857
0.804443 0.463074 0.195007
0.827332 0.466248 0.197266
0.855469 0.467926 0.200104
0.881378 0.468933 0.203522
0.907532 0.469757 0.205292
0.106781 0.253998 0.072357
0.110687 0.259186 0.073303
0.115845 0.267578 0.074280
0.130157 0.279236 0.079498
0.139526 0.290131 0.087677
0.171478 0.303864 0.094299
0.208191 0.315491 0.102814
0.239716 0.335785 0.107330
0.275146 0.355560 0.116058
0.301788 0.373383 0.117767
0.334717 0.390015 0.117401
0.361328 0.404022 0.119385
0.388062 0.414886 0.121002
0.414185 0.424835 0.120667
0.440491 0.433594 0.125397
0.465668 0.442383 0.129028
0.490051 0.448303 0.130859
0.516754 0.454407 0.135834
0.545654 0.460388 0.140198
0.573486 0.463013 0.146973
0.601440 0.467743 0.155579
0.626923 0.469513 0.160431
0.653076 0.471100 0.167633
0.680786 0.474640 0.173096
0.709473 0.477966 0.178864
0.737671 0.480530 0.185516
0.765625 0.484314 0.191895
0.789154 0.485962 0.195435
0.814667 0.487457 0.198303
0.841156 0.488831 0.201111
0.868805 0.490051 0.203918
0.895752 0.492432 0.205292
0.922028 0.494598 0.206299
0.113678 0.266113 0.073303
0.122406 0.272064 0.075226
0.127930 0.280243 0.080475
0.137451 0.292053 0.087677
0.147827 0.305786 0.094299
0.176086 0.318970 0.102783
0.210724 0.331360 0.109650
0.244995 0.351013 0.120697
0.281586 0.373718 0.123901
0.312592 0.391632 0.126678
0.342377 0.408569 0.129364
0.371185 0.420288 0.130554
0.398010 0.433899 0.129364
0.423157 0.442841 0.128754
0.448181 0.454041 0.131714
0.473236 0.461578 0.134094
0.495361 0.469818 0.136444
0.522736 0.476166 0.139923
0.551147 0.480835 0.144470
0.580475 0.487518 0.148651
0.609161 0.490906 0.156860
0.635437 0.494019 0.163940
0.661621 0.496033 0.170258
0.689484 0.498566 0.175903
0.719025 0.501770 0.183533
0.748993 0.506226 0.188110
0.775482 0.508057 0.194397
0.798920 0.510895 0.197296
0.828094 0.513641 0.200317
0.854462 0.515259 0.203308
0.882111 0.516815 0.204712
0.909149 0.518250 0.205505
0.933838 0.519806 0.206329
0.126007 0.275940 0.078094
0.131073 0.284729 0.083344
0.135651 0.291321 0.087677
0.146423 0.306732 0.095215
0.152832 0.318726 0.102753
0.183899 0.333282 0.108856
0.213623 0.347412 0.120056
0.249847 0.366119 0.127594
0.287842 0.389313 0.131195
0.320557 0.407684 0.136749
0.350372 0.424622 0.137329
0.377411 0.437561 0.137024
0.404663 0.452118 0.137878
0.429260 0.463898 0.137878
0.453766 0.471527 0.136719
0.478790 0.479553 0.138763
0.503632 0.489288 0.142212
0.531647 0.498383 0.143921
0.560089 0.504150 0.148926
0.588623 0.510223 0.153198
0.618408 0.516907 0.159424
0.645111 0.518677 0.167877
0.670502 0.521515 0.172882
0.698730 0.524780 0.180450
0.728516 0.527618 0.185730
0.755432 0.531525 0.190643
0.784973 0.535614 0.195862
0.810028 0.537598 0.198303
0.840607 0.539490 0.201324
0.867828 0.542206 0.203522
0.896942 0.544037 0.204712
0.923737 0.545471 0.205719
0.950897 0.546906 0.206940
0.132629 0.286957 0.085785
0.137451 0.297302 0.089600
0.143585 0.304230 0.094299
0.151459 0.318268 0.101471
0.162018 0.332947 0.108093
0.189087 0.345703 0.119415
0.218567 0.364258 0.125763
0.256989 0.381714 0.132660
0.294830 0.402557 0.140778
0.326477 0.420776 0.141907
0.356628 0.439362 0.142487
0.386017 0.455688 0.143616
0.412323 0.467194 0.145020
0.436707 0.479095 0.143921
0.461426 0.487610 0.143066
0.486084 0.498566 0.142242
0.511749 0.507599 0.146454
0.540436 0.517822 0.148651
0.568604 0.524963 0.153992
0.597198 0.532715 0.159424
0.626160 0.538269 0.163696
0.652618 0.543671 0.169556
0.678345 0.546021 0.174500
0.706970 0.548279 0.182465
0.735931 0.551636 0.187469
0.763428 0.555481 0.193176
0.792725 0.558014 0.196686
0.820312 0.559845 0.199127
0.852020 0.562103 0.203125
0.879272 0.563904 0.204315
0.908630 0.565460 0.205933
0.930450 0.566498 0.206543
0.962708 0.568024 0.207733
0.138367 0.298859 0.090546
0.145844 0.308655 0.095215
0.149231 0.316193 0.100616
0.158844 0.330933 0.107300
0.167206 0.345032 0.116058
0.196411 0.359009 0.124817
0.226196 0.379486 0.130310
0.263977 0.396851 0.139038
0.300690 0.414825 0.145844
0.334930 0.434509 0.147522
0.363251 0.454163 0.151062
0.390625 0.469879 0.150787
0.417480 0.484619 0.150269
0.441315 0.494049 0.149445
0.467468 0.506195 0.148651
0.491180 0.515625 0.148376
0.517914 0.527863 0.151093
0.546753 0.536438 0.156342
0.575134 0.545685 0.159454
0.603882 0.552734 0.164948
0.632233 0.560425 0.171448
0.658844 0.565033 0.173340
0.685913 0.567871 0.176147
0.714172 0.570435 0.183563
0.742371 0.573547 0.188324
0.771332 0.576233 0.194214
0.798889 0.579163 0.197693
0.829834 0.581757 0.200745
0.863556 0.583710 0.204315
0.891602 0.584991 0.205902
0.920380 0.586365 0.207489
0.941803 0.587708 0.208313
0.971252 0.590027 0.209106
0.147003 0.311859 0.097076
0.150909 0.319550 0.102753
0.155579 0.329529 0.107300
0.166199 0.344818 0.115051
0.174652 0.358429 0.124207
0.202423 0.375092 0.129395
0.232635 0.395142 0.135010
0.270294 0.412567 0.144989
0.310089 0.430573 0.151031
0.342499 0.451385 0.157349
0.372192 0.471161 0.157867
0.399506 0.485718 0.157623
0.426208 0.501282 0.156616
0.451233 0.512878 0.156860
0.476837 0.525299 0.157898
0.500977 0.535034 0.156891
0.528076 0.546875 0.156616
0.557312 0.558350 0.162964
0.585907 0.565430 0.168365
0.614410 0.573029 0.171448
0.642639 0.580841 0.177979
0.668304 0.584869 0.179108
0.691895 0.588745 0.180450
0.721344 0.593811 0.185089
0.750671 0.596039 0.190674
0.777679 0.599609 0.195862
0.808594 0.603149 0.199127
0.839600 0.604492 0.203339
0.873688 0.605774 0.205719
0.898254 0.606781 0.206909
0.926636 0.609314 0.208282
0.946991 0.611450 0.208710
0.980316 0.612915 0.209503
0.151764 0.323669 0.103638
0.158020 0.333069 0.108093
0.163849 0.342621 0.112946
0.172241 0.357208 0.123596
0.185455 0.371918 0.129395
0.210907 0.392059 0.133545
0.239746 0.410431 0.142181
0.276276 0.427460 0.149139
0.316193 0.450134 0.160675
0.349335 0.468414 0.164185
0.378967 0.487274 0.164917
0.405853 0.503265 0.164673
0.432495 0.518341 0.165436
0.460846 0.531738 0.166901
0.486694 0.543365 0.166412
0.511627 0.555878 0.165680
0.538574 0.564789 0.166168
0.567413 0.576355 0.169556
0.596954 0.584473 0.175659
0.625000 0.593597 0.178650
0.653564 0.600861 0.183350
0.677551 0.607300 0.183777
0.701508 0.611511 0.186829
0.730377 0.614990 0.188324
0.759338 0.620453 0.193390
0.786224 0.624023 0.197296
0.819855 0.626648 0.201935
0.851410 0.629974 0.204926
0.885406 0.632538 0.207092
0.910004 0.633911 0.208099
0.933258 0.635803 0.209076
0.958527 0.637146 0.209473
0.996185 0.638336 0.209869
0.160461 0.337250 0.108887
0.165405 0.345428 0.116058
0.169983 0.355377 0.123260
0.183899 0.370819 0.129089
0.195618 0.386444 0.132965
0.217499 0.407501 0.140472
0.245667 0.425873 0.146393
0.282776 0.446747 0.157074
0.322906 0.467865 0.166138
0.355286 0.482788 0.171417
0.387146 0.502716 0.171661
0.416077 0.521637 0.174957
0.442078 0.537415 0.174957
0.468414 0.549652 0.174957
0.494019 0.562256 0.176117
0.520752 0.573029 0.177948
0.547882 0.583130 0.176575
0.575195 0.593750 0.176575
0.605286 0.605255 0.181549
0.635071 0.613068 0.186615
0.663574 0.623138 0.188324
0.686127 0.629211 0.188538
0.712189 0.635590 0.191711
0.740753 0.641449 0.193176
0.766724 0.647003 0.196472
0.795105 0.650330 0.198730
0.832153 0.655609 0.204132
0.862152 0.657471 0.205902
0.895264 0.659454 0.208069
0.914764 0.661926 0.208496
0.940674 0.665588 0.209686
0.964203 0.666382 0.209686
1.000000 0.667725 0.209900
0.166199 0.347412 0.117432
0.171234 0.357300 0.123596
0.180542 0.368164 0.127899
0.192200 0.384003 0.132660
0.202789 0.400360 0.137299
0.226562 0.421326 0.144989
0.254425 0.443024 0.151550
0.287445 0.465759 0.164642
0.327057 0.483429 0.171417
0.363159 0.498199 0.178131
0.393646 0.519409 0.182434
0.424042 0.538239 0.182190
0.452118 0.555603 0.182007
0.478241 0.566223 0.185089
0.504639 0.579987 0.186371
0.531921 0.590210 0.185730
0.559326 0.602539 0.185730
0.586487 0.611511 0.187042
0.615326 0.623474 0.187897
0.643890 0.636871 0.191925
0.674164 0.646393 0.192963
