Kodak Vision3 50D (5203) - Only color.cube
# Created by Benjamin (IWLTBAP) : http://luts.iwltbap.com
# Copyright: (C) Copyright 2010-2017 Triune Films and IWLTBAP SAS
# Cannot be resold, shared or otherwise redistributed
TITLE "Film Print Emulation LUTs Pack (Rec.709, sRGB, DCI-P3)"
LUT_3D_SIZE 33
0.001587 0.000000 0.000000
0.085815 0.000000 0.000000
0.124664 0.000000 0.000000
0.156219 0.000000 0.000000
0.185028 0.000000 0.000000
0.207520 0.000000 0.000000
0.234406 0.000000 0.000000
0.262115 0.000000 0.000000
0.289185 0.000000 0.000000
0.316467 0.000000 0.000000
0.345734 0.000000 0.000153
0.375702 0.000397 0.000305
0.401031 0.000488 0.000427
0.433441 0.000549 0.000610
0.465790 0.000000 0.000000
0.500183 0.000000 0.000000
0.526276 0.000000 0.000000
0.552399 0.000000 0.000000
0.579651 0.000000 0.000000
0.607880 0.000000 0.000000
0.633301 0.000000 0.000000
0.658600 0.000000 0.000000
0.684631 0.000000 0.000000
0.710388 0.000000 0.000000
0.736298 0.000793 0.000000
0.760620 0.004211 0.000000
0.784668 0.004211 0.000000
0.808899 0.004211 0.000000
0.834717 0.004181 0.000000
0.866364 0.004150 0.000000
0.911469 0.000793 0.000000
0.969116 0.000824 0.000000
0.992157 0.000946 0.000000
0.001343 0.029846 0.004883
0.052277 0.046661 0.005188
0.124298 0.058838 0.000000
0.155945 0.059998 0.000000
0.184784 0.058746 0.000000
0.207947 0.059967 0.000000
0.234558 0.059967 0.000000
0.261932 0.059998 0.000000
0.289459 0.060028 0.000000
0.316254 0.060059 0.000000
0.346039 0.061310 0.000275
0.375977 0.061371 0.000427
0.400848 0.061432 0.000580
0.433533 0.061493 0.000763
0.465424 0.061523 0.000000
0.499969 0.060333 0.000000
0.526093 0.060333 0.000000
0.552521 0.059143 0.000000
0.579681 0.059174 0.000000
0.608063 0.057922 0.000000
0.633575 0.056641 0.000000
0.658844 0.057892 0.000000
0.684845 0.059082 0.000000
0.710388 0.060272 0.000000
0.736237 0.061462 0.000000
0.760712 0.063171 0.000000
0.784607 0.063171 0.000000
0.808868 0.062561 0.000000
0.834747 0.062531 0.000000
0.866394 0.062500 0.000000
0.911652 0.062439 0.000000
0.968750 0.061279 0.000000
0.991760 0.061371 0.000000
0.001099 0.056396 0.018219
0.024445 0.058990 0.015289
0.104553 0.072296 0.008942
0.156036 0.093994 0.000000
0.184814 0.093964 0.000000
0.207733 0.094727 0.000000
0.234558 0.094727 0.000000
0.262054 0.094727 0.000000
0.289642 0.095520 0.000000
0.316406 0.094788 0.000244
0.346008 0.096375 0.000397
0.375854 0.096375 0.000519
0.401001 0.096436 0.000702
0.433380 0.095703 0.000000
0.465393 0.094971 0.000000
0.499939 0.094971 0.000000
0.526031 0.094177 0.000000
0.552460 0.094177 0.000000
0.579620 0.094177 0.000000
0.607910 0.093781 0.000000
0.633575 0.092957 0.000000
0.658936 0.093719 0.000000
0.684875 0.093689 0.000000
0.710419 0.094818 0.000000
0.736359 0.095581 0.000000
0.760742 0.096313 0.000000
0.784576 0.096283 0.000000
0.808899 0.096252 0.000000
0.834656 0.096222 0.000000
0.866455 0.095428 0.000000
0.911621 0.095367 0.000000
0.968597 0.095337 0.000000
0.991516 0.095428 0.000000
0.003326 0.077301 0.036499
0.029724 0.080170 0.038635
0.061066 0.082855 0.036621
0.124908 0.100464 0.026611
0.182129 0.125275 0.000000
0.207764 0.127625 0.000000
0.234741 0.127899 0.000000
0.262329 0.127899 0.000000
0.289856 0.128510 0.000000
0.316437 0.128540 0.000336
0.346161 0.129181 0.000519
0.375732 0.128601 0.000641
0.400818 0.128662 0.000824
0.433289 0.128723 0.000000
0.465210 0.128174 0.000000
0.499756 0.128174 0.000000
0.526031 0.128143 0.000000
0.552399 0.127869 0.000000
0.579559 0.127289 0.000000
0.607971 0.127258 0.000000
0.633789 0.126953 0.000000
0.659088 0.127197 0.000000
0.684967 0.127777 0.000000
0.710602 0.128052 0.000000
0.736420 0.129181 0.000000
0.760773 0.129456 0.000000
0.784607 0.129120 0.000000
0.808960 0.129120 0.000000
0.834717 0.129059 0.000000
0.866486 0.129028 0.000000
0.911591 0.128387 0.000000
0.968536 0.128357 0.000000
0.991302 0.128479 0.000000
0.018707 0.100586 0.052826
0.039703 0.103149 0.054504
0.072784 0.106934 0.055206
0.098022 0.110596 0.058044
0.158112 0.129913 0.036682
0.201843 0.151947 0.009369
0.234741 0.159698 0.000000
0.262451 0.159943 0.000000
0.289581 0.159973 0.000305
0.316681 0.160522 0.000427
0.345673 0.160583 0.000610
0.375336 0.160126 0.000763
0.400391 0.160187 0.000000
0.432831 0.160248 0.000000
0.465179 0.160065 0.000000
0.499847 0.160065 0.000000
0.525909 0.159576 0.000000
0.552032 0.159607 0.000000
0.579193 0.159363 0.000000
0.607727 0.158875 0.000000
0.633942 0.159332 0.000000
0.659058 0.159332 0.000000
0.684998 0.159546 0.000000
0.710754 0.160034 0.000000
0.736572 0.160767 0.000000
0.760681 0.160736 0.000000
0.784637 0.160736 0.000000
0.808990 0.160706 0.000000
0.834747 0.160187 0.000000
0.866516 0.160156 0.000000
0.911621 0.160126 0.000000
0.968597 0.159882 0.000000
0.991119 0.160004 0.000000
0.029633 0.126404 0.065216
0.055725 0.128113 0.065643
0.082428 0.130920 0.065979
0.099304 0.135956 0.066956
0.127502 0.137543 0.066406
0.186615 0.159851 0.046570
0.225037 0.181763 0.020782
0.263153 0.194397 0.000275
0.289886 0.194214 0.000366
0.316620 0.194275 0.000519
0.345612 0.194336 0.000702
0.375214 0.194397 0.000000
0.400269 0.194061 0.000000
0.432709 0.194122 0.000000
0.465118 0.193970 0.000000
0.499786 0.194000 0.000000
0.525635 0.193573 0.000000
0.552002 0.193390 0.000000
0.579102 0.193420 0.000000
0.607788 0.193420 0.000000
0.634125 0.193390 0.000000
0.659180 0.193604 0.000000
0.685150 0.194000 0.000000
0.710907 0.194214 0.000000
0.736786 0.194824 0.000000
0.760681 0.194611 0.000000
0.784668 0.194580 0.000000
0.809021 0.194580 0.000000
0.834625 0.194122 0.000000
0.866547 0.194122 0.000000
0.911438 0.194061 0.000000
0.968719 0.193878 0.000000
0.990875 0.194000 0.000000
0.025604 0.152466 0.070190
0.046326 0.154480 0.070312
0.075592 0.156158 0.070404
0.098297 0.160065 0.071014
0.120911 0.164642 0.071198
0.173706 0.164062 0.069000
0.210114 0.192810 0.054321
0.250702 0.212860 0.031982
0.286896 0.227020 0.009766
0.316376 0.229675 0.000000
0.345398 0.229736 0.000000
0.374908 0.229767 0.000000
0.400024 0.229675 0.000000
0.432404 0.229736 0.000000
0.464905 0.229614 0.000000
0.499603 0.229614 0.000000
0.525543 0.229462 0.000000
0.551819 0.229309 0.000000
0.579041 0.229340 0.000000
0.608032 0.229492 0.000000
0.634308 0.229645 0.000000
0.659363 0.229797 0.000000
0.685425 0.229980 0.000000
0.711151 0.230316 0.000000
0.736633 0.230286 0.000000
0.760620 0.230286 0.000000
0.784607 0.229919 0.000000
0.808990 0.229919 0.000000
0.834656 0.229706 0.000000
0.866516 0.229675 0.000000
0.911407 0.229645 0.000000
0.968506 0.229492 0.000000
0.990631 0.229614 0.000000
0.036713 0.178223 0.075012
0.070831 0.180420 0.074860
0.095490 0.181946 0.075104
0.108795 0.187469 0.075714
0.132416 0.191742 0.075623
0.180847 0.192322 0.078064
0.200256 0.200531 0.070801
0.236725 0.227112 0.062439
0.275330 0.242706 0.046783
0.311005 0.253754 0.021179
0.345184 0.259399 0.000000
0.374725 0.259460 0.000000
0.399750 0.259521 0.000000
0.432190 0.259460 0.000000
0.464569 0.259521 0.000000
0.499420 0.259399 0.000000
0.525360 0.259247 0.000000
0.551758 0.259277 0.000000
0.579254 0.259460 0.000000
0.608246 0.259644 0.000000
0.634460 0.259766 0.000000
0.659546 0.260071 0.000000
0.685425 0.260376 0.000000
0.711060 0.260376 0.000000
0.736572 0.260223 0.000000
0.760529 0.260040 0.000000
0.784576 0.260040 0.000000
0.808929 0.260040 0.000000
0.834686 0.259705 0.000000
0.866455 0.259674 0.000000
0.911285 0.259521 0.000000
0.968323 0.259521 0.000000
0.990417 0.259521 0.000000
0.067535 0.205841 0.080292
0.092041 0.208069 0.080811
0.105652 0.209930 0.080750
0.115601 0.215210 0.081940
0.150085 0.221008 0.081818
0.188263 0.222382 0.089752
0.204010 0.226898 0.088623
0.226624 0.235870 0.075287
0.263580 0.255096 0.065033
0.300323 0.272064 0.054413
0.336487 0.282959 0.032410
0.373352 0.289520 0.004791
0.399506 0.290466 0.000000
0.431885 0.290405 0.000000
0.464142 0.290619 0.000000
0.499207 0.290497 0.000000
0.525452 0.290497 0.000000
0.551910 0.290680 0.000000
0.579376 0.290833 0.000000
0.608459 0.290985 0.000000
0.634674 0.291260 0.000000
0.659760 0.291229 0.000000
0.685486 0.291382 0.000000
0.710938 0.291229 0.000000
0.736450 0.291077 0.000000
0.760529 0.290955 0.000000
0.784515 0.291077 0.000000
0.808868 0.290924 0.000000
0.834656 0.290771 0.000000
0.866241 0.290741 0.000000
0.911377 0.290588 0.000000
0.967804 0.290619 0.000000
0.990234 0.290466 0.000000
0.075989 0.231812 0.090088
0.096863 0.233307 0.090027
0.109528 0.236023 0.091339
0.121216 0.240234 0.093964
0.157104 0.244171 0.092499
0.193451 0.247162 0.107239
0.210327 0.250275 0.108795
0.227631 0.253479 0.103027
0.254456 0.266235 0.077759
0.289307 0.284882 0.066742
0.324921 0.299622 0.060181
0.363525 0.309967 0.043365
0.395660 0.316986 0.016541
0.431824 0.319855 0.000000
0.463928 0.319794 0.000000
0.499268 0.319946 0.000000
0.525574 0.320221 0.000000
0.552246 0.320618 0.000000
0.579865 0.320770 0.000000
0.608795 0.320892 0.000000
0.634857 0.321014 0.000000
0.659912 0.321136 0.000000
0.685486 0.321014 0.000000
0.710754 0.320740 0.000000
0.736237 0.320618 0.000000
0.760437 0.320618 0.000000
0.784393 0.320221 0.000000
0.808777 0.320221 0.000000
0.834503 0.320068 0.000000
0.866119 0.320068 0.000000
0.911163 0.319916 0.000000
0.967438 0.319794 0.000000
0.990021 0.320068 0.000031
0.090515 0.257080 0.106384
0.105927 0.258972 0.106812
0.115356 0.261749 0.107452
0.129028 0.265442 0.108307
0.165985 0.269775 0.108856
0.197784 0.272949 0.116943
0.217346 0.277069 0.117584
0.235626 0.279724 0.119659
0.253571 0.283020 0.111176
0.281189 0.296722 0.082581
0.313934 0.313171 0.069000
0.351929 0.326782 0.063049
0.387085 0.337128 0.051483
0.425232 0.344604 0.027832
0.464417 0.349762 0.000000
0.499603 0.350128 0.000000
0.525879 0.350128 0.000000
0.552582 0.350281 0.000000
0.580048 0.350647 0.000000
0.609070 0.350769 0.000000
0.634888 0.350769 0.000000
0.659790 0.350616 0.000000
0.685303 0.350525 0.000000
0.710754 0.350281 0.000000
0.736267 0.350159 0.000000
0.760406 0.350159 0.000000
0.784241 0.350037 0.000000
0.808624 0.349792 0.000000
0.834442 0.349670 0.000000
0.866211 0.349670 0.000000
0.911041 0.349640 0.000000
0.967194 0.349548 0.000000
0.989838 0.349792 0.000092
0.099945 0.283508 0.116241
0.110809 0.285614 0.116669
0.120453 0.287567 0.117096
0.136993 0.290344 0.117035
0.173737 0.294159 0.121857
0.204315 0.297302 0.128632
0.226501 0.301605 0.128632
0.243958 0.304413 0.130585
0.262054 0.307312 0.133514
0.279572 0.311096 0.119141
0.307617 0.325989 0.090698
0.341095 0.340912 0.071869
0.378479 0.354065 0.065063
0.414490 0.364227 0.059021
0.454193 0.371185 0.039948
0.497589 0.376099 0.013947
0.526154 0.377686 0.002258
0.552795 0.377930 0.002380
0.580048 0.377960 0.002502
0.609039 0.377991 0.000000
0.634857 0.377869 0.000000
0.659485 0.377747 0.000000
0.685028 0.377655 0.000000
0.710480 0.377655 0.000000
0.736053 0.377441 0.000000
0.760284 0.377411 0.000000
0.784119 0.377197 0.000000
0.808563 0.377106 0.000000
0.834473 0.376984 0.000000
0.865967 0.376953 0.000000
0.910980 0.376831 0.000000
0.966980 0.376862 0.000000
0.989655 0.377228 0.000183
0.087006 0.306976 0.127106
0.105560 0.308777 0.127563
0.117035 0.310181 0.127533
0.148010 0.313202 0.127472
0.190063 0.317017 0.141602
0.212494 0.322144 0.142761
0.235229 0.326935 0.143219
0.254150 0.330719 0.144806
0.271210 0.333862 0.147888
0.289032 0.336731 0.148773
0.305389 0.339813 0.127899
0.334991 0.355560 0.104309
0.369904 0.368408 0.075134
0.403046 0.380157 0.067993
0.443787 0.389832 0.061981
0.488251 0.396912 0.051666
0.522644 0.402344 0.028168
0.552765 0.405670 0.002472
0.580078 0.405609 0.002594
0.608826 0.405457 0.000000
0.634644 0.405457 0.000000
0.659454 0.405426 0.000000
0.685028 0.405334 0.000000
0.710388 0.405243 0.000000
0.735992 0.405151 0.000000
0.760071 0.404938 0.000000
0.784058 0.404846 0.000000
0.808533 0.404846 0.000000
0.834351 0.404633 0.000000
0.865814 0.404633 0.000000
0.910767 0.404510 0.000000
0.967712 0.404846 0.000000
0.989441 0.405121 0.000275
0.088959 0.332092 0.140137
0.108307 0.334351 0.141266
0.133972 0.336090 0.140747
0.170929 0.338623 0.149445
0.202698 0.342712 0.156372
0.222778 0.347900 0.157806
0.244751 0.352905 0.158844
0.264984 0.357147 0.159271
0.281097 0.360168 0.161926
0.297974 0.362946 0.164764
0.314667 0.365356 0.160950
0.332916 0.369354 0.138397
0.364471 0.382263 0.112488
0.394104 0.394958 0.081024
0.433899 0.407104 0.071289
0.477386 0.417114 0.064819
0.515594 0.424774 0.057770
0.546539 0.430756 0.038208
0.578827 0.435425 0.008057
0.608582 0.436096 0.002747
0.634644 0.436127 0.000000
0.659302 0.436005 0.000000
0.684875 0.435913 0.000000
0.710266 0.435852 0.000000
0.735779 0.435760 0.000000
0.759857 0.435669 0.000000
0.784027 0.435577 0.000000
0.808441 0.435486 0.000000
0.834137 0.435211 0.000000
0.865814 0.435181 0.000000
0.911133 0.435364 0.000000
0.968567 0.435699 0.000061
0.989258 0.436127 0.000336
0.090851 0.357178 0.154266
0.117188 0.359375 0.154846
0.161041 0.361603 0.160095
0.192963 0.363770 0.170502
0.212280 0.367249 0.170898
0.232147 0.371216 0.171692
0.252838 0.375671 0.172668
0.273407 0.380280 0.173492
0.291107 0.384521 0.175507
0.307343 0.388031 0.178528
0.324738 0.390839 0.180725
0.341919 0.392578 0.173218
0.362976 0.397736 0.150757
0.389801 0.410675 0.122223
0.425079 0.424255 0.094360
0.465118 0.436432 0.074554
0.507751 0.446533 0.066620
0.538605 0.454498 0.061035
0.571838 0.460785 0.047546
0.605927 0.465790 0.020386
0.634430 0.468262 0.000000
0.659180 0.468170 0.000000
0.684723 0.468109 0.000000
0.710114 0.468018 0.000000
0.735626 0.467957 0.000000
0.759735 0.467865 0.000000
0.783844 0.467896 0.000000
0.808289 0.467621 0.000000
0.834045 0.467621 0.000000
0.866180 0.467896 0.000000
0.911591 0.468079 0.000000
0.969727 0.468445 0.000153
0.989014 0.468872 0.000397
0.043732 0.378204 0.166565
0.135925 0.380341 0.165985
0.174133 0.382568 0.182343
0.199188 0.385834 0.183105
0.218750 0.389618 0.183716
0.239502 0.394073 0.184479
0.260468 0.399414 0.186066
0.280884 0.404846 0.187042
0.301819 0.410706 0.187866
0.317230 0.414764 0.190765
0.334869 0.418396 0.193268
0.353668 0.420074 0.194977
0.369781 0.420502 0.184143
0.388550 0.427979 0.161621
0.419647 0.441498 0.133636
0.454681 0.454285 0.107025
0.498413 0.466248 0.077332
0.530792 0.476929 0.069183
0.564178 0.485382 0.062653
0.599030 0.491699 0.054352
0.630615 0.496307 0.030457
0.659088 0.499878 0.000000
0.684631 0.499725 0.000000
0.710052 0.499725 0.000000
0.735504 0.499573 0.000000
0.759735 0.499573 0.000000
0.783630 0.499329 0.000000
0.808289 0.499542 0.000000
0.834412 0.499695 0.000000
0.866547 0.499817 0.000000
0.912231 0.499969 0.000031
0.970276 0.500153 0.000214
0.988800 0.500580 0.000458
0.102539 0.402130 0.178711
0.153259 0.404419 0.186432
0.187775 0.407288 0.196045
0.207428 0.411133 0.196625
0.228271 0.415253 0.197357
0.248383 0.420197 0.197937
0.268341 0.425781 0.199432
0.288696 0.431671 0.200378
0.309357 0.437988 0.201508
0.327698 0.442932 0.203186
0.345245 0.446808 0.205933
0.363678 0.449127 0.207733
0.380157 0.449524 0.209198
0.392151 0.449554 0.193939
0.417633 0.458832 0.170532
0.449097 0.472504 0.142456
0.489594 0.485016 0.113403
0.523285 0.496185 0.081818
0.556335 0.505188 0.071503
0.590942 0.512299 0.064453
0.624451 0.517822 0.057892
0.654266 0.522308 0.040314
0.683167 0.525879 0.011383
0.709839 0.526947 0.000000
0.735382 0.526855 0.000000
0.759644 0.526917 0.000000
0.783997 0.527130 0.000000
0.808655 0.527191 0.000000
0.834778 0.527374 0.000000
0.867004 0.527435 0.000000
0.912659 0.527618 0.000092
0.971527 0.527771 0.000275
0.988617 0.528137 0.000549
0.125275 0.429321 0.196838
0.169098 0.431519 0.205688
0.196045 0.434723 0.209412
0.215607 0.438538 0.210297
0.237183 0.442810 0.210846
0.256226 0.447388 0.211914
0.275055 0.452911 0.212616
0.294678 0.458832 0.214020
0.315582 0.465546 0.215118
0.338715 0.471954 0.215851
0.356506 0.476349 0.217926
0.373474 0.479218 0.219635
0.387756 0.480347 0.221039
0.403351 0.479950 0.220581
0.420959 0.480438 0.202148
0.447876 0.491760 0.178375
0.484528 0.502594 0.151886
0.516968 0.512360 0.121124
0.547913 0.521851 0.091309
0.582458 0.530701 0.074097
0.617523 0.541138 0.067413
0.648193 0.547211 0.061157
0.677948 0.552002 0.051483
0.707306 0.555847 0.025604
0.735718 0.558533 0.000000
0.760071 0.558716 0.000000
0.784271 0.558777 0.000000
0.808960 0.558899 0.000000
0.835144 0.559082 0.000031
0.867676 0.559174 0.000092
0.913361 0.559357 0.000183
0.971893 0.559326 0.000366
0.988403 0.559479 0.000610
0.135223 0.455658 0.215179
0.176514 0.457764 0.221680
0.198181 0.461151 0.222198
0.218475 0.465057 0.222382
0.241394 0.469482 0.223389
0.261047 0.474640 0.224060
0.280548 0.480499 0.225067
0.300751 0.487000 0.226105
0.321777 0.493225 0.227295
0.345978 0.498932 0.227844
0.367798 0.503418 0.228851
0.382172 0.506012 0.230835
0.396088 0.507538 0.232025
0.415405 0.507965 0.233032
0.433380 0.508179 0.228882
0.450043 0.509094 0.210236
0.483795 0.519287 0.185699
0.513519 0.528564 0.159790
0.540924 0.540863 0.131897
0.573914 0.550659 0.105438
0.610229 0.559509 0.078125
0.641907 0.567047 0.069427
0.672241 0.573395 0.062866
0.702423 0.578644 0.056671
0.732239 0.582947 0.040405
0.759735 0.586243 0.011566
0.784637 0.586945 0.003357
0.809326 0.587067 0.003387
0.835510 0.587250 0.003418
0.867889 0.587219 0.003448
0.913361 0.587219 0.003479
0.971527 0.587189 0.000427
0.988220 0.587158 0.000671
0.152222 0.485565 0.232452
0.184143 0.487823 0.233856
0.205322 0.491028 0.234192
0.226257 0.493988 0.234680
0.248230 0.497589 0.235046
0.267883 0.501587 0.235687
0.287201 0.506012 0.236359
0.306458 0.510590 0.237213
0.328186 0.515900 0.238068
0.352631 0.520935 0.238739
0.376465 0.525604 0.238953
0.390778 0.530212 0.241058
0.408203 0.533783 0.243286
0.427429 0.535156 0.244751
0.445831 0.535736 0.246033
0.465057 0.535370 0.237122
0.486725 0.537018 0.217163
0.513824 0.548157 0.193542
0.537659 0.557190 0.169342
0.567017 0.566376 0.139130
0.602234 0.575989 0.110992
0.635406 0.585083 0.081665
0.666290 0.592987 0.072388
0.697021 0.599579 0.065979
0.727509 0.604858 0.059662
0.756104 0.609100 0.051361
0.783325 0.612579 0.028748
0.809601 0.614258 0.008575
0.835510 0.614136 0.006531
0.867767 0.614105 0.006561
0.913025 0.613983 0.003540
0.970917 0.613953 0.000488
0.988037 0.614044 0.000732
0.164703 0.511597 0.246246
0.190399 0.512848 0.245789
0.210632 0.514771 0.245667
0.231934 0.517181 0.245667
0.254578 0.520355 0.246002
0.273987 0.526276 0.247589
0.292938 0.530579 0.248260
0.311951 0.534851 0.248932
0.332916 0.539642 0.249786
0.357574 0.544769 0.250153
0.381042 0.550110 0.250702
0.401062 0.554382 0.251221
0.420532 0.557068 0.253326
0.438171 0.559082 0.254944
0.457550 0.560425 0.256409
0.480835 0.561035 0.257538
0.498840 0.561432 0.243134
0.515869 0.564392 0.221558
0.538086 0.573547 0.196747
0.564423 0.582214 0.173004
0.595245 0.591339 0.143250
0.628723 0.601257 0.115723
0.660065 0.610321 0.089508
0.691284 0.618256 0.075562
0.722198 0.624969 0.068726
0.751953 0.630646 0.062286
0.779694 0.635132 0.056183
0.806976 0.638702 0.040466
0.835358 0.641144 0.008636
0.867554 0.641113 0.006622
0.912750 0.640991 0.003571
0.970551 0.640961 0.003662
0.987854 0.641083 0.000793
0.153992 0.536163 0.259430
0.186157 0.537109 0.258362
0.207306 0.538879 0.258057
0.231018 0.541016 0.257782
0.254517 0.543610 0.257812
0.275757 0.547607 0.258484
0.296143 0.551910 0.259003
0.316223 0.556396 0.259705
0.338745 0.561127 0.260406
0.363739 0.566498 0.260956
0.386353 0.572021 0.261475
0.412445 0.577148 0.261444
0.431641 0.580078 0.262878
0.449493 0.582489 0.264496
0.471100 0.584351 0.266235
0.493317 0.585602 0.267792
0.511200 0.585815 0.266876
0.523010 0.585815 0.245819
0.540802 0.590118 0.223724
0.565491 0.598907 0.199371
0.593689 0.607330 0.175842
0.623596 0.616364 0.148956
0.654205 0.626251 0.121429
0.685669 0.635925 0.101410
0.716919 0.644043 0.079803
0.747223 0.650909 0.071716
0.775238 0.656433 0.064514
0.803131 0.660980 0.058380
0.831787 0.664368 0.047424
0.865753 0.667023 0.022858
0.912476 0.667847 0.006683
0.970093 0.667847 0.003723
0.987671 0.667877 0.000854
0.149506 0.559784 0.274200
0.185883 0.560730 0.272552
0.209503 0.562378 0.271393
0.234711 0.564087 0.270813
0.259094 0.566345 0.270416
0.280701 0.569733 0.270630
0.301544 0.573730 0.270996
0.322144 0.578369 0.271667
0.345764 0.583069 0.272339
0.370697 0.588531 0.272858
0.391724 0.593781 0.272949
0.419678 0.598572 0.272888
0.442261 0.602203 0.273285
0.462006 0.604736 0.274811
0.484558 0.606750 0.276306
0.504181 0.608521 0.277618
0.519867 0.609497 0.278229
0.534058 0.609528 0.271637
0.547760 0.609192 0.247437
0.568634 0.615143 0.225250
0.595734 0.623993 0.202301
0.622772 0.632690 0.178406
0.649353 0.641815 0.154663
0.679688 0.651917 0.127747
0.711365 0.661377 0.107269
0.742310 0.669220 0.084412
0.770660 0.675659 0.073608
0.798920 0.681091 0.066620
0.827820 0.685394 0.059631
0.860870 0.688660 0.052277
0.908722 0.691467 0.030945
0.969360 0.693298 0.003784
0.987488 0.693298 0.003998
0.152069 0.583496 0.286346
0.189117 0.584686 0.285095
0.212921 0.585846 0.283997
0.238831 0.587067 0.282928
0.263519 0.588867 0.282135
0.285339 0.591461 0.282043
0.306702 0.595123 0.282104
0.328125 0.599487 0.282715
0.352539 0.604431 0.283081
0.376312 0.609406 0.283264
0.397278 0.614319 0.283356
0.425720 0.618896 0.283295
0.453064 0.623199 0.282684
0.475311 0.625793 0.284241
0.496246 0.628418 0.286194
0.513611 0.630829 0.287689
0.528656 0.632690 0.288818
0.545013 0.633453 0.286804
0.559967 0.633301 0.272736
0.575043 0.632935 0.248718
0.600006 0.640717 0.227234
0.624817 0.649811 0.204285
0.648743 0.658234 0.181580
0.674957 0.666931 0.160034
0.705383 0.676575 0.132965
0.737213 0.685516 0.110992
0.766052 0.692749 0.091705
0.794403 0.698944 0.076080
0.823486 0.704102 0.068634
0.855621 0.708466 0.061035
0.902222 0.711731 0.055084
0.957550 0.714508 0.040588
0.987305 0.717072 0.009186
0.163422 0.606506 0.296936
0.197357 0.607300 0.295746
0.221497 0.608276 0.294708
0.246918 0.609344 0.293427
0.271027 0.610809 0.292114
0.292908 0.613190 0.291901
0.314728 0.616425 0.291565
0.337585 0.620728 0.292053
0.361908 0.625580 0.292633
0.382935 0.630524 0.292969
0.405060 0.635437 0.293427
0.432495 0.639923 0.293121
0.461365 0.644318 0.292786
0.488037 0.647919 0.293365
0.506836 0.650970 0.295898
0.522186 0.653931 0.297760
0.538300 0.656311 0.299103
0.555786 0.657532 0.300415
0.571991 0.658081 0.293457
0.587952 0.658081 0.274994
0.605499 0.657990 0.251282
0.628693 0.666901 0.230164
0.650818 0.675049 0.207489
0.673889 0.682434 0.185303
0.700378 0.690460 0.164337
0.731506 0.699829 0.137299
0.761200 0.708191 0.114899
0.789795 0.715363 0.100067
0.818939 0.721527 0.078766
0.850372 0.727203 0.070618
0.895416 0.731903 0.063660
0.945984 0.735413 0.056915
0.986877 0.738586 0.047516
0.172394 0.628143 0.306488
0.204102 0.628967 0.305511
0.229767 0.629913 0.304382
0.254974 0.631104 0.303253
0.278809 0.632629 0.302155
0.300415 0.634827 0.301422
0.321869 0.637726 0.301239
0.345001 0.642029 0.301544
0.368530 0.646729 0.302002
0.388458 0.651520 0.302582
0.413208 0.656647 0.302917
0.439758 0.661163 0.302887
0.470734 0.666077 0.302795
0.499939 0.670502 0.303070
0.516235 0.673645 0.305145
0.531555 0.676605 0.306976
0.548737 0.679077 0.308777
0.565948 0.680725 0.310059
0.584259 0.681274 0.310974
0.601410 0.682098 0.298676
0.616547 0.682220 0.277374
0.632568 0.683167 0.253845
0.653320 0.690735 0.232758
0.675507 0.698059 0.210510
0.699341 0.705383 0.188812
0.726379 0.712952 0.168213
0.756042 0.722260 0.141449
0.785034 0.731232 0.120209
0.814331 0.739014 0.105255
0.845215 0.745941 0.083160
0.888367 0.751526 0.072815
0.938385 0.756012 0.066101
0.986664 0.759827 0.058624
0.175629 0.650299 0.316254
0.207886 0.651093 0.315399
0.235626 0.652130 0.314087
0.261261 0.653442 0.313141
0.284943 0.655121 0.312073
0.306396 0.657227 0.311127
0.328125 0.659729 0.310822
0.351776 0.663818 0.311127
0.374786 0.668396 0.311676
0.395050 0.673340 0.312134
0.422577 0.678162 0.312469
0.448364 0.682526 0.312439
0.479980 0.687103 0.312592
0.508575 0.691650 0.312378
0.525238 0.694824 0.313629
0.541656 0.697449 0.315521
0.559082 0.699615 0.317017
0.576508 0.701355 0.318390
0.595428 0.702362 0.319397
0.613281 0.702698 0.319641
0.626678 0.703430 0.300903
