Kodak Vision2 250D (5205) - Only color.cube
# Created by Benjamin (IWLTBAP) : http://luts.iwltbap.com
# Copyright: (C) Copyright 2010-2017 Triune Films and IWLTBAP SAS
# Cannot be resold, shared or otherwise redistributed
TITLE "Film Print Emulation LUTs Pack (Rec.709, sRGB, DCI-P3)"
LUT_3D_SIZE 33
0.000916 0.000916 0.000000
0.022156 0.000732 0.000000
0.056335 0.000458 0.000000
0.082306 0.000244 0.000000
0.112915 0.000000 0.000000
0.139740 0.000000 0.000000
0.166779 0.000000 0.000000
0.190399 0.000000 0.000000
0.216217 0.000000 0.000000
0.242737 0.000000 0.000000
0.269226 0.000000 0.000000
0.293457 0.000000 0.000000
0.322357 0.000000 0.000000
0.348389 0.000000 0.000000
0.375977 0.000153 0.000000
0.401520 0.005829 0.000000
0.426636 0.013977 0.000000
0.450470 0.025757 0.000000
0.474152 0.038239 0.000000
0.498474 0.050873 0.000000
0.524872 0.061401 0.000000
0.548035 0.071747 0.000000
0.571289 0.082458 0.000000
0.593109 0.091583 0.000000
0.614410 0.099182 0.000000
0.636169 0.105865 0.000000
0.657745 0.111908 0.000000
0.678528 0.116364 0.000000
0.699921 0.120697 0.000000
0.721985 0.130035 0.000000
0.743286 0.135864 0.000000
0.762665 0.139282 0.000000
0.780151 0.143463 0.000000
0.007111 0.024994 0.008270
0.022156 0.021606 0.000000
0.058044 0.018280 0.000000
0.086945 0.019135 0.000000
0.119293 0.023285 0.000000
0.146118 0.028320 0.000000
0.174805 0.034088 0.000000
0.200836 0.034088 0.000000
0.230072 0.030762 0.000000
0.257629 0.030731 0.000000
0.283051 0.031555 0.000000
0.310791 0.034851 0.000000
0.337402 0.041473 0.000000
0.366058 0.044708 0.000000
0.390259 0.047821 0.000000
0.416656 0.050812 0.000000
0.441101 0.055115 0.000000
0.464752 0.062042 0.000000
0.488678 0.070465 0.000000
0.513947 0.079773 0.000000
0.537842 0.088348 0.000000
0.559814 0.095428 0.000000
0.583374 0.101562 0.000000
0.603851 0.107361 0.000000
0.623932 0.113373 0.000000
0.644653 0.119568 0.000000
0.665741 0.128296 0.000000
0.686310 0.133606 0.000000
0.707550 0.138031 0.000000
0.728882 0.143127 0.000000
0.749512 0.148529 0.000000
0.768311 0.151001 0.000000
0.784851 0.154755 0.000000
0.010956 0.039978 0.002747
0.034393 0.046448 0.000000
0.059143 0.047974 0.000000
0.091095 0.049500 0.000000
0.125000 0.053101 0.000000
0.155518 0.057251 0.000000
0.181976 0.059967 0.000000
0.210052 0.060638 0.000000
0.240967 0.060608 0.000000
0.268402 0.062622 0.000000
0.294403 0.065277 0.000000
0.323730 0.068451 0.000000
0.350250 0.072784 0.000000
0.377167 0.076324 0.000000
0.403412 0.078033 0.000000
0.429932 0.080811 0.000000
0.454498 0.085449 0.000000
0.478333 0.090637 0.000000
0.502655 0.096283 0.000000
0.528137 0.101532 0.000000
0.550232 0.106964 0.000000
0.573761 0.112213 0.000000
0.593628 0.117371 0.000000
0.613373 0.124146 0.000000
0.633148 0.133240 0.000000
0.653351 0.138916 0.000000
0.674072 0.144012 0.000000
0.694458 0.148254 0.000000
0.715149 0.152344 0.000000
0.735840 0.156830 0.000000
0.756012 0.161163 0.000000
0.774109 0.163422 0.000000
0.789795 0.166107 0.000000
0.015961 0.059326 0.000000
0.046204 0.067230 0.000000
0.068756 0.074646 0.000000
0.096771 0.077545 0.000000
0.130096 0.081390 0.000000
0.161896 0.083984 0.000000
0.190216 0.086487 0.000000
0.219086 0.087921 0.000000
0.250549 0.090240 0.000000
0.278015 0.092926 0.000000
0.307098 0.095490 0.000000
0.335571 0.098785 0.000000
0.366058 0.101166 0.000000
0.391937 0.103912 0.000000
0.420074 0.105438 0.000000
0.446014 0.107330 0.000000
0.470673 0.109955 0.000000
0.495148 0.113312 0.000000
0.521179 0.118042 0.000000
0.543304 0.124084 0.000000
0.564087 0.132538 0.000000
0.586548 0.137939 0.000000
0.606720 0.143097 0.000000
0.625916 0.147949 0.000000
0.645325 0.153137 0.000000
0.664642 0.158386 0.000000
0.684784 0.163177 0.000000
0.705200 0.166809 0.000000
0.725037 0.170135 0.000000
0.745117 0.173615 0.000000
0.764191 0.177002 0.000000
0.780579 0.178131 0.000000
0.799835 0.180328 0.000000
0.014526 0.085541 0.000000
0.052673 0.092682 0.000000
0.078796 0.096985 0.000000
0.110352 0.101837 0.000000
0.135437 0.103760 0.000000
0.168671 0.105255 0.000000
0.198120 0.107849 0.000000
0.228607 0.110077 0.000000
0.259674 0.112244 0.000000
0.287323 0.115173 0.000000
0.319275 0.118744 0.000000
0.347931 0.122284 0.000000
0.379700 0.128479 0.000000
0.408630 0.132782 0.000000
0.436127 0.135681 0.000000
0.462982 0.138214 0.000000
0.488068 0.141876 0.000000
0.515228 0.145355 0.000000
0.538940 0.149567 0.000000
0.559601 0.153900 0.000000
0.582092 0.158844 0.000000
0.601837 0.163635 0.000000
0.621246 0.167999 0.000000
0.640350 0.171997 0.000000
0.659210 0.176086 0.000000
0.678101 0.180084 0.000000
0.697937 0.183990 0.000000
0.717468 0.186737 0.000000
0.736237 0.189636 0.000000
0.754852 0.191864 0.000000
0.772827 0.194489 0.000000
0.788086 0.195099 0.000000
0.808136 0.196686 0.000000
0.027283 0.107269 0.000000
0.067688 0.110260 0.000000
0.095306 0.113525 0.000000
0.124664 0.119965 0.000000
0.150635 0.127930 0.000000
0.175507 0.131256 0.000000
0.205963 0.134491 0.000000
0.237762 0.137634 0.000000
0.269073 0.140381 0.000000
0.297516 0.143372 0.000000
0.331512 0.148468 0.000000
0.364471 0.152557 0.000000
0.393829 0.157318 0.000000
0.424225 0.161377 0.000000
0.452209 0.165070 0.000000
0.480164 0.168457 0.000000
0.507874 0.172424 0.000000
0.534271 0.175598 0.000000
0.556641 0.179413 0.000000
0.579773 0.183105 0.000000
0.598846 0.186920 0.000000
0.618042 0.190643 0.000000
0.637085 0.194092 0.000000
0.655579 0.197662 0.000000
0.673889 0.201324 0.000000
0.692535 0.204926 0.000000
0.711670 0.208038 0.000000
0.730225 0.210938 0.000000
0.748383 0.213226 0.000000
0.765686 0.214264 0.000000
0.781830 0.216003 0.000000
0.800842 0.215820 0.000000
0.817383 0.216675 0.000000
0.051453 0.128662 0.000000
0.081848 0.132660 0.000000
0.108093 0.137726 0.000000
0.136963 0.146118 0.000000
0.169006 0.154327 0.000000
0.191101 0.158234 0.000000
0.214478 0.160248 0.000000
0.246948 0.163696 0.000000
0.279236 0.165894 0.000000
0.312408 0.169464 0.000000
0.344086 0.174072 0.000000
0.376190 0.178558 0.000000
0.407562 0.182892 0.000000
0.438202 0.187134 0.000000
0.466888 0.191864 0.000000
0.496185 0.196259 0.000000
0.526245 0.201111 0.000000
0.550629 0.205078 0.000000
0.575958 0.208954 0.000000
0.595276 0.213043 0.000000
0.614563 0.216339 0.000000
0.633881 0.219421 0.000000
0.652557 0.222595 0.000000
0.670898 0.225403 0.000000
0.688934 0.228485 0.000000
0.707245 0.231720 0.000000
0.725433 0.234436 0.000000
0.743286 0.237213 0.000000
0.760712 0.239502 0.000000
0.776764 0.240173 0.000000
0.791260 0.240997 0.000000
0.811310 0.239868 0.000000
0.827759 0.239044 0.000000
0.069244 0.149841 0.000000
0.099426 0.155457 0.000000
0.125519 0.161346 0.000000
0.155945 0.169617 0.000000
0.182648 0.178711 0.000000
0.201782 0.186249 0.000000
0.227600 0.188110 0.000000
0.256439 0.189301 0.000000
0.290894 0.194183 0.000000
0.325714 0.196320 0.000000
0.360199 0.200958 0.000000
0.389893 0.205292 0.000000
0.421234 0.210419 0.000000
0.450714 0.215332 0.000000
0.479492 0.220123 0.000000
0.511230 0.224243 0.000000
0.539795 0.228638 0.000000
0.563812 0.232330 0.000000
0.587494 0.236511 0.000000
0.608917 0.240906 0.000000
0.628601 0.245178 0.000000
0.648315 0.249054 0.000000
0.666748 0.252594 0.000000
0.684937 0.255585 0.000000
0.703369 0.258484 0.000000
0.721008 0.261322 0.000000
0.738922 0.263916 0.000000
0.755981 0.265869 0.000000
0.772186 0.267639 0.000000
0.786652 0.267761 0.000000
0.805603 0.267914 0.000000
0.821686 0.266541 0.000000
0.838074 0.264923 0.000000
0.088165 0.172974 0.000000
0.121521 0.180328 0.000000
0.145233 0.186737 0.000000
0.176147 0.195068 0.000000
0.201324 0.206207 0.000000
0.216461 0.217438 0.000000
0.235382 0.224609 0.000000
0.274353 0.223419 0.000000
0.305511 0.226013 0.000000
0.339417 0.229218 0.000000
0.371338 0.231598 0.000000
0.402374 0.236176 0.000000
0.433197 0.240692 0.000000
0.462952 0.245575 0.000000
0.492584 0.250244 0.000000
0.524445 0.254700 0.000000
0.551392 0.258240 0.000000
0.578156 0.262146 0.000000
0.599274 0.265991 0.000000
0.620605 0.269897 0.000000
0.640930 0.273865 0.000000
0.660248 0.277344 0.000000
0.678925 0.280579 0.000000
0.697540 0.283447 0.000000
0.715607 0.285828 0.000000
0.733093 0.287842 0.000000
0.750336 0.289398 0.000000
0.766602 0.290222 0.000000
0.781433 0.291443 0.000000
0.799774 0.291565 0.000000
0.815857 0.291565 0.000000
0.831635 0.290100 0.000000
0.847992 0.288666 0.000000
0.113190 0.199280 0.000000
0.142822 0.208496 0.000000
0.170319 0.214905 0.000000
0.197754 0.222351 0.000000
0.225220 0.233002 0.000000
0.242950 0.245605 0.000000
0.255219 0.257812 0.000000
0.285095 0.260071 0.010864
0.320099 0.262573 0.000000
0.350220 0.265015 0.000000
0.384064 0.266571 0.000000
0.414429 0.268616 0.000000
0.445099 0.272675 0.000000
0.473846 0.276306 0.000000
0.505066 0.280304 0.000000
0.534973 0.284454 0.000000
0.561615 0.287292 0.000000
0.587372 0.289886 0.000000
0.609863 0.292419 0.000000
0.631042 0.296417 0.000000
0.651489 0.301300 0.000000
0.671021 0.304230 0.000000
0.690155 0.307251 0.000000
0.708832 0.310242 0.000000
0.726532 0.313416 0.000000
0.743713 0.315674 0.000000
0.760834 0.317566 0.000000
0.776093 0.318359 0.000000
0.789825 0.318939 0.000000
0.809052 0.318939 0.000000
0.825348 0.318817 0.000000
0.841309 0.316803 0.000000
0.857727 0.314911 0.000000
0.139313 0.229919 0.000000
0.171844 0.239075 0.000000
0.194672 0.244995 0.000000
0.223450 0.252960 0.000000
0.251068 0.264648 0.000000
0.268646 0.277100 0.000000
0.278534 0.287262 0.000000
0.294006 0.294067 0.030609
0.338196 0.293701 0.000000
0.363281 0.300476 0.000000
0.386444 0.303192 0.000000
0.427704 0.300690 0.000000
0.456329 0.302948 0.000000
0.486267 0.305847 0.000000
0.517548 0.308960 0.000000
0.545898 0.313171 0.000000
0.573914 0.317322 0.000000
0.596893 0.320862 0.000000
0.619141 0.324066 0.000000
0.640656 0.326904 0.000000
0.661163 0.329681 0.000000
0.680817 0.332886 0.000000
0.700134 0.335815 0.000000
0.718170 0.338623 0.000000
0.735596 0.341614 0.000000
0.752319 0.343842 0.000000
0.768829 0.345490 0.000000
0.783325 0.345886 0.000000
0.802094 0.346191 0.000000
0.818115 0.346497 0.000000
0.834747 0.346497 0.000000
0.850586 0.344360 0.000000
0.866699 0.342346 0.000000
0.169220 0.262390 0.000000
0.199371 0.272247 0.000000
0.223694 0.278046 0.000000
0.252258 0.285065 0.000000
0.276672 0.293396 0.000000
0.290710 0.307098 0.000000
0.301727 0.319275 0.007385
0.315155 0.329468 0.038025
0.348785 0.331268 0.017914
0.381104 0.333496 0.000000
0.401520 0.337250 0.000000
0.423798 0.340759 0.000000
0.460114 0.340240 0.000000
0.497681 0.338501 0.000000
0.528992 0.341461 0.000000
0.555969 0.344727 0.000000
0.583405 0.348450 0.000000
0.606293 0.351715 0.000000
0.628632 0.354584 0.000000
0.649902 0.357239 0.000000
0.670166 0.359650 0.000000
0.689789 0.362244 0.000000
0.709015 0.364716 0.000000
0.726562 0.366913 0.000000
0.743652 0.369263 0.000000
0.759918 0.371124 0.000000
0.775696 0.372589 0.000000
0.789734 0.373077 0.000000
0.809601 0.373169 0.000000
0.826080 0.372711 0.000000
0.843292 0.372437 0.000000
0.859375 0.370392 0.000000
0.875916 0.368805 0.000000
0.200958 0.295258 0.000000
0.231049 0.305054 0.000000
0.253418 0.310455 0.000000
0.279144 0.317657 0.000000
0.304047 0.327271 0.000000
0.314972 0.341949 0.000000
0.326416 0.354279 0.025299
0.334351 0.365082 0.057159
0.364258 0.368347 0.040222
0.393616 0.370667 0.009277
0.420258 0.373199 0.000000
0.439667 0.375763 0.000000
0.459198 0.379791 0.000000
0.491302 0.380585 0.000000
0.529388 0.379059 0.000000
0.563690 0.378021 0.000000
0.590851 0.380035 0.000000
0.614471 0.382568 0.000000
0.637878 0.384613 0.000000
0.658936 0.386902 0.000000
0.678619 0.388916 0.000000
0.698151 0.390900 0.000000
0.717346 0.393066 0.000000
0.734955 0.394867 0.000000
0.751770 0.396545 0.000000
0.767609 0.398041 0.000000
0.782227 0.399292 0.000000
0.800385 0.400055 0.000000
0.816803 0.400055 0.000000
0.833313 0.398956 0.000000
0.850800 0.397949 0.000000
0.867340 0.395264 0.000000
0.884583 0.393677 0.004547
0.235535 0.331604 0.000000
0.261108 0.339722 0.000000
0.279633 0.345215 0.000000
0.306244 0.352081 0.000000
0.331299 0.360809 0.000000
0.338348 0.375763 0.007477
0.347839 0.388550 0.041656
0.358948 0.398529 0.067108
0.382324 0.403564 0.059509
0.406494 0.406921 0.037964
0.430969 0.410370 0.010193
0.454071 0.412231 0.000000
0.473846 0.414307 0.000000
0.495514 0.418610 0.000000
0.524384 0.421112 0.000000
0.554291 0.420227 0.000000
0.585449 0.419983 0.000000
0.614105 0.417908 0.000000
0.642395 0.416931 0.000000
0.664215 0.419647 0.000000
0.685089 0.421326 0.000000
0.706482 0.422272 0.000000
0.724792 0.424347 0.000000
0.742462 0.425751 0.000000
0.759064 0.427307 0.000000
0.774475 0.428741 0.000000
0.788330 0.429962 0.000000
0.807343 0.430939 0.000000
0.823608 0.431244 0.000000
0.840027 0.429810 0.000000
0.857178 0.428284 0.001709
0.874451 0.424805 0.006287
0.892914 0.421631 0.009796
0.266724 0.366943 0.000000
0.287476 0.373535 0.000000
0.307098 0.378632 0.000000
0.332642 0.385071 0.000000
0.356812 0.393799 0.000000
0.363800 0.408417 0.025269
0.371338 0.423553 0.053467
0.379089 0.435120 0.076660
0.400543 0.441681 0.074097
0.423737 0.444977 0.061188
0.444092 0.448517 0.042999
0.463257 0.451599 0.018036
0.483246 0.453339 0.000000
0.505402 0.454559 0.000000
0.533051 0.456116 0.000000
0.552002 0.458710 0.000000
0.578735 0.458923 0.000000
0.603729 0.458801 0.000000
0.629578 0.457672 0.000000
0.656036 0.457489 0.000000
0.683655 0.456146 0.000000
0.710419 0.454010 0.000000
0.729980 0.454590 0.000000
0.749023 0.454651 0.000000
0.765289 0.455658 0.000000
0.780029 0.456909 0.000000
0.796600 0.458038 0.000000
0.813721 0.458618 0.000000
0.829895 0.459015 0.000000
0.846222 0.457672 0.003693
0.863190 0.456207 0.007202
0.881195 0.452698 0.011566
0.899353 0.449341 0.015839
0.293976 0.400269 0.000000
0.315247 0.405731 0.000000
0.333038 0.410797 0.000000
0.357971 0.417633 0.000000
0.374786 0.428467 0.000000
0.383820 0.442200 0.034210
0.391479 0.455414 0.061157
0.399963 0.466095 0.080139
0.414459 0.473572 0.086761
0.436066 0.476746 0.081177
0.456665 0.479767 0.067535
0.476196 0.484589 0.050964
0.494476 0.487091 0.032684
0.513153 0.488922 0.006836
0.531830 0.490845 0.000000
0.559265 0.491058 0.000000
0.582977 0.491699 0.000000
0.600983 0.493408 0.000000
0.624054 0.493225 0.000000
0.649323 0.491943 0.000000
0.675964 0.491028 0.000000
0.702545 0.489594 0.000000
0.728363 0.487671 0.000000
0.751495 0.486084 0.000000
0.769348 0.486084 0.000000
0.784943 0.485962 0.000000
0.803680 0.486633 0.000000
0.819275 0.486969 0.000000
0.835571 0.487091 0.004608
0.851868 0.486115 0.008972
0.868652 0.484253 0.013306
0.887665 0.478638 0.017517
0.904785 0.475433 0.021423
0.321960 0.436005 0.000000
0.338654 0.440674 0.000000
0.357635 0.445038 0.000000
0.376343 0.450165 0.000000
0.392731 0.458893 0.000000
0.403442 0.470612 0.038635
0.411011 0.484314 0.066010
0.417114 0.494904 0.084717
0.425781 0.504517 0.094818
0.445862 0.509583 0.093597
0.466400 0.512329 0.085999
0.486816 0.515106 0.075684
0.507538 0.517487 0.062805
0.525482 0.519501 0.050293
0.541718 0.521179 0.033386
0.559021 0.523132 0.000000
0.586090 0.523621 0.000000
0.610443 0.522766 0.000000
0.627838 0.524109 0.000000
0.648346 0.524231 0.000000
0.670898 0.523163 0.000000
0.695160 0.522461 0.000000
0.719666 0.521301 0.000000
0.743835 0.519745 0.000000
0.767029 0.517609 0.000000
0.786133 0.515533 0.000000
0.806854 0.515045 0.000732
0.824677 0.514069 0.005463
0.840820 0.513885 0.009857
0.857117 0.512665 0.014191
0.874084 0.511261 0.018341
0.893433 0.508148 0.022186
0.909302 0.504852 0.025909
0.343536 0.467377 0.000000
0.362091 0.471069 0.000000
0.376129 0.474335 0.000000
0.394928 0.478241 0.000000
0.410065 0.488281 0.004852
0.420135 0.499146 0.043640
0.427277 0.511353 0.071381
0.434418 0.521912 0.087341
0.441040 0.531647 0.098328
0.456757 0.538025 0.100067
0.474731 0.542145 0.097412
0.494324 0.544739 0.091980
0.516907 0.547058 0.084839
0.534607 0.549377 0.077576
0.550995 0.550995 0.067474
0.566956 0.552490 0.053467
0.586487 0.553925 0.031158
0.607544 0.555481 0.000000
0.635406 0.552704 0.000000
0.654541 0.552429 0.000000
0.671234 0.553314 0.000000
0.691895 0.553101 0.000000
0.714111 0.552795 0.000000
0.736816 0.552246 0.000000
0.759003 0.551147 0.000000
0.779419 0.548950 0.000732
0.803558 0.545990 0.005493
0.825317 0.542816 0.010742
0.844482 0.541199 0.015045
0.862122 0.539551 0.019135
0.879639 0.538086 0.022949
0.898438 0.535461 0.026642
0.913147 0.532684 0.030365
0.364777 0.497284 0.000000
0.378571 0.501129 0.000000
0.393066 0.504700 0.000000
0.411865 0.508759 0.000000
0.424713 0.515778 0.014618
0.434540 0.525818 0.047699
0.441803 0.537079 0.075287
0.449707 0.547363 0.089203
0.455841 0.557495 0.100311
0.470490 0.564728 0.105011
0.484375 0.571533 0.108185
0.501221 0.575653 0.105774
0.522552 0.578247 0.098755
0.540558 0.580933 0.094238
0.557251 0.583191 0.089294
0.576935 0.584778 0.081940
0.591675 0.585968 0.072540
0.609558 0.587219 0.054718
0.629547 0.588867 0.021393
0.654358 0.586487 0.000000
0.677765 0.583832 0.000000
0.695221 0.584747 0.000000
0.713409 0.585114 0.000000
0.733459 0.585388 0.000000
0.753815 0.585358 0.000732
0.773499 0.583862 0.005463
0.792786 0.581848 0.010712
0.817963 0.578552 0.015045
0.842072 0.573700 0.019928
0.863251 0.570038 0.023682
0.885223 0.566833 0.027405
0.902985 0.563965 0.031097
0.916351 0.561462 0.034088
0.379242 0.525604 0.000000
0.393280 0.528900 0.000000
0.407990 0.532166 0.000000
0.425079 0.535614 0.000000
0.437775 0.541901 0.021362
0.447388 0.551300 0.050323
0.454315 0.562714 0.078827
0.461761 0.573547 0.091949
0.469421 0.584412 0.101654
0.483185 0.592407 0.108154
0.496460 0.599396 0.112244
0.510162 0.604797 0.115936
0.526001 0.608154 0.115417
0.544342 0.610382 0.110626
0.560822 0.612701 0.106140
0.579987 0.614502 0.099457
0.596252 0.615540 0.093811
0.612366 0.616333 0.087250
0.630859 0.617157 0.075439
0.651489 0.618073 0.051575
0.670135 0.618073 0.022156
0.697662 0.614746 0.017456
0.718811 0.613525 0.008026
0.734985 0.614014 0.002777
0.752869 0.614624 0.007202
0.770538 0.614471 0.009827
0.787903 0.613586 0.015015
0.811829 0.612244 0.019897
0.834137 0.609680 0.023651
0.858002 0.605469 0.028137
0.884460 0.600494 0.031097
0.906219 0.596191 0.034790
0.920013 0.593536 0.037781
0.392700 0.552826 0.000000
0.406525 0.556030 0.000000
0.419983 0.559326 0.000610
0.435883 0.562622 0.004028
0.449829 0.568481 0.023712
0.458435 0.578461 0.053467
0.463562 0.590851 0.083496
0.472321 0.600128 0.094025
0.483032 0.608398 0.100769
0.494598 0.616150 0.110168
0.507996 0.623322 0.115662
0.519745 0.629791 0.121368
0.530640 0.634613 0.125488
0.545410 0.638062 0.125702
0.561981 0.640198 0.122498
0.580841 0.642212 0.118683
0.597198 0.643677 0.114044
0.614075 0.644501 0.108429
0.631195 0.645081 0.099091
0.651489 0.645538 0.089691
0.672272 0.646149 0.074951
0.691559 0.646057 0.052216
0.713440 0.644836 0.035583
0.737610 0.641998 0.030365
0.756714 0.641083 0.025879
0.771545 0.641876 0.019104
0.787140 0.641876 0.022156
0.808685 0.642090 0.024384
0.829285 0.641205 0.028107
0.851532 0.638336 0.031830
0.875549 0.634796 0.034821
0.903168 0.628632 0.038513
0.921204 0.623627 0.041443
0.405548 0.582855 0.008545
0.417969 0.585907 0.009430
0.430084 0.588898 0.011200
0.445404 0.592010 0.012939
0.460022 0.596832 0.026672
0.467865 0.605286 0.057098
0.473358 0.615265 0.084473
0.482452 0.623932 0.095459
0.493530 0.631836 0.102936
0.506989 0.639191 0.111145
0.520874 0.645752 0.115875
0.533356 0.651764 0.120148
0.544464 0.657043 0.124786
0.554321 0.660858 0.129486
0.564117 0.664215 0.133850
0.580078 0.666504 0.134674
0.594391 0.668030 0.132935
0.612000 0.668732 0.128082
0.630585 0.669159 0.121674
0.649139 0.669342 0.114471
0.670441 0.669495 0.102142
0.692078 0.669525 0.090546
0.712189 0.669342 0.077271
0.730347 0.669159 0.054718
0.753937 0.667358 0.046326
0.774200 0.666077 0.042175
0.790192 0.665985 0.038544
0.809509 0.667023 0.034821
0.828217 0.667175 0.034821
0.848022 0.666229 0.036316
0.870026 0.664429 0.038544
0.896790 0.660431 0.042145
0.917206 0.656158 0.045624
0.416992 0.611450 0.017242
0.427856 0.613556 0.018066
0.438995 0.615662 0.019745
0.453491 0.618286 0.022125
0.468811 0.622131 0.030396
0.476105 0.630127 0.060547
0.482941 0.638763 0.083740
0.490784 0.647400 0.097198
0.503571 0.654541 0.106171
0.518127 0.660583 0.112122
0.532318 0.665497 0.115326
0.546173 0.669769 0.118225
0.559326 0.673798 0.121033
0.574188 0.678284 0.123352
0.585510 0.683563 0.125610
0.596893 0.686523 0.128082
0.608398 0.689270 0.129852
0.618164 0.692444 0.134003
0.625427 0.696106 0.141754
0.644531 0.696655 0.136963
0.665802 0.696564 0.128693
0.688568 0.696411 0.118042
0.711426 0.696075 0.105072
0.731689 0.695496 0.092621
0.750275 0.695099 0.079803
0.767792 0.695190 0.061127
0.788757 0.693115 0.059448
0.812561 0.692627 0.055969
0.831085 0.692993 0.053497
0.848022 0.693146 0.048370
0.867706 0.692261 0.045654
0.892242 0.689148 0.046997
0.913239 0.685516 0.049011
0.425873 0.637695 0.025909
0.435577 0.639526 0.027405
0.446350 0.641235 0.028137
0.460236 0.643616 0.029633
0.476685 0.646576 0.033356
0.483948 0.653809 0.062775
0.491425 0.660828 0.084351
0.498016 0.667755 0.100647
0.512360 0.672760 0.109039
0.526520 0.679443 0.113586
0.541687 0.686188 0.115540
0.556458 0.691040 0.117218
0.573212 0.695740 0.118896
0.587158 0.699554 0.119568
0.600342 0.702606 0.120728
0.613281 0.705505 0.121643
0.626617 0.708069 0.122345
0.639252 0.710876 0.124176
0.650208 0.713837 0.128021
0.659332 0.717041 0.134155
0.665253 0.720795 0.143768
0.679840 0.722412 0.144745
0.706665 0.721375 0.132141
0.729858 0.720795 0.119629
0.750732 0.720123 0.109222
0.769257 0.720093 0.096497
0.784729 0.720337 0.085907
0.806854 0.720093 0.073944
0.829926 0.718811 0.071838
0.851532 0.717590 0.068237
0.870087 0.717499 0.064301
0.891174 0.716095 0.058838
0.910461 0.713776 0.055908
0.433655 0.661957 0.033356
0.442963 0.663239 0.034851
0.453094 0.664520 0.035583
0.466248 0.666290 0.037079
0.483276 0.668152 0.037811
0.491699 0.673035 0.063293
0.500122 0.681946 0.084991
0.507477 0.689789 0.100891
0.520081 0.696014 0.111816
0.533722 0.701172 0.115540
0.549713 0.706116 0.116241
0.565155 0.710754 0.117188
0.583221 0.715149 0.117401
0.598755 0.718933 0.117157
0.613159 0.722076 0.117371
0.627380 0.724579 0.117340
0.642090 0.726990 0.116852
0.656281 0.729553 0.117554
0.669037 0.732361 0.119934
0.680511 0.735046 0.123413
0.691040 0.737976 0.129059
0.699554 0.741211 0.136871
0.705780 0.744995 0.147095
0.722809 0.746124 0.146484
0.747467 0.745056 0.133606
0.768280 0.744659 0.123749
0.785400 0.744751 0.114960
0.807007 0.744934 0.102722
0.825043 0.745270 0.091827
0.847076 0.744141 0.084137
0.870789 0.742462 0.081024
0.895416 0.740417 0.077332
0.911011 0.739838 0.072571
0.441010 0.685669 0.040039
0.449860 0.687012 0.040771
0.459229 0.688324 0.041473
0.471893 0.690155 0.042908
0.488251 0.692322 0.044281
0.499786 0.697144 0.063293
0.509399 0.703461 0.083923
0.517151 0.710571 0.099976
0.526703 0.717102 0.114777
0.541260 0.721527 0.116730
0.557312 0.725891 0.116699
0.576752 0.730164 0.116669
0.592255 0.734131 0.115906
0.609253 0.737701 0.114441
0.625916 0.740967 0.113403
0.641815 0.743530 0.112396
0.657227 0.745575 0.110840
0.672516 0.747925 0.110321
0.687469 0.750427 0.110809
0.701141 0.753052 0.112549
0.712769 0.756073 0.116730
0.722778 0.759552 0.123322
0.730927 0.763519 0.131622
0.737366 0.767853 0.142212
0.739105 0.773163 0.158661
0.763306 0.771881 0.148010
0.783478 0.771362 0.138641
0.806549 0.771271 0.129578
0.826385 0.771362 0.119904
0.845673 0.771545 0.109802
0.864471 0.771851 0.095093
0.892242 0.769501 0.091370
0.913177 0.767059 0.088196
0.447632 0.709442 0.046997
0.455902 0.710602 0.047638
0.464569 0.711853 0.048309
0.476898 0.713440 0.049622
0.492157 0.715363 0.050262
0.505737 0.719299 0.064331
0.518372 0.724182 0.080750
0.525574 0.730835 0.098511
0.533264 0.737427 0.115479
0.548065 0.741974 0.117645
0.564423 0.745972 0.117371
0.583923 0.749817 0.115662
0.601471 0.753632 0.113403
0.619202 0.757294 0.111115
0.637421 0.761017 0.109039
0.655334 0.764160 0.105316
0.671265 0.766571 0.102570
0.687256 0.768860 0.100586
0.703369 0.771271 0.099396
0.718048 0.773743 0.099945
0.731476 0.776276 0.103027
