Kodak Vision3 50D (5203) - Look.cube
# Created by Benjamin (IWLTBAP) : http://luts.iwltbap.com
# Copyright: (C) Copyright 2010-2017 Triune Films and IWLTBAP SAS
# Cannot be resold, shared or otherwise redistributed
TITLE "Film Print Emulation LUTs Pack (Rec.709, sRGB, DCI-P3)"
LUT_3D_SIZE 5
0.001587 0.000000 0.000000
0.249298 0.000000 0.000000
0.500153 0.000000 0.000000
0.750549 0.000793 0.000000
0.999359 0.000793 0.000000
0.023651 0.157196 0.057434
0.220154 0.207977 0.030731
0.499298 0.242920 0.000000
0.750549 0.243561 0.000000
0.999054 0.242767 0.000000
0.037842 0.365326 0.132111
0.273895 0.401825 0.153595
0.458405 0.446442 0.080536
0.749237 0.492676 0.000000
1.000000 0.494019 0.000000
0.099518 0.582306 0.247772
0.330536 0.604248 0.243103
0.515594 0.639038 0.249298
0.706177 0.679962 0.119415
0.993256 0.740997 0.014984
0.174683 0.797729 0.335358
0.401917 0.806335 0.322662
0.609680 0.842865 0.318329
0.760376 0.861969 0.301483
0.955231 0.918640 0.153351
0.000000 0.014191 0.128113
0.182861 0.040222 0.173981
0.499878 0.000000 0.229919
0.750732 0.000000 0.230438
0.999725 0.000000 0.229767
0.000000 0.160217 0.165100
0.231445 0.202454 0.177826
0.499329 0.243073 0.229767
0.750519 0.243561 0.230255
0.999420 0.242310 0.229431
0.000000 0.372162 0.255035
0.251892 0.424744 0.275116
0.476196 0.471130 0.246521
0.749023 0.492737 0.229095
1.000000 0.493958 0.230103
0.000000 0.570129 0.348938
0.271973 0.637726 0.359924
0.541290 0.683899 0.355835
0.728668 0.720520 0.284210
0.995697 0.746368 0.236359
0.000000 0.783539 0.424835
0.331329 0.856903 0.444550
0.598572 0.882324 0.437134
0.799591 0.923737 0.429230
0.977173 0.961243 0.314606
0.000000 0.046875 0.274170
0.058655 0.059845 0.339844
0.322662 0.083801 0.322540
0.625153 0.050354 0.411377
0.999390 0.000000 0.486115
0.000000 0.192719 0.337799
0.060455 0.219421 0.451263
0.381897 0.229095 0.376038
0.667572 0.257538 0.438385
0.999298 0.242310 0.485962
0.000000 0.377441 0.381897
0.126221 0.416473 0.418213
0.444031 0.490936 0.468689
0.750519 0.517670 0.500397
1.000000 0.493866 0.487335
0.000000 0.597260 0.481232
0.000000 0.637360 0.497284
0.479340 0.710602 0.538544
0.739441 0.746460 0.513824
0.995422 0.749634 0.490601
0.000000 0.789398 0.551941
0.000000 0.839142 0.563599
0.523438 0.924133 0.600525
0.814606 0.956970 0.599945
0.988708 0.981812 0.528137
0.000000 0.099121 0.412567
0.000000 0.095490 0.481567
0.283569 0.101868 0.466492
0.440399 0.119080 0.457153
0.682098 0.128113 0.553986
0.000000 0.237518 0.485992
0.000000 0.252472 0.628754
0.302826 0.254730 0.546570
0.501190 0.249908 0.519257
0.775909 0.262512 0.604675
0.000000 0.423218 0.577484
0.000000 0.457825 0.644989
0.322540 0.492004 0.736969
0.629791 0.512970 0.628906
0.891327 0.526398 0.679749
0.000000 0.638123 0.634674
0.123993 0.671478 0.660797
0.400085 0.709137 0.691406
0.747253 0.784912 0.751068
0.964355 0.802612 0.790344
0.000000 0.827454 0.684845
0.000000 0.864990 0.700653
0.356842 0.912292 0.733856
0.753967 0.966309 0.785828
0.984619 0.990967 0.746277
0.000000 0.152588 0.603760
0.000000 0.142029 0.603485
0.176697 0.134216 0.641113
0.396515 0.142853 0.628510
0.533295 0.149414 0.590210
0.000000 0.290588 0.682983
0.000000 0.302704 0.793671
0.000000 0.271393 0.814606
0.412384 0.275269 0.700043
0.586884 0.246521 0.650513
0.000000 0.465424 0.769836
0.000000 0.506989 0.850220
0.340485 0.543976 0.893799
0.450226 0.521698 0.891327
0.734161 0.511444 0.780365
0.000000 0.665985 0.823395
0.132385 0.703033 0.862091
0.408752 0.738068 0.901733
0.731201 0.790192 0.950531
0.907166 0.808716 0.901520
0.114319 0.847107 0.842743
0.232941 0.885742 0.875061
0.467560 0.919952 0.906006
0.726685 0.948303 0.944092
0.978241 0.993073 0.969849
