Kodak Vision3 200T (5213) - Look.cube
# Created by Benjamin (IWLTBAP) : http://luts.iwltbap.com
# Copyright: (C) Copyright 2010-2017 Triune Films and IWLTBAP SAS
# Cannot be resold, shared or otherwise redistributed
TITLE "Film Print Emulation LUTs Pack (Rec.709, sRGB, DCI-P3)"
LUT_3D_SIZE 33
0.000793 0.000793 0.000793
0.015778 0.001556 0.003143
0.032318 0.003937 0.005524
0.052979 0.005524 0.007080
0.075653 0.007874 0.008667
0.100677 0.011810 0.011047
0.129669 0.017334 0.012604
0.160950 0.023651 0.015778
0.194946 0.028381 0.018127
0.229248 0.034698 0.022064
0.256500 0.040222 0.023651
0.283966 0.046173 0.026001
0.312256 0.052338 0.026031
0.339630 0.057434 0.026031
0.365234 0.062225 0.026031
0.388184 0.067291 0.026031
0.411133 0.072083 0.026031
0.435028 0.077148 0.025238
0.456879 0.081482 0.025238
0.479706 0.086517 0.025238
0.502106 0.091339 0.025238
0.524567 0.095093 0.024445
0.545746 0.099518 0.024445
0.567230 0.104156 0.023651
0.588348 0.108276 0.023651
0.609772 0.112213 0.023651
0.630768 0.116394 0.022888
0.651184 0.120758 0.023651
0.672882 0.124664 0.023651
0.694916 0.129059 0.023651
0.716766 0.134216 0.024445
0.739227 0.138885 0.024445
0.762024 0.143402 0.025238
0.002350 0.011810 0.004730
0.014984 0.018921 0.007874
0.034698 0.023651 0.011047
0.056183 0.026794 0.011810
0.080536 0.030731 0.013397
0.108612 0.035492 0.014984
0.138885 0.040985 0.017334
0.170990 0.047577 0.020508
0.202057 0.052979 0.022858
0.236847 0.058044 0.026001
0.265381 0.061646 0.026794
0.294891 0.066742 0.026794
0.325104 0.070526 0.026825
0.352509 0.075165 0.026825
0.379974 0.079559 0.026031
0.405701 0.084717 0.026031
0.431458 0.089142 0.025238
0.455078 0.092987 0.025238
0.478729 0.097107 0.025238
0.502960 0.101074 0.025238
0.525726 0.104919 0.024445
0.549255 0.108978 0.024445
0.571350 0.113251 0.023651
0.594147 0.117401 0.023651
0.615814 0.121063 0.023651
0.637421 0.124969 0.023651
0.659851 0.129028 0.023651
0.682220 0.132996 0.023651
0.704346 0.137146 0.023651
0.726990 0.141998 0.024445
0.750336 0.146423 0.024445
0.773804 0.151001 0.025238
0.796692 0.155914 0.026031
0.003143 0.022858 0.006287
0.010254 0.028381 0.008667
0.031525 0.038635 0.014191
0.055573 0.045441 0.015778
0.080048 0.051025 0.017334
0.107513 0.056183 0.018921
0.140015 0.061646 0.022064
0.176025 0.066742 0.024445
0.207581 0.072601 0.027588
0.240082 0.078125 0.029968
0.269867 0.081940 0.029968
0.300598 0.086060 0.029968
0.332184 0.090027 0.029175
0.362701 0.094238 0.029175
0.392670 0.097931 0.027588
0.421722 0.101471 0.026825
0.449707 0.104919 0.026031
0.475220 0.108612 0.025238
0.499878 0.112549 0.025238
0.523987 0.116028 0.024445
0.548798 0.119751 0.024445
0.573120 0.123688 0.023651
0.595825 0.127808 0.023651
0.619232 0.130890 0.023651
0.641388 0.135071 0.023651
0.664581 0.138885 0.023651
0.687775 0.142273 0.023651
0.710632 0.146423 0.024445
0.734283 0.151001 0.024445
0.758301 0.155396 0.025238
0.782471 0.159943 0.025238
0.806580 0.164612 0.026031
0.832153 0.169830 0.026031
0.006287 0.036255 0.009460
0.009460 0.037842 0.010254
0.026794 0.050354 0.014984
0.051025 0.062225 0.019714
0.074646 0.068939 0.022858
0.100311 0.075165 0.024445
0.134186 0.081940 0.026794
0.171692 0.087830 0.029175
0.207214 0.092987 0.031525
0.240540 0.097931 0.032318
0.272369 0.102234 0.032318
0.304138 0.106781 0.031525
0.335999 0.110779 0.031525
0.366882 0.114990 0.031525
0.397034 0.118073 0.030731
0.426910 0.121735 0.029968
0.455750 0.125275 0.029175
0.482941 0.128113 0.028381
0.510010 0.131500 0.026794
0.537140 0.134491 0.026001
0.563812 0.137421 0.025238
0.589996 0.140869 0.023651
0.613678 0.143951 0.023651
0.637177 0.147797 0.023651
0.661102 0.151245 0.023651
0.685699 0.154388 0.023651
0.709167 0.157715 0.023651
0.734039 0.162659 0.024445
0.758759 0.166779 0.025238
0.783356 0.170990 0.025238
0.809082 0.175568 0.025238
0.835815 0.180237 0.026031
0.861023 0.184570 0.026825
0.009460 0.050354 0.012604
0.013397 0.052979 0.013397
0.025238 0.061646 0.017334
0.048981 0.076172 0.021271
0.070526 0.086517 0.026794
0.093414 0.093414 0.029968
0.123993 0.101074 0.032318
0.163635 0.109711 0.035492
0.200897 0.114990 0.037048
0.237030 0.119080 0.035492
0.271973 0.123352 0.033905
0.304626 0.127808 0.033905
0.338348 0.131805 0.033112
0.369690 0.135681 0.032349
0.399902 0.138885 0.032349
0.430023 0.142548 0.032318
0.459351 0.145874 0.031525
0.487183 0.149139 0.029968
0.514252 0.152039 0.029175
0.541534 0.155151 0.028381
0.568909 0.158203 0.027588
0.595428 0.160950 0.026794
0.621002 0.163879 0.026794
0.647064 0.167023 0.026001
0.673706 0.169617 0.025238
0.700317 0.172394 0.024445
0.726196 0.176025 0.024445
0.751953 0.180237 0.024445
0.777283 0.183929 0.025238
0.803589 0.188171 0.025238
0.830292 0.192719 0.026031
0.857239 0.197144 0.026031
0.884430 0.201477 0.026825
0.015778 0.067841 0.017334
0.018921 0.071564 0.018921
0.026001 0.075165 0.019714
0.044739 0.089600 0.024445
0.067841 0.103760 0.029968
0.089600 0.112213 0.033905
0.113617 0.118408 0.036255
0.150452 0.127167 0.040985
0.192932 0.136566 0.044006
0.231110 0.142548 0.041748
0.267487 0.146149 0.037048
0.302338 0.149933 0.035492
0.337372 0.153595 0.034698
0.369781 0.156952 0.033905
0.401978 0.160950 0.033142
0.432343 0.164124 0.033142
0.461639 0.167480 0.032349
0.489899 0.170532 0.031555
0.517670 0.173523 0.030731
0.545044 0.176483 0.030731
0.572479 0.179352 0.029968
0.599060 0.182434 0.029968
0.625336 0.185852 0.029175
0.651367 0.188385 0.029175
0.678986 0.191498 0.029175
0.705536 0.194153 0.028381
0.732574 0.197144 0.027588
0.760406 0.200317 0.026794
0.788483 0.203796 0.026794
0.817200 0.207581 0.026794
0.846802 0.211487 0.026031
0.874878 0.215515 0.026825
0.902954 0.219604 0.026825
0.019714 0.087402 0.021271
0.022858 0.092590 0.023651
0.027588 0.094666 0.025238
0.041748 0.105652 0.029175
0.063385 0.122375 0.035492
0.087402 0.133301 0.037048
0.110413 0.139160 0.039429
0.137726 0.142853 0.044739
0.178711 0.152313 0.048981
0.220490 0.163391 0.048981
0.261932 0.171478 0.045441
0.299866 0.174896 0.039429
0.335022 0.177826 0.037048
0.369019 0.180695 0.035492
0.402161 0.184998 0.033905
0.434082 0.187531 0.033142
0.463165 0.190247 0.033142
0.492004 0.192932 0.032349
0.520325 0.196136 0.031555
0.547974 0.199127 0.032318
0.575073 0.201660 0.032318
0.601868 0.204376 0.032318
0.628601 0.207764 0.031525
0.655029 0.210205 0.031525
0.682220 0.212952 0.030731
0.709534 0.216217 0.030731
0.736877 0.219269 0.029968
0.765778 0.222412 0.029968
0.794342 0.225861 0.029968
0.823303 0.229919 0.029175
0.852783 0.233429 0.029175
0.882812 0.237030 0.029175
0.911438 0.240387 0.028381
0.022858 0.108612 0.027588
0.025238 0.115356 0.031525
0.030731 0.117401 0.032318
0.040985 0.123993 0.034698
0.058044 0.140869 0.040985
0.083801 0.154907 0.044006
0.109711 0.163635 0.042511
0.132690 0.167023 0.046173
0.170776 0.169830 0.049652
0.207977 0.178253 0.054291
0.250671 0.190460 0.052979
0.295135 0.201080 0.048981
0.332947 0.205505 0.042511
0.368805 0.208160 0.038635
0.401978 0.209839 0.036285
0.434082 0.212402 0.034698
0.464661 0.215149 0.033905
0.494293 0.217133 0.033142
0.522583 0.219604 0.033905
0.549866 0.222229 0.033142
0.576843 0.224670 0.033905
0.604248 0.227386 0.033905
0.630859 0.230438 0.033142
0.657593 0.232758 0.033112
0.685059 0.235718 0.033112
0.712585 0.238647 0.032318
0.740387 0.241974 0.032318
0.768860 0.244965 0.032318
0.797577 0.247925 0.031525
0.827942 0.252167 0.031525
0.858032 0.256226 0.031525
0.887726 0.259735 0.031525
0.915741 0.263519 0.031525
0.026794 0.131195 0.035492
0.029175 0.139160 0.040222
0.033905 0.142548 0.041748
0.041748 0.144775 0.040985
0.056183 0.158203 0.045441
0.079559 0.176025 0.051025
0.108978 0.187958 0.050354
0.134186 0.195160 0.049652
0.167725 0.196747 0.048981
0.203400 0.196960 0.055573
0.241028 0.205688 0.058044
0.282898 0.217468 0.056824
0.328339 0.230255 0.053650
0.368347 0.236542 0.046875
0.402496 0.239288 0.041748
0.434692 0.240540 0.037842
0.466187 0.243256 0.037048
0.496368 0.244659 0.036255
0.524811 0.246063 0.035492
0.552521 0.248077 0.033905
0.578522 0.249146 0.034698
0.606171 0.251892 0.034698
0.632965 0.254578 0.034698
0.659821 0.256958 0.033905
0.687134 0.259460 0.033905
0.714844 0.262207 0.033905
0.743103 0.265381 0.033905
0.771606 0.268890 0.033142
0.801239 0.272369 0.033905
0.831573 0.276215 0.033905
0.861664 0.279846 0.033905
0.892059 0.283569 0.033112
0.920410 0.287354 0.033112
0.029175 0.154114 0.044739
0.033112 0.161682 0.048279
0.037842 0.166534 0.050354
0.044739 0.167969 0.048981
0.056824 0.177582 0.050354
0.078125 0.197144 0.055573
0.104156 0.210754 0.057434
0.132385 0.222412 0.057434
0.161194 0.227570 0.052979
0.204742 0.225525 0.053650
0.236053 0.224152 0.060455
0.274292 0.232605 0.062805
0.318878 0.246521 0.062225
0.362000 0.258728 0.060455
0.402588 0.267212 0.053650
0.437286 0.271820 0.048279
0.468048 0.273743 0.043243
0.498688 0.275391 0.040222
0.527649 0.276215 0.038635
0.555847 0.277283 0.037048
0.582397 0.278229 0.036255
0.609100 0.279572 0.035492
0.635742 0.281311 0.034698
0.662079 0.283173 0.033905
0.689178 0.285522 0.033905
0.717010 0.287872 0.033905
0.744965 0.290314 0.034698
0.774139 0.293762 0.034698
0.803650 0.297150 0.034698
0.834442 0.300354 0.034698
0.865082 0.304382 0.034698
0.896118 0.308014 0.034698
0.924133 0.311218 0.034698
0.035492 0.177582 0.052979
0.039429 0.185852 0.057434
0.044006 0.192719 0.060455
0.051025 0.194336 0.056824
0.061035 0.201080 0.056183
0.078613 0.218018 0.058655
0.101868 0.235229 0.062805
0.131805 0.247589 0.065643
0.155151 0.256805 0.065063
0.199921 0.260620 0.059845
0.240234 0.255768 0.061035
0.269592 0.252930 0.066193
0.309418 0.261780 0.068390
0.353027 0.274994 0.069458
0.397278 0.288513 0.066742
0.436890 0.298767 0.061035
0.470978 0.304382 0.054932
0.501251 0.307526 0.049652
0.529999 0.308838 0.044739
0.559052 0.310028 0.042511
0.586365 0.310394 0.040222
0.612427 0.311798 0.038635
0.639282 0.311554 0.037048
0.665527 0.312744 0.036255
0.692139 0.314026 0.034698
0.719299 0.316010 0.033905
0.747559 0.318085 0.034698
0.776978 0.320587 0.035492
0.806335 0.323334 0.035492
0.837128 0.327026 0.035492
0.867584 0.330322 0.036285
0.898529 0.333496 0.035492
0.926605 0.336304 0.035492
0.042511 0.201477 0.061035
0.046875 0.209656 0.065063
0.050354 0.218018 0.068939
0.057434 0.220490 0.065063
0.065643 0.226379 0.061066
0.080536 0.241028 0.062805
0.103760 0.260040 0.068390
0.132111 0.273468 0.072083
0.156433 0.284882 0.074646
0.175110 0.294006 0.073120
0.240875 0.295776 0.063385
0.278229 0.288513 0.068939
0.306335 0.283295 0.072601
0.346649 0.291595 0.074646
0.391083 0.305237 0.075165
0.432648 0.318756 0.073639
0.470825 0.329773 0.067841
0.503815 0.337158 0.062225
0.534546 0.341858 0.056183
0.561554 0.344482 0.051025
0.589417 0.345093 0.046173
0.616089 0.345825 0.043243
0.642975 0.346252 0.040985
0.668884 0.346039 0.039429
0.695831 0.347290 0.038635
0.722992 0.347809 0.037842
0.750824 0.348633 0.037048
0.779572 0.350159 0.036285
0.809082 0.352203 0.035492
0.838684 0.354126 0.035492
0.869385 0.357544 0.035492
0.901093 0.360443 0.035492
0.928802 0.363373 0.035492
0.049652 0.225525 0.069458
0.052338 0.234070 0.073639
0.056183 0.243561 0.078613
0.062805 0.250061 0.078613
0.073120 0.256073 0.071075
0.084717 0.268188 0.070007
0.108978 0.286316 0.075165
0.137421 0.300354 0.079102
0.163879 0.312378 0.083344
0.177826 0.322418 0.085602
0.220154 0.330536 0.077148
0.284760 0.330322 0.065094
0.316589 0.320038 0.076172
0.344788 0.314362 0.078613
0.386108 0.323334 0.080994
0.426758 0.335236 0.081482
0.467041 0.349243 0.079559
0.504150 0.361023 0.075653
0.537872 0.370148 0.070007
0.566528 0.376038 0.063385
0.593567 0.379120 0.056824
0.619354 0.380890 0.051666
0.646393 0.381348 0.046875
0.672791 0.382172 0.044739
0.699402 0.382355 0.043243
0.726349 0.382538 0.041748
0.754456 0.382904 0.040222
0.782867 0.383728 0.039429
0.811615 0.384277 0.038635
0.841309 0.385742 0.037842
0.872375 0.387848 0.036285
0.903931 0.389740 0.036285
0.930756 0.391876 0.036285
0.056183 0.253387 0.080536
0.059265 0.263092 0.085602
0.063385 0.273743 0.091736
0.069458 0.283051 0.095093
0.080536 0.287628 0.087402
0.092590 0.296631 0.079559
0.115692 0.313568 0.082397
0.144501 0.327362 0.086060
0.170319 0.338654 0.090454
0.187744 0.350372 0.093842
0.200104 0.360321 0.091736
0.273071 0.366302 0.078613
0.326904 0.361908 0.076660
0.355438 0.352295 0.082886
0.383545 0.346436 0.084717
0.421417 0.352905 0.086517
0.463379 0.366882 0.088287
0.501892 0.380249 0.086060
0.537231 0.391510 0.082397
0.569122 0.401917 0.077148
0.598541 0.409363 0.070526
0.625397 0.413818 0.063934
0.650330 0.415894 0.057434
0.676392 0.417633 0.052979
0.703156 0.418701 0.048981
0.730011 0.418610 0.046875
0.757538 0.418549 0.045441
0.786102 0.419098 0.044006
0.814484 0.419037 0.042511
0.843994 0.419434 0.040985
0.874664 0.420593 0.040222
0.905029 0.421570 0.038635
0.932343 0.421906 0.037079
0.063934 0.284485 0.093842
0.067841 0.294891 0.099518
0.073120 0.305847 0.105286
0.078125 0.317627 0.111847
0.090027 0.320129 0.104919
0.104156 0.328888 0.095490
0.122375 0.341736 0.090881
0.150452 0.355530 0.093842
0.176239 0.365234 0.097534
0.196136 0.376129 0.101074
0.202820 0.387573 0.102234
0.252167 0.396484 0.093842
0.323761 0.399994 0.077667
0.367462 0.394806 0.084717
0.395172 0.385468 0.089600
0.421722 0.379211 0.090881
0.458771 0.385284 0.092590
0.498474 0.397552 0.093842
0.535645 0.410278 0.092987
0.569183 0.422394 0.089600
0.600403 0.433350 0.084717
0.629486 0.441376 0.077637
0.656250 0.447418 0.071045
0.681335 0.451050 0.064514
0.706268 0.452759 0.058044
0.733185 0.454254 0.054291
0.760284 0.454102 0.051025
0.788361 0.454102 0.048981
0.816895 0.454346 0.046875
0.846588 0.454559 0.045441
0.877197 0.454865 0.044006
0.907196 0.455017 0.041748
0.933899 0.455292 0.040222
0.073639 0.316223 0.107880
0.078613 0.327118 0.113617
0.083801 0.338135 0.119415
0.089600 0.349548 0.125580
0.099518 0.353516 0.123993
0.113617 0.358337 0.114685
0.129669 0.370728 0.104156
0.154633 0.385010 0.102997
0.181335 0.393677 0.105286
0.203613 0.401917 0.108612
0.213135 0.412292 0.110779
0.234070 0.423279 0.108643
0.309418 0.430817 0.087402
0.370270 0.433685 0.082886
0.408173 0.427155 0.092590
0.433197 0.417542 0.095490
0.459137 0.411469 0.096710
0.493958 0.416718 0.097931
0.531952 0.428284 0.099915
0.567780 0.440765 0.099518
0.600830 0.453430 0.097107
0.630829 0.463593 0.091736
0.659485 0.472839 0.086060
0.686340 0.480103 0.079102
0.711914 0.484863 0.071564
0.737122 0.487671 0.064514
0.763458 0.489105 0.058655
0.791382 0.489624 0.054932
0.819763 0.490051 0.052338
0.848938 0.489838 0.050354
0.878723 0.489624 0.048279
0.908264 0.489441 0.046173
0.934998 0.491730 0.045441
0.084717 0.347687 0.121735
0.090027 0.358429 0.127472
0.095490 0.369598 0.133301
0.101074 0.380981 0.138885
0.108612 0.387756 0.141144
0.121399 0.387756 0.133911
0.136841 0.397278 0.124329
0.157440 0.413544 0.115021
0.183716 0.425049 0.114990
0.210022 0.431213 0.117401
0.222778 0.436981 0.118744
0.227234 0.447205 0.119080
0.288910 0.455536 0.106415
0.365234 0.464020 0.086090
0.416229 0.464325 0.092590
0.446289 0.457062 0.100311
0.468994 0.447418 0.101105
0.494141 0.442078 0.101868
0.526917 0.446442 0.103424
0.563995 0.458405 0.105286
0.597900 0.470062 0.104919
0.629974 0.482330 0.102631
0.660034 0.493347 0.098724
0.688477 0.503021 0.093414
0.715973 0.511505 0.086517
0.742493 0.517487 0.078613
0.768188 0.521759 0.070526
0.794128 0.522675 0.063385
0.822510 0.523987 0.058655
0.851135 0.524109 0.054932
0.880310 0.524292 0.052338
0.909454 0.524292 0.051025
0.935730 0.525238 0.048981
0.096710 0.380341 0.135956
0.101868 0.390991 0.141449
0.107147 0.402344 0.146973
0.112213 0.413879 0.152832
0.117401 0.423767 0.158447
0.129028 0.419373 0.151794
0.142853 0.424408 0.145630
0.157959 0.436096 0.134521
0.183289 0.457062 0.127502
0.212952 0.464752 0.126862
0.232758 0.467346 0.127472
0.234253 0.471558 0.127472
0.273193 0.478363 0.120758
0.354736 0.487671 0.095490
0.419189 0.494507 0.087860
0.457153 0.492950 0.102234
0.481995 0.486053 0.106415
0.504120 0.478394 0.107147
0.528015 0.473267 0.107910
0.559967 0.477631 0.109344
0.595428 0.487946 0.110443
0.627777 0.499298 0.109711
0.658691 0.511078 0.108276
0.688232 0.522522 0.105286
0.717255 0.533234 0.100311
0.745239 0.541962 0.093414
0.772766 0.549377 0.084717
0.798889 0.553741 0.076172
0.825073 0.555206 0.067841
0.853149 0.556763 0.061646
0.882080 0.557739 0.057434
0.910645 0.558075 0.054291
0.936401 0.558319 0.052979
0.108612 0.415314 0.150452
0.113617 0.425690 0.156433
0.118408 0.436584 0.162659
0.123352 0.448029 0.168427
0.127808 0.459290 0.173981
0.137146 0.454865 0.170074
0.149384 0.454254 0.163666
0.162415 0.461639 0.156708
0.183502 0.480591 0.143982
0.213867 0.498138 0.138306
0.241821 0.502686 0.137146
0.247925 0.501801 0.136566
0.258148 0.504272 0.131195
0.343292 0.510284 0.111145
0.416138 0.518890 0.081970
0.466614 0.525421 0.102997
0.495087 0.523010 0.111481
0.517426 0.517487 0.113281
0.538177 0.510742 0.113281
0.560822 0.505005 0.113617
0.591614 0.508881 0.114685
0.624542 0.517883 0.115021
0.656097 0.528717 0.115021
0.685852 0.539795 0.113281
0.716003 0.551270 0.110443
0.745026 0.562012 0.106049
0.773407 0.571259 0.098724
0.801941 0.579529 0.090027
0.829651 0.585114 0.081482
0.856262 0.587433 0.072083
0.884155 0.589630 0.064514
0.912415 0.590851 0.059845
0.937286 0.591858 0.056824
0.120422 0.451202 0.167236
0.124634 0.461548 0.172394
0.129333 0.472260 0.177826
0.134186 0.482880 0.183289
0.138580 0.493286 0.187958
0.146149 0.494965 0.188171
0.158203 0.489868 0.181366
0.170532 0.492218 0.174469
0.187958 0.504700 0.161957
0.216766 0.525970 0.152069
0.247772 0.537567 0.148346
0.260468 0.536682 0.145630
0.251892 0.534271 0.141449
0.333038 0.536621 0.124023
0.412048 0.543182 0.098724
0.467987 0.551208 0.099518
0.506409 0.555878 0.114655
0.530609 0.553406 0.118439
0.550964 0.548676 0.119415
0.571014 0.543365 0.119415
0.591766 0.536743 0.118774
0.621704 0.539917 0.119415
0.652649 0.547577 0.120087
0.683502 0.557953 0.120758
0.713379 0.568512 0.118774
0.743103 0.579742 0.115692
0.772980 0.590851 0.111847
0.802032 0.600739 0.104156
0.830750 0.608948 0.095490
0.858887 0.614929 0.085602
0.886932 0.619202 0.076660
0.913879 0.621063 0.068390
0.937317 0.622711 0.064514
0.130890 0.485291 0.181580
0.135376 0.495026 0.186707
0.140015 0.504791 0.191071
0.145325 0.514069 0.194946
0.150726 0.523376 0.199127
0.156677 0.530396 0.202057
0.168671 0.524567 0.196960
0.182434 0.525757 0.190277
0.199524 0.535095 0.176727
0.224487 0.553925 0.164856
0.253082 0.568268 0.160461
0.272919 0.571808 0.155945
0.260498 0.568787 0.151794
0.321503 0.566986 0.137451
0.408752 0.570129 0.105682
0.470184 0.577393 0.097137
0.512726 0.583832 0.112213
0.542114 0.587372 0.122711
0.563263 0.584625 0.124969
0.582672 0.580444 0.125610
0.602081 0.575134 0.125275
0.622864 0.569122 0.124664
0.650574 0.570801 0.124969
0.679840 0.577209 0.124969
0.710236 0.587219 0.125275
0.740326 0.597229 0.124329
0.771179 0.608704 0.121399
0.801239 0.619507 0.117401
0.830231 0.629089 0.110413
0.858459 0.637390 0.101074
0.887848 0.644012 0.089600
0.915222 0.648529 0.080994
0.938019 0.650665 0.075653
0.142303 0.516052 0.194153
0.147247 0.524536 0.198151
0.152557 0.533325 0.202240
0.158447 0.541687 0.206085
0.163879 0.550140 0.208923
0.169617 0.558777 0.211334
0.179138 0.553009 0.209656
0.193542 0.554260 0.204773
0.215515 0.566589 0.191284
0.237030 0.582336 0.177155
0.260468 0.597565 0.170319
0.281433 0.605804 0.165100
0.282928 0.603699 0.161713
0.297150 0.600189 0.151794
0.400238 0.599670 0.121735
0.468842 0.603943 0.091736
0.516083 0.610748 0.107513
0.549744 0.616882 0.123352
0.574585 0.618805 0.130280
0.594635 0.616180 0.131805
0.613251 0.611877 0.131500
0.632294 0.606232 0.131500
0.653107 0.600983 0.130585
0.679352 0.602173 0.130890
0.707703 0.607300 0.130585
0.737732 0.616089 0.130280
0.768036 0.626099 0.129974
0.798920 0.637207 0.127808
0.827972 0.647369 0.123688
0.858459 0.657623 0.116364
0.887085 0.665741 0.106049
0.914886 0.672241 0.096710
0.939026 0.675812 0.090027
0.154907 0.542969 0.204956
0.160706 0.551086 0.208710
0.166534 0.559235 0.212067
0.172150 0.567047 0.214447
0.177826 0.574738 0.216766
0.183716 0.582458 0.219269
0.191498 0.580292 0.218201
0.204742 0.578430 0.217133
0.224335 0.588440 0.211151
0.248535 0.607819 0.196564
0.269867 0.625732 0.183746
0.288635 0.636963 0.174927
0.295410 0.637878 0.170074
0.278534 0.634979 0.164398
0.372345 0.631744 0.142853
0.458191 0.632050 0.105286
0.514069 0.637238 0.099915
0.553162 0.644592 0.118744
0.582642 0.649017 0.131805
0.605560 0.650482 0.136871
0.625336 0.647675 0.138306
0.644135 0.643066 0.138306
0.662689 0.637238 0.137146
0.682709 0.632233 0.136871
0.708435 0.632629 0.137726
0.736389 0.637390 0.137451
0.765198 0.645172 0.137146
0.795654 0.654602 0.137146
0.825867 0.664917 0.135101
0.856140 0.675568 0.130890
0.885803 0.685364 0.123688
0.913940 0.692871 0.113953
0.938293 0.697601 0.106781
0.169159 0.567902 0.214630
0.174896 0.575470 0.216766
0.180450 0.583130 0.219086
0.185425 0.590546 0.221558
0.190857 0.598053 0.223999
0.195953 0.605652 0.225189
0.202637 0.608856 0.226746
0.215881 0.603912 0.227234
0.230255 0.608276 0.227234
0.251587 0.622314 0.223297
0.276611 0.647247 0.209473
0.296387 0.664734 0.192719
0.306458 0.669525 0.182220
0.294159 0.667297 0.176025
0.330658 0.664246 0.162201
0.434448 0.661926 0.129059
0.502747 0.664368 0.094696
0.550720 0.670380 0.108978
0.586151 0.676880 0.128113
0.614471 0.681213 0.139740
0.636536 0.679260 0.143677
0.655457 0.675537 0.144806
0.673462 0.671539 0.144806
0.692017 0.667297 0.144531
0.712372 0.662964 0.144257
0.736389 0.663239 0.145355
0.764282 0.667175 0.146973
0.792999 0.673828 0.146973
0.822479 0.682922 0.146454
0.852509 0.692810 0.143982
0.883148 0.702728 0.138885
0.912140 0.712128 0.131805
0.936890 0.717926 0.124969
0.182220 0.591187 0.221558
0.187531 0.598480 0.223999
0.192719 0.606079 0.226410
0.196960 0.613708 0.228088
0.201080 0.621216 0.229279
0.205322 0.628937 0.230286
0.209290 0.636810 0.231628
0.224335 0.630707 0.236053
0.237671 0.631989 0.238159
0.251129 0.636963 0.241058
0.274292 0.656250 0.241364
0.300720 0.683411 0.226898
0.315552 0.697052 0.205719
0.312164 0.698364 0.193146
0.299896 0.695496 0.179810
0.400757 0.693542 0.155670
0.483002 0.693146 0.117737
0.541687 0.696350 0.099121
0.585052 0.702789 0.120422
0.619568 0.708008 0.139740
0.646179 0.710114 0.148346
0.666168 0.708130 0.151276
0.684692 0.704895 0.152588
0.703217 0.701843 0.153351
0.722168 0.698792 0.154144
0.741058 0.695007 0.154144
0.764313 0.693665 0.156189
0.792053 0.696442 0.158478
0.820465 0.702484 0.159485
0.848907 0.710266 0.157196
0.879669 0.720612 0.154144
0.908752 0.729706 0.148346
0.935028 0.736664 0.142303
0.193542 0.614471 0.228424
0.197540 0.621704 0.230621
0.201691 0.628845 0.231445
0.205322 0.636536 0.232605
0.209106 0.644165 0.233948
0.212799 0.651855 0.235565
0.216431 0.659485 0.236542
0.228241 0.657166 0.240234
0.243073 0.655853 0.244995
0.255341 0.657349 0.248840
0.270020 0.663605 0.254456
0.296631 0.688538 0.258728
0.320038 0.714874 0.242950
0.325592 0.726654 0.222260
0.300385 0.727325 0.203430
0.376892 0.724854 0.179810
0.464325 0.723328 0.146179
0.529236 0.724060 0.106049
0.579437 0.728302 0.108978
0.620117 0.734314 0.135681
0.651855 0.738953 0.150208
0.676849 0.740326 0.157715
0.696320 0.738831 0.161224
0.714966 0.737122 0.163666
0.733582 0.735474 0.165833
0.751007 0.731110 0.167511
0.769196 0.725983 0.168457
0.792114 0.723297 0.170563
0.818970 0.724884 0.172638
0.846466 0.729279 0.171234
0.875183 0.736786 0.167725
0.905548 0.747040 0.163666
0.931915 0.753967 0.158966
0.201874 0.636963 0.233948
0.205322 0.644348 0.234924
0.209106 0.651642 0.236542
0.212616 0.659088 0.238495
0.216064 0.666748 0.240234
0.219635 0.674561 0.240234
0.223297 0.682190 0.240234
0.231781 0.683960 0.243744
0.247284 0.678986 0.248688
0.260193 0.679688 0.252502
0.272919 0.682587 0.256378
0.292877 0.696320 0.268646
0.319214 0.721649 0.274445
0.333191 0.743225 0.259460
0.318909 0.754089 0.239136
0.362091 0.756317 0.210968
0.457581 0.755737 0.176025
0.524811 0.755310 0.134521
0.575928 0.758026 0.106049
0.618195 0.761719 0.126221
0.654236 0.767212 0.150208
