Kodak Vision2 100T (5212) - Only contrast.cube
# Created by Benjamin (IWLTBAP) : http://luts.iwltbap.com
# Copyright: (C) Copyright 2010-2017 Triune Films and IWLTBAP SAS
# Cannot be resold, shared or otherwise redistributed
TITLE "Film Print Emulation LUTs Pack (Rec.709, sRGB, DCI-P3)"
LUT_3D_SIZE 9
0.000000 0.000000 0.000000
0.089142 0.000000 0.000000
0.192810 0.000000 0.000000
0.321838 0.000000 0.000000
0.459686 0.000000 0.000000
0.593781 0.000000 0.000000
0.727020 0.000000 0.000000
0.861328 0.000000 0.000000
0.995758 0.000000 0.000000
0.000000 0.089142 0.000000
0.089142 0.089142 0.000000
0.193024 0.089081 0.000000
0.322174 0.088806 0.000000
0.460022 0.088501 0.000000
0.594086 0.088196 0.000000
0.727356 0.087921 0.000000
0.861633 0.087646 0.000000
0.996063 0.087341 0.000000
0.000000 0.192810 0.000000
0.089081 0.193024 0.000000
0.193146 0.193146 0.000000
0.322388 0.193085 0.000000
0.460236 0.192963 0.000000
0.594299 0.192902 0.000000
0.727539 0.192810 0.000000
0.861847 0.192719 0.000000
0.996277 0.192657 0.000000
0.000000 0.321838 0.000000
0.088806 0.322174 0.000000
0.193085 0.322388 0.000000
0.322449 0.322449 0.000000
0.460297 0.322418 0.000000
0.594299 0.322449 0.000000
0.727570 0.322479 0.000000
0.861877 0.322510 0.000000
0.996307 0.322510 0.000000
0.000000 0.459686 0.000000
0.088501 0.460022 0.000000
0.192963 0.460236 0.000000
0.322418 0.460297 0.000000
0.460266 0.460266 0.000000
0.594269 0.460297 0.000000
0.727539 0.460327 0.000000
0.861847 0.460327 0.000000
0.996277 0.460358 0.000000
0.000000 0.593781 0.000000
0.088196 0.594086 0.000000
0.192902 0.594299 0.000000
0.322449 0.594299 0.000000
0.460297 0.594269 0.000000
0.594269 0.594269 0.000000
0.727539 0.594269 0.000000
0.861877 0.594269 0.000000
0.996277 0.594269 0.000000
0.000000 0.727020 0.000000
0.087921 0.727356 0.000000
0.192810 0.727539 0.000000
0.322479 0.727570 0.000000
0.460327 0.727539 0.000000
0.594269 0.727539 0.000000
0.727570 0.727570 0.000000
0.861877 0.727570 0.000000
0.996277 0.727539 0.000000
0.000000 0.861328 0.000000
0.087646 0.861633 0.000000
0.192719 0.861847 0.000000
0.322510 0.861877 0.000000
0.460327 0.861847 0.000000
0.594269 0.861877 0.000000
0.727570 0.861877 0.000000
0.861877 0.861877 0.000000
0.996277 0.861877 0.000000
0.000000 0.995758 0.000000
0.087341 0.996063 0.000000
0.192657 0.996277 0.000000
0.322510 0.996307 0.000000
0.460358 0.996277 0.000000
0.594269 0.996277 0.000000
0.727539 0.996277 0.000000
0.861877 0.996277 0.000000
0.996338 0.996155 0.011871
0.000000 0.000000 0.089142
0.089142 0.000000 0.089142
0.193024 0.000000 0.089081
0.322174 0.000000 0.088806
0.460022 0.000000 0.088501
0.594086 0.000000 0.088196
0.727356 0.000000 0.087921
0.861633 0.000000 0.087646
0.996063 0.000000 0.087341
0.000000 0.089142 0.089142
0.089172 0.089172 0.089172
0.193237 0.089081 0.089081
0.322479 0.088837 0.088837
0.460327 0.088501 0.088501
0.594391 0.088226 0.088226
0.727661 0.087952 0.087952
0.861938 0.087677 0.087677
0.996368 0.087372 0.087372
0.000000 0.193024 0.089081
0.089081 0.193237 0.089081
0.193359 0.193359 0.088989
0.322723 0.193298 0.088745
0.460571 0.193207 0.088440
0.594604 0.193115 0.088135
0.727844 0.193024 0.087860
0.862152 0.192963 0.087585
0.996582 0.192871 0.087280
0.000000 0.322174 0.088806
0.088837 0.322479 0.088837
0.193298 0.322723 0.088745
0.322754 0.322754 0.088501
0.460602 0.322754 0.088165
0.594604 0.322784 0.087891
0.727875 0.322815 0.087616
0.862183 0.322845 0.087311
0.996613 0.322845 0.087036
0.000000 0.460022 0.088501
0.088501 0.460327 0.088501
0.193207 0.460571 0.088440
0.322754 0.460602 0.088165
0.460602 0.460602 0.087860
0.594574 0.460602 0.087585
0.727844 0.460632 0.087311
0.862183 0.460663 0.087006
0.996582 0.460663 0.086731
0.000000 0.594086 0.088196
0.088226 0.594391 0.088226
0.193115 0.594604 0.088135
0.322784 0.594604 0.087891
0.460602 0.594574 0.087585
0.594574 0.594574 0.087311
0.727844 0.594574 0.087006
0.862183 0.594574 0.086731
0.996582 0.594574 0.086456
0.000000 0.727356 0.087921
0.087952 0.727661 0.087952
0.193024 0.727844 0.087860
0.322815 0.727875 0.087616
0.460632 0.727844 0.087311
0.594574 0.727844 0.087006
0.727875 0.727875 0.086731
0.862183 0.727875 0.086456
0.996582 0.727844 0.086182
0.000000 0.861633 0.087646
0.087677 0.861938 0.087677
0.192963 0.862152 0.087585
0.322845 0.862183 0.087311
0.460663 0.862183 0.087006
0.594574 0.862183 0.086731
0.727875 0.862183 0.086456
0.862183 0.862183 0.086182
0.996582 0.862183 0.085907
0.000000 0.996063 0.087341
0.087372 0.996368 0.087372
0.192871 0.996582 0.087280
0.322845 0.996613 0.087036
0.460663 0.996582 0.086731
0.594574 0.996582 0.086456
0.727844 0.996582 0.086182
0.862183 0.996582 0.085907
0.996582 0.996582 0.085632
0.000000 0.000000 0.192810
0.089081 0.000000 0.193024
0.193146 0.000000 0.193146
0.322388 0.000000 0.193085
0.460236 0.000000 0.192963
0.594299 0.000000 0.192902
0.727539 0.000000 0.192810
0.861847 0.000000 0.192719
0.996277 0.000000 0.192657
0.000000 0.089081 0.193024
0.089081 0.089081 0.193237
0.193359 0.088989 0.193359
0.322723 0.088745 0.193298
0.460571 0.088440 0.193207
0.594604 0.088135 0.193115
0.727844 0.087860 0.193024
0.862152 0.087585 0.192963
0.996582 0.087280 0.192871
0.000000 0.193146 0.193146
0.088989 0.193359 0.193359
0.193481 0.193481 0.193481
0.322937 0.193420 0.193420
0.460785 0.193329 0.193329
0.594788 0.193237 0.193237
0.728058 0.193146 0.193146
0.862366 0.193085 0.193085
0.996765 0.192993 0.192993
0.000000 0.322388 0.193085
0.088745 0.322723 0.193298
0.193420 0.322937 0.193420
0.322998 0.322998 0.193359
0.460815 0.322968 0.193268
0.594818 0.322998 0.193176
0.728088 0.323029 0.193115
0.862396 0.323059 0.193024
0.996796 0.323059 0.192932
0.000000 0.460236 0.192963
0.088440 0.460571 0.193207
0.193329 0.460785 0.193329
0.322968 0.460815 0.193268
0.460815 0.460815 0.193146
0.594788 0.460815 0.193085
0.728058 0.460846 0.192993
0.862366 0.460846 0.192902
0.996765 0.460876 0.192841
0.000000 0.594299 0.192902
0.088135 0.594604 0.193115
0.193237 0.594788 0.193237
0.322998 0.594818 0.193176
0.460815 0.594788 0.193085
0.594757 0.594757 0.192993
0.728058 0.594757 0.192932
0.862366 0.594757 0.192841
0.996765 0.594757 0.192749
0.000000 0.727539 0.192810
0.087860 0.727844 0.193024
0.193146 0.728058 0.193146
0.323029 0.728088 0.193115
0.460846 0.728058 0.192993
0.594757 0.728058 0.192932
0.728058 0.728058 0.192841
0.862396 0.728058 0.192780
0.996765 0.728058 0.192688
0.000000 0.861847 0.192719
0.087585 0.862152 0.192963
0.193085 0.862366 0.193085
0.323059 0.862396 0.193024
0.460846 0.862366 0.192902
0.594757 0.862366 0.192841
0.728058 0.862396 0.192780
0.862396 0.862396 0.192688
0.996765 0.862396 0.192627
0.000000 0.996277 0.192657
0.087280 0.996582 0.192871
0.192993 0.996765 0.192993
0.323059 0.996796 0.192932
0.460876 0.996765 0.192841
0.594757 0.996765 0.192749
0.728058 0.996765 0.192688
0.862396 0.996765 0.192627
0.996765 0.996765 0.192535
0.000000 0.000000 0.321838
0.088806 0.000000 0.322174
0.193085 0.000000 0.322388
0.322449 0.000000 0.322449
0.460297 0.000000 0.322418
0.594299 0.000000 0.322449
0.727570 0.000000 0.322479
0.861877 0.000000 0.322510
0.996307 0.000000 0.322510
0.000000 0.088806 0.322174
0.088837 0.088837 0.322479
0.193298 0.088745 0.322723
0.322754 0.088501 0.322754
0.460602 0.088165 0.322754
0.594604 0.087891 0.322784
0.727875 0.087616 0.322815
0.862183 0.087311 0.322845
0.996613 0.087036 0.322845
0.000000 0.193085 0.322388
0.088745 0.193298 0.322723
0.193420 0.193420 0.322937
0.322998 0.193359 0.322998
0.460815 0.193268 0.322968
0.594818 0.193176 0.322998
0.728088 0.193115 0.323029
0.862396 0.193024 0.323059
0.996796 0.192932 0.323059
0.000000 0.322449 0.322449
0.088501 0.322754 0.322754
0.193359 0.322998 0.322998
0.323029 0.323029 0.323029
0.460876 0.323029 0.323029
0.594818 0.323059 0.323059
0.728088 0.323090 0.323090
0.862427 0.323090 0.323090
0.996826 0.323120 0.323120
0.000000 0.460297 0.322418
0.088165 0.460602 0.322754
0.193268 0.460815 0.322968
0.323029 0.460876 0.323029
0.460846 0.460846 0.323029
0.594788 0.460876 0.323059
0.728088 0.460876 0.323090
0.862396 0.460907 0.323090
0.996796 0.460907 0.323120
0.000000 0.594299 0.322449
0.087891 0.594604 0.322784
0.193176 0.594818 0.322998
0.323059 0.594818 0.323059
0.460876 0.594788 0.323059
0.594788 0.594788 0.323059
0.728088 0.594788 0.323090
0.862396 0.594788 0.323120
0.996796 0.594788 0.323151
0.000000 0.727570 0.322479
0.087616 0.727875 0.322815
0.193115 0.728088 0.323029
0.323090 0.728088 0.323090
0.460876 0.728088 0.323090
0.594788 0.728088 0.323090
0.728088 0.728088 0.323120
0.862427 0.728088 0.323151
0.996796 0.728058 0.323181
0.000000 0.861877 0.322510
0.087311 0.862183 0.322845
0.193024 0.862396 0.323059
0.323090 0.862427 0.323090
0.460907 0.862396 0.323090
0.594788 0.862396 0.323120
0.728088 0.862427 0.323151
0.862427 0.862427 0.323181
0.996796 0.862427 0.323181
0.000000 0.996307 0.322510
0.087036 0.996613 0.322845
0.192932 0.996796 0.323059
0.323120 0.996826 0.323120
0.460907 0.996796 0.323120
0.594788 0.996796 0.323151
0.728058 0.996796 0.323181
0.862427 0.996796 0.323181
0.996796 0.996796 0.323212
0.000000 0.000000 0.459686
0.088501 0.000000 0.460022
0.192963 0.000000 0.460236
0.322418 0.000000 0.460297
0.460266 0.000000 0.460266
0.594269 0.000000 0.460297
0.727539 0.000000 0.460327
0.861847 0.000000 0.460327
0.996277 0.000000 0.460358
0.000000 0.088501 0.460022
0.088501 0.088501 0.460327
0.193207 0.088440 0.460571
0.322754 0.088165 0.460602
0.460602 0.087860 0.460602
0.594574 0.087585 0.460602
0.727844 0.087311 0.460632
0.862183 0.087006 0.460663
0.996582 0.086731 0.460663
0.000000 0.192963 0.460236
0.088440 0.193207 0.460571
0.193329 0.193329 0.460785
0.322968 0.193268 0.460815
0.460815 0.193146 0.460815
0.594788 0.193085 0.460815
0.728058 0.192993 0.460846
0.862366 0.192902 0.460846
0.996765 0.192841 0.460876
0.000000 0.322418 0.460297
0.088165 0.322754 0.460602
0.193268 0.322968 0.460815
0.323029 0.323029 0.460876
0.460846 0.323029 0.460846
0.594788 0.323059 0.460876
0.728088 0.323090 0.460876
0.862396 0.323090 0.460907
0.996796 0.323120 0.460907
0.000000 0.460266 0.460266
0.087860 0.460602 0.460602
0.193146 0.460815 0.460815
0.323029 0.460846 0.460846
0.460846 0.460846 0.460846
0.594757 0.460846 0.460846
0.728058 0.460876 0.460876
0.862366 0.460876 0.460876
0.996765 0.460907 0.460907
0.000000 0.594269 0.460297
0.087585 0.594574 0.460602
0.193085 0.594788 0.460815
0.323059 0.594788 0.460876
0.460846 0.594757 0.460846
0.594757 0.594757 0.460876
0.728058 0.594757 0.460876
0.862396 0.594757 0.460907
0.996765 0.594757 0.460907
0.000000 0.727539 0.460327
0.087311 0.727844 0.460632
0.192993 0.728058 0.460846
0.323090 0.728088 0.460876
0.460876 0.728058 0.460876
0.594757 0.728058 0.460876
0.728058 0.728058 0.460907
0.862396 0.728058 0.460907
0.996765 0.728058 0.460907
0.000000 0.861847 0.460327
0.087006 0.862183 0.460663
0.192902 0.862366 0.460846
0.323090 0.862396 0.460907
0.460876 0.862366 0.460876
0.594757 0.862396 0.460907
0.728058 0.862396 0.460907
0.862396 0.862396 0.460907
0.996765 0.862396 0.460938
0.000000 0.996277 0.460358
0.086731 0.996582 0.460663
0.192841 0.996765 0.460876
0.323120 0.996796 0.460907
0.460907 0.996765 0.460907
0.594757 0.996765 0.460907
0.728058 0.996765 0.460907
0.862396 0.996765 0.460938
0.996765 0.996765 0.460938
0.000000 0.000000 0.593781
0.088196 0.000000 0.594086
0.192902 0.000000 0.594299
0.322449 0.000000 0.594299
0.460297 0.000000 0.594269
0.594269 0.000000 0.594269
0.727539 0.000000 0.594269
0.861877 0.000000 0.594269
0.996277 0.000000 0.594269
0.000000 0.088196 0.594086
0.088226 0.088226 0.594391
0.193115 0.088135 0.594604
0.322784 0.087891 0.594604
0.460602 0.087585 0.594574
0.594574 0.087311 0.594574
0.727844 0.087006 0.594574
0.862183 0.086731 0.594574
0.996582 0.086456 0.594574
0.000000 0.192902 0.594299
0.088135 0.193115 0.594604
0.193237 0.193237 0.594788
0.322998 0.193176 0.594818
0.460815 0.193085 0.594788
0.594757 0.192993 0.594757
0.728058 0.192932 0.594757
0.862366 0.192841 0.594757
0.996765 0.192749 0.594757
0.000000 0.322449 0.594299
0.087891 0.322784 0.594604
0.193176 0.322998 0.594818
0.323059 0.323059 0.594818
0.460876 0.323059 0.594788
0.594788 0.323059 0.594788
0.728088 0.323090 0.594788
0.862396 0.323120 0.594788
0.996796 0.323151 0.594788
0.000000 0.460297 0.594269
0.087585 0.460602 0.594574
0.193085 0.460815 0.594788
0.323059 0.460876 0.594788
0.460846 0.460846 0.594757
0.594757 0.460876 0.594757
0.728058 0.460876 0.594757
0.862396 0.460907 0.594757
0.996765 0.460907 0.594757
0.000000 0.594269 0.594269
0.087311 0.594574 0.594574
0.192993 0.594757 0.594757
0.323059 0.594788 0.594788
0.460876 0.594757 0.594757
0.594757 0.594757 0.594757
0.728058 0.594757 0.594757
0.862396 0.594757 0.594757
0.996765 0.594727 0.594727
0.000000 0.727539 0.594269
0.087006 0.727844 0.594574
0.192932 0.728058 0.594757
0.323090 0.728088 0.594788
0.460876 0.728058 0.594757
0.594757 0.728058 0.594757
0.728058 0.728058 0.594757
0.862396 0.728058 0.594757
0.996765 0.728058 0.594727
0.000000 0.861877 0.594269
0.086731 0.862183 0.594574
0.192841 0.862366 0.594757
0.323120 0.862396 0.594788
0.460907 0.862396 0.594757
0.594757 0.862396 0.594757
0.728058 0.862396 0.594757
0.862396 0.862396 0.594727
0.996765 0.862396 0.594727
0.000000 0.996277 0.594269
0.086456 0.996582 0.594574
0.192749 0.996765 0.594757
0.323151 0.996796 0.594788
0.460907 0.996765 0.594757
0.594727 0.996765 0.594727
0.728058 0.996765 0.594727
0.862396 0.996765 0.594727
0.996765 0.996765 0.594727
0.000000 0.000000 0.727020
0.087921 0.000000 0.727356
0.192810 0.000000 0.727539
0.322479 0.000000 0.727570
0.460327 0.000000 0.727539
0.594269 0.000000 0.727539
0.727570 0.000000 0.727570
0.861877 0.000000 0.727570
0.996277 0.000000 0.727539
0.000000 0.087921 0.727356
0.087952 0.087952 0.727661
0.193024 0.087860 0.727844
0.322815 0.087616 0.727875
0.460632 0.087311 0.727844
0.594574 0.087006 0.727844
0.727875 0.086731 0.727875
0.862183 0.086456 0.727875
0.996582 0.086182 0.727844
0.000000 0.192810 0.727539
0.087860 0.193024 0.727844
0.193146 0.193146 0.728058
0.323029 0.193115 0.728088
0.460846 0.192993 0.728058
0.594757 0.192932 0.728058
0.728058 0.192841 0.728058
0.862396 0.192780 0.728058
0.996765 0.192688 0.728058
0.000000 0.322479 0.727570
0.087616 0.322815 0.727875
0.193115 0.323029 0.728088
0.323090 0.323090 0.728088
0.460876 0.323090 0.728088
0.594788 0.323090 0.728088
0.728088 0.323120 0.728088
0.862427 0.323151 0.728088
0.996796 0.323181 0.728058
0.000000 0.460327 0.727539
0.087311 0.460632 0.727844
0.192993 0.460846 0.728058
0.323090 0.460876 0.728088
0.460876 0.460876 0.728058
0.594757 0.460876 0.728058
0.728058 0.460907 0.728058
0.862396 0.460907 0.728058
0.996765 0.460907 0.728058
0.000000 0.594269 0.727539
0.087006 0.594574 0.727844
0.192932 0.594757 0.728058
0.323090 0.594788 0.728088
0.460876 0.594757 0.728058
0.594757 0.594757 0.728058
0.728058 0.594757 0.728058
0.862396 0.594757 0.728058
0.996765 0.594727 0.728058
0.000000 0.727570 0.727570
0.086731 0.727875 0.727875
0.192841 0.728058 0.728058
0.323120 0.728088 0.728088
0.460907 0.728058 0.728058
0.594757 0.728058 0.728058
0.728058 0.728058 0.728058
0.862396 0.728058 0.728058
0.996765 0.728058 0.728058
0.000000 0.861877 0.727570
0.086456 0.862183 0.727875
0.192780 0.862396 0.728058
0.323151 0.862427 0.728088
0.460907 0.862396 0.728058
0.594757 0.862396 0.728058
0.728058 0.862396 0.728058
0.862396 0.862396 0.728058
0.996765 0.862427 0.728058
0.000000 0.996277 0.727539
0.086182 0.996582 0.727844
0.192688 0.996765 0.728058
0.323181 0.996796 0.728058
0.460907 0.996765 0.728058
0.594727 0.996765 0.728058
0.728058 0.996765 0.728058
0.862427 0.996765 0.728058
0.996765 0.996765 0.728027
0.000000 0.000000 0.861328
0.087646 0.000000 0.861633
0.192719 0.000000 0.861847
0.322510 0.000000 0.861877
0.460327 0.000000 0.861847
0.594269 0.000000 0.861877
0.727570 0.000000 0.861877
0.861877 0.000000 0.861877
0.996277 0.000000 0.861877
0.000000 0.087646 0.861633
0.087677 0.087677 0.861938
0.192963 0.087585 0.862152
0.322845 0.087311 0.862183
0.460663 0.087006 0.862183
0.594574 0.086731 0.862183
0.727875 0.086456 0.862183
0.862183 0.086182 0.862183
0.996582 0.085907 0.862183
0.000000 0.192719 0.861847
0.087585 0.192963 0.862152
0.193085 0.193085 0.862366
0.323059 0.193024 0.862396
0.460846 0.192902 0.862366
0.594757 0.192841 0.862366
0.728058 0.192780 0.862396
0.862396 0.192688 0.862396
0.996765 0.192627 0.862396
0.000000 0.322510 0.861877
0.087311 0.322845 0.862183
0.193024 0.323059 0.862396
0.323090 0.323090 0.862427
0.460907 0.323090 0.862396
0.594788 0.323120 0.862396
0.728088 0.323151 0.862427
0.862427 0.323181 0.862427
0.996796 0.323181 0.862427
0.000000 0.460327 0.861847
0.087006 0.460663 0.862183
0.192902 0.460846 0.862366
0.323090 0.460907 0.862396
0.460876 0.460876 0.862366
0.594757 0.460907 0.862396
0.728058 0.460907 0.862396
0.862396 0.460907 0.862396
0.996765 0.460938 0.862396
0.000000 0.594269 0.861877
0.086731 0.594574 0.862183
0.192841 0.594757 0.862366
0.323120 0.594788 0.862396
0.460907 0.594757 0.862396
0.594757 0.594757 0.862396
0.728058 0.594757 0.862396
0.862396 0.594727 0.862396
0.996765 0.594727 0.862396
0.000000 0.727570 0.861877
0.086456 0.727875 0.862183
0.192780 0.728058 0.862396
0.323151 0.728088 0.862427
0.460907 0.728058 0.862396
0.594757 0.728058 0.862396
0.728058 0.728058 0.862396
0.862396 0.728058 0.862396
0.996765 0.728058 0.862427
0.000000 0.861877 0.861877
0.086182 0.862183 0.862183
0.192688 0.862396 0.862396
0.323181 0.862427 0.862427
0.460907 0.862396 0.862396
0.594727 0.862396 0.862396
0.728058 0.862396 0.862396
0.862427 0.862427 0.862427
0.996765 0.862427 0.862427
0.000000 0.996277 0.861877
0.085907 0.996582 0.862183
0.192627 0.996765 0.862396
0.323181 0.996796 0.862427
0.460938 0.996765 0.862396
0.594727 0.996765 0.862396
0.728058 0.996765 0.862427
0.862427 0.996765 0.862427
0.996765 0.996765 0.862427
0.000000 0.000000 0.995667
0.087341 0.000000 0.996063
0.192657 0.000000 0.996277
0.322510 0.000000 0.996307
0.460358 0.000000 0.996277
0.594269 0.000000 0.996277
0.727539 0.000000 0.996277
0.861877 0.000000 0.996277
0.996277 0.000000 0.996277
0.000000 0.087341 0.996063
0.087372 0.087372 0.996368
0.192871 0.087280 0.996582
0.322845 0.087036 0.996613
0.460663 0.086731 0.996582
0.594574 0.086456 0.996582
0.727844 0.086182 0.996582
0.862183 0.085907 0.996582
0.996582 0.085632 0.996582
0.000000 0.192657 0.996277
0.087280 0.192871 0.996582
0.192993 0.192993 0.996765
0.323059 0.192932 0.996796
0.460876 0.192841 0.996765
0.594757 0.192749 0.996765
0.728058 0.192688 0.996765
0.862396 0.192627 0.996765
0.996765 0.192535 0.996765
0.000000 0.322510 0.996307
0.087036 0.322845 0.996613
0.192932 0.323059 0.996796
0.323120 0.323120 0.996826
0.460907 0.323120 0.996796
0.594788 0.323151 0.996796
0.728058 0.323181 0.996796
0.862427 0.323181 0.996796
0.996796 0.323212 0.996796
0.000000 0.460358 0.996277
0.086731 0.460663 0.996582
0.192841 0.460876 0.996765
0.323120 0.460907 0.996796
0.460907 0.460907 0.996765
0.594757 0.460907 0.996765
0.728058 0.460907 0.996765
0.862396 0.460938 0.996765
0.996765 0.460938 0.996765
0.000000 0.594269 0.996277
0.086456 0.594574 0.996582
0.192749 0.594757 0.996765
0.323151 0.594788 0.996796
0.460907 0.594757 0.996765
0.594727 0.594727 0.996765
0.728058 0.594727 0.996765
0.862396 0.594727 0.996765
0.996765 0.594727 0.996765
0.000000 0.727539 0.996277
0.086182 0.727844 0.996582
0.192688 0.728058 0.996765
0.323181 0.728058 0.996796
0.460907 0.728058 0.996765
0.594727 0.728058 0.996765
0.728058 0.728058 0.996765
0.862427 0.728058 0.996765
0.996765 0.728027 0.996765
0.000000 0.861877 0.996277
0.085907 0.862183 0.996582
0.192627 0.862396 0.996765
0.323181 0.862427 0.996796
0.460938 0.862396 0.996765
0.594727 0.862396 0.996765
0.728058 0.862427 0.996765
0.862427 0.862427 0.996765
0.996765 0.862427 0.996765
0.000000 0.996277 0.996277
0.085632 0.996582 0.996582
0.192535 0.996765 0.996765
0.323212 0.996796 0.996796
0.460938 0.996765 0.996765
0.594727 0.996765 0.996765
0.728027 0.996765 0.996765
0.862427 0.996765 0.996765
0.996765 0.996765 0.996765
