Kodak Vision 800T (5289) - Only color.cube
# Created by Benjamin (IWLTBAP) : http://luts.iwltbap.com
# Copyright: (C) Copyright 2010-2017 Triune Films and IWLTBAP SAS
# Cannot be resold, shared or otherwise redistributed
TITLE "Film Print Emulation LUTs Pack (Rec.709, sRGB, DCI-P3)"
LUT_3D_SIZE 33
0.000000 0.000000 0.000000
0.017822 0.000519 0.024658
0.063812 0.004852 0.020416
0.093628 0.009674 0.020630
0.120148 0.014130 0.020844
0.148376 0.019470 0.022552
0.180237 0.020660 0.025818
0.210236 0.020630 0.029022
0.237366 0.020569 0.032196
0.265137 0.017334 0.038300
0.293488 0.012512 0.042786
0.319214 0.013000 0.051331
0.343597 0.014069 0.060486
0.368561 0.015808 0.074493
0.392334 0.016968 0.087158
0.416779 0.018829 0.099182
0.441620 0.020111 0.112671
0.465942 0.022095 0.124939
0.488953 0.024200 0.135956
0.513062 0.026428 0.147491
0.537598 0.028748 0.157623
0.563629 0.031219 0.167725
0.590698 0.034485 0.176819
0.619019 0.036957 0.187531
0.648407 0.040192 0.197784
0.679535 0.044067 0.207550
0.713837 0.047028 0.217224
0.751221 0.050476 0.226654
0.794952 0.054291 0.235901
0.844391 0.057312 0.244995
0.893799 0.077301 0.253021
0.909393 0.104218 0.262207
0.905457 0.128571 0.272308
0.001160 0.021576 0.004730
0.011780 0.025574 0.018707
0.043549 0.032166 0.025208
0.086823 0.035950 0.026917
0.117615 0.040558 0.027130
0.149200 0.044342 0.028839
0.179565 0.046570 0.033539
0.208191 0.046570 0.033691
0.238831 0.043610 0.039795
0.267700 0.035126 0.044250
0.298096 0.025177 0.049957
0.328979 0.017151 0.056702
0.351837 0.020935 0.066437
0.377228 0.018890 0.078644
0.401367 0.020142 0.090363
0.425079 0.022156 0.101013
0.448517 0.023529 0.114685
0.473114 0.025696 0.126038
0.496429 0.027954 0.137665
0.519958 0.029541 0.148438
0.544891 0.031982 0.158722
0.571167 0.034454 0.168488
0.598053 0.037720 0.177277
0.627289 0.040161 0.188416
0.656799 0.044037 0.198212
0.688141 0.048401 0.208740
0.722778 0.052368 0.218597
0.762299 0.054260 0.228302
0.807007 0.057281 0.236755
0.853424 0.074158 0.245636
0.899139 0.101196 0.254608
0.909821 0.125580 0.263916
0.905273 0.149017 0.274475
0.004059 0.050659 0.020233
0.018768 0.054749 0.028168
0.035187 0.059601 0.029846
0.082092 0.061279 0.031586
0.115967 0.067841 0.033325
0.148102 0.071960 0.035004
0.177612 0.075317 0.036682
0.206299 0.077606 0.039795
0.237640 0.073364 0.047089
0.268524 0.065094 0.052704
0.299957 0.054718 0.058014
0.330688 0.041351 0.064148
0.358521 0.033508 0.071716
0.385498 0.025024 0.081573
0.409912 0.024261 0.092804
0.433960 0.025726 0.102783
0.457733 0.027985 0.116241
0.481567 0.029541 0.127472
0.504211 0.031982 0.139008
0.528107 0.034424 0.149658
0.553558 0.036865 0.159546
0.580261 0.039307 0.168457
0.607147 0.041687 0.178009
0.635620 0.044739 0.187958
0.665100 0.051697 0.198853
0.696350 0.058990 0.209534
0.733307 0.060760 0.220093
0.774811 0.059052 0.229370
0.816467 0.079498 0.237946
0.858612 0.106018 0.246765
0.902344 0.128998 0.256989
0.909821 0.151855 0.266693
0.905060 0.172546 0.277008
0.008331 0.079041 0.031189
0.027100 0.082550 0.035980
0.049438 0.085419 0.037598
0.074829 0.089783 0.039185
0.114014 0.092834 0.042328
0.145081 0.097992 0.045380
0.174011 0.101868 0.045532
0.202087 0.104614 0.051270
0.235321 0.102509 0.056702
0.267365 0.098206 0.061768
0.298676 0.090729 0.066467
0.331116 0.080963 0.072693
0.360687 0.065613 0.077881
0.388855 0.057678 0.087677
0.417053 0.044434 0.095490
0.442291 0.039917 0.105255
0.468109 0.032776 0.117401
0.490387 0.036804 0.128540
0.513306 0.040009 0.140015
0.537933 0.040039 0.149658
0.563354 0.042389 0.159271
0.589844 0.044678 0.168457
0.615509 0.049683 0.177490
0.642639 0.062958 0.187714
0.672485 0.070831 0.198822
0.705292 0.074646 0.209747
0.743866 0.072784 0.220306
0.781738 0.093201 0.230621
0.820740 0.119385 0.239136
0.865692 0.139954 0.249023
0.904602 0.161041 0.258881
0.909210 0.179016 0.269135
0.904846 0.196899 0.279816
0.014557 0.107483 0.040436
0.031982 0.110138 0.044983
0.057037 0.112366 0.047913
0.080780 0.115479 0.049408
0.108002 0.118256 0.052307
0.139374 0.122711 0.055115
0.169220 0.126740 0.057831
0.198395 0.130676 0.062897
0.230743 0.130890 0.068634
0.264221 0.128662 0.071747
0.297302 0.124634 0.074554
0.329224 0.118378 0.079437
0.360626 0.108521 0.085388
0.389465 0.102722 0.092743
0.417999 0.089081 0.100494
0.445526 0.079620 0.109772
0.472015 0.071350 0.119263
0.494293 0.077850 0.130646
0.521088 0.058350 0.139984
0.546753 0.054169 0.149628
0.571686 0.058350 0.158691
0.596130 0.073730 0.168427
0.621368 0.086212 0.178436
0.649384 0.092834 0.188141
0.680206 0.094330 0.199036
0.712555 0.104004 0.209930
0.747772 0.120605 0.221619
0.785522 0.137604 0.231873
0.825470 0.159302 0.241150
0.872040 0.174561 0.250793
0.906250 0.188873 0.261353
0.907867 0.205658 0.272125
0.904633 0.222656 0.282043
0.010468 0.134613 0.046326
0.024628 0.136536 0.049316
0.042969 0.139893 0.054871
0.073456 0.141876 0.058868
0.102112 0.144135 0.061462
0.134064 0.146576 0.068481
0.162323 0.152161 0.073578
0.194061 0.155701 0.080902
0.228363 0.158051 0.081604
0.261902 0.157104 0.081604
0.294891 0.154968 0.082275
0.327759 0.151825 0.087128
0.358673 0.146179 0.092255
0.388763 0.140900 0.099731
0.416443 0.138306 0.108185
0.444183 0.132141 0.117737
0.471466 0.127686 0.125610
0.497894 0.119812 0.134186
0.523224 0.106781 0.142639
0.549744 0.103699 0.151154
0.574432 0.109406 0.160034
0.599701 0.119446 0.169403
0.626709 0.125061 0.179138
0.654755 0.130402 0.189941
0.683685 0.138428 0.200714
0.716461 0.151001 0.212128
0.752350 0.168549 0.224060
0.790192 0.182800 0.234680
0.830688 0.194275 0.243988
0.878723 0.205261 0.253967
0.907288 0.219025 0.264252
0.905853 0.234863 0.274811
0.904388 0.247559 0.284668
0.007935 0.160034 0.052002
0.013397 0.164368 0.056122
0.025757 0.167725 0.062561
0.050201 0.170746 0.069489
0.086365 0.172638 0.076233
0.122009 0.174957 0.082336
0.157166 0.178070 0.088959
0.188843 0.182373 0.096130
0.222961 0.184967 0.100037
0.258850 0.186127 0.092377
0.291290 0.185303 0.091827
0.324249 0.183716 0.095032
0.355988 0.181915 0.102661
0.386353 0.179474 0.109802
0.415100 0.176331 0.119293
0.442657 0.174866 0.126373
0.469910 0.171448 0.133484
0.496216 0.166626 0.140656
0.522583 0.164368 0.148071
0.550476 0.158875 0.155273
0.577057 0.158630 0.163239
0.603210 0.162750 0.172363
0.629608 0.168549 0.182190
0.657471 0.176239 0.192566
0.687500 0.186768 0.203827
0.721039 0.195770 0.215271
0.757324 0.204926 0.227173
0.795502 0.214905 0.237427
0.836182 0.225922 0.247406
0.885529 0.237244 0.257080
0.907990 0.248199 0.267700
0.904358 0.260071 0.277710
0.904175 0.273041 0.287354
0.007385 0.185822 0.070404
0.012329 0.189545 0.074402
0.018799 0.193390 0.079498
0.035797 0.196808 0.084412
0.065613 0.199707 0.088531
0.109711 0.201874 0.094025
0.150024 0.204376 0.099030
0.185364 0.206879 0.105133
0.217804 0.210175 0.114380
0.252655 0.212219 0.114349
0.287323 0.213409 0.107910
0.319519 0.213898 0.109436
0.352631 0.213043 0.114258
0.383545 0.212158 0.121582
0.412231 0.211121 0.128204
0.440765 0.209747 0.134918
0.468597 0.209198 0.141998
0.495392 0.208313 0.148102
0.522339 0.205475 0.154999
0.550140 0.202972 0.161377
0.579010 0.201172 0.168365
0.606323 0.204407 0.177673
0.633881 0.208282 0.186768
0.662109 0.213745 0.196686
0.691803 0.220673 0.207306
0.725983 0.228455 0.218567
0.762726 0.238312 0.230438
0.802155 0.246490 0.240631
0.843964 0.255829 0.250458
0.893188 0.265625 0.260742
0.908539 0.276489 0.271271
0.904114 0.287964 0.281219
0.903931 0.299622 0.291229
0.005737 0.211212 0.089081
0.012207 0.213318 0.090729
0.018188 0.217194 0.093689
0.026917 0.221161 0.096436
0.041809 0.225311 0.098480
0.093689 0.228119 0.103149
0.141846 0.230255 0.107758
0.179199 0.232727 0.114410
0.213989 0.234680 0.120575
0.245575 0.237732 0.130463
0.279846 0.239807 0.131836
0.314362 0.241913 0.129333
0.347412 0.242645 0.127869
0.378876 0.242310 0.131439
0.408081 0.242157 0.137695
0.437927 0.241241 0.143677
0.467010 0.240936 0.150269
0.494537 0.241211 0.155853
0.522217 0.241211 0.161652
0.550415 0.239838 0.168396
0.579529 0.239685 0.175751
0.609161 0.240143 0.184021
0.637939 0.243408 0.193207
0.667755 0.248535 0.202972
0.697845 0.254120 0.213287
0.731567 0.260681 0.223877
0.768494 0.268158 0.234131
0.808960 0.276184 0.244293
0.852356 0.285339 0.254425
0.899445 0.294678 0.264679
0.908691 0.305542 0.275482
0.903839 0.315887 0.285736
0.903656 0.326752 0.295563
0.004913 0.235931 0.105072
0.009064 0.238403 0.106873
0.017059 0.241150 0.107971
0.026306 0.245453 0.109833
0.036591 0.250244 0.111389
0.073151 0.253784 0.113342
0.127197 0.256409 0.119141
0.171631 0.259064 0.124695
0.207886 0.261383 0.130127
0.242279 0.263153 0.136047
0.273560 0.266144 0.145996
0.307983 0.268280 0.148193
0.341919 0.270111 0.146301
0.373962 0.271301 0.144043
0.403809 0.271942 0.147217
0.434357 0.271942 0.152679
0.464844 0.272034 0.158417
0.493927 0.272430 0.164551
0.521912 0.273743 0.169891
0.550934 0.274902 0.176727
0.580475 0.275665 0.184265
0.610718 0.276825 0.192566
0.640900 0.279144 0.200684
0.672577 0.281921 0.209900
0.703339 0.286316 0.219696
0.738647 0.292206 0.229706
0.776917 0.299194 0.239288
0.818024 0.306335 0.249176
0.863190 0.314789 0.259064
0.903076 0.324127 0.269470
0.908203 0.333893 0.280212
0.903564 0.343109 0.290955
0.903412 0.352234 0.300690
0.003052 0.262756 0.124420
0.008514 0.264191 0.125916
0.015381 0.266632 0.126678
0.025665 0.270660 0.127045
0.036621 0.275391 0.127411
0.058044 0.279480 0.127716
0.106445 0.282990 0.131592
0.159790 0.285339 0.136780
0.201447 0.287811 0.141479
0.236969 0.289398 0.145691
0.270355 0.291229 0.150391
0.301971 0.294128 0.159637
0.336670 0.296783 0.161774
0.368256 0.298889 0.161224
0.399567 0.300903 0.157349
0.431091 0.301117 0.161438
0.462372 0.301697 0.167664
0.492584 0.302979 0.173859
0.522186 0.304596 0.180786
0.551453 0.306793 0.187683
0.581299 0.308868 0.194092
0.611359 0.311157 0.201538
0.642181 0.313416 0.209320
0.674438 0.315765 0.217407
0.709045 0.317535 0.225708
0.746155 0.322510 0.234985
0.786652 0.329102 0.244629
0.827942 0.335419 0.254395
0.875488 0.342224 0.264648
0.905640 0.350647 0.274872
0.906708 0.359283 0.285553
0.903320 0.368042 0.295563
0.903168 0.377228 0.305725
0.003174 0.289185 0.142853
0.007538 0.291046 0.144165
0.015289 0.292297 0.145508
0.023804 0.296204 0.146149
0.036682 0.299988 0.145508
0.048035 0.304688 0.144531
0.085327 0.308807 0.145477
0.146393 0.311493 0.149200
0.191406 0.313965 0.152832
0.231140 0.315857 0.155731
0.265961 0.317657 0.159363
0.299591 0.319855 0.163940
0.332001 0.323364 0.173279
0.363495 0.326050 0.176392
0.394135 0.328918 0.177094
0.426788 0.330719 0.172424
0.458984 0.331879 0.177246
0.490265 0.333649 0.184296
0.520874 0.335419 0.191711
0.551147 0.337494 0.198608
0.581543 0.339661 0.205048
0.611694 0.341400 0.211334
0.642761 0.344025 0.218567
0.675507 0.345947 0.225891
0.711243 0.347656 0.233429
0.751617 0.350739 0.241638
0.794647 0.356262 0.251251
0.838165 0.362610 0.261200
0.886841 0.369507 0.270813
0.907166 0.377136 0.280548
0.903229 0.385773 0.291229
0.903076 0.394165 0.300812
0.902893 0.404419 0.311859
0.002380 0.315765 0.158966
0.005463 0.317352 0.160095
0.011261 0.319153 0.162018
0.021942 0.322052 0.162598
0.034729 0.326172 0.161499
0.047455 0.330658 0.159576
0.077454 0.334747 0.158417
0.127289 0.337311 0.159760
0.181641 0.339874 0.163208
0.223663 0.341705 0.166046
0.262207 0.343445 0.169342
0.296967 0.345642 0.173523
0.330658 0.348145 0.178558
0.360291 0.351532 0.188049
0.390198 0.354370 0.192261
0.422302 0.357178 0.194611
0.455505 0.359467 0.189301
0.487366 0.361389 0.193909
0.518341 0.363464 0.200104
0.549347 0.364990 0.208344
0.581024 0.366974 0.215088
0.611237 0.369110 0.220673
0.642914 0.371704 0.226807
0.676453 0.374298 0.233612
0.713470 0.376953 0.240967
0.754852 0.380341 0.249664
0.799561 0.385529 0.259369
0.847931 0.390564 0.268646
0.896484 0.397369 0.277954
0.907776 0.405396 0.287445
0.902924 0.414062 0.297882
0.902771 0.423859 0.308197
0.902618 0.433319 0.318909
0.002838 0.341431 0.173462
0.004242 0.342651 0.174957
0.009369 0.344330 0.177124
0.018372 0.346466 0.178589
0.033417 0.349884 0.176697
0.046204 0.354309 0.174255
0.069427 0.357971 0.171509
0.109894 0.361511 0.170471
0.172607 0.363678 0.173615
0.217010 0.366211 0.176971
0.257080 0.367889 0.180267
0.295319 0.369965 0.183990
0.329773 0.372650 0.188293
0.359863 0.374847 0.193359
0.388458 0.378479 0.202698
0.420013 0.381714 0.208801
0.452301 0.384674 0.212585
0.484680 0.387482 0.207153
0.515717 0.390045 0.210571
0.546722 0.392578 0.216278
0.579071 0.394226 0.223694
0.611450 0.396301 0.230438
0.643280 0.399292 0.236053
0.677002 0.402588 0.242645
0.714569 0.406647 0.250122
0.755646 0.411469 0.258911
0.801666 0.416473 0.268066
0.850403 0.421478 0.276947
0.899628 0.426697 0.285431
0.907654 0.434174 0.294678
0.902649 0.443268 0.304718
0.902496 0.452637 0.315247
0.902344 0.460724 0.325073
0.002380 0.364624 0.188019
0.005951 0.365692 0.189392
0.011536 0.367889 0.191864
0.018890 0.369690 0.193848
0.032776 0.372040 0.192749
0.045593 0.376526 0.189850
0.060059 0.380859 0.184631
0.086670 0.385406 0.182037
0.162811 0.387939 0.184753
0.209656 0.390411 0.188599
0.252747 0.392487 0.192322
0.291870 0.394653 0.195557
0.328766 0.397217 0.199371
0.359467 0.400146 0.203949
0.388855 0.402496 0.209015
0.418976 0.406189 0.217896
0.450531 0.409668 0.226349
0.481598 0.413116 0.230316
0.512909 0.416718 0.224823
0.544006 0.419861 0.225555
0.576202 0.422638 0.229919
0.609070 0.425262 0.236908
0.643036 0.428345 0.244629
0.678101 0.432190 0.252197
0.716431 0.436737 0.260284
0.756714 0.441467 0.268341
0.802094 0.446960 0.277100
0.850830 0.451996 0.285126
0.899933 0.457184 0.293671
0.907227 0.463806 0.303406
0.902344 0.471680 0.312836
0.902191 0.479584 0.322083
0.902069 0.486572 0.330963
0.003601 0.388397 0.202881
0.004669 0.389984 0.205170
0.008698 0.391510 0.207214
0.015442 0.393188 0.209656
0.029510 0.395538 0.209076
0.044312 0.399567 0.206024
0.058380 0.404541 0.199799
0.075256 0.409363 0.193787
0.150238 0.413055 0.196716
0.204956 0.415344 0.199646
0.249390 0.418152 0.203583
0.289673 0.420990 0.207855
0.326599 0.423615 0.211670
0.359161 0.426392 0.215790
0.389374 0.428955 0.220215
0.418823 0.431152 0.224335
0.449219 0.435089 0.232819
0.479950 0.438904 0.241699
0.510406 0.442688 0.244507
0.542542 0.446533 0.241150
0.574615 0.450073 0.239655
0.607025 0.453888 0.244476
0.641174 0.457611 0.252838
0.677399 0.461761 0.261353
0.717743 0.466095 0.270264
0.757660 0.470520 0.278229
0.802826 0.475250 0.286072
0.851837 0.480988 0.294403
0.899750 0.486633 0.302765
0.906982 0.493042 0.312134
0.902039 0.500427 0.321594
0.901917 0.507019 0.329620
0.901794 0.512787 0.338013
0.004547 0.413727 0.217865
0.006470 0.415039 0.219421
0.008148 0.416595 0.221924
0.013794 0.417938 0.223999
0.025604 0.419983 0.224762
0.043030 0.423798 0.222321
0.059021 0.428680 0.215393
0.069550 0.434296 0.209625
0.140656 0.437866 0.209351
0.199585 0.440979 0.212311
0.248657 0.443756 0.215851
0.289429 0.447052 0.220245
0.326385 0.450012 0.224182
0.359192 0.452728 0.227844
0.390167 0.454895 0.231079
0.420166 0.457153 0.234589
0.449585 0.459961 0.238708
0.480194 0.464447 0.246521
0.510284 0.468323 0.255280
0.540955 0.471954 0.258057
0.573456 0.475952 0.258301
0.606659 0.480377 0.255981
0.640900 0.484680 0.262115
0.677765 0.489288 0.270111
0.717010 0.494049 0.278809
0.757660 0.498230 0.286469
0.803680 0.503510 0.294800
0.852509 0.509491 0.302979
0.899567 0.515381 0.311646
0.906830 0.521545 0.319977
0.901764 0.528107 0.329498
0.901642 0.533234 0.337555
0.901520 0.539215 0.345764
0.005951 0.438599 0.230042
0.006348 0.440582 0.232147
0.008881 0.441956 0.233948
0.015808 0.443481 0.236755
0.026886 0.444641 0.237457
0.041046 0.447906 0.236084
0.054901 0.453491 0.231842
0.071045 0.458862 0.223419
0.126831 0.462921 0.221863
0.196655 0.466034 0.224243
0.248657 0.469055 0.227722
0.290588 0.472168 0.231293
0.327209 0.475220 0.234802
0.360687 0.477814 0.237915
0.392334 0.480255 0.241272
0.422943 0.482544 0.244415
0.452362 0.485474 0.248138
0.482208 0.489532 0.254028
0.511475 0.493927 0.261566
0.541748 0.497925 0.270172
0.572876 0.501770 0.274902
0.606018 0.506378 0.277130
0.641418 0.510986 0.274719
0.678833 0.515594 0.279785
0.717529 0.520660 0.286896
0.757660 0.525574 0.294281
0.804718 0.531006 0.302612
0.853546 0.536896 0.311340
0.899506 0.542877 0.320099
0.906586 0.548523 0.328583
0.901459 0.554077 0.337982
0.901367 0.558685 0.346283
0.901245 0.564148 0.355072
0.007507 0.463745 0.240997
0.007477 0.465302 0.242676
0.008789 0.466248 0.244171
0.011597 0.467590 0.246307
0.019867 0.468750 0.248627
0.035614 0.471466 0.249084
0.053711 0.477234 0.244659
0.069122 0.482391 0.237762
0.118195 0.487213 0.232849
0.194092 0.490753 0.234192
0.251434 0.494019 0.238312
0.293335 0.497223 0.241150
0.330048 0.500122 0.244476
0.363342 0.502747 0.247070
0.394989 0.505432 0.249969
0.425629 0.508148 0.253601
0.455688 0.511475 0.258087
0.485107 0.515259 0.263550
0.514008 0.519653 0.270325
0.543549 0.523743 0.277863
0.574066 0.527802 0.287201
0.606934 0.532501 0.293304
0.641846 0.537109 0.295624
0.679749 0.542511 0.294037
0.718292 0.547638 0.296234
0.759430 0.552460 0.301727
0.805328 0.557678 0.309906
0.852966 0.562775 0.318634
0.898926 0.568573 0.327576
0.906372 0.574005 0.336761
0.901184 0.579102 0.345947
0.901093 0.583984 0.354767
0.900970 0.589508 0.363373
0.008270 0.488312 0.251953
0.008698 0.489044 0.252899
0.010071 0.489899 0.254333
0.010529 0.491486 0.256500
0.015686 0.492493 0.258240
0.030884 0.495148 0.258698
0.051239 0.500183 0.255737
0.068665 0.505981 0.248230
0.102753 0.511414 0.242126
0.196289 0.515625 0.242706
0.254761 0.519196 0.246155
0.297424 0.522614 0.249359
0.334778 0.525726 0.252533
0.367615 0.528503 0.256439
0.398376 0.531128 0.259644
0.428284 0.534210 0.264038
0.458496 0.537476 0.268890
0.488525 0.541443 0.274780
0.517212 0.545471 0.281219
0.546539 0.549713 0.288147
0.576843 0.553894 0.295776
0.608704 0.558411 0.303894
0.643951 0.563873 0.310059
0.680420 0.568848 0.313446
0.719818 0.574341 0.310760
0.761017 0.579132 0.310516
0.805084 0.583832 0.316986
0.850647 0.588776 0.325226
0.898193 0.594299 0.334778
0.906189 0.599457 0.343811
0.900909 0.605255 0.353943
0.900818 0.610474 0.362701
0.900696 0.615662 0.370117
0.010468 0.511871 0.261719
0.010468 0.512756 0.263397
0.011932 0.513580 0.264587
0.012421 0.515381 0.266968
0.022308 0.516785 0.268616
0.031586 0.519867 0.269928
0.046661 0.523590 0.268158
0.064117 0.529205 0.262604
0.095123 0.535522 0.253174
0.186371 0.540680 0.254028
0.254608 0.544922 0.257263
0.298584 0.548187 0.260468
0.337921 0.551514 0.263947
0.371033 0.554688 0.268066
0.402893 0.557800 0.272858
0.432617 0.560791 0.277374
0.463104 0.564148 0.282501
0.492645 0.567719 0.287903
0.521942 0.571533 0.293335
0.551117 0.575500 0.298737
0.581421 0.580231 0.304779
0.612701 0.585205 0.311157
0.647003 0.590179 0.318909
0.683167 0.595947 0.327789
0.720245 0.601135 0.329559
0.760315 0.605469 0.327881
0.803986 0.610291 0.327301
0.848114 0.614929 0.334625
0.896637 0.619812 0.342621
0.905945 0.625000 0.352020
0.900635 0.631287 0.361450
0.900543 0.637085 0.369568
0.900421 0.641937 0.376831
0.011353 0.536316 0.270935
0.012878 0.536743 0.271790
0.014465 0.537628 0.273102
0.014435 0.539764 0.275391
0.016144 0.541595 0.277374
0.024902 0.543579 0.279755
0.044006 0.547455 0.278900
0.065704 0.553619 0.272339
0.088074 0.560272 0.264374
0.184723 0.565796 0.265808
0.253571 0.569946 0.269318
0.301727 0.573761 0.272919
0.340668 0.577209 0.276886
0.375366 0.580994 0.281311
0.407043 0.584686 0.286469
0.439148 0.588318 0.291260
0.469269 0.591644 0.296082
0.498810 0.595581 0.300415
0.528015 0.599426 0.304932
0.556976 0.603241 0.308624
0.587097 0.608002 0.313354
0.618774 0.613586 0.318695
0.652649 0.618164 0.325500
0.687347 0.623138 0.333588
0.721771 0.627991 0.343475
0.759338 0.632477 0.346710
0.801208 0.637238 0.347748
0.844208 0.641937 0.349060
0.893433 0.646637 0.353729
0.905518 0.651642 0.360413
0.900360 0.657684 0.368439
0.900269 0.663239 0.376373
0.900146 0.668701 0.383759
0.013855 0.561035 0.280853
0.014374 0.561920 0.282104
0.016693 0.562714 0.282806
0.017273 0.564545 0.285126
0.017883 0.566315 0.287170
0.023590 0.568085 0.289581
0.041321 0.571442 0.290100
0.063660 0.578003 0.284119
0.090515 0.585144 0.278290
0.175446 0.591400 0.279633
0.254791 0.596252 0.283997
0.303375 0.600494 0.288147
0.345154 0.604828 0.292389
0.379822 0.609344 0.296783
0.412628 0.613129 0.300995
0.444672 0.616760 0.304993
0.477356 0.620514 0.308533
0.505981 0.624634 0.311951
0.535431 0.628937 0.315887
0.564178 0.632965 0.319183
0.593689 0.637299 0.323578
0.624084 0.641754 0.328461
0.657227 0.646637 0.335785
0.689209 0.650970 0.343597
0.723358 0.655884 0.352570
0.758118 0.660095 0.362305
0.797241 0.664154 0.366272
0.839172 0.668701 0.368317
0.888733 0.673126 0.368195
0.904785 0.678040 0.370636
0.900665 0.683624 0.376068
0.899994 0.688934 0.382446
0.899902 0.694366 0.389923
0.016022 0.587341 0.294830
0.017242 0.587891 0.295502
0.019073 0.588654 0.296143
0.019714 0.590179 0.297699
0.020966 0.591949 0.299622
0.032349 0.594055 0.301270
0.043457 0.597687 0.300476
0.059387 0.603088 0.298157
0.079163 0.610657 0.290558
0.166779 0.617950 0.293793
0.251465 0.624176 0.298920
0.308289 0.629730 0.302429
0.349731 0.634766 0.306427
0.386322 0.639801 0.309723
0.419098 0.644012 0.313446
0.452240 0.647247 0.315796
0.484314 0.651306 0.318970
0.515228 0.655548 0.321533
0.543518 0.659332 0.325226
0.571899 0.662933 0.328949
0.600372 0.666534 0.333923
0.630402 0.671021 0.340424
0.660980 0.674927 0.347046
0.691620 0.678711 0.353973
0.724457 0.682465 0.361725
0.758911 0.686493 0.369720
0.795563 0.690613 0.378113
0.835510 0.695068 0.382660
0.881836 0.699249 0.384338
0.903656 0.704315 0.385040
0.903107 0.709869 0.386688
0.899719 0.714905 0.391235
0.899628 0.719940 0.396454
0.019684 0.614410 0.307251
0.020294 0.615448 0.308136
0.021606 0.616241 0.308624
0.023560 0.617157 0.309723
0.024231 0.618927 0.311432
0.026917 0.621094 0.313110
0.037964 0.624146 0.313477
0.058868 0.630493 0.308563
0.078308 0.638519 0.301331
0.161285 0.646118 0.306152
0.254211 0.653229 0.312225
0.312073 0.659607 0.315430
0.357666 0.665161 0.318726
0.393219 0.669617 0.322083
0.427704 0.673737 0.325623
0.460358 0.677460 0.328674
0.491852 0.681335 0.332001
0.521942 0.685394 0.334961
0.550354 0.688568 0.338745
0.577759 0.691742 0.343201
0.605530 0.695160 0.348511
0.635193 0.699188 0.354584
0.664490 0.702698 0.360199
0.694214 0.706299 0.365540
0.726318 0.709747 0.371124
0.760437 0.713501 0.377777
0.796753 0.717285 0.384033
0.834198 0.721313 0.391907
0.877930 0.725555 0.396362
0.902069 0.730774 0.400757
0.904114 0.736511 0.401245
0.899414 0.741058 0.402863
0.899323 0.745789 0.407288
0.022247 0.642731 0.319305
0.022888 0.643890 0.320007
0.024902 0.644745 0.320251
0.024902 0.646088 0.321167
0.028290 0.647064 0.321991
0.031036 0.649414 0.323395
0.039398 0.652985 0.323151
0.059479 0.659302 0.318085
0.078796 0.666534 0.311249
0.182007 0.674622 0.316925
0.263092 0.681915 0.322968
0.321899 0.688416 0.326385
0.365173 0.694122 0.329987
0.403046 0.699463 0.334167
0.437134 0.703979 0.338501
0.470032 0.707916 0.343079
0.499603 0.711456 0.346405
0.528107 0.715118 0.350311
0.555237 0.718201 0.353729
0.583344 0.721405 0.357880
0.610504 0.724426 0.362549
0.640015 0.727844 0.367065
0.669037 0.731445 0.371399
0.698090 0.734955 0.375305
0.728943 0.738007 0.378387
0.762115 0.741577 0.383087
0.798096 0.744995 0.389160
0.834839 0.748657 0.395966
0.875702 0.752716 0.403900
0.900970 0.757690 0.411011
0.904419 0.762878 0.416290
0.899078 0.767700 0.416840
0.899017 0.771912 0.420135
0.026245 0.672272 0.328857
0.026245 0.673401 0.329559
0.028290 0.674011 0.329529
0.030365 0.675262 0.329987
0.031067 0.677368 0.330902
0.038055 0.679962 0.331116
0.049744 0.685059 0.329407
0.061188 0.690369 0.325409
0.085754 0.696411 0.321899
0.201263 0.704956 0.328369
0.275299 0.711792 0.334900
0.330750 0.718292 0.339020
0.373474 0.724701 0.344940
0.410828 0.730377 0.350189
0.446106 0.735229 0.355408
0.477814 0.739594 0.360107
0.506439 0.743439 0.364227
0.532990 0.746796 0.367432
0.560211 0.749725 0.369995
0.587646 0.752411 0.372742
0.616669 0.755524 0.375244
