Kodak Vision2 500T (5260) - Only contrast.cube
# Created by Benjamin (IWLTBAP) : http://luts.iwltbap.com
# Copyright: (C) Copyright 2010-2017 Triune Films and IWLTBAP SAS
# Cannot be resold, shared or otherwise redistributed
TITLE "Film Print Emulation LUTs Pack (Rec.709, sRGB, DCI-P3)"
LUT_3D_SIZE 9
0.000000 0.000000 0.000000
0.090210 0.000000 0.000000
0.203400 0.000000 0.000000
0.334534 0.000000 0.000000
0.464752 0.000000 0.000000
0.613556 0.000000 0.000000
0.764313 0.000000 0.000000
0.875305 0.000000 0.000000
0.955627 0.000000 0.000000
0.000000 0.090210 0.000000
0.090271 0.090271 0.000000
0.203583 0.090179 0.000000
0.334839 0.089966 0.000000
0.464996 0.089752 0.000000
0.613983 0.089417 0.000000
0.764618 0.089050 0.000000
0.875336 0.088989 0.000000
0.955475 0.089111 0.000000
0.000000 0.203400 0.000000
0.090179 0.203583 0.000000
0.203613 0.203613 0.000000
0.335022 0.203522 0.000000
0.465118 0.203430 0.000000
0.614258 0.203217 0.000000
0.764771 0.202972 0.000000
0.875183 0.203033 0.000000
0.955170 0.203278 0.000000
0.000000 0.334534 0.000000
0.089966 0.334839 0.000000
0.203522 0.335022 0.000000
0.335052 0.335052 0.000000
0.465088 0.335083 0.000000
0.614410 0.334991 0.000000
0.764771 0.334900 0.000000
0.874908 0.335052 0.000000
0.954742 0.335449 0.000000
0.000000 0.464752 0.000000
0.089752 0.464996 0.000000
0.203430 0.465118 0.000000
0.335083 0.465088 0.000000
0.465088 0.465088 0.000000
0.614563 0.464966 0.000000
0.764771 0.464813 0.000000
0.874634 0.464935 0.000000
0.954346 0.465302 0.000000
0.000000 0.613556 0.000000
0.089417 0.613983 0.000000
0.203217 0.614258 0.000000
0.334991 0.614410 0.000000
0.464966 0.614563 0.000000
0.614594 0.614594 0.000000
0.764648 0.614624 0.000000
0.874237 0.614929 0.000000
0.953796 0.615448 0.000000
0.000000 0.764313 0.000000
0.089050 0.764618 0.000000
0.202972 0.764771 0.000000
0.334900 0.764771 0.000000
0.464813 0.764771 0.000000
0.614624 0.764648 0.000000
0.764526 0.764526 0.000000
0.873840 0.764648 0.000000
0.953247 0.764984 0.000000
0.000000 0.875305 0.000000
0.088989 0.875336 0.000000
0.203033 0.875183 0.000000
0.335052 0.874908 0.000000
0.464935 0.874634 0.000000
0.614929 0.874237 0.000000
0.764648 0.873840 0.000000
0.873718 0.873718 0.000000
0.953003 0.873779 0.000000
0.000000 0.955627 0.000000
0.089111 0.955475 0.000000
0.203278 0.955170 0.000000
0.335449 0.954742 0.000000
0.465302 0.954346 0.000000
0.615448 0.953796 0.000000
0.764984 0.953247 0.000000
0.873779 0.953003 0.000000
0.952911 0.952850 0.007751
0.000000 0.000000 0.090210
0.090271 0.000000 0.090271
0.203583 0.000000 0.090179
0.334839 0.000000 0.089966
0.464996 0.000000 0.089752
0.613983 0.000000 0.089417
0.764618 0.000000 0.089050
0.875336 0.000000 0.088989
0.955475 0.000000 0.089111
0.000000 0.090271 0.090271
0.090332 0.090332 0.090332
0.203766 0.090240 0.090240
0.335175 0.089996 0.089996
0.465271 0.089813 0.089813
0.614410 0.089447 0.089447
0.764893 0.089111 0.089111
0.875336 0.089050 0.089050
0.955322 0.089172 0.089172
0.000000 0.203583 0.090179
0.090240 0.203766 0.090240
0.203796 0.203796 0.090118
0.335327 0.203705 0.089905
0.465363 0.203613 0.089691
0.614685 0.203369 0.089355
0.765045 0.203156 0.089020
0.875183 0.203186 0.088928
0.955017 0.203430 0.089081
0.000000 0.334839 0.089966
0.089996 0.335175 0.089996
0.203705 0.335327 0.089905
0.335358 0.335358 0.089691
0.465363 0.335388 0.089478
0.614838 0.335297 0.089142
0.765045 0.335175 0.088776
0.874908 0.335358 0.088715
0.954590 0.335724 0.088867
0.000000 0.464996 0.089752
0.089813 0.465271 0.089813
0.203613 0.465363 0.089691
0.335388 0.465363 0.089478
0.465332 0.465332 0.089264
0.614990 0.465210 0.088928
0.765045 0.465057 0.088593
0.874634 0.465179 0.088531
0.954193 0.465546 0.088654
0.000000 0.613983 0.089417
0.089447 0.614410 0.089447
0.203369 0.614685 0.089355
0.335297 0.614838 0.089142
0.465210 0.614990 0.088928
0.615021 0.615021 0.088593
0.764893 0.615051 0.088257
0.874207 0.615356 0.088165
0.953644 0.615875 0.088318
0.000000 0.764618 0.089050
0.089111 0.764893 0.089111
0.203156 0.765045 0.089020
0.335175 0.765045 0.088776
0.465057 0.765045 0.088593
0.615051 0.764893 0.088257
0.764771 0.764771 0.087891
0.873810 0.764893 0.087830
0.953094 0.765228 0.087982
0.000000 0.875336 0.088989
0.089050 0.875336 0.089050
0.203186 0.875183 0.088928
0.335358 0.874908 0.088715
0.465179 0.874634 0.088531
0.615356 0.874207 0.088165
0.764893 0.873810 0.087830
0.873688 0.873688 0.087799
0.952820 0.873749 0.087952
0.000000 0.955475 0.089111
0.089172 0.955322 0.089172
0.203430 0.955017 0.089081
0.335724 0.954590 0.088867
0.465546 0.954193 0.088654
0.615875 0.953644 0.088318
0.765228 0.953094 0.087982
0.873749 0.952820 0.087952
0.952759 0.952759 0.088104
0.000000 0.000000 0.203400
0.090179 0.000000 0.203583
0.203613 0.000000 0.203613
0.335022 0.000000 0.203522
0.465118 0.000000 0.203430
0.614258 0.000000 0.203217
0.764771 0.000000 0.202972
0.875183 0.000000 0.203033
0.955170 0.000000 0.203278
0.000000 0.090179 0.203583
0.090240 0.090240 0.203766
0.203796 0.090118 0.203796
0.335327 0.089905 0.203705
0.465363 0.089691 0.203613
0.614685 0.089355 0.203369
0.765045 0.089020 0.203156
0.875183 0.088928 0.203186
0.955017 0.089081 0.203430
0.000000 0.203613 0.203613
0.090118 0.203796 0.203796
0.203827 0.203827 0.203827
0.335480 0.203705 0.203705
0.465485 0.203613 0.203613
0.614960 0.203400 0.203400
0.765167 0.203156 0.203156
0.875031 0.203186 0.203186
0.954712 0.203430 0.203430
0.000000 0.335022 0.203522
0.089905 0.335327 0.203705
0.203705 0.335480 0.203705
0.335510 0.335510 0.203613
0.465454 0.335541 0.203522
0.615112 0.335419 0.203278
0.765137 0.335297 0.203033
0.874725 0.335480 0.203064
0.954285 0.335846 0.203308
0.000000 0.465118 0.203430
0.089691 0.465363 0.203613
0.203613 0.465485 0.203613
0.335541 0.465454 0.203522
0.465454 0.465454 0.203400
0.615265 0.465302 0.203186
0.765137 0.465149 0.202942
0.874451 0.465302 0.202972
0.953888 0.465668 0.203217
0.000000 0.614258 0.203217
0.089355 0.614685 0.203369
0.203400 0.614960 0.203400
0.335419 0.615112 0.203278
0.465302 0.615265 0.203186
0.615295 0.615295 0.202942
0.765015 0.615326 0.202698
0.874054 0.615631 0.202728
0.953339 0.616150 0.202972
0.000000 0.764771 0.202972
0.089020 0.765045 0.203156
0.203156 0.765167 0.203156
0.335297 0.765137 0.203033
0.465149 0.765137 0.202942
0.615326 0.765015 0.202698
0.764862 0.764862 0.202454
0.873627 0.764984 0.202484
0.952789 0.765289 0.202728
0.000000 0.875183 0.203033
0.088928 0.875183 0.203186
0.203186 0.875031 0.203186
0.335480 0.874725 0.203064
0.465302 0.874451 0.202972
0.615631 0.874054 0.202728
0.764984 0.873627 0.202484
0.873505 0.873505 0.202515
0.952515 0.873566 0.202759
0.000000 0.955170 0.203278
0.089081 0.955017 0.203430
0.203430 0.954712 0.203430
0.335846 0.954285 0.203308
0.465668 0.953888 0.203217
0.616150 0.953339 0.202972
0.765289 0.952789 0.202728
0.873566 0.952515 0.202759
0.952454 0.952454 0.203003
0.000000 0.000000 0.334534
0.089966 0.000000 0.334839
0.203522 0.000000 0.335022
0.335052 0.000000 0.335052
0.465088 0.000000 0.335083
0.614410 0.000000 0.334991
0.764771 0.000000 0.334900
0.874908 0.000000 0.335052
0.954742 0.000000 0.335449
0.000000 0.089966 0.334839
0.089996 0.089996 0.335175
0.203705 0.089905 0.335327
0.335358 0.089691 0.335358
0.465363 0.089478 0.335388
0.614838 0.089142 0.335297
0.765045 0.088776 0.335175
0.874908 0.088715 0.335358
0.954590 0.088867 0.335724
0.000000 0.203522 0.335022
0.089905 0.203705 0.335327
0.203705 0.203705 0.335480
0.335510 0.203613 0.335510
0.465454 0.203522 0.335541
0.615112 0.203278 0.335419
0.765137 0.203033 0.335297
0.874725 0.203064 0.335480
0.954285 0.203308 0.335846
0.000000 0.335052 0.335052
0.089691 0.335358 0.335358
0.203613 0.335510 0.335510
0.335510 0.335510 0.335510
0.465424 0.335541 0.335541
0.615265 0.335419 0.335419
0.765137 0.335327 0.335327
0.874451 0.335480 0.335480
0.953857 0.335846 0.335846
0.000000 0.465088 0.335083
0.089478 0.465363 0.335388
0.203522 0.465454 0.335541
0.335541 0.465424 0.335541
0.465424 0.465424 0.335571
0.615417 0.465271 0.335449
0.765137 0.465149 0.335358
0.874176 0.465302 0.335510
0.953461 0.465637 0.335876
0.000000 0.614410 0.334991
0.089142 0.614838 0.335297
0.203278 0.615112 0.335419
0.335419 0.615265 0.335419
0.465271 0.615417 0.335449
0.615448 0.615448 0.335327
0.764984 0.615479 0.335236
0.873749 0.615784 0.335388
0.952881 0.616302 0.335785
0.000000 0.764771 0.334900
0.088776 0.765045 0.335175
0.203033 0.765137 0.335297
0.335327 0.765137 0.335327
0.465149 0.765137 0.335358
0.615479 0.764984 0.335236
0.764801 0.764801 0.335114
0.873322 0.764923 0.335297
0.952362 0.765259 0.335663
0.000000 0.874908 0.335052
0.088715 0.874908 0.335358
0.203064 0.874725 0.335480
0.335480 0.874451 0.335480
0.465302 0.874176 0.335510
0.615784 0.873749 0.335388
0.764923 0.873322 0.335297
0.873199 0.873199 0.335449
0.952087 0.873260 0.335846
0.000000 0.954742 0.335449
0.088867 0.954590 0.335724
0.203308 0.954285 0.335846
0.335846 0.953857 0.335846
0.465637 0.953461 0.335876
0.616302 0.952881 0.335785
0.765259 0.952362 0.335663
0.873260 0.952087 0.335846
0.952026 0.952026 0.336212
0.000000 0.000000 0.464752
0.089752 0.000000 0.464996
0.203430 0.000000 0.465118
0.335083 0.000000 0.465088
0.465088 0.000000 0.465088
0.614563 0.000000 0.464966
0.764771 0.000000 0.464813
0.874634 0.000000 0.464935
0.954346 0.000000 0.465302
0.000000 0.089752 0.464996
0.089813 0.089813 0.465271
0.203613 0.089691 0.465363
0.335388 0.089478 0.465363
0.465332 0.089264 0.465332
0.614990 0.088928 0.465210
0.765045 0.088593 0.465057
0.874634 0.088531 0.465179
0.954193 0.088654 0.465546
0.000000 0.203430 0.465118
0.089691 0.203613 0.465363
0.203613 0.203613 0.465485
0.335541 0.203522 0.465454
0.465454 0.203400 0.465454
0.615265 0.203186 0.465302
0.765137 0.202942 0.465149
0.874451 0.202972 0.465302
0.953888 0.203217 0.465668
0.000000 0.335083 0.465088
0.089478 0.335388 0.465363
0.203522 0.335541 0.465454
0.335541 0.335541 0.465424
0.465424 0.335571 0.465424
0.615417 0.335449 0.465271
0.765137 0.335358 0.465149
0.874176 0.335510 0.465302
0.953461 0.335876 0.465637
0.000000 0.465088 0.465088
0.089264 0.465332 0.465332
0.203400 0.465454 0.465454
0.335571 0.465424 0.465424
0.465424 0.465424 0.465424
0.615570 0.465271 0.465271
0.765106 0.465149 0.465149
0.873901 0.465302 0.465302
0.953033 0.465668 0.465668
0.000000 0.614563 0.464966
0.088928 0.614990 0.465210
0.203186 0.615265 0.465302
0.335449 0.615417 0.465271
0.465271 0.615570 0.465271
0.615601 0.615601 0.465149
0.764954 0.615631 0.465027
0.873474 0.615967 0.465179
0.952484 0.616486 0.465546
0.000000 0.764771 0.464813
0.088593 0.765045 0.465057
0.202942 0.765137 0.465149
0.335358 0.765137 0.465149
0.465149 0.765106 0.465149
0.615631 0.764954 0.465027
0.764801 0.764801 0.464905
0.873047 0.764893 0.465088
0.951935 0.765198 0.465454
0.000000 0.874634 0.464935
0.088531 0.874634 0.465179
0.202972 0.874451 0.465302
0.335510 0.874176 0.465302
0.465302 0.873901 0.465302
0.615967 0.873474 0.465179
0.764893 0.873047 0.465088
0.872894 0.872894 0.465271
0.951691 0.872955 0.465668
0.000000 0.954346 0.465302
0.088654 0.954193 0.465546
0.203217 0.953888 0.465668
0.335876 0.953461 0.465637
0.465668 0.953033 0.465668
0.616486 0.952484 0.465546
0.765198 0.951935 0.465454
0.872955 0.951691 0.465668
0.951630 0.951630 0.466064
0.000000 0.000000 0.613556
0.089417 0.000000 0.613983
0.203217 0.000000 0.614258
0.334991 0.000000 0.614410
0.464966 0.000000 0.614563
0.614594 0.000000 0.614594
0.764648 0.000000 0.614624
0.874237 0.000000 0.614929
0.953796 0.000000 0.615448
0.000000 0.089417 0.613983
0.089447 0.089447 0.614410
0.203369 0.089355 0.614685
0.335297 0.089142 0.614838
0.465210 0.088928 0.614990
0.615021 0.088593 0.615021
0.764893 0.088257 0.615051
0.874207 0.088165 0.615356
0.953644 0.088318 0.615875
0.000000 0.203217 0.614258
0.089355 0.203369 0.614685
0.203400 0.203400 0.614960
0.335419 0.203278 0.615112
0.465302 0.203186 0.615265
0.615295 0.202942 0.615295
0.765015 0.202698 0.615326
0.874054 0.202728 0.615631
0.953339 0.202972 0.616150
0.000000 0.334991 0.614410
0.089142 0.335297 0.614838
0.203278 0.335419 0.615112
0.335419 0.335419 0.615265
0.465271 0.335449 0.615417
0.615448 0.335327 0.615448
0.764984 0.335236 0.615479
0.873749 0.335388 0.615784
0.952881 0.335785 0.616302
0.000000 0.464966 0.614563
0.088928 0.465210 0.614990
0.203186 0.465302 0.615265
0.335449 0.465271 0.615417
0.465271 0.465271 0.615570
0.615601 0.465149 0.615601
0.764954 0.465027 0.615631
0.873474 0.465179 0.615967
0.952484 0.465546 0.616486
0.000000 0.614594 0.614594
0.088593 0.615021 0.615021
0.202942 0.615295 0.615295
0.335327 0.615448 0.615448
0.465149 0.615601 0.615601
0.615631 0.615631 0.615631
0.764771 0.615662 0.615662
0.873047 0.615967 0.615967
0.951935 0.616486 0.616486
0.000000 0.764648 0.614624
0.088257 0.764893 0.615051
0.202698 0.765015 0.615326
0.335236 0.764984 0.615479
0.465027 0.764954 0.615631
0.615662 0.764771 0.615662
0.764618 0.764618 0.615692
0.872620 0.764709 0.616028
0.951385 0.765015 0.616547
0.000000 0.874237 0.614929
0.088165 0.874207 0.615356
0.202728 0.874054 0.615631
0.335388 0.873749 0.615784
0.465179 0.873474 0.615967
0.615967 0.873047 0.615967
0.764709 0.872620 0.616028
0.872467 0.872467 0.616333
0.951141 0.872528 0.616882
0.000000 0.953796 0.615448
0.088318 0.953644 0.615875
0.202972 0.953339 0.616150
0.335785 0.952881 0.616302
0.465546 0.952484 0.616486
0.616486 0.951935 0.616486
0.765015 0.951385 0.616547
0.872528 0.951141 0.616882
0.951080 0.951080 0.617401
0.000000 0.000000 0.764313
0.089050 0.000000 0.764618
0.202972 0.000000 0.764771
0.334900 0.000000 0.764771
0.464813 0.000000 0.764771
0.614624 0.000000 0.764648
0.764526 0.000000 0.764526
0.873840 0.000000 0.764648
0.953247 0.000000 0.764984
0.000000 0.089050 0.764618
0.089111 0.089111 0.764893
0.203156 0.089020 0.765045
0.335175 0.088776 0.765045
0.465057 0.088593 0.765045
0.615051 0.088257 0.764893
0.764771 0.087891 0.764771
0.873810 0.087830 0.764893
0.953094 0.087982 0.765228
0.000000 0.202972 0.764771
0.089020 0.203156 0.765045
0.203156 0.203156 0.765167
0.335297 0.203033 0.765137
0.465149 0.202942 0.765137
0.615326 0.202698 0.765015
0.764862 0.202454 0.764862
0.873627 0.202484 0.764984
0.952789 0.202728 0.765289
0.000000 0.334900 0.764771
0.088776 0.335175 0.765045
0.203033 0.335297 0.765137
0.335327 0.335327 0.765137
0.465149 0.335358 0.765137
0.615479 0.335236 0.764984
0.764801 0.335114 0.764801
0.873322 0.335297 0.764923
0.952362 0.335663 0.765259
0.000000 0.464813 0.764771
0.088593 0.465057 0.765045
0.202942 0.465149 0.765137
0.335358 0.465149 0.765137
0.465149 0.465149 0.765106
0.615631 0.465027 0.764954
0.764801 0.464905 0.764801
0.873047 0.465088 0.764893
0.951935 0.465454 0.765198
0.000000 0.614624 0.764648
0.088257 0.615051 0.764893
0.202698 0.615326 0.765015
0.335236 0.615479 0.764984
0.465027 0.615631 0.764954
0.615662 0.615662 0.764771
0.764618 0.615692 0.764618
0.872620 0.616028 0.764709
0.951385 0.616547 0.765015
0.000000 0.764526 0.764526
0.087891 0.764771 0.764771
0.202454 0.764862 0.764862
0.335114 0.764801 0.764801
0.464905 0.764801 0.764801
0.615692 0.764618 0.764618
0.764435 0.764435 0.764435
0.872192 0.764526 0.764526
0.950867 0.764832 0.764832
0.000000 0.873840 0.764648
0.087830 0.873810 0.764893
0.202484 0.873627 0.764984
0.335297 0.873322 0.764923
0.465088 0.873047 0.764893
0.616028 0.872620 0.764709
0.764526 0.872192 0.764526
0.872040 0.872040 0.764648
0.950592 0.872101 0.764923
0.000000 0.953247 0.764984
0.087982 0.953094 0.765228
0.202728 0.952789 0.765289
0.335663 0.952362 0.765259
0.465454 0.951935 0.765198
0.616547 0.951385 0.765015
0.764832 0.950867 0.764832
0.872101 0.950592 0.764923
0.950531 0.950531 0.765228
0.000000 0.000000 0.875305
0.088989 0.000000 0.875336
0.203033 0.000000 0.875183
0.335052 0.000000 0.874908
0.464935 0.000000 0.874634
0.614929 0.000000 0.874237
0.764648 0.000000 0.873840
0.873718 0.000000 0.873718
0.953003 0.000000 0.873779
0.000000 0.088989 0.875336
0.089050 0.089050 0.875336
0.203186 0.088928 0.875183
0.335358 0.088715 0.874908
0.465179 0.088531 0.874634
0.615356 0.088165 0.874207
0.764893 0.087830 0.873810
0.873688 0.087799 0.873688
0.952820 0.087952 0.873749
0.000000 0.203033 0.875183
0.088928 0.203186 0.875183
0.203186 0.203186 0.875031
0.335480 0.203064 0.874725
0.465302 0.202972 0.874451
0.615631 0.202728 0.874054
0.764984 0.202484 0.873627
0.873505 0.202515 0.873505
0.952515 0.202759 0.873566
0.000000 0.335052 0.874908
0.088715 0.335358 0.874908
0.203064 0.335480 0.874725
0.335480 0.335480 0.874451
0.465302 0.335510 0.874176
0.615784 0.335388 0.873749
0.764923 0.335297 0.873322
0.873199 0.335449 0.873199
0.952087 0.335846 0.873260
0.000000 0.464935 0.874634
0.088531 0.465179 0.874634
0.202972 0.465302 0.874451
0.335510 0.465302 0.874176
0.465302 0.465302 0.873901
0.615967 0.465179 0.873474
0.764893 0.465088 0.873047
0.872894 0.465271 0.872894
0.951691 0.465668 0.872955
0.000000 0.614929 0.874237
0.088165 0.615356 0.874207
0.202728 0.615631 0.874054
0.335388 0.615784 0.873749
0.465179 0.615967 0.873474
0.615967 0.615967 0.873047
0.764709 0.616028 0.872620
0.872467 0.616333 0.872467
0.951141 0.616882 0.872528
0.000000 0.764648 0.873840
0.087830 0.764893 0.873810
0.202484 0.764984 0.873627
0.335297 0.764923 0.873322
0.465088 0.764893 0.873047
0.616028 0.764709 0.872620
0.764526 0.764526 0.872192
0.872040 0.764648 0.872040
0.950592 0.764923 0.872101
0.000000 0.873718 0.873718
0.087799 0.873688 0.873688
0.202515 0.873505 0.873505
0.335449 0.873199 0.873199
0.465271 0.872894 0.872894
0.616333 0.872467 0.872467
0.764648 0.872040 0.872040
0.871918 0.871918 0.871918
0.950348 0.871948 0.871948
0.000000 0.953003 0.873779
0.087952 0.952820 0.873749
0.202759 0.952515 0.873566
0.335846 0.952087 0.873260
0.465668 0.951691 0.872955
0.616882 0.951141 0.872528
0.764923 0.950592 0.872101
0.871948 0.950348 0.871948
0.950287 0.950287 0.872009
0.000000 0.000000 0.955566
0.089111 0.000000 0.955475
0.203278 0.000000 0.955170
0.335449 0.000000 0.954742
0.465302 0.000000 0.954346
0.615448 0.000000 0.953796
0.764984 0.000000 0.953247
0.873779 0.000000 0.953003
0.952942 0.000000 0.952942
0.000000 0.089111 0.955475
0.089172 0.089172 0.955322
0.203430 0.089081 0.955017
0.335724 0.088867 0.954590
0.465546 0.088654 0.954193
0.615875 0.088318 0.953644
0.765228 0.087982 0.953094
0.873749 0.087952 0.952820
0.952759 0.088104 0.952759
0.000000 0.203278 0.955170
0.089081 0.203430 0.955017
0.203430 0.203430 0.954712
0.335846 0.203308 0.954285
0.465668 0.203217 0.953888
0.616150 0.202972 0.953339
0.765289 0.202728 0.952789
0.873566 0.202759 0.952515
0.952454 0.203003 0.952454
0.000000 0.335449 0.954742
0.088867 0.335724 0.954590
0.203308 0.335846 0.954285
0.335846 0.335846 0.953857
0.465637 0.335876 0.953461
0.616302 0.335785 0.952881
0.765259 0.335663 0.952362
0.873260 0.335846 0.952087
0.952026 0.336212 0.952026
0.000000 0.465302 0.954346
0.088654 0.465546 0.954193
0.203217 0.465668 0.953888
0.335876 0.465637 0.953461
0.465668 0.465668 0.953033
0.616486 0.465546 0.952484
0.765198 0.465454 0.951935
0.872955 0.465668 0.951691
0.951630 0.466064 0.951630
0.000000 0.615448 0.953796
0.088318 0.615875 0.953644
0.202972 0.616150 0.953339
0.335785 0.616302 0.952881
0.465546 0.616486 0.952484
0.616486 0.616486 0.951935
0.765015 0.616547 0.951385
0.872528 0.616882 0.951141
0.951080 0.617401 0.951080
0.000000 0.764984 0.953247
0.087982 0.765228 0.953094
0.202728 0.765289 0.952789
0.335663 0.765259 0.952362
0.465454 0.765198 0.951935
0.616547 0.765015 0.951385
0.764832 0.764832 0.950867
0.872101 0.764923 0.950592
0.950531 0.765228 0.950531
0.000000 0.873779 0.953003
0.087952 0.873749 0.952820
0.202759 0.873566 0.952515
0.335846 0.873260 0.952087
0.465668 0.872955 0.951691
0.616882 0.872528 0.951141
0.764923 0.872101 0.950592
0.871948 0.871948 0.950348
0.950287 0.872009 0.950287
0.000000 0.952942 0.952942
0.088104 0.952759 0.952759
0.203003 0.952454 0.952454
0.336212 0.952026 0.952026
0.466064 0.951630 0.951630
0.617401 0.951080 0.951080
0.765228 0.950531 0.950531
0.872009 0.950287 0.950287
0.950256 0.950256 0.950256
