Kodak 16mm (Variant) - Look.cube
# Created by Benjamin (IWLTBAP) : http://luts.iwltbap.com
# Copyright: (C) Copyright 2010-2017 Triune Films and IWLTBAP SAS
# Cannot be resold, shared or otherwise redistributed
TITLE "Film Print Emulation LUTs Pack (Rec.709, sRGB, DCI-P3)"
LUT_3D_SIZE 5
0.000000 0.000000 0.000031
0.237427 0.004272 0.019745
0.515533 0.000214 0.044464
0.723114 0.000000 0.078857
0.839447 0.000000 0.105927
0.083405 0.154358 0.050018
0.209778 0.147644 0.047699
0.482483 0.100830 0.032562
0.709991 0.027832 0.059631
0.843353 0.006897 0.065979
0.121063 0.325714 0.095428
0.203918 0.308685 0.089752
0.472931 0.354401 0.093018
0.717255 0.312622 0.061890
0.873535 0.233185 0.048767
0.300781 0.572235 0.165375
0.376984 0.583252 0.167755
0.533020 0.577484 0.164459
0.751923 0.582733 0.149689
0.912689 0.513702 0.098145
0.580597 0.912445 0.258545
0.669861 0.929535 0.262115
0.827789 0.954987 0.269501
0.956024 0.962494 0.298157
0.971802 0.873688 0.269562
0.001221 0.086761 0.336395
0.180542 0.057739 0.295746
0.486359 0.038574 0.196808
0.782532 0.072266 0.216400
0.942413 0.057373 0.234161
0.028687 0.184021 0.182373
0.226807 0.214081 0.229889
0.525848 0.203827 0.213379
0.785309 0.181183 0.191589
0.931854 0.128357 0.172638
0.115417 0.398346 0.174377
0.235107 0.397156 0.169067
0.539856 0.425568 0.215485
0.790253 0.395111 0.209381
0.934204 0.318390 0.135864
0.234650 0.640839 0.198639
0.383057 0.663940 0.204010
0.572052 0.633514 0.189972
0.808594 0.629486 0.213593
0.938171 0.565674 0.188568
0.612823 0.948792 0.314026
0.739014 0.950653 0.329834
0.870819 0.954071 0.347351
0.966553 0.963287 0.367523
0.985504 0.962677 0.378754
0.000000 0.147522 0.638184
0.080414 0.145050 0.637482
0.367188 0.102173 0.522949
0.555573 0.039276 0.349213
0.809723 0.045654 0.349304
0.000671 0.232880 0.513519
0.104156 0.244781 0.540588
0.356720 0.217499 0.484009
0.583374 0.134888 0.356140
0.942505 0.222900 0.370728
0.051849 0.372467 0.386078
0.145447 0.382477 0.397583
0.498047 0.479187 0.502808
0.779968 0.484039 0.485077
0.995697 0.443695 0.423950
0.217285 0.691467 0.467285
0.287415 0.695282 0.468597
0.542358 0.678345 0.455750
0.801666 0.668518 0.452240
0.930420 0.610718 0.397247
0.375336 0.921722 0.470245
0.609161 0.931427 0.486298
0.830505 0.945312 0.506348
0.941956 0.958221 0.518005
0.984222 0.966125 0.517548
0.000000 0.190857 0.841003
0.066498 0.200195 0.838501
0.300598 0.200531 0.781738
0.549805 0.146667 0.687317
0.743744 0.069336 0.561707
0.000000 0.300018 0.805481
0.081238 0.311188 0.817810
0.298889 0.303894 0.789978
0.556549 0.273315 0.698975
0.772736 0.204895 0.572388
0.000000 0.384766 0.637360
0.097260 0.425812 0.705933
0.350830 0.464172 0.758850
0.599091 0.449921 0.706299
0.831512 0.396942 0.596893
0.147308 0.709076 0.709442
0.244049 0.716949 0.724854
0.463928 0.711151 0.726440
0.771820 0.746002 0.768005
0.991730 0.700653 0.696564
0.303711 0.956818 0.737640
0.386322 0.959473 0.741608
0.649536 0.967377 0.753052
0.909424 0.976166 0.755798
0.990967 0.980255 0.731262
0.000000 0.220215 0.933655
0.035248 0.228241 0.929260
0.221222 0.241150 0.889160
0.494507 0.228180 0.820312
0.709656 0.188324 0.751068
0.000000 0.326904 0.925385
0.033203 0.337128 0.919342
0.207092 0.346985 0.905731
0.497772 0.341248 0.845398
0.723694 0.311310 0.779755
0.000000 0.456085 0.886078
0.054443 0.469147 0.899353
0.230927 0.496674 0.906952
0.525970 0.498474 0.885651
0.750061 0.465149 0.824982
0.002991 0.650024 0.858368
0.083435 0.639404 0.870239
0.240295 0.663208 0.880035
0.565765 0.705017 0.918793
0.815125 0.665039 0.886993
0.242401 0.966888 0.936829
0.300201 0.969543 0.940826
0.409515 0.971771 0.970093
0.738434 0.982666 0.987518
0.999969 0.999969 0.999969
