Kodak Vision2 50D (5201) - Only contrast.cube
# Created by Benjamin (IWLTBAP) : http://luts.iwltbap.com
# Copyright: (C) Copyright 2010-2017 Triune Films and IWLTBAP SAS
# Cannot be resold, shared or otherwise redistributed
TITLE "Film Print Emulation LUTs Pack (Rec.709, sRGB, DCI-P3)"
LUT_3D_SIZE 5
0.003876 0.003876 0.003876
0.229218 0.003357 0.003357
0.486542 0.002625 0.002625
0.659363 0.002502 0.002502
0.829865 0.002380 0.002380
0.003357 0.229218 0.003357
0.229645 0.229645 0.002838
0.486450 0.229858 0.002106
0.658905 0.230621 0.001984
0.830627 0.231384 0.001831
0.002625 0.486542 0.002625
0.229858 0.486450 0.002106
0.486176 0.486176 0.001404
0.658264 0.486450 0.001251
0.831207 0.486694 0.001099
0.002502 0.659363 0.002502
0.230621 0.658905 0.001984
0.486450 0.658264 0.001251
0.658173 0.658173 0.001129
0.832367 0.658081 0.000977
0.002380 0.829865 0.002380
0.231384 0.830627 0.001831
0.486694 0.831207 0.001099
0.658081 0.832367 0.000977
0.833618 0.833405 0.013794
0.003357 0.003357 0.229218
0.229645 0.002838 0.229645
0.486450 0.002106 0.229858
0.658905 0.001984 0.230621
0.830627 0.001831 0.231384
0.002838 0.229645 0.229645
0.230042 0.230042 0.230042
0.486359 0.230225 0.230225
0.658447 0.230988 0.230988
0.831390 0.231750 0.231750
0.002106 0.486450 0.229858
0.230225 0.486359 0.230225
0.486053 0.486053 0.230438
0.657776 0.486298 0.231201
0.831970 0.486481 0.231964
0.001984 0.658905 0.230621
0.230988 0.658447 0.230988
0.486298 0.657776 0.231201
0.657684 0.657684 0.231995
0.833099 0.657562 0.232727
0.001831 0.830627 0.231384
0.231750 0.831390 0.231750
0.486481 0.831970 0.231964
0.657562 0.833099 0.232727
0.834167 0.834167 0.233459
0.002625 0.002625 0.486542
0.229858 0.002106 0.486450
0.486176 0.001404 0.486176
0.658264 0.001251 0.486450
0.831207 0.001099 0.486694
0.002106 0.229858 0.486450
0.230225 0.230225 0.486359
0.486053 0.230438 0.486053
0.657776 0.231201 0.486298
0.831970 0.231964 0.486481
0.001404 0.486176 0.486176
0.230438 0.486053 0.486053
0.485718 0.485718 0.485718
0.657135 0.485931 0.485931
0.832550 0.486115 0.486115
0.001251 0.658264 0.486450
0.231201 0.657776 0.486298
0.485931 0.657135 0.485931
0.657013 0.657013 0.486145
0.833649 0.656769 0.486298
0.001099 0.831207 0.486694
0.231964 0.831970 0.486481
0.486115 0.832550 0.486115
0.656769 0.833649 0.486298
0.833984 0.833984 0.486450
0.002502 0.002502 0.659363
0.230621 0.001984 0.658905
0.486450 0.001251 0.658264
0.658173 0.001129 0.658173
0.832367 0.000977 0.658081
0.001984 0.230621 0.658905
0.230988 0.230988 0.658447
0.486298 0.231201 0.657776
0.657684 0.231995 0.657684
0.833099 0.232727 0.657562
0.001251 0.486450 0.658264
0.231201 0.486298 0.657776
0.485931 0.485931 0.657135
0.657013 0.486145 0.657013
0.833649 0.486298 0.656769
0.001129 0.658173 0.658173
0.231995 0.657684 0.657684
0.486145 0.657013 0.657013
0.656830 0.656830 0.656830
0.834045 0.656586 0.656586
0.000977 0.832367 0.658081
0.232727 0.833099 0.657562
0.486298 0.833649 0.656769
0.656586 0.834045 0.656586
0.832794 0.832794 0.656372
0.002380 0.002380 0.829773
0.231384 0.001831 0.830627
0.486694 0.001099 0.831207
0.658081 0.000977 0.832367
0.833496 0.000793 0.833496
0.001831 0.231384 0.830627
0.231750 0.231750 0.831390
0.486481 0.231964 0.831970
0.657562 0.232727 0.833099
0.834167 0.233459 0.834167
0.001099 0.486694 0.831207
0.231964 0.486481 0.831970
0.486115 0.486115 0.832550
0.656769 0.486298 0.833649
0.833984 0.486450 0.833984
0.000977 0.658081 0.832367
0.232727 0.657562 0.833099
0.486298 0.656769 0.833649
0.656586 0.656586 0.834045
0.832794 0.656372 0.832794
0.000793 0.833496 0.833496
0.233459 0.834167 0.834167
0.486450 0.833984 0.833984
0.656372 0.832794 0.832794
0.831604 0.831604 0.831604
