Kodak Vision2 200T (5217) - Only contrast.cube
# Created by Benjamin (IWLTBAP) : http://luts.iwltbap.com
# Copyright: (C) Copyright 2010-2017 Triune Films and IWLTBAP SAS
# Cannot be resold, shared or otherwise redistributed
TITLE "Film Print Emulation LUTs Pack (Rec.709, sRGB, DCI-P3)"
LUT_3D_SIZE 33
0.000366 0.000366 0.000366
0.025299 0.000366 0.000366
0.052551 0.000336 0.000336
0.079926 0.000336 0.000336
0.108490 0.000305 0.000305
0.137909 0.000275 0.000275
0.165771 0.000244 0.000244
0.197113 0.000183 0.000183
0.228485 0.000153 0.000153
0.257080 0.000122 0.000122
0.288849 0.000061 0.000061
0.319427 0.000031 0.000031
0.350861 0.000000 0.000000
0.386719 0.000000 0.000000
0.417786 0.000000 0.000000
0.450256 0.000000 0.000000
0.482025 0.000000 0.000000
0.515747 0.000000 0.000000
0.545471 0.000000 0.000000
0.573669 0.000000 0.000000
0.601410 0.000000 0.000000
0.629028 0.000000 0.000000
0.656555 0.000000 0.000000
0.683319 0.000000 0.000000
0.710724 0.000000 0.000000
0.739777 0.000000 0.000000
0.773315 0.000000 0.000000
0.806976 0.000000 0.000000
0.840973 0.000000 0.000000
0.872559 0.000000 0.000000
0.898926 0.000000 0.000000
0.921417 0.000000 0.000000
0.937439 0.000000 0.000000
0.000366 0.025299 0.000366
0.025330 0.025330 0.000366
0.052551 0.025299 0.000336
0.079926 0.025299 0.000336
0.108521 0.025299 0.000305
0.137939 0.025269 0.000275
0.165802 0.025269 0.000244
0.197144 0.025238 0.000183
0.228546 0.025208 0.000153
0.257111 0.025208 0.000122
0.288879 0.025177 0.000061
0.319458 0.025146 0.000031
0.350922 0.025116 0.000000
0.386780 0.025055 0.000000
0.417816 0.025024 0.000000
0.450317 0.024994 0.000000
0.482086 0.024963 0.000000
0.515778 0.024933 0.000000
0.545502 0.024902 0.000000
0.573669 0.024902 0.000000
0.601410 0.024902 0.000000
0.629059 0.024902 0.000000
0.656555 0.024902 0.000000
0.683350 0.024902 0.000000
0.710724 0.024902 0.000000
0.739807 0.024872 0.000000
0.773376 0.024841 0.000000
0.807037 0.024811 0.000000
0.841034 0.024750 0.000000
0.872589 0.024719 0.000000
0.898926 0.024750 0.000000
0.921387 0.024780 0.000000
0.937378 0.024841 0.000000
0.000336 0.052551 0.000336
0.025299 0.052551 0.000336
0.052551 0.052551 0.000336
0.079926 0.052551 0.000305
0.108521 0.052551 0.000275
0.137939 0.052551 0.000244
0.165802 0.052551 0.000214
0.197174 0.052521 0.000183
0.228577 0.052490 0.000122
0.257111 0.052460 0.000092
0.288910 0.052429 0.000031
0.319489 0.052429 0.000000
0.350952 0.052399 0.000000
0.386841 0.052338 0.000000
0.417847 0.052307 0.000000
0.450348 0.052277 0.000000
0.482117 0.052246 0.000000
0.515839 0.052185 0.000000
0.545502 0.052185 0.000000
0.573669 0.052155 0.000000
0.601410 0.052155 0.000000
0.629059 0.052155 0.000000
0.656555 0.052155 0.000000
0.683319 0.052155 0.000000
0.710724 0.052155 0.000000
0.739838 0.052124 0.000000
0.773407 0.052094 0.000000
0.807068 0.052063 0.000000
0.841095 0.052002 0.000000
0.872589 0.051971 0.000000
0.898895 0.051971 0.000000
0.921326 0.052002 0.000000
0.937256 0.052094 0.000000
0.000336 0.079926 0.000336
0.025299 0.079926 0.000336
0.052551 0.079926 0.000305
0.079956 0.079956 0.000275
0.108551 0.079926 0.000244
0.137970 0.079926 0.000214
0.165833 0.079926 0.000214
0.197205 0.079895 0.000153
0.228607 0.079895 0.000092
0.257141 0.079865 0.000061
0.288940 0.079865 0.000031
0.319489 0.079834 0.000000
0.350983 0.079803 0.000000
0.386902 0.079742 0.000000
0.417847 0.079742 0.000000
0.450378 0.079712 0.000000
0.482147 0.079681 0.000000
0.515869 0.079651 0.000000
0.545502 0.079620 0.000000
0.573669 0.079620 0.000000
0.601440 0.079620 0.000000
0.629059 0.079651 0.000000
0.656555 0.079651 0.000000
0.683319 0.079651 0.000000
0.710754 0.079651 0.000000
0.739868 0.079651 0.000000
0.773468 0.079620 0.000000
0.807098 0.079590 0.000000
0.841156 0.079529 0.000000
0.872589 0.079529 0.000000
0.898865 0.079529 0.000000
0.921295 0.079559 0.000000
0.937164 0.079651 0.000000
0.000305 0.108490 0.000305
0.025299 0.108521 0.000305
0.052551 0.108521 0.000275
0.079926 0.108551 0.000244
0.108551 0.108551 0.000244
0.137970 0.108551 0.000183
0.165833 0.108551 0.000183
0.197235 0.108551 0.000122
0.228607 0.108521 0.000061
0.257141 0.108521 0.000031
0.288971 0.108521 0.000000
0.319519 0.108490 0.000000
0.351013 0.108490 0.000000
0.386932 0.108429 0.000000
0.417877 0.108429 0.000000
0.450409 0.108398 0.000000
0.482147 0.108398 0.000000
0.515900 0.108368 0.000000
0.545502 0.108337 0.000000
0.573669 0.108368 0.000000
0.601410 0.108368 0.000000
0.629028 0.108368 0.000000
0.656555 0.108398 0.000000
0.683319 0.108398 0.000000
0.710754 0.108429 0.000000
0.739868 0.108429 0.000000
0.773529 0.108398 0.000000
0.807129 0.108368 0.000000
0.841187 0.108337 0.000000
0.872589 0.108307 0.000000
0.898834 0.108337 0.000000
0.921204 0.108398 0.000000
0.937073 0.108490 0.000000
0.000275 0.137909 0.000275
0.025269 0.137939 0.000275
0.052551 0.137939 0.000244
0.079926 0.137970 0.000214
0.108551 0.137970 0.000183
0.137970 0.137970 0.000153
0.165833 0.137970 0.000122
0.197235 0.137970 0.000092
0.228638 0.137939 0.000031
0.257141 0.137939 0.000000
0.288971 0.137939 0.000000
0.319519 0.137939 0.000000
0.351044 0.137909 0.000000
0.386993 0.137848 0.000000
0.417877 0.137848 0.000000
0.450439 0.137817 0.000000
0.482178 0.137817 0.000000
0.515930 0.137756 0.000000
0.545502 0.137756 0.000000
0.573669 0.137756 0.000000
0.601410 0.137756 0.000000
0.629028 0.137787 0.000000
0.656525 0.137787 0.000000
0.683289 0.137787 0.000000
0.710724 0.137787 0.000000
0.739868 0.137787 0.000000
0.773560 0.137756 0.000000
0.807159 0.137726 0.000000
0.841217 0.137665 0.000000
0.872559 0.137665 0.000000
0.898804 0.137665 0.000000
0.921143 0.137695 0.000000
0.936951 0.137787 0.000000
0.000244 0.165771 0.000244
0.025269 0.165802 0.000244
0.052551 0.165802 0.000214
0.079926 0.165833 0.000214
0.108551 0.165833 0.000183
0.137970 0.165833 0.000122
0.165863 0.165863 0.000122
0.197266 0.165863 0.000061
0.228638 0.165863 0.000000
0.257172 0.165863 0.000000
0.289001 0.165863 0.000000
0.319550 0.165863 0.000000
0.351074 0.165863 0.000000
0.387024 0.165833 0.000000
0.417908 0.165833 0.000000
0.450470 0.165833 0.000000
0.482208 0.165833 0.000000
0.515961 0.165802 0.000000
0.545502 0.165802 0.000000
0.573669 0.165833 0.000000
0.601410 0.165863 0.000000
0.629028 0.165894 0.000000
0.656525 0.165894 0.000000
0.683258 0.165924 0.000000
0.710724 0.165955 0.000000
0.739899 0.165985 0.000000
0.773590 0.165955 0.000000
0.807190 0.165955 0.000000
0.841278 0.165924 0.000000
0.872559 0.165924 0.000000
0.898804 0.165955 0.000000
0.921082 0.166016 0.000000
0.936859 0.166138 0.000000
0.000183 0.197113 0.000183
0.025238 0.197144 0.000183
0.052521 0.197174 0.000183
0.079895 0.197205 0.000153
0.108551 0.197235 0.000122
0.137970 0.197235 0.000092
0.165863 0.197266 0.000061
0.197266 0.197266 0.000000
0.228638 0.197266 0.000000
0.257141 0.197296 0.000000
0.289001 0.197296 0.000000
0.319550 0.197296 0.000000
0.351074 0.197296 0.000000
0.387054 0.197266 0.000000
0.417908 0.197266 0.000000
0.450470 0.197266 0.000000
0.482208 0.197266 0.000000
0.515961 0.197235 0.000000
0.545471 0.197266 0.000000
0.573639 0.197266 0.000000
0.601379 0.197296 0.000000
0.628998 0.197327 0.000000
0.656494 0.197357 0.000000
0.683228 0.197388 0.000000
0.710724 0.197418 0.000000
0.739899 0.197418 0.000000
0.773621 0.197418 0.000000
0.807220 0.197388 0.000000
0.841278 0.197388 0.000000
0.872528 0.197388 0.000000
0.898743 0.197418 0.000000
0.920990 0.197479 0.000000
0.936707 0.197601 0.000000
0.000153 0.228485 0.000153
0.025208 0.228546 0.000153
0.052490 0.228577 0.000122
0.079895 0.228607 0.000092
0.108521 0.228607 0.000061
0.137939 0.228638 0.000031
0.165863 0.228638 0.000000
0.197266 0.228638 0.000000
0.228638 0.228638 0.000000
0.257141 0.228668 0.000000
0.289001 0.228668 0.000000
0.319519 0.228668 0.000000
0.351074 0.228668 0.000000
0.387085 0.228638 0.000000
0.417908 0.228638 0.000000
0.450500 0.228607 0.000000
0.482208 0.228607 0.000000
0.515991 0.228607 0.000000
0.545471 0.228607 0.000000
0.573608 0.228638 0.000000
0.601349 0.228638 0.000000
0.628967 0.228668 0.000000
0.656464 0.228699 0.000000
0.683197 0.228729 0.000000
0.710693 0.228729 0.000000
0.739899 0.228760 0.000000
0.773651 0.228729 0.000000
0.807220 0.228699 0.000000
0.841309 0.228668 0.000000
0.872528 0.228668 0.000000
0.898712 0.228699 0.000000
0.920929 0.228729 0.000000
0.936584 0.228851 0.000000
0.000122 0.257080 0.000122
0.025208 0.257111 0.000122
0.052460 0.257111 0.000092
0.079865 0.257141 0.000061
0.108521 0.257141 0.000031
0.137939 0.257141 0.000000
0.165863 0.257172 0.000000
0.197296 0.257141 0.000000
0.228668 0.257141 0.000000
0.257141 0.257141 0.000000
0.289001 0.257141 0.000000
0.319550 0.257141 0.000000
0.351105 0.257111 0.000000
0.387115 0.257080 0.000000
0.417908 0.257080 0.000000
0.450500 0.257080 0.000000
0.482239 0.257050 0.000000
0.516022 0.257050 0.000000
0.545471 0.257050 0.000000
0.573608 0.257080 0.000000
0.601349 0.257080 0.000000
0.628967 0.257111 0.000000
0.656464 0.257141 0.000000
0.683197 0.257172 0.000000
0.710693 0.257202 0.000000
0.739929 0.257202 0.000000
0.773682 0.257172 0.000000
0.807251 0.257172 0.000000
0.841370 0.257141 0.000000
0.872498 0.257141 0.000000
0.898682 0.257172 0.000000
0.920837 0.257233 0.000000
0.936493 0.257355 0.000000
0.000061 0.288849 0.000061
0.025177 0.288879 0.000061
0.052429 0.288910 0.000031
0.079865 0.288940 0.000031
0.108521 0.288971 0.000000
0.137939 0.288971 0.000000
0.165863 0.289001 0.000000
0.197296 0.289001 0.000000
0.228668 0.289001 0.000000
0.257141 0.289001 0.000000
0.289001 0.289001 0.000000
0.319550 0.289001 0.000000
0.351105 0.289001 0.000000
0.387146 0.288971 0.000000
0.417908 0.288971 0.000000
0.450531 0.288971 0.000000
0.482239 0.288971 0.000000
0.516022 0.288940 0.000000
0.545441 0.288971 0.000000
0.573578 0.288971 0.000000
0.601318 0.289001 0.000000
0.628937 0.289032 0.000000
0.656433 0.289062 0.000000
0.683167 0.289093 0.000000
0.710663 0.289093 0.000000
0.739899 0.289124 0.000000
0.773712 0.289093 0.000000
0.807281 0.289062 0.000000
0.841370 0.289062 0.000000
0.872467 0.289062 0.000000
0.898621 0.289093 0.000000
0.920776 0.289154 0.000000
0.936371 0.289246 0.000000
0.000031 0.319427 0.000031
0.025146 0.319458 0.000031
0.052429 0.319489 0.000000
0.079834 0.319489 0.000000
0.108490 0.319519 0.000000
0.137939 0.319519 0.000000
0.165863 0.319550 0.000000
0.197296 0.319550 0.000000
0.228668 0.319519 0.000000
0.257141 0.319550 0.000000
0.289001 0.319550 0.000000
0.319550 0.319550 0.000000
0.351135 0.319519 0.000000
0.387177 0.319489 0.000000
0.417908 0.319489 0.000000
0.450531 0.319489 0.000000
0.482239 0.319489 0.000000
0.516052 0.319458 0.000000
0.545410 0.319458 0.000000
0.573578 0.319489 0.000000
0.601288 0.319519 0.000000
0.628906 0.319519 0.000000
0.656403 0.319550 0.000000
0.683136 0.319580 0.000000
0.710663 0.319611 0.000000
0.739929 0.319611 0.000000
0.773743 0.319580 0.000000
0.807281 0.319580 0.000000
0.841400 0.319550 0.000000
0.872467 0.319550 0.000000
0.898590 0.319580 0.000000
0.920685 0.319641 0.000000
0.936249 0.319763 0.000000
0.000000 0.350861 0.000000
0.025116 0.350922 0.000000
0.052399 0.350952 0.000000
0.079803 0.350983 0.000000
0.108490 0.351013 0.000000
0.137909 0.351044 0.000000
0.165863 0.351074 0.000000
0.197296 0.351074 0.000000
0.228668 0.351074 0.000000
0.257111 0.351105 0.000000
0.289001 0.351105 0.000000
0.319519 0.351135 0.000000
0.351135 0.351135 0.000000
0.387207 0.351105 0.000000
0.417908 0.351105 0.000000
0.450531 0.351105 0.000000
0.482239 0.351105 0.000000
0.516052 0.351105 0.000000
0.545410 0.351135 0.000000
0.573547 0.351166 0.000000
0.601288 0.351196 0.000000
0.628906 0.351227 0.000000
0.656372 0.351257 0.000000
0.683075 0.351288 0.000000
0.710632 0.351349 0.000000
0.739899 0.351349 0.000000
0.773773 0.351349 0.000000
0.807281 0.351349 0.000000
0.841431 0.351349 0.000000
0.872437 0.351349 0.000000
0.898529 0.351410 0.000000
0.920593 0.351471 0.000000
0.936096 0.351624 0.000000
0.000000 0.386719 0.000000
0.025055 0.386780 0.000000
0.052338 0.386841 0.000000
0.079742 0.386902 0.000000
0.108429 0.386932 0.000000
0.137848 0.386993 0.000000
0.165833 0.387024 0.000000
0.197266 0.387054 0.000000
0.228638 0.387085 0.000000
0.257080 0.387115 0.000000
0.288971 0.387146 0.000000
0.319489 0.387177 0.000000
0.351105 0.387207 0.000000
0.387177 0.387177 0.000000
0.417877 0.387207 0.000000
0.450531 0.387207 0.000000
0.482208 0.387238 0.000000
0.516022 0.387238 0.000000
0.545349 0.387268 0.000000
0.573486 0.387299 0.000000
0.601227 0.387329 0.000000
0.628845 0.387390 0.000000
0.656311 0.387421 0.000000
0.683014 0.387451 0.000000
0.710571 0.387512 0.000000
0.739868 0.387512 0.000000
0.773743 0.387512 0.000000
0.807281 0.387512 0.000000
0.841400 0.387482 0.000000
0.872375 0.387512 0.000000
0.898438 0.387543 0.000000
0.920471 0.387604 0.000000
0.935944 0.387726 0.000000
0.000000 0.417786 0.000000
0.025024 0.417816 0.000000
0.052307 0.417847 0.000000
0.079742 0.417847 0.000000
0.108429 0.417877 0.000000
0.137848 0.417877 0.000000
0.165833 0.417908 0.000000
0.197266 0.417908 0.000000
0.228638 0.417908 0.000000
0.257080 0.417908 0.000000
0.288971 0.417908 0.000000
0.319489 0.417908 0.000000
0.351105 0.417908 0.000000
0.387207 0.417877 0.000000
0.417877 0.417877 0.000000
0.450531 0.417877 0.000000
0.482208 0.417877 0.000000
0.516022 0.417877 0.000000
0.545319 0.417877 0.000000
0.573456 0.417908 0.000000
0.601196 0.417938 0.000000
0.628815 0.417969 0.000000
0.656311 0.417999 0.000000
0.682983 0.418030 0.000000
0.710571 0.418060 0.000000
0.739868 0.418091 0.000000
0.773773 0.418060 0.000000
0.807281 0.418060 0.000000
0.841431 0.418060 0.000000
0.872345 0.418060 0.000000
0.898407 0.418091 0.000000
0.920410 0.418182 0.000000
0.935822 0.418304 0.000000
0.000000 0.450256 0.000000
0.024994 0.450317 0.000000
0.052277 0.450348 0.000000
0.079712 0.450378 0.000000
0.108398 0.450409 0.000000
0.137817 0.450439 0.000000
0.165833 0.450470 0.000000
0.197266 0.450470 0.000000
0.228607 0.450500 0.000000
0.257080 0.450500 0.000000
0.288971 0.450531 0.000000
0.319489 0.450531 0.000000
0.351105 0.450531 0.000000
0.387207 0.450531 0.000000
0.417877 0.450531 0.000000
0.450531 0.450531 0.000000
0.482208 0.450531 0.000000
0.516022 0.450531 0.000000
0.545288 0.450562 0.000000
0.573425 0.450562 0.000000
0.601166 0.450623 0.000000
0.628784 0.450653 0.000000
0.656250 0.450684 0.000000
0.682953 0.450714 0.000000
0.710541 0.450745 0.000000
0.739868 0.450775 0.000000
0.773804 0.450745 0.000000
0.807312 0.450745 0.000000
0.841461 0.450745 0.000000
0.872314 0.450745 0.000000
0.898346 0.450775 0.000000
0.920288 0.450867 0.000000
0.935699 0.450989 0.000000
0.000000 0.482025 0.000000
0.024963 0.482086 0.000000
0.052246 0.482117 0.000000
0.079681 0.482147 0.000000
0.108398 0.482147 0.000000
0.137817 0.482178 0.000000
0.165833 0.482208 0.000000
0.197266 0.482208 0.000000
0.228607 0.482208 0.000000
0.257050 0.482239 0.000000
0.288971 0.482239 0.000000
0.319489 0.482239 0.000000
0.351105 0.482239 0.000000
0.387238 0.482208 0.000000
0.417877 0.482208 0.000000
0.450531 0.482208 0.000000
0.482208 0.482208 0.000000
0.516022 0.482178 0.000000
0.545288 0.482208 0.000000
0.573425 0.482239 0.000000
0.601135 0.482269 0.000000
0.628754 0.482300 0.000000
0.656219 0.482330 0.000000
0.682922 0.482361 0.000000
0.710510 0.482391 0.000000
0.739868 0.482391 0.000000
0.773834 0.482391 0.000000
0.807312 0.482391 0.000000
0.841461 0.482361 0.000000
0.872284 0.482361 0.000000
0.898285 0.482422 0.000000
0.920197 0.482483 0.000000
0.935577 0.482605 0.000000
0.000000 0.515747 0.000000
0.024933 0.515778 0.000000
0.052185 0.515839 0.000000
0.079651 0.515869 0.000000
0.108368 0.515900 0.000000
0.137756 0.515930 0.000000
0.165802 0.515961 0.000000
0.197235 0.515961 0.000000
0.228607 0.515991 0.000000
0.257050 0.516022 0.000000
0.288940 0.516022 0.000000
0.319458 0.516052 0.000000
0.351105 0.516052 0.000000
0.387238 0.516022 0.000000
0.417877 0.516022 0.000000
0.450531 0.516022 0.000000
0.482178 0.516022 0.000000
0.516022 0.516022 0.000000
0.545227 0.516052 0.000000
0.573364 0.516052 0.000000
0.601105 0.516083 0.000000
0.628723 0.516113 0.000000
0.656189 0.516144 0.000000
0.682861 0.516174 0.000000
0.710480 0.516205 0.000000
0.739868 0.516235 0.000000
0.773834 0.516205 0.000000
0.807312 0.516205 0.000000
0.841461 0.516174 0.000000
0.872223 0.516174 0.000000
0.898224 0.516205 0.000000
0.920105 0.516266 0.000000
0.935425 0.516357 0.000000
0.000000 0.545471 0.000000
0.024902 0.545502 0.000000
0.052185 0.545502 0.000000
0.079620 0.545502 0.000000
0.108337 0.545502 0.000000
0.137756 0.545502 0.000000
0.165802 0.545502 0.000000
0.197266 0.545471 0.000000
0.228607 0.545471 0.000000
0.257050 0.545471 0.000000
0.288971 0.545441 0.000000
0.319458 0.545410 0.000000
0.351135 0.545410 0.000000
0.387268 0.545349 0.000000
0.417877 0.545319 0.000000
0.450562 0.545288 0.000000
0.482208 0.545288 0.000000
0.516052 0.545227 0.000000
0.545227 0.545227 0.000000
0.573364 0.545227 0.000000
0.601074 0.545227 0.000000
0.628693 0.545227 0.000000
0.656189 0.545227 0.000000
0.682861 0.545258 0.000000
0.710480 0.545258 0.000000
0.739868 0.545258 0.000000
0.773865 0.545197 0.000000
0.807343 0.545166 0.000000
0.841522 0.545135 0.000000
0.872223 0.545105 0.000000
0.898193 0.545135 0.000000
0.920044 0.545166 0.000000
0.935303 0.545258 0.000000
0.000000 0.573669 0.000000
0.024902 0.573669 0.000000
0.052155 0.573669 0.000000
0.079620 0.573669 0.000000
0.108368 0.573669 0.000000
0.137756 0.573669 0.000000
0.165833 0.573669 0.000000
0.197266 0.573639 0.000000
0.228638 0.573608 0.000000
0.257080 0.573608 0.000000
0.288971 0.573578 0.000000
0.319489 0.573578 0.000000
0.351166 0.573547 0.000000
0.387299 0.573486 0.000000
0.417908 0.573456 0.000000
0.450562 0.573425 0.000000
0.482239 0.573425 0.000000
0.516052 0.573364 0.000000
0.545227 0.573364 0.000000
0.573364 0.573364 0.000000
0.601074 0.573364 0.000000
0.628693 0.573364 0.000000
0.656158 0.573364 0.000000
0.682831 0.573364 0.000000
0.710480 0.573364 0.000000
0.739899 0.573364 0.000000
0.773926 0.573334 0.000000
0.807373 0.573273 0.000000
0.841553 0.573242 0.000000
0.872223 0.573212 0.000000
0.898163 0.573242 0.000000
0.919983 0.573273 0.000000
0.935211 0.573364 0.000000
0.000000 0.601410 0.000000
0.024902 0.601410 0.000000
0.052155 0.601410 0.000000
0.079620 0.601440 0.000000
0.108368 0.601410 0.000000
0.137756 0.601410 0.000000
0.165863 0.601410 0.000000
0.197296 0.601379 0.000000
0.228638 0.601349 0.000000
0.257080 0.601349 0.000000
0.289001 0.601318 0.000000
0.319519 0.601288 0.000000
0.351196 0.601288 0.000000
0.387329 0.601227 0.000000
0.417938 0.601196 0.000000
0.450623 0.601166 0.000000
0.482269 0.601135 0.000000
0.516083 0.601105 0.000000
0.545227 0.601074 0.000000
0.573364 0.601074 0.000000
0.601074 0.601074 0.000000
0.628693 0.601074 0.000000
0.656158 0.601074 0.000000
0.682831 0.601074 0.000000
0.710480 0.601074 0.000000
0.739929 0.601074 0.000000
0.773956 0.601044 0.000000
0.807404 0.600983 0.000000
0.841614 0.600952 0.000000
0.872192 0.600922 0.000000
0.898163 0.600922 0.000000
0.919891 0.600983 0.000000
0.935089 0.601074 0.000000
0.000000 0.629028 0.000000
0.024902 0.629059 0.000000
0.052155 0.629059 0.000000
0.079651 0.629059 0.000000
0.108368 0.629028 0.000000
0.137787 0.629028 0.000000
0.165894 0.629028 0.000000
0.197327 0.628998 0.000000
0.228668 0.628967 0.000000
0.257111 0.628967 0.000000
0.289032 0.628937 0.000000
0.319519 0.628906 0.000000
0.351227 0.628906 0.000000
0.387390 0.628845 0.000000
0.417969 0.628815 0.000000
0.450653 0.628784 0.000000
0.482300 0.628754 0.000000
0.516113 0.628723 0.000000
0.545227 0.628693 0.000000
0.573364 0.628693 0.000000
0.601074 0.628693 0.000000
0.628693 0.628693 0.000000
0.656158 0.628693 0.000000
0.682831 0.628693 0.000000
0.710480 0.628693 0.000000
0.739960 0.628693 0.000000
0.774017 0.628632 0.000000
0.807465 0.628601 0.000000
0.841644 0.628571 0.000000
0.872192 0.628540 0.000000
0.898132 0.628540 0.000000
0.919830 0.628601 0.000000
0.934998 0.628693 0.000000
0.000000 0.656555 0.000000
0.024902 0.656555 0.000000
0.052155 0.656555 0.000000
0.079651 0.656555 0.000000
0.108398 0.656555 0.000000
0.137787 0.656525 0.000000
0.165894 0.656525 0.000000
0.197357 0.656494 0.000000
0.228699 0.656464 0.000000
0.257141 0.656464 0.000000
0.289062 0.656433 0.000000
0.319550 0.656403 0.000000
0.351257 0.656372 0.000000
0.387421 0.656311 0.000000
0.417999 0.656311 0.000000
0.450684 0.656250 0.000000
0.482330 0.656219 0.000000
0.516144 0.656189 0.000000
0.545227 0.656189 0.000000
0.573364 0.656158 0.000000
0.601074 0.656158 0.000000
0.628693 0.656158 0.000000
0.656158 0.656158 0.000000
0.682800 0.656158 0.000000
0.710510 0.656158 0.000000
0.739990 0.656158 0.000000
0.774048 0.656097 0.000000
0.807495 0.656067 0.000000
0.841705 0.656006 0.000000
0.872192 0.656006 0.000000
0.898102 0.656006 0.000000
0.919769 0.656036 0.000000
0.934906 0.656128 0.000000
0.000000 0.683319 0.000000
0.024902 0.683350 0.000000
0.052155 0.683319 0.000000
0.079651 0.683319 0.000000
0.108398 0.683319 0.000000
0.137787 0.683289 0.000000
0.165924 0.683258 0.000000
0.197388 0.683228 0.000000
0.228729 0.683197 0.000000
0.257172 0.683197 0.000000
0.289093 0.683167 0.000000
0.319580 0.683136 0.000000
0.351288 0.683075 0.000000
0.387451 0.683014 0.000000
0.418030 0.682983 0.000000
0.450714 0.682953 0.000000
0.482361 0.682922 0.000000
0.516174 0.682861 0.000000
0.545258 0.682861 0.000000
0.573364 0.682831 0.000000
0.601074 0.682831 0.000000
0.628693 0.682831 0.000000
0.656158 0.682800 0.000000
0.682800 0.682800 0.000000
0.710510 0.682800 0.000000
0.740021 0.682800 0.000000
0.774109 0.682739 0.000000
0.807526 0.682678 0.000000
0.841766 0.682648 0.000000
0.872192 0.682617 0.000000
0.898102 0.682617 0.000000
0.919739 0.682648 0.000000
0.934814 0.682739 0.000000
0.000000 0.710724 0.000000
0.024902 0.710724 0.000000
0.052155 0.710724 0.000000
0.079651 0.710754 0.000000
0.108429 0.710754 0.000000
0.137787 0.710724 0.000000
0.165955 0.710724 0.000000
0.197418 0.710724 0.000000
0.228729 0.710693 0.000000
0.257202 0.710693 0.000000
0.289093 0.710663 0.000000
0.319611 0.710663 0.000000
0.351349 0.710632 0.000000
0.387512 0.710571 0.000000
0.418060 0.710571 0.000000
0.450745 0.710541 0.000000
0.482391 0.710510 0.000000
0.516205 0.710480 0.000000
0.545258 0.710480 0.000000
0.573364 0.710480 0.000000
0.601074 0.710480 0.000000
0.628693 0.710480 0.000000
0.656158 0.710510 0.000000
0.682800 0.710510 0.000000
0.710510 0.710510 0.000000
0.740051 0.710510 0.000000
0.774170 0.710480 0.000000
0.807587 0.710419 0.000000
0.841797 0.710388 0.000000
0.872192 0.710388 0.000000
0.898071 0.710388 0.000000
0.919647 0.710449 0.000000
0.934692 0.710541 0.000000
0.000000 0.739777 0.000000
0.024872 0.739807 0.000000
0.052124 0.739838 0.000000
0.079651 0.739868 0.000000
0.108429 0.739868 0.000000
0.137787 0.739868 0.000000
0.165985 0.739899 0.000000
0.197418 0.739899 0.000000
0.228760 0.739899 0.000000
0.257202 0.739929 0.000000
0.289124 0.739899 0.000000
0.319611 0.739929 0.000000
0.351349 0.739899 0.000000
0.387512 0.739868 0.000000
0.418091 0.739868 0.000000
0.450775 0.739868 0.000000
0.482391 0.739868 0.000000
0.516235 0.739868 0.000000
0.545258 0.739868 0.000000
0.573364 0.739899 0.000000
0.601074 0.739929 0.000000
0.628693 0.739960 0.000000
0.656158 0.739990 0.000000
0.682800 0.740021 0.000000
0.710510 0.740051 0.000000
0.740051 0.740051 0.000000
0.774200 0.740051 0.000000
0.807617 0.740021 0.000000
0.841827 0.740021 0.000000
0.872192 0.740021 0.000000
0.898010 0.740082 0.000000
0.919586 0.740143 0.000000
0.934601 0.740265 0.000000
0.000000 0.773315 0.000000
0.024841 0.773376 0.000000
0.052094 0.773407 0.000000
0.079620 0.773468 0.000000
0.108398 0.773529 0.000000
0.137756 0.773560 0.000000
0.165955 0.773590 0.000000
0.197418 0.773621 0.000000
0.228729 0.773651 0.000000
0.257172 0.773682 0.000000
0.289093 0.773712 0.000000
0.319580 0.773743 0.000000
0.351349 0.773773 0.000000
0.387512 0.773743 0.000000
0.418060 0.773773 0.000000
0.450745 0.773804 0.000000
0.482391 0.773834 0.000000
0.516205 0.773834 0.000000
0.545197 0.773865 0.000000
0.573334 0.773926 0.000000
0.601044 0.773956 0.000000
