Kodak Vision2 50D (5201) - Look.cube
# Created by Benjamin (IWLTBAP) : http://luts.iwltbap.com
# Copyright: (C) Copyright 2010-2017 Triune Films and IWLTBAP SAS
# Cannot be resold, shared or otherwise redistributed
TITLE "Film Print Emulation LUTs Pack (Rec.709, sRGB, DCI-P3)"
LUT_3D_SIZE 5
0.001190 0.003326 0.007111
0.154510 0.004181 0.000000
0.312195 0.006226 0.000000
0.424683 0.006866 0.000000
0.534027 0.015137 0.000000
0.074036 0.173004 0.075623
0.232300 0.200226 0.039795
0.451965 0.165314 0.001038
0.610657 0.139374 0.000061
0.691467 0.143921 0.013000
0.284393 0.409149 0.130157
0.395721 0.424438 0.115448
0.560455 0.414917 0.069305
0.697815 0.380432 0.050293
0.805756 0.381714 0.094727
0.452759 0.563934 0.197906
0.521881 0.583374 0.214233
0.649109 0.569061 0.163544
0.764038 0.565125 0.151093
0.853394 0.569092 0.212708
0.492065 0.672699 0.327850
0.521362 0.690826 0.364075
0.694366 0.687653 0.294495
0.822266 0.688873 0.263153
0.907654 0.696991 0.301971
0.005463 0.023346 0.100891
0.060547 0.031342 0.146057
0.263550 0.013550 0.055756
0.415649 0.015839 0.027618
0.541046 0.024628 0.028870
0.049774 0.203522 0.238251
0.197174 0.245300 0.246277
0.429382 0.222687 0.163757
0.607117 0.223602 0.154480
0.710632 0.216309 0.161041
0.208527 0.426392 0.303772
0.356537 0.466400 0.316040
0.522125 0.466309 0.273926
0.662201 0.444061 0.233612
0.802063 0.457703 0.262512
0.363586 0.574615 0.345856
0.460999 0.609344 0.379608
0.604187 0.608704 0.353821
0.725311 0.610138 0.328827
0.833893 0.611420 0.351562
0.452728 0.676392 0.399536
0.463470 0.694702 0.479675
0.667847 0.718292 0.431671
0.780151 0.721924 0.427917
0.881134 0.740662 0.476196
0.030701 0.083527 0.247162
0.052002 0.090393 0.294830
0.191650 0.066376 0.244598
0.336334 0.043854 0.190430
0.511505 0.064697 0.165375
0.057007 0.266266 0.390472
0.149506 0.304932 0.436035
0.324097 0.296539 0.402649
0.522949 0.267090 0.343201
0.660492 0.259613 0.316437
0.150299 0.459076 0.492371
0.271088 0.498749 0.511505
0.449890 0.508392 0.497192
0.613983 0.495819 0.452545
0.758423 0.500916 0.452332
0.276703 0.606567 0.527710
0.354645 0.627869 0.549774
0.546234 0.635590 0.543823
0.669891 0.653839 0.544403
0.798645 0.656921 0.530579
0.346985 0.694366 0.556824
0.384674 0.710541 0.600464
0.590302 0.737823 0.578796
0.745270 0.763367 0.586700
0.862213 0.781464 0.624390
0.046082 0.143188 0.385071
0.048553 0.151093 0.419769
0.166504 0.126129 0.379913
0.311615 0.108307 0.332062
0.423218 0.092041 0.297058
0.073883 0.300507 0.503967
0.125061 0.338348 0.548889
0.281738 0.337128 0.524872
0.443512 0.313873 0.479675
0.580200 0.301666 0.461151
0.156860 0.484375 0.606354
0.236084 0.524506 0.626862
0.408752 0.538696 0.617126
0.549866 0.530060 0.586670
0.702026 0.516449 0.566406
0.258881 0.617310 0.645416
0.344482 0.650330 0.669342
0.499207 0.664246 0.653137
0.635651 0.675964 0.657562
0.773956 0.685364 0.658966
0.307098 0.707336 0.664886
0.366089 0.724762 0.692535
0.522705 0.749207 0.676605
0.692108 0.778778 0.699341
0.841339 0.808960 0.741302
0.050110 0.180511 0.491974
0.052521 0.187531 0.516052
0.145844 0.169098 0.485626
0.289001 0.161987 0.449463
0.396484 0.137451 0.405487
0.081024 0.315826 0.591705
0.117798 0.354614 0.622162
0.251831 0.368317 0.616119
0.397522 0.343262 0.568909
0.524048 0.310791 0.521149
0.159851 0.502533 0.679718
0.213593 0.531921 0.696075
0.383240 0.569519 0.696136
0.522797 0.563354 0.675629
0.638855 0.524841 0.634827
0.237457 0.625671 0.721313
0.298798 0.652069 0.737030
0.445190 0.680084 0.737549
0.605469 0.702423 0.746216
0.737061 0.694122 0.730896
0.290222 0.711456 0.740265
0.354462 0.729767 0.754791
0.493744 0.755280 0.753510
0.672211 0.793854 0.777893
0.859924 0.825226 0.817139
