Kodak 16mm - Only color.cube
# Created by Benjamin (IWLTBAP) : http://luts.iwltbap.com
# Copyright: (C) Copyright 2010-2017 Triune Films and IWLTBAP SAS
# Cannot be resold, shared or otherwise redistributed
TITLE "Film Print Emulation LUTs Pack (Rec.709, sRGB, DCI-P3)"
LUT_3D_SIZE 9
0.030457 0.030457 0.019348
0.111969 0.029724 0.018280
0.178619 0.029144 0.016876
0.228638 0.028595 0.025970
0.291565 0.027985 0.034576
0.360901 0.027405 0.033783
0.420593 0.026733 0.049835
0.488953 0.025818 0.089172
0.547089 0.025208 0.101654
0.029724 0.108337 0.017609
0.116241 0.104858 0.016632
0.189972 0.100037 0.017059
0.252930 0.094604 0.031403
0.334991 0.088715 0.035797
0.397369 0.093414 0.053040
0.469055 0.092896 0.092865
0.543488 0.088196 0.106842
0.597260 0.086151 0.125183
0.027802 0.172943 0.016998
0.125824 0.175995 0.016510
0.210968 0.181335 0.015350
0.293121 0.187103 0.030670
0.370361 0.185333 0.062744
0.444122 0.179901 0.097107
0.517395 0.178284 0.117279
0.590210 0.174469 0.135162
0.645599 0.173859 0.140289
0.028564 0.216370 0.016388
0.145477 0.232941 0.015625
0.229431 0.248260 0.015747
0.328094 0.268158 0.046509
0.405212 0.273834 0.073456
0.482025 0.277710 0.079834
0.567474 0.276184 0.112671
0.640930 0.270966 0.153168
0.700714 0.273041 0.165710
0.067596 0.269653 0.016479
0.180176 0.292297 0.015808
0.258667 0.313385 0.014160
0.355865 0.344208 0.042694
0.439484 0.359589 0.083099
0.528809 0.364502 0.111206
0.608612 0.364624 0.134277
0.683655 0.366730 0.147522
0.763336 0.366913 0.162872
0.132141 0.323578 0.015778
0.199432 0.355652 0.014282
0.288818 0.385590 0.013458
0.388123 0.424194 0.057037
0.475372 0.440948 0.092285
0.577393 0.452759 0.132751
0.657013 0.451172 0.159637
0.751556 0.450195 0.167938
0.810669 0.456726 0.165924
0.167603 0.382446 0.014526
0.228241 0.420074 0.014648
0.323334 0.465759 0.024841
0.417145 0.506500 0.067078
0.514313 0.527405 0.120331
0.611908 0.540039 0.139221
0.699158 0.539551 0.160553
0.789703 0.538666 0.170135
0.848419 0.546631 0.171021
0.194794 0.445007 0.019531
0.254089 0.493347 0.021576
0.351379 0.545074 0.051392
0.455261 0.588898 0.089478
0.553864 0.617645 0.132782
0.648926 0.639221 0.151672
0.751038 0.638153 0.167267
0.843719 0.639771 0.174133
0.864929 0.647980 0.175751
0.215759 0.499420 0.019470
0.276428 0.561401 0.052094
0.373047 0.614136 0.057953
0.481934 0.663147 0.104309
0.579529 0.700012 0.134003
0.674500 0.723511 0.156738
0.785980 0.716583 0.171753
0.858948 0.724152 0.178375
0.863892 0.732819 0.179077
0.028595 0.027161 0.117615
0.121521 0.027405 0.121765
0.188049 0.028046 0.132141
0.244507 0.027466 0.143738
0.314545 0.026764 0.154877
0.376343 0.026245 0.152100
0.440796 0.025665 0.156586
0.508209 0.024963 0.169647
0.573151 0.024384 0.172485
0.027710 0.118011 0.129852
0.131195 0.115936 0.127777
0.206085 0.117828 0.147217
0.277313 0.108826 0.156006
0.354218 0.104797 0.160370
0.419861 0.104797 0.161499
0.491913 0.099670 0.173492
0.569183 0.093170 0.178741
0.628296 0.092743 0.191650
0.027435 0.179962 0.128693
0.142334 0.192200 0.138397
0.225677 0.203979 0.143768
0.315948 0.206909 0.150452
0.389038 0.207062 0.159668
0.462738 0.201660 0.169739
0.539124 0.197540 0.177826
0.614929 0.193512 0.187195
0.674011 0.195129 0.195374
0.069458 0.236084 0.138428
0.166351 0.256195 0.139313
0.247864 0.273987 0.135162
0.347046 0.290131 0.150513
0.423676 0.296356 0.157562
0.501892 0.298492 0.160309
0.584869 0.295166 0.177673
0.661255 0.293335 0.196411
0.732391 0.295349 0.208191
0.119324 0.293884 0.138123
0.193359 0.319397 0.133331
0.278717 0.345764 0.131195
0.374237 0.371826 0.145660
0.461182 0.380981 0.162231
0.548218 0.383942 0.175995
0.630096 0.383820 0.185211
0.707733 0.383118 0.197021
0.791687 0.384979 0.214996
0.163391 0.352142 0.139038
0.218475 0.384979 0.138794
0.313110 0.420319 0.135162
0.400269 0.457458 0.148895
0.493622 0.468872 0.163879
0.596558 0.481720 0.183777
0.673828 0.476807 0.194733
0.768158 0.473663 0.202271
0.823608 0.480255 0.205627
0.190765 0.413300 0.147064
0.252808 0.459015 0.139709
0.338623 0.505066 0.142120
0.437134 0.538147 0.154358
0.532532 0.558929 0.176849
0.627075 0.570770 0.185608
0.719208 0.570526 0.199341
0.810455 0.568970 0.210388
0.861694 0.579559 0.211853
0.220703 0.484253 0.151703
0.281342 0.539185 0.156525
0.365234 0.588104 0.149536
0.472260 0.635986 0.162903
0.572357 0.658966 0.178436
0.663269 0.683594 0.192749
0.765778 0.678375 0.203857
0.858887 0.677765 0.215973
0.863739 0.687988 0.216736
0.242889 0.554199 0.179901
0.310699 0.618195 0.184174
0.394470 0.680389 0.167389
0.505432 0.738983 0.178436
0.608734 0.768555 0.194916
0.707794 0.782837 0.202515
0.807770 0.772919 0.211884
0.860901 0.776154 0.221466
0.861755 0.786560 0.223694
0.027557 0.040894 0.196747
0.124420 0.047333 0.211853
0.200806 0.054260 0.231750
0.262665 0.052094 0.244141
0.338196 0.050323 0.257935
0.401611 0.048584 0.258453
0.474121 0.047333 0.266632
0.550476 0.043030 0.273193
0.607788 0.045380 0.276917
0.033325 0.144928 0.227966
0.134338 0.152679 0.239929
0.217804 0.153809 0.261841
0.299133 0.157806 0.274994
0.375885 0.148132 0.281494
0.452515 0.146667 0.285217
0.532623 0.138245 0.292633
0.610657 0.137939 0.295959
0.677460 0.135834 0.307495
0.069946 0.206360 0.242554
0.161560 0.218109 0.251862
0.250854 0.236633 0.263123
0.333374 0.251953 0.285370
0.415741 0.248138 0.293304
0.504913 0.242584 0.297058
0.588318 0.241547 0.295319
0.671967 0.239441 0.305084
0.745453 0.240173 0.316132
0.111359 0.265961 0.250824
0.188904 0.291626 0.264038
0.270935 0.307129 0.278412
0.364258 0.330261 0.296906
0.454926 0.337982 0.291870
0.548676 0.336548 0.291321
0.638062 0.336639 0.295593
0.731506 0.335907 0.302490
0.814148 0.340149 0.308136
0.158752 0.326477 0.258881
0.214539 0.359070 0.268768
0.303528 0.387207 0.281769
0.401855 0.416412 0.291870
0.496765 0.423462 0.290283
0.594543 0.427551 0.292267
0.693756 0.430176 0.297638
0.791504 0.429047 0.299133
0.865601 0.428650 0.303436
0.186676 0.385956 0.267151
0.246735 0.427155 0.270630
0.336609 0.474823 0.283722
0.435944 0.507172 0.284515
0.534790 0.517944 0.286102
0.645660 0.530182 0.289307
0.744598 0.526489 0.288879
0.858978 0.522064 0.288116
0.863556 0.530396 0.292847
0.215179 0.454468 0.271332
0.282288 0.509583 0.283203
0.364380 0.563202 0.289886
0.473328 0.605164 0.288940
0.583862 0.623932 0.288513
0.691406 0.639618 0.287445
0.794403 0.641205 0.289764
0.863647 0.633881 0.287933
0.862305 0.643921 0.293457
0.244263 0.531372 0.288025
0.318817 0.592316 0.303833
0.393036 0.655762 0.294739
0.515991 0.726013 0.297668
0.630859 0.749298 0.291870
0.747650 0.777283 0.297363
0.836060 0.773865 0.294128
0.862732 0.764221 0.296936
0.861237 0.777222 0.300415
0.271515 0.598419 0.321503
0.340973 0.666870 0.328003
0.420959 0.746368 0.315979
0.547119 0.852722 0.321106
0.667908 0.865784 0.318848
0.779175 0.868713 0.320374
0.857635 0.867432 0.318298
0.860382 0.867340 0.318726
0.860352 0.868225 0.321655
0.036560 0.076538 0.270355
0.134949 0.090973 0.284332
0.201141 0.097168 0.306244
0.268799 0.104401 0.327362
0.346222 0.106720 0.345825
0.414948 0.097870 0.344635
0.488281 0.095215 0.352142
0.564362 0.082092 0.361847
0.630768 0.086578 0.366821
0.053162 0.169678 0.303528
0.144867 0.177673 0.325195
0.217224 0.179230 0.349152
0.301544 0.181152 0.367981
0.381989 0.177185 0.379608
0.462585 0.176788 0.383972
0.544312 0.168427 0.390961
0.631866 0.170441 0.399231
0.700592 0.170593 0.412018
0.095398 0.222992 0.323273
0.177002 0.241699 0.342896
0.255005 0.262115 0.355804
0.342834 0.276215 0.375854
0.421631 0.275085 0.398041
0.510254 0.271118 0.400604
0.602295 0.270813 0.402008
0.688812 0.270050 0.414734
0.765991 0.272095 0.425720
0.143158 0.286926 0.341034
0.198090 0.312439 0.354279
0.280975 0.332550 0.368286
0.377960 0.358978 0.387970
0.457642 0.370148 0.411255
0.557678 0.365479 0.413116
0.655609 0.364380 0.409821
0.750793 0.364929 0.415405
0.852112 0.369476 0.418945
0.172913 0.348511 0.342590
0.227020 0.381104 0.363739
0.311249 0.410767 0.379364
0.404724 0.434265 0.409515
0.493927 0.453461 0.423950
0.600952 0.461029 0.415710
0.714600 0.462555 0.419098
0.821350 0.459900 0.417786
0.862762 0.460480 0.419220
0.202606 0.413239 0.356110
0.261261 0.455536 0.368591
0.341675 0.495209 0.390259
0.440704 0.531006 0.406677
0.545135 0.547272 0.415375
0.658142 0.557587 0.417816
0.767639 0.556213 0.412476
0.862244 0.556824 0.412964
0.861969 0.563934 0.416718
0.230835 0.481842 0.363647
0.301300 0.536407 0.387543
0.365906 0.582245 0.395294
0.477753 0.635010 0.407593
0.595398 0.658966 0.414886
0.714050 0.678192 0.414246
0.819153 0.683624 0.413422
0.862091 0.673492 0.412506
0.861053 0.687317 0.416718
0.263702 0.557190 0.384644
0.331421 0.620239 0.409607
0.390564 0.677948 0.402527
0.516479 0.759644 0.418488
0.642914 0.796570 0.420959
0.768280 0.838623 0.421417
0.854462 0.838959 0.417816
0.860046 0.823639 0.413574
0.859863 0.843201 0.417084
0.284180 0.624115 0.422852
0.349365 0.698517 0.430603
0.413055 0.769775 0.420685
0.539215 0.866272 0.437592
0.668976 0.869080 0.443451
0.781921 0.867462 0.441254
0.858765 0.867004 0.440643
0.859436 0.867126 0.439606
0.859375 0.866486 0.444885
0.050201 0.113007 0.331024
0.141052 0.119629 0.351227
0.200897 0.121765 0.373566
0.265594 0.131439 0.396088
0.343964 0.130859 0.421600
0.415619 0.129181 0.429169
0.491425 0.132965 0.436066
0.573639 0.123199 0.440674
0.638947 0.129364 0.450195
0.063385 0.182159 0.372314
0.146301 0.192413 0.394989
0.215332 0.195679 0.428741
0.294037 0.199951 0.449554
0.378479 0.199219 0.469147
0.464661 0.197052 0.477570
0.552185 0.193024 0.484192
0.636383 0.191528 0.489197
0.702240 0.194824 0.499542
0.116364 0.241821 0.397888
0.181366 0.260315 0.429932
0.243561 0.277679 0.450226
0.338745 0.290863 0.472229
0.420135 0.296326 0.494690
0.512054 0.291748 0.502350
0.601288 0.291138 0.499573
0.685089 0.290222 0.506042
0.761292 0.290924 0.517151
0.151855 0.304810 0.421783
0.199280 0.334747 0.440430
0.272858 0.354797 0.462402
0.378876 0.379547 0.479584
0.463531 0.393738 0.500122
0.555145 0.388458 0.513184
0.650024 0.381989 0.511963
0.746857 0.383820 0.507660
0.841553 0.386566 0.509857
0.180695 0.369324 0.431915
0.233643 0.401764 0.454590
0.306366 0.431274 0.471527
0.409912 0.458282 0.496857
0.501556 0.482635 0.516907
0.591187 0.490356 0.525543
0.700684 0.484039 0.522156
0.810822 0.479492 0.517731
0.861877 0.478119 0.516052
0.209656 0.433472 0.443970
0.266907 0.479675 0.461670
0.338013 0.510498 0.486969
0.436432 0.550293 0.506592
0.541382 0.566711 0.527130
0.636353 0.577606 0.538788
0.749298 0.577576 0.520081
0.860657 0.576141 0.513489
0.861084 0.583191 0.514801
0.237579 0.506622 0.451447
0.307678 0.559326 0.486420
0.362061 0.599640 0.493469
0.467346 0.655365 0.511627
0.585358 0.686676 0.519745
0.694031 0.696198 0.521851
0.807922 0.698486 0.513306
0.861938 0.693024 0.511810
0.860168 0.703796 0.514038
0.269928 0.575592 0.477570
0.335968 0.640259 0.501587
0.388123 0.705414 0.494781
0.500397 0.778198 0.519073
0.628510 0.836700 0.526764
0.748718 0.860870 0.521271
0.843811 0.857758 0.515808
0.859161 0.841400 0.512177
0.859009 0.855225 0.514587
0.286560 0.635925 0.508362
0.351288 0.714478 0.518616
0.409576 0.793304 0.506805
0.516388 0.867188 0.540283
0.646545 0.868073 0.547791
0.770966 0.865814 0.544952
0.853180 0.865814 0.536316
0.858734 0.866364 0.532715
0.858673 0.865601 0.537537
0.050201 0.127075 0.391571
0.139557 0.141815 0.415802
0.197693 0.147156 0.442108
0.264130 0.153015 0.470367
0.341522 0.159698 0.495422
0.415649 0.154297 0.509033
0.493103 0.157410 0.515808
0.575500 0.155823 0.527100
0.641815 0.161072 0.538666
0.067047 0.197144 0.440399
0.147705 0.207642 0.468811
0.210052 0.210876 0.505493
0.291412 0.217896 0.538300
0.374939 0.218048 0.560059
0.461700 0.219055 0.574219
0.546692 0.216400 0.580750
0.632782 0.213531 0.585205
0.692108 0.213531 0.593567
0.122467 0.259216 0.476074
0.184692 0.276428 0.512451
0.235199 0.292999 0.541809
0.327789 0.309418 0.574524
0.409729 0.312775 0.592773
0.502655 0.312439 0.603821
0.593170 0.311432 0.598755
0.673950 0.309296 0.597382
0.747131 0.310181 0.608612
0.153748 0.322449 0.497528
0.198486 0.354767 0.521820
0.265289 0.370331 0.560760
0.364319 0.393402 0.589508
0.453857 0.401093 0.601044
0.546600 0.406158 0.613281
0.639496 0.400757 0.610809
0.732605 0.398254 0.606323
0.814423 0.399323 0.608673
0.180664 0.383789 0.513947
0.233765 0.420471 0.542206
0.295532 0.449493 0.568909
0.397339 0.477753 0.600708
0.502167 0.497589 0.604095
0.593201 0.511353 0.618378
0.682281 0.501465 0.619690
0.782043 0.490387 0.615326
0.863068 0.490234 0.610260
0.208221 0.454102 0.522614
0.272064 0.500214 0.563080
0.335510 0.533783 0.589783
0.428192 0.569733 0.608673
0.538696 0.586487 0.619324
0.628967 0.604523 0.641632
0.729675 0.602142 0.630280
0.856628 0.590240 0.611511
0.860260 0.595276 0.612946
0.242493 0.527496 0.546783
0.312805 0.575195 0.583130
0.363525 0.621338 0.596710
0.458344 0.673889 0.617981
0.572113 0.698273 0.619446
0.676117 0.708466 0.633850
0.776672 0.712219 0.632446
0.861450 0.705322 0.608612
0.859375 0.712036 0.612244
0.274750 0.594757 0.571869
0.340515 0.657837 0.595734
0.388336 0.727325 0.589325
0.490051 0.795258 0.617218
0.606445 0.853760 0.623108
0.731934 0.862793 0.626312
0.823181 0.861450 0.616547
0.859711 0.854858 0.606018
0.858246 0.860809 0.610535
0.285919 0.646332 0.596283
0.350159 0.723755 0.606354
0.401642 0.822449 0.593048
0.499908 0.868378 0.633698
0.623596 0.867035 0.647675
0.753082 0.864655 0.654602
0.838135 0.864105 0.640930
0.857971 0.864807 0.632172
0.857941 0.863861 0.636017
0.050232 0.152405 0.455597
0.136505 0.165344 0.481903
0.193512 0.170532 0.513458
0.264008 0.176392 0.549561
0.339050 0.180267 0.581268
0.415924 0.179077 0.593689
0.490814 0.180420 0.606842
0.571655 0.179779 0.616760
0.642914 0.182465 0.623566
0.071594 0.211914 0.512268
0.143402 0.226929 0.548676
0.204102 0.231964 0.590576
0.289948 0.240631 0.625702
0.374084 0.241791 0.651093
0.454742 0.242981 0.670013
0.540253 0.244446 0.683655
0.623413 0.240875 0.688721
0.686920 0.241028 0.690125
0.125214 0.275208 0.564148
0.185272 0.292633 0.605377
0.231842 0.310760 0.632690
0.324951 0.328827 0.677307
0.405701 0.333069 0.691315
0.497559 0.332977 0.701752
0.588226 0.333405 0.702484
0.670410 0.330658 0.703156
0.740997 0.333649 0.710052
0.153198 0.344269 0.581268
0.202057 0.369812 0.617371
0.264587 0.386047 0.651886
0.360260 0.410950 0.693268
0.442932 0.415436 0.705200
0.537964 0.422485 0.721191
0.631409 0.422150 0.726379
0.719757 0.417755 0.717010
0.795715 0.419037 0.715027
0.185669 0.402557 0.606995
0.234833 0.440460 0.629761
0.293701 0.469696 0.657867
0.388031 0.495911 0.704803
0.487213 0.510223 0.722839
0.584045 0.518799 0.738037
0.673065 0.519562 0.743896
0.762146 0.510986 0.731659
0.858154 0.505951 0.713440
0.209351 0.471863 0.613861
0.275848 0.513702 0.648560
0.335724 0.546967 0.685516
0.416962 0.586151 0.721222
0.520569 0.605164 0.733673
0.627411 0.620941 0.742340
0.718964 0.621185 0.738434
0.824158 0.606201 0.718506
0.860962 0.608246 0.708130
0.245636 0.541107 0.634857
0.315826 0.588623 0.680908
0.362518 0.636017 0.695282
0.450653 0.693359 0.735809
0.563782 0.715546 0.739441
0.669373 0.729553 0.746857
0.756531 0.734680 0.759033
0.858368 0.717834 0.716461
0.858551 0.720276 0.709717
0.275360 0.608490 0.656281
0.338348 0.670563 0.689606
0.382660 0.741425 0.685272
0.475464 0.808716 0.721680
0.592529 0.862000 0.735016
0.712219 0.863434 0.745117
0.810852 0.862030 0.733887
0.859863 0.858734 0.707092
0.857513 0.860931 0.705261
0.285645 0.653534 0.680603
0.343048 0.731842 0.697388
0.392120 0.843781 0.678986
0.477264 0.867828 0.721619
0.597260 0.865723 0.749023
0.726135 0.864014 0.764282
0.823242 0.863373 0.748291
0.859192 0.863525 0.722076
0.857239 0.863190 0.724945
0.050293 0.174438 0.528442
0.131470 0.180908 0.559814
0.186523 0.187164 0.598389
0.259705 0.196167 0.642914
0.338531 0.200623 0.678223
0.413300 0.200958 0.690521
0.489410 0.205688 0.706268
0.569519 0.206909 0.723236
0.633575 0.209167 0.733765
0.035522 0.229340 0.593689
0.146576 0.242676 0.637543
0.202576 0.253296 0.686157
0.285797 0.262573 0.731079
0.371826 0.265350 0.762238
0.450287 0.265717 0.782104
0.532745 0.272095 0.810211
0.618347 0.268555 0.820770
0.680634 0.268402 0.823212
0.137177 0.288849 0.657806
0.184814 0.312073 0.694366
0.220062 0.336761 0.725006
0.316681 0.352600 0.798431
0.401917 0.358154 0.827759
0.493744 0.357544 0.850403
0.584351 0.357697 0.852417
0.663605 0.356049 0.847260
0.729095 0.357605 0.849670
0.144012 0.365082 0.670380
0.204468 0.384918 0.714355
0.256226 0.404419 0.762604
0.353668 0.432434 0.816040
0.438171 0.440186 0.853851
0.532104 0.443848 0.866852
0.623505 0.445160 0.869965
0.708038 0.443298 0.862427
0.778717 0.439606 0.853424
0.190399 0.421570 0.698212
0.232605 0.461060 0.727814
0.293396 0.483337 0.770050
0.380890 0.510284 0.828644
0.475708 0.529388 0.861938
0.572845 0.538452 0.874603
0.657410 0.536896 0.874420
0.745178 0.529205 0.866394
0.836975 0.523254 0.850189
0.213165 0.490173 0.700714
0.274963 0.527069 0.761780
0.332123 0.554352 0.798767
0.403137 0.595490 0.847961
0.505096 0.622437 0.868500
0.605225 0.637726 0.876190
0.695587 0.631989 0.874786
0.793488 0.622681 0.868164
0.858673 0.623291 0.855377
0.245544 0.551880 0.739380
0.312134 0.596252 0.783508
0.356415 0.640442 0.801910
0.427460 0.697449 0.843658
0.539795 0.733795 0.874023
0.640259 0.753326 0.876099
0.741608 0.748047 0.874268
0.847076 0.731720 0.862579
0.859283 0.727722 0.856598
0.273407 0.614655 0.764526
0.333130 0.675629 0.783600
0.373596 0.747559 0.767487
0.446655 0.799042 0.829163
0.565063 0.862091 0.871948
0.670929 0.863342 0.875427
0.770050 0.862335 0.874023
0.852936 0.858704 0.873505
0.856323 0.859528 0.858551
0.281006 0.657898 0.772186
0.338043 0.730347 0.780731
0.378418 0.834229 0.761810
0.443298 0.864532 0.818207
0.558136 0.866089 0.872162
0.674133 0.863525 0.876923
0.777863 0.862732 0.875488
0.857330 0.862915 0.869110
0.856140 0.862152 0.870636
0.032806 0.183441 0.594666
0.112610 0.196899 0.628448
0.185883 0.202911 0.682343
0.254761 0.212280 0.733978
0.334869 0.219757 0.778412
0.410706 0.220581 0.789948
0.486023 0.224762 0.815704
0.569733 0.228363 0.849640
0.634674 0.229156 0.856628
0.071594 0.244019 0.677948
0.150482 0.257996 0.723450
0.198578 0.270477 0.780792
0.283020 0.283264 0.856628
0.368896 0.287781 0.876770
0.450348 0.289093 0.881653
0.532990 0.294067 0.884705
0.616211 0.292206 0.884277
0.680206 0.292786 0.883789
0.142029 0.306061 0.744843
0.179352 0.335175 0.782776
0.215881 0.357422 0.812958
0.311401 0.368469 0.879395
0.397156 0.375305 0.884491
0.491943 0.378876 0.882996
0.575409 0.379028 0.882385
0.653809 0.377716 0.881805
0.714081 0.378967 0.881348
0.151886 0.377808 0.757416
0.208588 0.397095 0.815033
0.249207 0.422180 0.837769
0.341797 0.443787 0.883575
0.427826 0.457458 0.882904
0.518616 0.464844 0.882172
0.602386 0.469727 0.881500
0.678467 0.464783 0.880951
0.749939 0.463440 0.880432
0.190002 0.432617 0.793213
0.228424 0.470520 0.801361
0.287018 0.490631 0.867157
0.363647 0.512085 0.883606
0.453278 0.540497 0.882080
0.543823 0.554413 0.881287
0.624023 0.552765 0.880707
0.707794 0.547546 0.880127
0.784271 0.541962 0.879578
0.209076 0.500916 0.784576
0.270721 0.532501 0.854919
0.323792 0.557190 0.880127
0.378906 0.593201 0.883026
0.469025 0.624207 0.881348
0.568878 0.648560 0.880402
0.658264 0.647278 0.879730
0.753448 0.639709 0.879089
0.829834 0.638153 0.878510
0.240112 0.555847 0.817261
0.303131 0.591064 0.872711
0.343750 0.635376 0.878754
0.388397 0.676453 0.880432
0.488037 0.718292 0.880493
0.595581 0.751617 0.879425
0.696960 0.755524 0.878632
0.798492 0.733978 0.878021
0.856079 0.734924 0.877563
0.262756 0.609497 0.839203
0.319855 0.655457 0.874573
0.355652 0.733429 0.862518
0.395782 0.763397 0.871124
0.501923 0.854706 0.879364
0.621918 0.863068 0.878387
0.733521 0.862976 0.877533
0.850403 0.859619 0.876678
0.858124 0.860138 0.876556
0.267090 0.644348 0.835083
0.322357 0.693970 0.870026
0.359222 0.780121 0.854797
0.395264 0.854095 0.858429
0.496490 0.866974 0.879578
0.627869 0.863770 0.878265
0.749847 0.862823 0.877350
0.855225 0.862335 0.876526
0.855988 0.861877 0.876465
