Kodak Vision3 200T (5213) - Look.cube
# Created by Benjamin (IWLTBAP) : http://luts.iwltbap.com
# Copyright: (C) Copyright 2010-2017 Triune Films and IWLTBAP SAS
# Cannot be resold, shared or otherwise redistributed
TITLE "Film Print Emulation LUTs Pack (Rec.709, sRGB, DCI-P3)"
LUT_3D_SIZE 9
0.000793 0.000793 0.000793
0.075653 0.007874 0.008667
0.194946 0.028381 0.018127
0.312256 0.052338 0.026031
0.411133 0.072083 0.026031
0.502106 0.091339 0.025238
0.588348 0.108276 0.023651
0.672882 0.124664 0.023651
0.762024 0.143402 0.025238
0.009460 0.050354 0.012604
0.070526 0.086517 0.026794
0.200897 0.114990 0.037048
0.338348 0.131805 0.033112
0.459351 0.145874 0.031525
0.568909 0.158203 0.027588
0.673706 0.169617 0.025238
0.777283 0.183929 0.025238
0.884430 0.201477 0.026825
0.026794 0.131195 0.035492
0.056183 0.158203 0.045441
0.167725 0.196747 0.048981
0.328339 0.230255 0.053650
0.466187 0.243256 0.037048
0.578522 0.249146 0.034698
0.687134 0.259460 0.033905
0.801239 0.272369 0.033905
0.920410 0.287354 0.033112
0.049652 0.225525 0.069458
0.073120 0.256073 0.071075
0.163879 0.312378 0.083344
0.316589 0.320038 0.076172
0.467041 0.349243 0.079559
0.593567 0.379120 0.056824
0.699402 0.382355 0.043243
0.811615 0.384277 0.038635
0.930756 0.391876 0.036285
0.084717 0.347687 0.121735
0.108612 0.387756 0.141144
0.183716 0.425049 0.114990
0.288910 0.455536 0.106415
0.468994 0.447418 0.101105
0.597900 0.470062 0.104919
0.715973 0.511505 0.086517
0.822510 0.523987 0.058655
0.935730 0.525238 0.048981
0.130890 0.485291 0.181580
0.150726 0.523376 0.199127
0.199524 0.535095 0.176727
0.260498 0.568787 0.151794
0.512726 0.583832 0.112213
0.602081 0.575134 0.125275
0.710236 0.587219 0.125275
0.830231 0.629089 0.110413
0.938019 0.650665 0.075653
0.182220 0.591187 0.221558
0.201080 0.621216 0.229279
0.237671 0.631989 0.238159
0.315552 0.697052 0.205719
0.483002 0.693146 0.117737
0.646179 0.710114 0.148346
0.722168 0.698792 0.154144
0.820465 0.702484 0.159485
0.935028 0.736664 0.142303
0.215332 0.683777 0.245758
0.230438 0.712006 0.246368
0.258270 0.727020 0.244812
0.321838 0.747711 0.289032
0.443359 0.804291 0.255188
0.651459 0.819031 0.146454
0.760559 0.838104 0.207794
0.832153 0.818787 0.215698
0.924744 0.813080 0.206665
0.250977 0.769379 0.263092
0.270294 0.790894 0.321381
0.285278 0.802124 0.402435
0.325806 0.816559 0.350800
0.439758 0.880493 0.341858
0.640961 0.900879 0.237030
0.756927 0.921753 0.241516
0.858826 0.936829 0.296021
0.920441 0.901611 0.307190
0.003143 0.010254 0.033905
0.058655 0.016541 0.068390
0.170532 0.017334 0.098328
0.302460 0.040985 0.083801
0.433380 0.059265 0.079559
0.547394 0.081482 0.072601
0.647675 0.100311 0.062225
0.747437 0.116730 0.056824
0.856293 0.132721 0.052338
0.013397 0.065063 0.043243
0.059845 0.090881 0.086517
0.209839 0.121735 0.106415
0.333618 0.138885 0.107513
0.459290 0.155396 0.103394
0.571136 0.167725 0.096313
0.676239 0.178711 0.089142
0.785797 0.191681 0.080536
0.902527 0.207031 0.073120
0.023651 0.143402 0.069458
0.055573 0.169373 0.078125
0.156189 0.214050 0.106415
0.340363 0.239288 0.126556
0.467133 0.247131 0.115356
0.579834 0.257843 0.109711
0.688782 0.268768 0.104156
0.803650 0.280792 0.095490
0.923035 0.295898 0.087402
0.046875 0.236694 0.095093
0.067841 0.262360 0.103760
0.155670 0.331879 0.124329
0.320251 0.340363 0.133911
0.472687 0.367462 0.147247
0.592468 0.382538 0.128418
0.697540 0.382446 0.117737
0.812408 0.387299 0.109711
0.933014 0.398590 0.103394
0.079102 0.356537 0.137421
0.102997 0.400940 0.155670
0.182648 0.455139 0.161926
0.256073 0.493286 0.171692
0.478638 0.471558 0.163147
0.604980 0.489227 0.168671
0.718079 0.523010 0.146423
0.823181 0.525604 0.125916
0.937439 0.526611 0.116730
0.126556 0.490051 0.188599
0.149139 0.532898 0.198547
0.185852 0.533112 0.204376
0.289795 0.604767 0.205322
0.488342 0.612823 0.129974
0.615021 0.597687 0.183929
0.718628 0.604462 0.186493
0.834656 0.642639 0.167480
0.941010 0.657043 0.133606
0.179810 0.596680 0.219086
0.197754 0.627808 0.217316
0.228577 0.632141 0.225189
0.295898 0.674377 0.265930
0.458038 0.718079 0.196747
0.659180 0.728271 0.198334
0.730377 0.716522 0.216949
0.824036 0.712616 0.223114
0.938202 0.746918 0.198547
0.212250 0.688263 0.236389
0.228760 0.717499 0.267487
0.255463 0.734375 0.313568
0.303802 0.746185 0.297638
0.376160 0.804840 0.313080
0.640442 0.824982 0.183075
0.760590 0.843323 0.262207
0.837036 0.828400 0.271667
0.929474 0.823425 0.260193
0.249451 0.775543 0.314362
0.268066 0.795715 0.386902
0.281342 0.809998 0.459869
0.307892 0.826416 0.427002
0.436432 0.886078 0.348755
0.635498 0.907196 0.278778
0.761810 0.925171 0.297150
0.864838 0.939789 0.359528
0.924347 0.909210 0.390808
0.010254 0.038635 0.111145
0.045441 0.038635 0.119751
0.116730 0.031555 0.166046
0.278381 0.031525 0.186707
0.435181 0.059845 0.173767
0.551544 0.066772 0.145050
0.654877 0.077667 0.137146
0.753601 0.103027 0.131195
0.857147 0.127502 0.125275
0.016571 0.105652 0.119415
0.035492 0.113251 0.150208
0.129028 0.116028 0.193542
0.300720 0.122040 0.199524
0.457062 0.137726 0.192108
0.578247 0.156189 0.184998
0.683807 0.177368 0.183075
0.789642 0.198730 0.182220
0.901825 0.219421 0.178467
0.018127 0.171234 0.142548
0.040985 0.184357 0.169830
0.112915 0.218018 0.218018
0.328339 0.237823 0.207031
0.461945 0.259308 0.216400
0.579956 0.273193 0.215881
0.689606 0.284760 0.211670
0.803467 0.296387 0.205688
0.921844 0.309906 0.198730
0.037842 0.250366 0.187531
0.058044 0.276062 0.200684
0.124969 0.324890 0.218903
0.280243 0.358643 0.237183
0.474945 0.377808 0.243073
0.584839 0.380981 0.227905
0.694458 0.386475 0.220856
0.812408 0.396759 0.215515
0.931854 0.408417 0.210754
0.065643 0.363190 0.227051
0.090454 0.414795 0.258423
0.153351 0.455963 0.216766
0.248840 0.492554 0.214233
0.483215 0.497406 0.256378
0.605865 0.509308 0.267914
0.712097 0.525665 0.247589
0.818512 0.521759 0.230255
0.935944 0.523895 0.220856
0.122406 0.506805 0.243561
0.145599 0.549072 0.281433
0.189636 0.555023 0.244171
0.267487 0.600403 0.234253
0.434296 0.633667 0.237976
0.622803 0.626129 0.288635
0.720032 0.622498 0.299744
0.834106 0.652039 0.268463
0.939087 0.656158 0.243408
0.174469 0.606689 0.266357
0.192322 0.640472 0.300598
0.223114 0.645844 0.297394
0.270569 0.674103 0.316711
0.327820 0.719025 0.301117
0.632446 0.744019 0.290192
0.733734 0.731415 0.336426
0.827942 0.727570 0.330536
0.939362 0.760010 0.299622
0.206299 0.697723 0.308136
0.223114 0.728241 0.375488
0.247284 0.747101 0.416473
0.281189 0.751953 0.423126
0.334595 0.797394 0.310760
0.612732 0.825470 0.270721
0.756531 0.849945 0.352417
0.841064 0.842133 0.371307
0.930847 0.834198 0.365234
0.241516 0.783936 0.414307
0.259186 0.807068 0.474731
0.261658 0.824280 0.537994
0.289429 0.840454 0.520081
0.432953 0.894043 0.395813
0.597412 0.920990 0.324463
0.748322 0.934906 0.369781
0.864136 0.946686 0.451721
0.928162 0.920288 0.495270
0.015778 0.089600 0.207764
0.050354 0.084717 0.218536
0.101868 0.072601 0.226044
0.217316 0.043243 0.265381
0.387390 0.050354 0.284088
0.544037 0.073151 0.272522
0.658569 0.078613 0.253387
0.758514 0.082886 0.218719
0.860352 0.093018 0.196136
0.021271 0.159454 0.209076
0.043243 0.152832 0.236053
0.106415 0.131805 0.285797
0.207031 0.111145 0.315765
0.417145 0.130890 0.307770
0.573975 0.146149 0.298767
0.692566 0.153595 0.291351
0.796082 0.161682 0.265503
0.902069 0.183289 0.253235
0.024445 0.209473 0.232941
0.044739 0.223450 0.251129
0.090881 0.233093 0.308716
0.241364 0.247589 0.334808
0.445770 0.253540 0.332733
0.586517 0.264221 0.320251
0.698761 0.275391 0.316589
0.808258 0.295532 0.314972
0.920441 0.320374 0.317261
0.033112 0.283051 0.275543
0.054291 0.312622 0.299011
0.082886 0.320038 0.327026
0.223969 0.353516 0.368347
0.454498 0.376495 0.351898
0.575195 0.391693 0.346863
0.691071 0.405609 0.349335
0.811371 0.418365 0.346252
0.930389 0.430511 0.341309
0.069458 0.395691 0.327362
0.093842 0.451050 0.360626
0.132111 0.463501 0.354736
0.203979 0.496490 0.378113
0.436188 0.504913 0.419434
0.599518 0.521057 0.389465
0.700989 0.520935 0.364166
0.816315 0.524689 0.354736
0.935059 0.533234 0.349945
0.112549 0.523560 0.364838
0.132690 0.567200 0.401733
0.177368 0.573120 0.372070
0.235077 0.615234 0.397461
0.394623 0.630707 0.411194
0.619598 0.634277 0.421814
0.721680 0.640717 0.418274
0.828644 0.654602 0.385742
0.936432 0.654175 0.365723
0.161224 0.621368 0.382996
0.175812 0.655457 0.421417
0.213501 0.667542 0.414307
0.250366 0.695648 0.443298
0.364838 0.726837 0.409760
0.607788 0.746857 0.400330
0.737610 0.745911 0.449249
0.830902 0.744537 0.443237
0.940643 0.772247 0.411804
0.197571 0.711121 0.418365
0.214813 0.745300 0.476074
0.236877 0.766541 0.505951
0.252197 0.768402 0.509888
0.370148 0.812195 0.476288
0.572510 0.843201 0.379028
0.738678 0.861115 0.437988
0.847748 0.863037 0.478088
0.934143 0.849457 0.474304
0.236237 0.799591 0.499084
0.247772 0.824493 0.551880
0.255798 0.844635 0.608978
0.343964 0.861847 0.597778
0.451355 0.908722 0.538910
0.585449 0.927917 0.473328
0.724640 0.941864 0.470825
0.860443 0.952759 0.549042
0.932190 0.931183 0.599365
0.037842 0.129669 0.315765
0.076660 0.120758 0.343018
0.107513 0.108978 0.327454
0.158203 0.075165 0.357147
0.314026 0.056824 0.382812
0.492004 0.067291 0.392334
0.636566 0.079590 0.385925
0.755646 0.093445 0.376129
0.861023 0.093018 0.345734
0.032318 0.213501 0.308014
0.068390 0.201477 0.377899
0.123352 0.159698 0.404480
0.183289 0.145599 0.415649
0.344482 0.119415 0.442474
0.539551 0.148315 0.431793
0.673462 0.161682 0.426025
0.792908 0.171936 0.419861
0.902710 0.174225 0.395782
0.037048 0.265381 0.332733
0.056183 0.277954 0.356232
0.091309 0.266205 0.424805
0.223816 0.253235 0.466919
0.389191 0.228912 0.480957
0.571136 0.263641 0.459930
0.693268 0.272644 0.450836
0.811829 0.286560 0.441467
0.919495 0.287109 0.419525
0.052979 0.342468 0.377533
0.072083 0.377075 0.402588
0.097931 0.369873 0.428680
0.194733 0.379761 0.470978
0.396240 0.401459 0.481903
0.577881 0.411377 0.489777
0.702942 0.417053 0.472198
0.811951 0.421417 0.462646
0.925964 0.434082 0.459656
0.080994 0.454407 0.416809
0.096710 0.503418 0.457214
0.119751 0.495697 0.453735
0.209473 0.510742 0.495026
0.424805 0.522369 0.530151
0.592285 0.530273 0.504456
0.691803 0.534119 0.494629
0.804047 0.544800 0.495819
0.930389 0.556915 0.493286
0.113281 0.558594 0.456116
0.127808 0.593414 0.497620
0.157440 0.595093 0.491272
0.221558 0.625092 0.512787
0.417633 0.636414 0.539124
0.593414 0.640137 0.557434
0.716217 0.651245 0.533508
0.816864 0.653687 0.512390
0.932129 0.659271 0.504120
0.145905 0.640442 0.495819
0.158478 0.675537 0.540131
0.186279 0.687897 0.539795
0.246521 0.714722 0.542877
0.413727 0.742310 0.558929
0.585327 0.759674 0.523010
0.737152 0.758759 0.558594
0.831696 0.761627 0.556183
0.939392 0.779938 0.532410
0.178925 0.727783 0.542908
0.195770 0.764191 0.588379
0.214447 0.786987 0.608246
0.303314 0.794128 0.598175
0.431793 0.837250 0.594360
0.586639 0.862122 0.537354
0.720245 0.874908 0.536743
0.850525 0.879944 0.585022
0.935974 0.865540 0.583160
0.221558 0.817688 0.589996
0.230621 0.843811 0.634796
0.320496 0.866669 0.684662
0.394287 0.885712 0.675751
0.480103 0.922668 0.644318
0.600830 0.939545 0.597748
0.718201 0.950439 0.578644
0.858673 0.958832 0.643127
0.935638 0.941010 0.699402
0.059265 0.167969 0.422791
0.097534 0.160461 0.481781
0.130585 0.138031 0.448944
0.170074 0.121094 0.450531
0.262360 0.067871 0.486450
0.450684 0.072632 0.495514
0.610809 0.092590 0.504089
0.731171 0.103027 0.508759
0.844421 0.104553 0.498810
0.044006 0.265381 0.449402
0.088715 0.252777 0.514832
0.141998 0.201660 0.530457
0.199127 0.174683 0.510986
0.320251 0.124329 0.540070
0.518219 0.152039 0.543365
0.655121 0.176910 0.553436
0.770966 0.187744 0.558929
0.884186 0.190460 0.546387
0.063385 0.333710 0.453003
0.077148 0.343964 0.484863
0.119415 0.323669 0.543243
0.249603 0.301361 0.573853
0.366791 0.239441 0.587189
0.562469 0.268890 0.580292
0.681244 0.289795 0.584564
0.792297 0.298645 0.581329
0.907898 0.303680 0.565308
0.076660 0.415314 0.485840
0.091309 0.445618 0.516418
0.121063 0.439392 0.540863
0.220673 0.430267 0.568237
0.401459 0.423370 0.600891
0.566925 0.412048 0.598846
0.699585 0.423370 0.602295
0.805664 0.424744 0.588837
0.920074 0.435883 0.575745
0.079102 0.505249 0.519073
0.092590 0.543884 0.561310
0.125916 0.540619 0.555664
0.222076 0.551697 0.588226
0.423615 0.550140 0.612518
0.586365 0.562347 0.616943
0.712433 0.560547 0.618591
0.813019 0.563080 0.605804
0.922729 0.563782 0.600006
0.101868 0.585541 0.554504
0.118408 0.620758 0.597839
0.169617 0.625946 0.595154
0.268188 0.643921 0.606598
0.434296 0.655029 0.634674
0.605804 0.663239 0.658508
0.710785 0.660126 0.633118
0.808807 0.670990 0.633453
0.921539 0.681915 0.637543
0.143402 0.666016 0.595306
0.168182 0.704987 0.636810
0.220490 0.716553 0.638031
0.315186 0.727539 0.640381
0.445984 0.754486 0.662628
0.598114 0.768585 0.659546
0.723816 0.766998 0.662598
0.826965 0.774780 0.665009
0.931610 0.783630 0.654785
0.174011 0.754364 0.639374
0.221375 0.790344 0.678406
0.279968 0.814453 0.702606
0.366486 0.816559 0.689880
0.467926 0.855682 0.697388
0.593414 0.877594 0.678711
0.706085 0.887177 0.652069
0.846893 0.888489 0.682587
0.935669 0.880096 0.684845
0.222443 0.840393 0.683655
0.291077 0.865997 0.722412
0.367859 0.888428 0.766083
0.440399 0.904785 0.755310
0.516998 0.932495 0.746613
0.617889 0.947083 0.724152
0.725586 0.956604 0.701752
0.852814 0.963104 0.733612
0.938751 0.950531 0.801575
0.072113 0.210022 0.514252
0.112549 0.211151 0.612640
0.156189 0.181366 0.573364
0.195343 0.153870 0.549042
0.262360 0.090454 0.577393
0.475800 0.097534 0.592499
0.615021 0.119415 0.601624
0.723114 0.130585 0.617493
0.829193 0.132721 0.623901
0.063965 0.317383 0.581970
0.100677 0.316925 0.622467
0.172394 0.263367 0.651550
0.233917 0.232086 0.616241
0.344574 0.162903 0.631775
0.541168 0.184570 0.636414
0.661102 0.206848 0.646301
0.764313 0.215515 0.662506
0.870544 0.216949 0.667755
0.079559 0.402679 0.579803
0.095886 0.411133 0.614044
0.155670 0.387573 0.634155
0.292999 0.368805 0.669159
0.382904 0.291229 0.677094
0.587189 0.297028 0.675354
0.686829 0.315430 0.675476
0.784912 0.321289 0.686249
0.891205 0.323212 0.690491
0.090027 0.480377 0.598724
0.105652 0.511505 0.632324
0.158966 0.504272 0.644165
0.285919 0.491730 0.664154
0.439240 0.463013 0.712036
0.613098 0.412384 0.712616
0.706940 0.433838 0.702606
0.800934 0.441620 0.706451
0.904663 0.447815 0.701233
0.097137 0.551270 0.625580
0.117401 0.589722 0.666565
0.172852 0.588074 0.659485
0.281311 0.595490 0.672913
0.454620 0.594269 0.702911
0.602753 0.569061 0.716125
0.714417 0.562347 0.721680
0.810638 0.570465 0.724060
0.915161 0.571289 0.708221
0.113251 0.622772 0.655670
0.148865 0.661804 0.695007
0.214417 0.663818 0.689270
0.319336 0.673920 0.692871
0.456421 0.686890 0.724762
0.613586 0.690002 0.739929
0.713806 0.692657 0.740875
0.824432 0.690521 0.739746
0.918732 0.695740 0.731873
0.158966 0.701172 0.690063
0.210938 0.736908 0.726471
0.277435 0.746918 0.729950
0.370056 0.754944 0.733215
0.480865 0.778656 0.760529
0.611969 0.790192 0.769897
0.723663 0.789978 0.775177
0.818878 0.789215 0.763275
0.925964 0.803253 0.767181
0.227234 0.781647 0.726318
0.274567 0.819916 0.769104
0.325104 0.850250 0.802612
0.413879 0.846100 0.786621
0.501251 0.871338 0.798828
0.606598 0.888336 0.801239
0.707123 0.896515 0.793854
0.823151 0.896362 0.778473
0.931824 0.893707 0.791748
0.281464 0.869690 0.773346
0.343018 0.893555 0.812164
0.419678 0.911530 0.844818
0.491547 0.920532 0.841156
0.560028 0.939178 0.843079
0.645844 0.950409 0.840515
0.740265 0.958496 0.834625
0.845337 0.963287 0.835297
0.943390 0.961761 0.892853
0.079590 0.251129 0.589478
0.138885 0.285553 0.732300
0.194946 0.249603 0.703705
0.245911 0.212433 0.667816
0.362305 0.143127 0.690277
0.550629 0.155945 0.696381
0.647980 0.167725 0.697418
0.731049 0.169617 0.706787
0.822327 0.163666 0.717255
0.090881 0.384735 0.692535
0.131195 0.393768 0.708649
0.235077 0.348206 0.752655
0.306091 0.316132 0.732727
0.436493 0.233582 0.748596
0.603485 0.243866 0.740204
0.686859 0.247437 0.742188
0.769684 0.246216 0.752411
0.863953 0.244019 0.764435
0.102631 0.471619 0.701660
0.145599 0.490479 0.732117
0.238312 0.460083 0.737427
0.357056 0.432556 0.769135
0.432007 0.352814 0.772552
0.619598 0.324890 0.771759
0.703308 0.334137 0.768555
0.789246 0.342682 0.779968
0.886871 0.348633 0.795074
0.111145 0.542023 0.704529
0.148590 0.577667 0.735870
0.240875 0.560699 0.734161
0.377899 0.548279 0.771759
0.484039 0.508545 0.831177
0.618805 0.416565 0.830780
0.720154 0.437042 0.805878
0.803497 0.457520 0.805725
0.899780 0.469543 0.816437
0.134796 0.605560 0.724762
0.179352 0.642578 0.758820
0.255188 0.636383 0.748596
0.369598 0.642578 0.758911
0.512329 0.646698 0.804382
0.614716 0.606415 0.840515
0.731842 0.569946 0.836975
0.818207 0.586456 0.827148
0.911346 0.591705 0.835022
0.167236 0.669983 0.748535
0.220154 0.705688 0.785004
0.288513 0.707825 0.781097
0.383545 0.718719 0.789093
0.498474 0.735992 0.818359
0.629059 0.738708 0.833710
0.723907 0.718323 0.836823
0.827911 0.699310 0.851562
0.918457 0.704437 0.858063
0.216064 0.740082 0.780029
0.266937 0.779358 0.821442
0.326904 0.791901 0.831482
0.410522 0.798126 0.834045
0.508698 0.818695 0.854919
0.615387 0.826324 0.870239
0.720459 0.825287 0.876099
0.824280 0.818268 0.877167
0.927734 0.812561 0.872192
0.269196 0.819672 0.821564
0.312988 0.859772 0.868195
0.376038 0.893311 0.902710
0.457062 0.881500 0.883820
0.546936 0.893921 0.893402
0.631989 0.903809 0.900574
0.724609 0.908844 0.902252
0.826385 0.908783 0.901062
0.931458 0.912567 0.894348
0.325928 0.902252 0.872375
0.396667 0.921631 0.896393
0.478241 0.931824 0.913086
0.549744 0.937012 0.914398
0.616028 0.945068 0.918304
0.686981 0.953796 0.919098
0.772064 0.960083 0.920502
0.867798 0.964355 0.927246
0.949799 0.970001 0.955444
0.087402 0.293884 0.660004
0.201660 0.388062 0.820160
0.272369 0.324677 0.805969
0.329681 0.278107 0.802979
0.472534 0.215698 0.814819
0.603333 0.223633 0.797974
0.675262 0.216064 0.795959
0.743805 0.205719 0.802734
0.824585 0.196960 0.813080
0.171234 0.460968 0.822876
0.228424 0.475098 0.843842
0.324097 0.419769 0.839569
0.381805 0.366394 0.847748
0.499939 0.289551 0.850403
0.637054 0.286041 0.839813
0.712799 0.278778 0.846710
0.785492 0.276215 0.861786
0.870850 0.277710 0.872803
0.178711 0.537933 0.817505
0.231781 0.562256 0.836426
0.350067 0.529999 0.860779
0.434998 0.491791 0.877106
0.484955 0.410370 0.872253
0.641113 0.358856 0.881714
0.730713 0.354126 0.888092
0.808990 0.363678 0.898560
0.897919 0.379578 0.905701
0.182007 0.604980 0.793396
0.228088 0.635345 0.818787
0.338226 0.618652 0.825562
0.462799 0.610504 0.886475
0.547028 0.567047 0.920685
0.590393 0.467468 0.922028
0.737152 0.454773 0.923309
0.821167 0.475220 0.914612
0.909485 0.495697 0.920471
0.212799 0.660095 0.811829
0.256958 0.691681 0.840576
0.338440 0.691376 0.838684
0.443542 0.697906 0.861633
0.569061 0.706573 0.894257
0.654938 0.670258 0.924347
0.726807 0.598694 0.927521
0.835022 0.607361 0.924957
0.916901 0.618500 0.932556
0.244995 0.720367 0.839020
0.286713 0.754730 0.872345
0.352814 0.761566 0.876617
0.439758 0.774841 0.889313
0.548340 0.792908 0.909180
0.651001 0.790619 0.923523
0.747955 0.768585 0.924988
0.843414 0.720642 0.943176
0.927826 0.721069 0.951477
0.279877 0.791138 0.875427
0.318787 0.826874 0.910034
0.377350 0.838898 0.920929
0.464813 0.845093 0.923737
0.557800 0.859985 0.934540
0.643158 0.864685 0.945557
0.734680 0.859985 0.949707
0.836853 0.845886 0.949310
0.932953 0.818634 0.963348
0.324005 0.866577 0.914764
0.378387 0.896179 0.940247
0.441010 0.907501 0.945099
0.523193 0.908051 0.946228
0.601501 0.913971 0.950317
0.668854 0.919098 0.956055
0.744293 0.921692 0.961914
0.838623 0.920258 0.965607
0.934113 0.921509 0.970093
0.412903 0.931488 0.942383
0.476990 0.940460 0.949799
0.540161 0.943207 0.952789
0.603638 0.946686 0.955505
0.664459 0.950928 0.958649
0.722351 0.957001 0.962341
0.797607 0.961639 0.966400
0.891144 0.964966 0.968750
0.962280 0.970642 0.979553
