Kodak Vision3 500T (5219) - Only contrast 2.cube
# Created by Benjamin (IWLTBAP) : http://luts.iwltbap.com
# Copyright: (C) Copyright 2010-2017 Triune Films and IWLTBAP SAS
# Cannot be resold, shared or otherwise redistributed
TITLE "Film Print Emulation LUTs Pack (Rec.709, sRGB, DCI-P3)"
LUT_3D_SIZE 5
0.000244 0.000244 0.000244
0.170135 0.000000 0.000000
0.375122 0.000000 0.000000
0.623138 0.000000 0.000000
0.961090 0.000000 0.000000
0.000000 0.170135 0.000000
0.170258 0.170258 0.000000
0.375549 0.170166 0.000000
0.623749 0.169739 0.000000
0.964203 0.168701 0.000000
0.000000 0.375122 0.000000
0.170166 0.375549 0.000000
0.375732 0.375732 0.000000
0.624084 0.375610 0.000000
0.967072 0.374878 0.000000
0.000000 0.623138 0.000000
0.169739 0.623749 0.000000
0.375610 0.624084 0.000000
0.624146 0.624146 0.000000
0.969666 0.623535 0.000000
0.000000 0.961090 0.000000
0.168701 0.964203 0.000000
0.374878 0.967072 0.000000
0.623535 0.969666 0.000000
0.971863 0.971466 0.007080
0.000000 0.000000 0.170135
0.170258 0.000000 0.170258
0.375549 0.000000 0.170166
0.623749 0.000000 0.169739
0.964203 0.000000 0.168701
0.000000 0.170258 0.170258
0.170380 0.170380 0.170380
0.375977 0.170288 0.170288
0.624329 0.169861 0.169861
0.967316 0.168823 0.168823
0.000000 0.375549 0.170166
0.170288 0.375977 0.170288
0.376160 0.376160 0.170166
0.624664 0.376038 0.169739
0.970184 0.375275 0.168671
0.000000 0.623749 0.169739
0.169861 0.624329 0.169861
0.376038 0.624664 0.169739
0.624725 0.624725 0.169342
0.972778 0.624084 0.168243
0.000000 0.964203 0.168701
0.168823 0.967316 0.168823
0.375275 0.970184 0.168671
0.624084 0.972778 0.168243
0.974640 0.974640 0.167114
0.000000 0.000000 0.375122
0.170166 0.000000 0.375549
0.375732 0.000000 0.375732
0.624084 0.000000 0.375610
0.967072 0.000000 0.374878
0.000000 0.170166 0.375549
0.170288 0.170288 0.375977
0.376160 0.170166 0.376160
0.624664 0.169739 0.376038
0.970184 0.168671 0.375275
0.000000 0.375732 0.375732
0.170166 0.376160 0.376160
0.376343 0.376343 0.376343
0.625000 0.376251 0.376251
0.973053 0.375458 0.375458
0.000000 0.624084 0.375610
0.169739 0.624664 0.376038
0.376251 0.625000 0.376251
0.625061 0.625061 0.376129
0.975647 0.624420 0.375336
0.000000 0.967072 0.374878
0.168671 0.970184 0.375275
0.375458 0.973053 0.375458
0.624420 0.975647 0.375336
0.977509 0.977509 0.374512
0.000000 0.000000 0.623138
0.169739 0.000000 0.623749
0.375610 0.000000 0.624084
0.624146 0.000000 0.624146
0.969666 0.000000 0.623535
0.000000 0.169739 0.623749
0.169861 0.169861 0.624329
0.376038 0.169739 0.624664
0.624725 0.169342 0.624725
0.972778 0.168243 0.624084
0.000000 0.375610 0.624084
0.169739 0.376038 0.624664
0.376251 0.376251 0.625000
0.625061 0.376129 0.625061
0.975647 0.375336 0.624420
0.000000 0.624146 0.624146
0.169342 0.624725 0.624725
0.376129 0.625061 0.625061
0.625122 0.625122 0.625122
0.978210 0.624451 0.624451
0.000000 0.969666 0.623535
0.168243 0.972778 0.624084
0.375336 0.975647 0.624420
0.624451 0.978210 0.624451
0.980042 0.980042 0.623749
0.000000 0.000000 0.960907
0.168701 0.000000 0.964203
0.374878 0.000000 0.967072
0.623535 0.000000 0.969666
0.971558 0.000000 0.971558
0.000000 0.168701 0.964203
0.168823 0.168823 0.967316
0.375275 0.168671 0.970184
0.624084 0.168243 0.972778
0.974640 0.167114 0.974640
0.000000 0.374878 0.967072
0.168671 0.375275 0.970184
0.375458 0.375458 0.973053
0.624420 0.375336 0.975647
0.977509 0.374512 0.977509
0.000000 0.623535 0.969666
0.168243 0.624084 0.972778
0.375336 0.624420 0.975647
0.624451 0.624451 0.978210
0.980042 0.623749 0.980042
0.000000 0.971558 0.971558
0.167114 0.974640 0.974640
0.374512 0.977509 0.977509
0.623749 0.980042 0.980042
0.981842 0.981842 0.981842
