Kodak Vision3 200T (5213) - Look.cube
# Created by Benjamin (IWLTBAP) : http://luts.iwltbap.com
# Copyright: (C) Copyright 2010-2017 Triune Films and IWLTBAP SAS
# Cannot be resold, shared or otherwise redistributed
TITLE "Film Print Emulation LUTs Pack (Rec.709, sRGB, DCI-P3)"
LUT_3D_SIZE 5
0.000793 0.000793 0.000793
0.194946 0.028381 0.018127
0.411133 0.072083 0.026031
0.588348 0.108276 0.023651
0.762024 0.143402 0.025238
0.026794 0.131195 0.035492
0.167725 0.196747 0.048981
0.466187 0.243256 0.037048
0.687134 0.259460 0.033905
0.920410 0.287354 0.033112
0.084717 0.347687 0.121735
0.183716 0.425049 0.114990
0.468994 0.447418 0.101105
0.715973 0.511505 0.086517
0.935730 0.525238 0.048981
0.182220 0.591187 0.221558
0.237671 0.631989 0.238159
0.483002 0.693146 0.117737
0.722168 0.698792 0.154144
0.935028 0.736664 0.142303
0.250977 0.769379 0.263092
0.285278 0.802124 0.402435
0.439758 0.880493 0.341858
0.756927 0.921753 0.241516
0.920441 0.901611 0.307190
0.010254 0.038635 0.111145
0.116730 0.031555 0.166046
0.435181 0.059845 0.173767
0.654877 0.077667 0.137146
0.857147 0.127502 0.125275
0.018127 0.171234 0.142548
0.112915 0.218018 0.218018
0.461945 0.259308 0.216400
0.689606 0.284760 0.211670
0.921844 0.309906 0.198730
0.065643 0.363190 0.227051
0.153351 0.455963 0.216766
0.483215 0.497406 0.256378
0.712097 0.525665 0.247589
0.935944 0.523895 0.220856
0.174469 0.606689 0.266357
0.223114 0.645844 0.297394
0.327820 0.719025 0.301117
0.733734 0.731415 0.336426
0.939362 0.760010 0.299622
0.241516 0.783936 0.414307
0.261658 0.824280 0.537994
0.432953 0.894043 0.395813
0.748322 0.934906 0.369781
0.928162 0.920288 0.495270
0.037842 0.129669 0.315765
0.107513 0.108978 0.327454
0.314026 0.056824 0.382812
0.636566 0.079590 0.385925
0.861023 0.093018 0.345734
0.037048 0.265381 0.332733
0.091309 0.266205 0.424805
0.389191 0.228912 0.480957
0.693268 0.272644 0.450836
0.919495 0.287109 0.419525
0.080994 0.454407 0.416809
0.119751 0.495697 0.453735
0.424805 0.522369 0.530151
0.691803 0.534119 0.494629
0.930389 0.556915 0.493286
0.145905 0.640442 0.495819
0.186279 0.687897 0.539795
0.413727 0.742310 0.558929
0.737152 0.758759 0.558594
0.939392 0.779938 0.532410
0.221558 0.817688 0.589996
0.320496 0.866669 0.684662
0.480103 0.922668 0.644318
0.718201 0.950439 0.578644
0.935638 0.941010 0.699402
0.072113 0.210022 0.514252
0.156189 0.181366 0.573364
0.262360 0.090454 0.577393
0.615021 0.119415 0.601624
0.829193 0.132721 0.623901
0.079559 0.402679 0.579803
0.155670 0.387573 0.634155
0.382904 0.291229 0.677094
0.686829 0.315430 0.675476
0.891205 0.323212 0.690491
0.097137 0.551270 0.625580
0.172852 0.588074 0.659485
0.454620 0.594269 0.702911
0.714417 0.562347 0.721680
0.915161 0.571289 0.708221
0.158966 0.701172 0.690063
0.277435 0.746918 0.729950
0.480865 0.778656 0.760529
0.723663 0.789978 0.775177
0.925964 0.803253 0.767181
0.281464 0.869690 0.773346
0.419678 0.911530 0.844818
0.560028 0.939178 0.843079
0.740265 0.958496 0.834625
0.943390 0.961761 0.892853
0.087402 0.293884 0.660004
0.272369 0.324677 0.805969
0.472534 0.215698 0.814819
0.675262 0.216064 0.795959
0.824585 0.196960 0.813080
0.178711 0.537933 0.817505
0.350067 0.529999 0.860779
0.484955 0.410370 0.872253
0.730713 0.354126 0.888092
0.897919 0.379578 0.905701
0.212799 0.660095 0.811829
0.338440 0.691376 0.838684
0.569061 0.706573 0.894257
0.726807 0.598694 0.927521
0.916901 0.618500 0.932556
0.279877 0.791138 0.875427
0.377350 0.838898 0.920929
0.557800 0.859985 0.934540
0.734680 0.859985 0.949707
0.932953 0.818634 0.963348
0.412903 0.931488 0.942383
0.540161 0.943207 0.952789
0.664459 0.950928 0.958649
0.797607 0.961639 0.966400
0.962280 0.970642 0.979553
