Kodachrome 25 (K-14) - Only color.cube
# Copyright: (C) Copyright 2017 by IWLTBAP
# Cannot be resold, shared or otherwise redistributed
# Website: https://luts.iwltbap.com
TITLE "Kodak Kodachrome 25 (K-14) - Color neutral (Rec.709 sRGB)"
LUT_3D_SIZE 5
0.000000 0.000000 0.000000
0.159857 0.000123 0.000445
0.570943 0.000000 0.009585
0.984686 0.000000 0.008163
0.984052 0.209096 0.119499
0.035769 0.289142 0.196271
0.263084 0.279449 0.150167
0.662554 0.285297 0.137797
0.878235 0.318644 0.152148
0.983551 0.387053 0.208768
0.376630 0.615150 0.247047
0.453054 0.589428 0.239192
0.645428 0.559454 0.227459
0.825992 0.548713 0.219888
0.983201 0.566850 0.215473
0.587229 0.833205 0.296458
0.648427 0.818906 0.291400
0.736289 0.805447 0.283958
0.846578 0.799430 0.276485
0.982624 0.795096 0.260031
0.821799 0.991692 0.357471
0.843154 0.991605 0.357453
0.878995 0.991482 0.353010
0.938869 0.991215 0.350066
0.982112 0.991055 0.345038
0.000000 0.043256 0.186183
0.064710 0.002095 0.231378
0.434066 0.000000 0.182748
0.984349 0.000000 0.140648
0.983700 0.210362 0.274189
0.038175 0.258667 0.289171
0.208221 0.256619 0.284599
0.599716 0.264104 0.269716
0.849148 0.302585 0.294116
0.983281 0.368716 0.343798
0.353535 0.603115 0.277410
0.432997 0.570593 0.270144
0.617378 0.537708 0.265064
0.815323 0.523563 0.269624
0.982998 0.546595 0.310875
0.578216 0.825461 0.314590
0.636959 0.814039 0.306873
0.723288 0.800470 0.297269
0.842797 0.788169 0.288150
0.982584 0.795081 0.274666
0.821923 0.991609 0.379765
0.846984 0.991539 0.371132
0.877160 0.991427 0.370046
0.942139 0.991137 0.366658
0.982096 0.991018 0.355223
0.000000 0.074345 0.252899
0.052125 0.066751 0.249719
0.342198 0.000000 0.260514
0.984251 0.000000 0.197439
0.983630 0.190776 0.331759
0.000000 0.225086 0.405177
0.143519 0.224182 0.395668
0.545589 0.217833 0.365124
0.839710 0.271361 0.387741
0.983156 0.354932 0.440838
0.227045 0.567204 0.590913
0.281031 0.526645 0.564932
0.470530 0.505014 0.524606
0.746674 0.497226 0.503276
0.974167 0.525044 0.507501
0.522499 0.820912 0.402177
0.576681 0.805446 0.389934
0.685281 0.793407 0.385684
0.811066 0.780562 0.387367
0.982324 0.776701 0.436852
0.825751 0.991531 0.396094
0.850727 0.991443 0.392906
0.879068 0.991342 0.390652
0.943524 0.991067 0.383623
0.982057 0.990933 0.378533
0.000000 0.087800 0.313503
0.048975 0.084320 0.301410
0.208252 0.000000 0.359158
0.976291 0.000000 0.232510
0.983721 0.136775 0.358232
0.000000 0.184874 0.427513
0.058167 0.172215 0.428690
0.452747 0.150209 0.421870
0.864002 0.213216 0.431104
0.983024 0.326145 0.548034
0.151331 0.511803 0.764979
0.212119 0.484990 0.732000
0.348565 0.473220 0.693590
0.715032 0.455525 0.653053
0.947270 0.490104 0.664930
0.355403 0.798574 0.829137
0.390967 0.781694 0.818359
0.484199 0.765800 0.804180
0.716773 0.754803 0.778201
0.971704 0.760451 0.763575
0.824795 0.991282 0.462190
0.848886 0.991216 0.453981
0.879142 0.991148 0.441252
0.943836 0.990857 0.438216
0.981942 0.990704 0.438937
0.000000 0.097956 0.345142
0.054594 0.097653 0.345623
0.143282 0.011086 0.391768
0.922200 0.000000 0.265411
0.983899 0.045792 0.355129
0.000000 0.155671 0.414050
0.048854 0.146038 0.400247
0.313404 0.080460 0.499053
0.896578 0.113930 0.406326
0.983004 0.287013 0.598158
0.035291 0.472974 0.832058
0.113025 0.428839 0.803654
0.296004 0.401426 0.768703
0.685265 0.386098 0.751692
0.947627 0.456194 0.766950
0.297028 0.778113 0.909420
0.320018 0.750674 0.904222
0.406180 0.736189 0.897780
0.601605 0.720498 0.891849
0.941623 0.718834 0.875510
0.671024 0.989904 0.966160
0.706798 0.989769 0.969594
0.759006 0.989574 0.974057
0.832807 0.989296 0.978961
0.980970 0.988752 0.984846
