Kodak Vision 200T (5274) - Only color.cube
# Created by Benjamin (IWLTBAP) : http://luts.iwltbap.com
# Copyright: (C) Copyright 2010-2017 Triune Films and IWLTBAP SAS
# Cannot be resold, shared or otherwise redistributed
TITLE "Film Print Emulation LUTs Pack (Rec.709, sRGB, DCI-P3)"
LUT_3D_SIZE 9
0.000000 0.000000 0.000000
0.113037 0.035736 0.000000
0.218140 0.069550 0.000000
0.294373 0.087982 0.000000
0.346069 0.108826 0.000000
0.382599 0.129456 0.000000
0.411713 0.143677 0.000000
0.439270 0.156250 0.000000
0.469513 0.159821 0.000000
0.003845 0.084564 0.017303
0.150970 0.132568 0.000000
0.283752 0.169128 0.000000
0.367004 0.193726 0.000000
0.426270 0.212524 0.000000
0.473083 0.224609 0.000000
0.512878 0.232941 0.000000
0.551086 0.239563 0.000000
0.586914 0.241241 0.000000
0.000153 0.164795 0.034454
0.154816 0.215210 0.002686
0.324890 0.268982 0.000000
0.436859 0.292023 0.000000
0.512878 0.304230 0.000000
0.575592 0.312469 0.000000
0.629120 0.318909 0.000000
0.674988 0.324158 0.000000
0.714081 0.325287 0.000000
0.000244 0.236938 0.044922
0.152588 0.285583 0.012695
0.348328 0.352570 0.000000
0.497803 0.383240 0.000000
0.590820 0.392792 0.000000
0.661163 0.399963 0.000000
0.721130 0.406891 0.000000
0.772888 0.411102 0.000000
0.817200 0.411102 0.000000
0.000305 0.305756 0.036621
0.143280 0.353790 0.016998
0.344666 0.424469 0.000000
0.517029 0.468872 0.000000
0.635956 0.485931 0.000000
0.716797 0.492950 0.000000
0.783569 0.499481 0.000000
0.841217 0.503052 0.000000
0.889496 0.501892 0.000000
0.000336 0.378357 0.012634
0.118500 0.428894 0.016968
0.313110 0.494202 0.000000
0.489288 0.545105 0.000000
0.639282 0.577972 0.000000
0.745361 0.594177 0.000000
0.823395 0.601562 0.000000
0.886017 0.604126 0.000000
0.938995 0.601929 0.000000
0.000427 0.465729 0.000000
0.083588 0.519745 0.012604
0.267883 0.576904 0.002411
0.442657 0.625061 0.000000
0.613068 0.666748 0.000000
0.748108 0.695282 0.000000
0.843353 0.707794 0.000000
0.912811 0.710144 0.002380
0.959869 0.708069 0.002472
0.000580 0.576019 0.000000
0.063965 0.631226 0.029724
0.227814 0.683746 0.029694
0.406982 0.721436 0.002350
0.583740 0.760040 0.000000
0.736206 0.792419 0.007660
0.847473 0.810944 0.020386
0.925934 0.815247 0.024109
0.954773 0.813873 0.024353
0.000702 0.704895 0.000000
0.065552 0.755798 0.042694
0.197998 0.807037 0.063232
0.383789 0.831726 0.029541
0.564453 0.861969 0.024200
0.724365 0.890320 0.029388
0.846680 0.910492 0.038269
0.933441 0.916748 0.042328
0.952393 0.917084 0.044556
0.000092 0.000092 0.060211
0.089661 0.040253 0.097260
0.196899 0.080414 0.103577
0.277100 0.102692 0.091980
0.331665 0.111053 0.076324
0.371399 0.121613 0.068420
0.402649 0.134552 0.069824
0.430298 0.144409 0.073090
0.461090 0.146698 0.076233
0.000244 0.097351 0.110260
0.120544 0.137573 0.116852
0.261353 0.176788 0.114014
0.359100 0.195496 0.102081
0.421082 0.208496 0.091827
0.466888 0.220215 0.087921
0.504028 0.229706 0.090637
0.538574 0.233795 0.093292
0.572723 0.231079 0.093262
0.000336 0.175293 0.138031
0.115173 0.210114 0.128815
0.291595 0.267426 0.113007
0.427643 0.296997 0.099518
0.509491 0.309875 0.091736
0.571960 0.318176 0.089386
0.623413 0.323547 0.093201
0.665863 0.324829 0.096893
0.701843 0.321167 0.100800
0.000427 0.244995 0.154266
0.106537 0.275513 0.138489
0.295502 0.342316 0.106781
0.470947 0.388641 0.087830
0.583282 0.403656 0.086578
0.658417 0.410950 0.087769
0.718323 0.416077 0.091644
0.768982 0.417450 0.095734
0.812134 0.413696 0.099365
0.000519 0.311768 0.159943
0.096832 0.342743 0.146301
0.290070 0.409729 0.104401
0.482849 0.470428 0.076050
0.624451 0.496826 0.082458
0.712189 0.505493 0.091614
0.780090 0.511139 0.096802
0.838226 0.513062 0.099335
0.887360 0.509735 0.100739
0.000580 0.383453 0.159241
0.081024 0.418549 0.154663
0.270386 0.481842 0.108734
0.463196 0.548706 0.069611
0.630432 0.590271 0.074615
0.741272 0.608307 0.093079
0.820679 0.614471 0.101746
0.884766 0.616241 0.103119
0.938873 0.614502 0.101746
0.000702 0.470917 0.159210
0.060120 0.511719 0.164307
0.240814 0.571259 0.122955
0.427948 0.632965 0.069580
0.608673 0.681030 0.066101
0.746582 0.710449 0.090363
0.842590 0.721436 0.106476
0.913849 0.723663 0.106476
0.958954 0.723236 0.103210
0.000824 0.583252 0.160309
0.054840 0.629211 0.171661
0.209869 0.684418 0.144196
0.395630 0.731079 0.082489
0.579010 0.774139 0.064575
0.735657 0.807770 0.087616
0.848785 0.825653 0.109741
0.929810 0.830505 0.112610
0.952606 0.831299 0.107727
0.000916 0.715302 0.160248
0.065552 0.761597 0.177490
0.185181 0.812256 0.164185
0.370483 0.840576 0.099365
0.554810 0.874420 0.071320
0.722198 0.903870 0.083557
0.848938 0.924591 0.108398
0.938843 0.933350 0.119965
0.951508 0.935699 0.118469
0.000244 0.016998 0.138672
0.062592 0.038544 0.161041
0.176971 0.080475 0.184052
0.272675 0.121674 0.187592
0.335602 0.139435 0.176910
0.376648 0.142456 0.164825
0.408966 0.142487 0.158844
0.439545 0.143158 0.159943
0.472412 0.144501 0.162811
0.000366 0.110901 0.176208
0.085480 0.143005 0.194763
0.219147 0.187073 0.216003
0.334412 0.215240 0.218018
0.409637 0.223969 0.204773
0.458862 0.225983 0.192047
0.495728 0.227386 0.184174
0.529297 0.226593 0.180115
0.564270 0.221344 0.177521
0.000488 0.187378 0.207794
0.082428 0.214264 0.218262
0.242859 0.271057 0.236420
0.400299 0.307922 0.239990
0.503143 0.318390 0.229614
0.567505 0.322845 0.218628
0.613129 0.325134 0.210663
0.649170 0.322235 0.204620
0.683655 0.313416 0.199585
0.000580 0.258362 0.233246
0.067291 0.276337 0.233215
0.233521 0.333771 0.238678
0.423248 0.392517 0.242737
0.566620 0.415344 0.242920
0.649750 0.423462 0.237671
0.709198 0.426605 0.231567
0.756866 0.423126 0.225098
0.797760 0.414093 0.220764
0.000671 0.325928 0.248413
0.058472 0.343719 0.246216
0.225098 0.394958 0.238220
0.417633 0.464966 0.235931
0.588318 0.506531 0.244537
0.694366 0.520630 0.249359
0.768158 0.526337 0.246918
0.828033 0.524567 0.241821
0.878540 0.517242 0.236572
0.000763 0.398651 0.255402
0.046722 0.421204 0.257233
0.213623 0.468536 0.242401
0.402100 0.539520 0.231232
0.586578 0.594299 0.238647
0.716736 0.619171 0.253296
0.805695 0.627502 0.256439
0.874542 0.629364 0.253662
0.931152 0.626740 0.249390
0.000854 0.488007 0.259918
0.039734 0.518158 0.268036
0.196777 0.565216 0.255981
0.378326 0.626373 0.233856
0.566010 0.683441 0.233124
0.719727 0.717407 0.250183
0.826599 0.731262 0.260406
0.904236 0.735291 0.259247
0.957733 0.736725 0.258240
0.000977 0.602173 0.265839
0.046661 0.639496 0.279694
0.177216 0.686035 0.276642
0.356171 0.728394 0.243744
0.538696 0.776489 0.227448
0.707886 0.812927 0.243347
0.832947 0.833252 0.260864
0.921143 0.840149 0.263306
0.952240 0.843323 0.263031
0.001038 0.733826 0.273743
0.063965 0.773224 0.292175
0.158508 0.817444 0.297974
0.335327 0.839874 0.258484
0.514252 0.875458 0.227417
0.693146 0.906982 0.233398
0.832642 0.929932 0.257202
0.931061 0.940948 0.269928
0.949982 0.945282 0.271576
0.000336 0.038513 0.189575
0.037750 0.040314 0.198425
0.150574 0.071625 0.223846
0.264252 0.119751 0.248505
0.349457 0.151550 0.254822
0.401123 0.161774 0.248810
0.433716 0.160004 0.241211
0.460419 0.154022 0.236664
0.488922 0.150940 0.235657
0.000458 0.123413 0.225830
0.060272 0.146606 0.240387
0.179443 0.182831 0.267548
0.309113 0.220947 0.292816
0.407196 0.242188 0.295654
0.466919 0.244385 0.284302
0.506592 0.239044 0.272308
0.539886 0.231415 0.263428
0.573090 0.223846 0.256836
0.000580 0.196808 0.260986
0.068878 0.222046 0.276520
0.200378 0.272705 0.306885
0.350708 0.320251 0.335388
0.474426 0.341003 0.339050
0.553345 0.341095 0.325439
0.604675 0.334412 0.309021
0.642242 0.324188 0.294037
0.676575 0.310669 0.281128
0.000702 0.269348 0.296082
0.056732 0.284241 0.303772
0.192230 0.334076 0.326080
0.370544 0.399384 0.355194
0.538361 0.431885 0.366150
0.642426 0.436920 0.359314
0.704926 0.434235 0.345367
0.747528 0.426361 0.328918
0.783203 0.413208 0.313568
0.000824 0.341614 0.325287
0.042664 0.353577 0.329468
0.181030 0.392273 0.335510
0.359650 0.462311 0.355194
0.550720 0.516174 0.372284
0.686768 0.533325 0.378021
0.766235 0.538422 0.371277
0.823273 0.534882 0.358551
0.869171 0.525146 0.344971
0.000916 0.420288 0.344452
0.032990 0.437042 0.350677
0.178925 0.471985 0.348175
0.351898 0.535217 0.356445
0.535156 0.597382 0.370911
0.691254 0.631622 0.384094
0.795044 0.644257 0.385895
0.867676 0.647522 0.378998
0.925232 0.643951 0.369598
0.001007 0.516510 0.357483
0.037476 0.540741 0.367584
0.173431 0.577698 0.366089
0.340240 0.626770 0.364624
0.514984 0.683472 0.371307
0.683624 0.725098 0.382812
0.808746 0.746033 0.389557
0.895935 0.753204 0.387512
0.956116 0.755829 0.385406
0.001068 0.633423 0.367554
0.051147 0.664734 0.383179
0.163177 0.703735 0.389282
0.325470 0.733582 0.378113
0.490509 0.776764 0.372833
0.668457 0.817230 0.376404
0.812134 0.843414 0.386505
0.912537 0.854187 0.388794
0.952179 0.858917 0.390320
0.003967 0.761139 0.377869
0.067139 0.794525 0.397125
0.148529 0.833038 0.412476
0.307159 0.846252 0.393799
0.468842 0.874908 0.375610
0.653229 0.908936 0.367615
0.810181 0.935913 0.378906
0.922150 0.950073 0.390320
0.948700 0.956116 0.395477
0.000427 0.059540 0.224976
0.025726 0.054413 0.227264
0.123901 0.065186 0.246857
0.240479 0.107758 0.279480
0.346039 0.152222 0.304352
0.418457 0.174896 0.311981
0.460480 0.181702 0.309845
0.487152 0.177551 0.304474
0.508728 0.165833 0.296570
0.004211 0.138275 0.267487
0.048828 0.152008 0.275482
0.144714 0.176605 0.295715
0.269836 0.209961 0.329620
0.392181 0.244049 0.355896
0.477692 0.258667 0.359253
0.526855 0.257294 0.351074
0.560272 0.248566 0.340607
0.588470 0.235321 0.328766
0.000671 0.206879 0.307495
0.062500 0.228119 0.320404
0.166229 0.268524 0.347321
0.301300 0.311493 0.383423
0.440521 0.346161 0.412079
0.545868 0.358978 0.414917
0.607971 0.352875 0.400696
0.649719 0.338043 0.382599
0.684113 0.319641 0.364563
0.000793 0.276855 0.348816
0.060211 0.294037 0.359802
0.174744 0.338409 0.386169
0.324188 0.397522 0.424774
0.480621 0.443176 0.455597
0.605377 0.460968 0.462158
0.682983 0.455719 0.447632
0.735016 0.438538 0.424622
0.776611 0.416656 0.400970
0.000916 0.352020 0.390015
0.044708 0.362976 0.398285
0.160706 0.396362 0.412140
0.317841 0.461426 0.443481
0.499786 0.524353 0.475983
0.656189 0.550934 0.488647
0.751831 0.552124 0.482300
0.814728 0.541809 0.463654
0.859467 0.526794 0.441315
0.001038 0.438965 0.425964
0.032990 0.453522 0.436829
0.157410 0.479858 0.440094
0.313904 0.536469 0.456329
0.490326 0.600708 0.482849
0.664978 0.641815 0.499817
0.792572 0.654449 0.504028
0.871765 0.655823 0.495636
0.927002 0.652191 0.481384
0.001099 0.547302 0.454010
0.042572 0.568054 0.467896
0.165039 0.596771 0.469849
0.321533 0.637878 0.474304
0.481812 0.687866 0.491791
0.648651 0.731842 0.505615
0.793427 0.759674 0.513672
0.893799 0.769775 0.512604
0.955475 0.774658 0.507202
0.003998 0.669830 0.473633
0.058411 0.695740 0.491241
0.166138 0.727112 0.498749
0.319366 0.750214 0.493805
0.465912 0.784149 0.501862
0.632355 0.822479 0.507751
0.787842 0.854614 0.513519
0.903778 0.870453 0.516449
0.951324 0.877228 0.516815
0.011810 0.792206 0.488007
0.073578 0.820709 0.509033
0.154694 0.853485 0.526215
0.304932 0.862000 0.512787
0.445557 0.882690 0.509064
0.616974 0.913055 0.505798
0.784363 0.943481 0.506897
0.911652 0.961090 0.515625
0.947388 0.969025 0.523010
0.006653 0.074554 0.250366
0.022705 0.067078 0.249451
0.106689 0.067169 0.262878
0.215485 0.096252 0.294434
0.325775 0.143250 0.327271
0.417969 0.178619 0.349182
0.475555 0.196442 0.355804
0.507660 0.199249 0.353790
0.529358 0.190948 0.346497
0.009491 0.150421 0.300934
0.046875 0.158661 0.304626
0.122314 0.172852 0.316956
0.232147 0.196594 0.347168
0.357941 0.233002 0.384369
0.468842 0.261047 0.406097
0.537537 0.268646 0.407532
0.575409 0.262909 0.399231
0.603027 0.250031 0.386810
0.004272 0.217896 0.349762
0.060242 0.232056 0.357605
0.142578 0.263275 0.377533
0.258575 0.297455 0.410248
0.395660 0.332550 0.449158
0.527985 0.360535 0.474152
0.612976 0.365082 0.472839
0.658386 0.351532 0.456787
0.691711 0.330841 0.436646
0.000885 0.285309 0.397614
0.065704 0.301453 0.407257
0.162567 0.339264 0.430664
0.288452 0.388306 0.467377
0.429779 0.431580 0.505432
0.573395 0.464417 0.533325
0.675385 0.472717 0.535248
0.733826 0.455322 0.515442
0.776794 0.427277 0.488464
0.001007 0.358826 0.446411
0.056732 0.371704 0.455963
0.165070 0.405701 0.473358
0.302826 0.463379 0.507660
0.456360 0.521210 0.545868
0.605347 0.560547 0.573517
0.718353 0.574677 0.580261
0.792694 0.562744 0.563873
0.847351 0.536926 0.536713
0.001099 0.450104 0.495880
0.039734 0.464508 0.509644
0.155273 0.488678 0.516785
0.297577 0.541595 0.537354
0.460022 0.603149 0.570343
0.627716 0.650330 0.597198
0.764435 0.670563 0.608276
0.855804 0.669922 0.602661
0.918518 0.660126 0.585724
0.001099 0.568176 0.541138
0.048615 0.587891 0.558380
0.159515 0.610291 0.563202
0.307953 0.648438 0.569061
0.462433 0.696014 0.591248
0.622711 0.738770 0.612152
0.776398 0.769592 0.624695
0.895844 0.779419 0.628052
0.954529 0.782501 0.623199
0.011841 0.698120 0.574036
0.067169 0.721222 0.594391
0.172089 0.746552 0.602722
0.322937 0.767853 0.599487
0.463806 0.798401 0.612244
0.614868 0.831207 0.625763
0.764954 0.864044 0.634796
0.895691 0.884003 0.640503
0.948395 0.891907 0.642426
0.025299 0.819183 0.596252
0.080841 0.844116 0.619843
0.171631 0.873596 0.636353
0.320221 0.881287 0.625946
0.451447 0.898132 0.629120
0.603516 0.922363 0.636353
0.761108 0.951691 0.641174
0.897003 0.972656 0.649170
0.946014 0.980652 0.660797
0.009613 0.082092 0.268158
0.025696 0.071564 0.265167
0.097015 0.068481 0.275085
0.198822 0.087708 0.303711
0.304382 0.129730 0.337006
0.402802 0.171967 0.365845
0.475708 0.197876 0.381866
0.515808 0.205872 0.384155
0.538849 0.200439 0.377533
0.014435 0.158661 0.327301
0.048828 0.163940 0.328796
0.109985 0.170685 0.335632
0.205200 0.185425 0.359436
0.323975 0.217499 0.397949
0.443787 0.251434 0.430603
0.532898 0.269165 0.443390
0.580719 0.267700 0.439240
0.607788 0.254425 0.426605
0.009399 0.226532 0.386566
0.062500 0.236298 0.391296
0.129272 0.259949 0.405579
0.226166 0.284729 0.431305
0.351501 0.314331 0.470062
0.492706 0.347565 0.507660
0.603760 0.364319 0.522186
0.660522 0.355804 0.511688
0.692261 0.333069 0.489990
0.000946 0.293304 0.443848
0.068848 0.305206 0.450348
0.149933 0.336029 0.469391
0.257019 0.376862 0.502411
0.384186 0.413391 0.539490
0.533630 0.449219 0.577454
0.663452 0.472595 0.597992
0.734192 0.462646 0.588074
0.775085 0.431335 0.560730
0.001038 0.366119 0.501801
0.067261 0.379761 0.510284
0.168427 0.411591 0.526917
0.288879 0.460907 0.559753
0.420624 0.509033 0.596039
0.563263 0.548187 0.628784
0.697662 0.576965 0.652466
0.786530 0.575165 0.649811
0.843079 0.547028 0.626953
0.001129 0.456879 0.559509
0.053070 0.472717 0.573395
0.169312 0.499481 0.582367
0.302399 0.549957 0.606415
0.446747 0.603882 0.639099
0.593750 0.648132 0.669617
0.726105 0.679169 0.692657
0.827332 0.688171 0.697479
0.899353 0.676697 0.684723
0.003998 0.578094 0.615967
0.054871 0.597900 0.634003
0.165497 0.619568 0.640472
0.309174 0.658478 0.650452
0.456116 0.704132 0.674316
0.607147 0.744476 0.699829
0.750977 0.778381 0.720795
0.873932 0.793762 0.730560
0.953339 0.795776 0.728912
0.020081 0.712708 0.660919
0.070190 0.734680 0.681702
0.172089 0.756256 0.691376
0.324341 0.779572 0.691193
0.466003 0.811310 0.706543
0.610931 0.841919 0.724854
0.750824 0.872803 0.740784
0.886566 0.894745 0.751312
0.945862 0.901978 0.758118
0.035065 0.836151 0.693207
0.086334 0.859070 0.716553
0.183197 0.886047 0.732300
0.338593 0.896820 0.726196
0.471771 0.914886 0.734589
0.615051 0.937592 0.747864
0.756195 0.962372 0.760529
0.885071 0.980408 0.773010
0.944763 0.980408 0.790375
0.012421 0.084869 0.279999
0.027954 0.071564 0.276154
0.094757 0.065216 0.285431
0.190613 0.079468 0.311951
0.288849 0.114624 0.343018
0.384033 0.157135 0.372467
0.461884 0.186798 0.393280
0.512207 0.200897 0.400421
0.542114 0.200439 0.397797
0.020386 0.161621 0.347504
0.053223 0.164520 0.348236
0.104553 0.166534 0.351837
0.187988 0.175629 0.371552
0.297150 0.201080 0.406982
0.414673 0.234589 0.442902
0.513336 0.257538 0.463135
0.574829 0.262604 0.465424
0.609131 0.253754 0.456116
0.017334 0.231476 0.418030
0.067322 0.239166 0.421997
0.122864 0.256561 0.432648
0.203735 0.272949 0.451904
0.314819 0.294495 0.485901
0.452087 0.326172 0.527161
0.577545 0.348846 0.551331
0.652344 0.349304 0.550018
0.691559 0.331604 0.532288
0.004211 0.299072 0.486542
0.072327 0.307434 0.491364
0.142029 0.332794 0.507965
0.233887 0.365875 0.536743
0.345490 0.393707 0.569336
0.489166 0.424988 0.607880
0.635712 0.453369 0.637146
0.725098 0.455200 0.638885
0.773254 0.429962 0.617859
0.001099 0.372040 0.555054
0.073730 0.383636 0.561523
0.165070 0.410950 0.576599
0.269501 0.453278 0.607269
0.386383 0.494019 0.640991
0.523224 0.527863 0.672913
0.672424 0.560028 0.702362
0.777710 0.569916 0.711517
0.841461 0.549164 0.697113
0.001129 0.461426 0.619598
0.065674 0.479095 0.632355
0.181854 0.506805 0.642548
0.303009 0.553192 0.667664
0.430237 0.600006 0.698914
0.565308 0.638580 0.728210
0.700104 0.670105 0.754242
0.812958 0.688171 0.769257
0.894165 0.684174 0.766205
0.003967 0.580963 0.680634
0.062408 0.601990 0.698242
0.182861 0.626831 0.705688
0.321045 0.667206 0.721252
0.458130 0.709930 0.746887
0.599396 0.747131 0.773376
0.730194 0.779785 0.798401
0.844971 0.802155 0.815765
0.935486 0.810913 0.820801
0.022308 0.716187 0.733521
0.073547 0.738220 0.753937
0.180145 0.760925 0.764740
0.333221 0.788239 0.770355
0.472931 0.820618 0.788757
0.613434 0.850464 0.809967
0.746094 0.879791 0.831390
0.872314 0.904053 0.848663
0.949402 0.916779 0.860321
0.040253 0.841797 0.775055
0.087555 0.863892 0.797821
0.187805 0.890289 0.814606
0.353577 0.907166 0.814819
0.493591 0.929016 0.827881
0.634918 0.951599 0.844574
0.765930 0.972961 0.861694
0.885559 0.981110 0.878479
0.943817 0.976166 0.897491
0.014557 0.082123 0.291046
0.030975 0.063782 0.284485
0.095886 0.058258 0.295135
0.187256 0.069855 0.320953
0.279480 0.100616 0.350037
0.368530 0.140320 0.377258
0.443420 0.167877 0.397125
0.497803 0.183563 0.408081
0.539856 0.191742 0.413116
0.025635 0.159882 0.364960
0.055023 0.160492 0.364594
0.100983 0.158783 0.366882
0.175690 0.164642 0.383728
0.276123 0.185516 0.416321
0.388306 0.214813 0.451355
0.487549 0.238037 0.474091
0.558624 0.248322 0.482117
0.607300 0.249756 0.480896
0.025574 0.232697 0.446808
0.072357 0.239563 0.450714
0.119537 0.251526 0.459473
0.185974 0.260681 0.473022
0.286407 0.276489 0.502625
0.416931 0.303009 0.543060
0.544891 0.325409 0.570404
0.634094 0.332947 0.576813
0.690186 0.329285 0.570160
0.012085 0.301331 0.527100
0.077942 0.308807 0.532196
0.139404 0.330597 0.548706
0.217285 0.356506 0.574066
0.316040 0.375427 0.601135
0.450592 0.399261 0.635559
0.601715 0.425568 0.665894
0.706451 0.435150 0.675354
0.771698 0.428528 0.667847
0.001129 0.375275 0.606354
0.079681 0.383942 0.611206
0.159546 0.408508 0.626068
0.253418 0.446625 0.656006
0.360809 0.481384 0.688538
0.491516 0.507660 0.716980
0.645660 0.535522 0.744232
0.761932 0.551544 0.758362
0.840424 0.549225 0.756134
0.001129 0.465302 0.677643
0.077850 0.483582 0.688904
0.187897 0.510925 0.700775
0.296631 0.553131 0.726624
0.411835 0.596252 0.758026
0.542053 0.630341 0.786407
0.680603 0.656891 0.809570
0.799500 0.677521 0.826904
0.891724 0.686584 0.833588
0.003937 0.580688 0.740845
0.070221 0.604248 0.758179
0.199432 0.632538 0.767578
0.328705 0.673248 0.787689
0.456299 0.713806 0.815338
0.591339 0.748444 0.842255
0.718811 0.776947 0.865448
0.830719 0.799072 0.883453
0.927582 0.815948 0.895782
0.020050 0.713684 0.797791
0.076324 0.737244 0.818268
0.198456 0.764740 0.830383
0.346558 0.795227 0.842316
0.480865 0.827026 0.863617
0.619904 0.856842 0.886749
0.749695 0.884705 0.909515
0.863129 0.908966 0.929199
0.951477 0.928131 0.936554
0.040222 0.841827 0.847626
0.089142 0.864471 0.869934
0.198029 0.892548 0.887146
0.367065 0.913971 0.893616
0.509460 0.938385 0.909912
0.650116 0.960632 0.928070
0.778992 0.979156 0.937500
0.893585 0.978973 0.934387
0.943451 0.973175 0.927612
