Kodak Vision2 250D (5205) - Look.cube
# Created by Benjamin (IWLTBAP) : http://luts.iwltbap.com
# Copyright: (C) Copyright 2010-2017 Triune Films and IWLTBAP SAS
# Cannot be resold, shared or otherwise redistributed
TITLE "Film Print Emulation LUTs Pack (Rec.709, sRGB, DCI-P3)"
LUT_3D_SIZE 9
0.000916 0.000916 0.000000
0.064087 0.000000 0.000000
0.161621 0.000000 0.000000
0.267731 0.000000 0.000000
0.370819 0.006409 0.000000
0.456451 0.029114 0.000000
0.537415 0.055756 0.000000
0.611206 0.077362 0.000000
0.685150 0.098450 0.000000
0.008423 0.044525 0.000000
0.082764 0.060211 0.000000
0.204956 0.069183 0.000000
0.326721 0.084839 0.000000
0.427490 0.097229 0.000000
0.508514 0.113342 0.000000
0.576416 0.130981 0.000000
0.642975 0.145081 0.000000
0.714264 0.152039 0.000000
0.047028 0.127289 0.000000
0.147003 0.161316 0.000000
0.252380 0.181000 0.000000
0.377075 0.195221 0.000000
0.479370 0.210907 0.000000
0.560638 0.225739 0.000000
0.624664 0.238007 0.000000
0.686676 0.244446 0.000000
0.751923 0.241272 0.000000
0.146545 0.248657 0.000000
0.250916 0.280609 0.000000
0.310516 0.317535 0.017731
0.401703 0.327667 0.000000
0.516785 0.327972 0.000000
0.593201 0.336029 0.000000
0.657135 0.342926 0.000000
0.722565 0.346039 0.000000
0.784729 0.340393 0.002014
0.267029 0.374451 0.000000
0.339233 0.393890 0.000000
0.370026 0.436554 0.059357
0.442902 0.447479 0.032104
0.512451 0.452667 0.000000
0.586609 0.452301 0.000000
0.671661 0.447510 0.000000
0.745209 0.444366 0.003967
0.807800 0.436798 0.010284
0.339081 0.477234 0.000122
0.392975 0.489563 0.009125
0.423096 0.519897 0.066315
0.461365 0.541412 0.091614
0.522461 0.548981 0.080627
0.587860 0.551056 0.040710
0.661896 0.546783 0.010071
0.734436 0.546875 0.011200
0.823181 0.532318 0.018768
0.377655 0.565399 0.014130
0.423340 0.572174 0.016602
0.452423 0.600616 0.078430
0.509766 0.618347 0.083954
0.561798 0.629669 0.083679
0.603668 0.640167 0.095062
0.653259 0.646973 0.099426
0.730408 0.647217 0.056732
0.810211 0.642059 0.039062
0.401154 0.654968 0.030090
0.437286 0.660187 0.031647
0.477020 0.676880 0.078033
0.539734 0.691895 0.078766
0.607635 0.703674 0.054230
0.666229 0.712128 0.041992
0.717468 0.722260 0.065277
0.745392 0.736115 0.116791
0.807281 0.740448 0.117981
0.436096 0.720795 0.040955
0.467041 0.726013 0.042694
0.516998 0.738434 0.064545
0.570557 0.758240 0.077789
0.633881 0.772064 0.047119
0.686554 0.788971 0.045776
0.744049 0.800995 0.045105
0.804535 0.807739 0.047577
0.855896 0.813965 0.086060
0.009583 0.023438 0.060699
0.054260 0.022736 0.074493
0.161652 0.000000 0.049438
0.260071 0.000000 0.042389
0.359833 0.000000 0.042145
0.441742 0.000000 0.042786
0.522064 0.000000 0.037598
0.597839 0.005402 0.022430
0.675293 0.031464 0.011993
0.004364 0.065521 0.081848
0.077454 0.086731 0.078796
0.202942 0.066986 0.030243
0.317596 0.065765 0.003357
0.408997 0.072754 0.000000
0.488007 0.093567 0.006348
0.566528 0.107056 0.001862
0.638153 0.125275 0.021240
0.714844 0.129944 0.001343
0.018616 0.159393 0.083191
0.127960 0.178528 0.052582
0.224243 0.182373 0.016022
0.350952 0.185699 0.000000
0.453217 0.198090 0.000000
0.541504 0.211761 0.008148
0.614349 0.222687 0.000000
0.681641 0.227631 0.015106
0.752258 0.224884 0.001465
0.110443 0.270294 0.079224
0.212372 0.285645 0.011383
0.295502 0.307404 0.025726
0.371765 0.316376 0.008514
0.483490 0.315338 0.000000
0.575897 0.326202 0.017883
0.647919 0.333801 0.003326
0.719971 0.336761 0.007019
0.785706 0.330200 0.011230
0.214996 0.378967 0.054871
0.304443 0.390167 0.007080
0.384430 0.410065 0.013824
0.404602 0.441071 0.079285
0.483276 0.445435 0.023010
0.571716 0.445190 0.026703
0.663483 0.440735 0.012482
0.743011 0.436859 0.016937
0.809174 0.428711 0.021790
0.293427 0.481628 0.084564
0.362946 0.487274 0.050079
0.434753 0.501770 0.056000
0.477234 0.526306 0.091583
0.505981 0.544952 0.120880
0.578217 0.547699 0.076904
0.657928 0.544373 0.028229
0.735962 0.544739 0.027069
0.826630 0.527161 0.032806
0.344299 0.568359 0.104767
0.397614 0.572601 0.092041
0.464142 0.585144 0.088593
0.523712 0.607117 0.089600
0.573761 0.622650 0.076538
0.610718 0.637573 0.104889
0.649506 0.647827 0.125519
0.731628 0.647491 0.077087
0.813690 0.641602 0.053711
0.375580 0.658356 0.107208
0.420380 0.662598 0.086609
0.483917 0.670532 0.087158
0.549316 0.687531 0.090973
0.609100 0.702850 0.083496
0.667664 0.716003 0.058472
0.725464 0.724335 0.078003
0.751556 0.738586 0.135559
0.810944 0.743286 0.136719
0.415833 0.724426 0.054352
0.453674 0.728973 0.059021
0.514313 0.738770 0.062073
0.575378 0.757538 0.064514
0.630188 0.776428 0.064606
0.685944 0.793396 0.063538
0.746826 0.806854 0.063263
0.808441 0.813477 0.065796
0.863190 0.818268 0.100769
0.005554 0.042480 0.130585
0.018951 0.046600 0.148071
0.150726 0.035248 0.155060
0.269287 0.000000 0.145264
0.366547 0.000000 0.139404
0.449158 0.000000 0.139587
0.527344 0.000000 0.138947
0.600769 0.000000 0.135406
0.671600 0.000000 0.124939
0.000000 0.092438 0.179596
0.031494 0.105865 0.189819
0.184753 0.100555 0.172668
0.313690 0.077362 0.155518
0.405518 0.070953 0.142975
0.482544 0.076965 0.139404
0.555725 0.093964 0.137970
0.626129 0.101349 0.135376
0.697083 0.093475 0.119415
0.000000 0.181854 0.210663
0.073242 0.200836 0.201111
0.222107 0.206024 0.176849
0.335114 0.196930 0.162842
0.433441 0.203918 0.164520
0.519775 0.211975 0.166077
0.595551 0.220886 0.167847
0.669342 0.220764 0.161438
0.747467 0.209412 0.142883
0.037170 0.289734 0.209137
0.163635 0.303101 0.194824
0.271881 0.309418 0.179108
0.359070 0.304077 0.170349
0.457916 0.306213 0.171051
0.546448 0.315277 0.175415
0.626801 0.322968 0.177521
0.706604 0.324249 0.171021
0.781036 0.310150 0.145844
0.158966 0.394775 0.230133
0.241547 0.399902 0.207611
0.334320 0.407745 0.196777
0.402130 0.418030 0.200470
0.477203 0.414978 0.195709
0.573578 0.421417 0.192230
0.654114 0.427826 0.193634
0.734955 0.427246 0.182892
0.810822 0.412292 0.147614
0.238556 0.488312 0.244904
0.305023 0.491058 0.218658
0.385864 0.496277 0.212067
0.455597 0.507996 0.221130
0.502625 0.524048 0.232178
0.576569 0.529175 0.225891
0.656647 0.532257 0.209351
0.746918 0.530640 0.198792
0.830963 0.518372 0.156311
0.290222 0.573517 0.248383
0.349335 0.576202 0.229126
0.427460 0.586304 0.231384
0.492737 0.601624 0.237885
0.564636 0.614471 0.239471
0.608307 0.631073 0.246765
0.653046 0.643036 0.251892
0.739319 0.645203 0.213104
0.824493 0.641785 0.164642
0.332428 0.662537 0.244385
0.379883 0.666382 0.232635
0.457306 0.674896 0.234375
0.522491 0.689178 0.243500
0.591248 0.705780 0.246887
0.655579 0.719269 0.245667
0.724792 0.728851 0.235626
0.752838 0.743286 0.246582
0.822021 0.753143 0.191681
0.379883 0.733490 0.220795
0.420502 0.737488 0.205261
0.487976 0.745605 0.188049
0.555450 0.766052 0.210571
0.618500 0.783905 0.221588
0.679871 0.802094 0.228790
0.748413 0.816956 0.217926
0.815582 0.826263 0.183014
0.883453 0.827576 0.120483
0.000000 0.060059 0.194824
0.000000 0.062592 0.208313
0.086975 0.068176 0.243317
0.243500 0.041077 0.228210
0.365753 0.005035 0.233917
0.450562 0.000000 0.232910
0.529175 0.013763 0.232483
0.604126 0.018982 0.229340
0.677887 0.004333 0.212982
0.000000 0.110901 0.252747
0.000458 0.119507 0.262909
0.117340 0.119720 0.273346
0.280334 0.109650 0.257324
0.397919 0.101379 0.254211
0.481873 0.099884 0.247772
0.559540 0.104889 0.243256
0.631866 0.108459 0.237610
0.706207 0.094391 0.217010
0.000000 0.192810 0.293732
0.029175 0.212524 0.302307
0.176880 0.225250 0.303192
0.322937 0.209412 0.273010
0.427002 0.208252 0.268250
0.515594 0.211151 0.262848
0.590942 0.215546 0.258789
0.664978 0.212372 0.250244
0.740814 0.195312 0.227142
0.000000 0.298798 0.328369
0.078552 0.316132 0.324127
0.229340 0.322876 0.300446
0.355774 0.321594 0.289368
0.445038 0.319305 0.285126
0.537170 0.326141 0.287964
0.618347 0.330322 0.287811
0.697449 0.325958 0.279053
0.778137 0.308929 0.255432
0.056061 0.403503 0.337769
0.169037 0.411865 0.326935
0.293427 0.419464 0.317535
0.394501 0.422119 0.310242
0.467346 0.412170 0.300629
0.560760 0.421387 0.303345
0.643341 0.427673 0.303619
0.728821 0.425568 0.294067
0.805267 0.405121 0.268036
0.157166 0.499420 0.352386
0.243073 0.502808 0.343903
0.345093 0.508667 0.338135
0.428772 0.514374 0.333344
0.494019 0.521851 0.335114
0.581146 0.518799 0.325562
0.663666 0.524597 0.324463
0.750488 0.525513 0.313995
0.831787 0.515198 0.285004
0.229523 0.579803 0.362244
0.295380 0.584534 0.358459
0.383972 0.594940 0.345154
0.465027 0.606445 0.347107
0.538879 0.617859 0.352783
0.604279 0.628418 0.353271
0.667267 0.632599 0.363800
0.758331 0.636993 0.335419
0.847595 0.634216 0.306915
0.278839 0.666626 0.370209
0.334991 0.671570 0.366425
0.417542 0.682434 0.352020
0.503052 0.700104 0.358154
0.571106 0.713226 0.366577
0.644867 0.726501 0.368042
0.719879 0.735168 0.363312
0.751007 0.751038 0.375153
0.837036 0.756897 0.335754
0.333435 0.737183 0.354614
0.376678 0.743500 0.343384
0.450287 0.758057 0.328705
0.536682 0.778534 0.328583
0.601532 0.795319 0.342987
0.671387 0.812775 0.352600
0.745575 0.828491 0.354614
0.817810 0.838837 0.346924
0.879730 0.844025 0.333405
0.000000 0.076843 0.258484
0.000000 0.073364 0.254700
0.030334 0.083984 0.282654
0.190735 0.073608 0.300659
0.327881 0.047394 0.289520
0.435242 0.043121 0.303864
0.523651 0.050446 0.312408
0.602173 0.053802 0.312317
0.678955 0.022339 0.297180
0.000000 0.124847 0.311829
0.000000 0.127441 0.312500
0.050262 0.126160 0.315063
0.216156 0.126587 0.330688
0.359222 0.116302 0.321869
0.464020 0.118164 0.327759
0.552856 0.123016 0.329803
0.629822 0.122223 0.323547
0.711151 0.102112 0.303925
0.000000 0.203247 0.362915
0.002258 0.215271 0.367218
0.128357 0.233490 0.372192
0.260956 0.223328 0.362885
0.399780 0.218781 0.349274
0.505737 0.221252 0.354370
0.590424 0.221771 0.350433
0.667084 0.216431 0.338562
0.747070 0.197571 0.316132
0.000000 0.302460 0.401123
0.038116 0.315918 0.403961
0.184937 0.332916 0.399719
0.328156 0.337921 0.385956
0.435333 0.322906 0.370850
0.529755 0.328217 0.374023
0.614807 0.330353 0.373444
0.695099 0.321899 0.361359
0.776581 0.300385 0.331818
0.013092 0.405060 0.437836
0.102722 0.420715 0.433990
0.237152 0.427643 0.419037
0.368469 0.428436 0.403290
0.464630 0.430023 0.399078
0.550262 0.429810 0.398010
0.639313 0.434906 0.400787
0.728882 0.431274 0.392975
0.811188 0.409027 0.365906
0.093231 0.504517 0.451477
0.162048 0.509491 0.436890
0.292328 0.513397 0.428772
0.404449 0.517426 0.425903
0.493866 0.523224 0.425201
0.572632 0.522095 0.420197
0.661285 0.527496 0.421783
0.753662 0.530273 0.414368
0.838165 0.518677 0.387726
0.136383 0.591675 0.457123
0.212982 0.596039 0.451355
0.336456 0.603912 0.448792
0.435608 0.615173 0.451233
0.526642 0.625641 0.450287
0.601410 0.634277 0.453308
0.682678 0.633423 0.448364
0.774109 0.639954 0.440918
0.861542 0.637787 0.417816
0.204620 0.676208 0.463654
0.269257 0.679077 0.458008
0.374512 0.686584 0.459320
0.465912 0.706268 0.461761
0.558014 0.725037 0.464600
0.634186 0.736969 0.471680
0.718445 0.747009 0.471344
0.765076 0.758575 0.480408
0.867645 0.761017 0.452728
0.269531 0.747620 0.459930
0.323486 0.753784 0.457336
0.407562 0.762329 0.456848
0.492493 0.786407 0.453613
0.586700 0.812378 0.455780
0.660217 0.827759 0.469666
0.742859 0.843048 0.473846
0.821808 0.854858 0.474823
0.882812 0.860809 0.472046
0.000000 0.096405 0.312073
0.000000 0.088715 0.298645
0.000061 0.094971 0.313568
0.132050 0.096130 0.342346
0.276672 0.082458 0.349945
0.393250 0.063934 0.352234
0.499298 0.071960 0.374298
0.594757 0.079895 0.387848
0.678894 0.066559 0.380676
0.000000 0.135834 0.365601
0.000000 0.138092 0.362213
0.007812 0.132385 0.348480
0.156067 0.139343 0.376801
0.305237 0.135406 0.383820
0.421539 0.128113 0.385498
0.528168 0.134064 0.396484
0.621429 0.138519 0.404663
0.708313 0.121918 0.390747
0.000000 0.212463 0.418671
0.000000 0.218323 0.417603
0.073029 0.235016 0.417511
0.202057 0.227448 0.418335
0.345123 0.226837 0.415680
0.462982 0.225647 0.418213
0.568787 0.230896 0.427490
0.661285 0.226166 0.426086
0.748962 0.203033 0.405182
0.000000 0.305634 0.459747
0.016968 0.316772 0.460693
0.143646 0.338348 0.458832
0.283844 0.346832 0.459137
0.393402 0.336670 0.446259
0.512421 0.336792 0.449280
0.606079 0.337372 0.454773
0.694397 0.327637 0.447632
0.779541 0.303467 0.423126
0.000732 0.398590 0.500305
0.063599 0.409424 0.496521
0.194763 0.429932 0.489319
0.333954 0.437134 0.484894
0.441589 0.439178 0.475525
0.537079 0.431458 0.470856
0.627350 0.435760 0.475098
0.724426 0.430634 0.471619
0.807709 0.402710 0.444611
0.045532 0.502777 0.536224
0.119507 0.512146 0.531860
0.239044 0.518402 0.519470
0.372162 0.522278 0.503876
0.474243 0.527924 0.506897
0.568604 0.532379 0.510406
0.652527 0.532898 0.508881
0.753082 0.536255 0.509430
0.844421 0.526306 0.487396
0.102051 0.594391 0.548676
0.164185 0.600037 0.542328
0.272919 0.605774 0.527893
0.404633 0.615906 0.530365
0.506927 0.624939 0.534454
0.597198 0.636169 0.540649
0.678009 0.638000 0.539154
0.778687 0.646729 0.539246
0.871979 0.646942 0.526306
0.141846 0.679077 0.554718
0.187988 0.684662 0.550476
0.306763 0.693817 0.549530
0.428162 0.712006 0.555542
0.533325 0.729218 0.565186
0.625671 0.744598 0.569275
0.714325 0.757233 0.573792
0.794250 0.759583 0.574097
0.891693 0.766327 0.563049
0.186676 0.759186 0.559662
0.244446 0.765839 0.559021
0.346893 0.776550 0.560272
0.450684 0.796204 0.566803
0.550110 0.819214 0.579041
0.645782 0.844116 0.582397
0.734314 0.857574 0.588013
0.823334 0.869476 0.594391
0.888611 0.876862 0.598419
0.000000 0.112518 0.367523
0.000000 0.101135 0.345245
0.000000 0.104858 0.344360
0.081390 0.109863 0.368896
0.222290 0.107635 0.399139
0.348969 0.098297 0.408081
0.454529 0.088715 0.419830
0.566132 0.099091 0.439789
0.670563 0.096069 0.451874
0.000000 0.148285 0.412018
0.000000 0.148315 0.407227
0.002472 0.138885 0.390900
0.091644 0.145966 0.400360
0.241272 0.148895 0.428436
0.370911 0.146027 0.437683
0.479340 0.141571 0.445587
0.592346 0.148499 0.459656
0.695862 0.140350 0.466461
0.000000 0.220001 0.467743
0.002472 0.220886 0.462524
0.025543 0.236328 0.460419
0.131805 0.227081 0.454407
0.279724 0.231903 0.470703
0.409882 0.233734 0.473511
0.523315 0.234070 0.481110
0.632690 0.234161 0.491058
0.738251 0.216187 0.488068
0.000000 0.307770 0.515472
0.011169 0.314148 0.513916
0.086548 0.332001 0.512543
0.227356 0.346680 0.513184
0.336670 0.336975 0.514313
0.453491 0.339050 0.514069
0.571472 0.342560 0.522064
0.674011 0.335785 0.527252
0.775482 0.309509 0.514923
0.005676 0.396393 0.553894
0.030670 0.405090 0.552307
0.153503 0.429169 0.551361
0.285034 0.441895 0.549713
0.402832 0.446289 0.554321
0.494049 0.440643 0.547180
0.606842 0.442200 0.552368
0.711243 0.434662 0.554230
0.806061 0.406250 0.539062
0.021912 0.491364 0.588898
0.079010 0.499725 0.586273
0.194702 0.515106 0.582733
0.329681 0.526794 0.579956
0.441772 0.533264 0.582947
0.542633 0.538635 0.582764
0.633789 0.533051 0.580994
0.738831 0.533386 0.584045
0.838928 0.521759 0.573273
0.063660 0.589081 0.621033
0.124023 0.597687 0.617859
0.230591 0.609802 0.612366
0.360809 0.617035 0.607910
0.475494 0.627045 0.608307
0.574677 0.637939 0.618927
0.673248 0.649475 0.627594
0.771759 0.650879 0.625793
0.878967 0.655579 0.624817
0.104828 0.676422 0.636902
0.154694 0.684204 0.634552
0.253174 0.696838 0.633423
0.372498 0.710449 0.631927
0.491211 0.728058 0.647583
0.602203 0.742920 0.658539
0.706268 0.762177 0.667053
0.797302 0.765381 0.666626
0.907837 0.775665 0.669220
0.140472 0.756561 0.647247
0.187469 0.765686 0.647888
0.266479 0.781738 0.651489
0.382965 0.802643 0.661072
0.504730 0.826508 0.675415
0.614166 0.846558 0.686707
0.724548 0.866394 0.699280
0.822327 0.878326 0.701569
0.917053 0.887360 0.707214
0.000000 0.126892 0.415894
0.000000 0.114227 0.397491
0.000000 0.112976 0.387726
0.020172 0.118500 0.397217
0.161194 0.122009 0.428070
0.284485 0.121033 0.459564
0.405914 0.115112 0.472900
0.523712 0.108734 0.486053
0.639526 0.114594 0.508392
0.000000 0.158264 0.454773
0.000000 0.157104 0.449524
0.005707 0.142639 0.429535
0.020813 0.148865 0.427765
0.169800 0.156342 0.457550
0.303955 0.159058 0.488220
0.424835 0.157043 0.504700
0.544586 0.154327 0.513733
0.662537 0.152802 0.524658
0.000000 0.222534 0.516235
0.005707 0.219849 0.509247
0.019043 0.225800 0.504028
0.032959 0.215912 0.487915
0.189789 0.225647 0.509430
0.331512 0.231873 0.532227
0.458679 0.235138 0.543121
0.579773 0.236664 0.550659
0.701111 0.224792 0.554230
0.004761 0.304199 0.562988
0.014862 0.306458 0.561005
0.032135 0.314850 0.556915
0.124023 0.330719 0.557678
0.232147 0.324310 0.563416
0.371155 0.329193 0.576172
0.506042 0.334076 0.580261
0.625488 0.338287 0.590118
0.744293 0.316895 0.588409
0.011810 0.389893 0.604797
0.024780 0.391663 0.602570
0.065704 0.404877 0.602234
0.189728 0.426361 0.604095
0.314484 0.439941 0.616882
0.418335 0.433777 0.619751
0.547729 0.435883 0.618378
0.668274 0.440155 0.625977
0.783905 0.414490 0.622711
0.019043 0.480621 0.642670
0.039642 0.485870 0.640778
0.126709 0.501007 0.641205
0.244293 0.519440 0.647339
0.371674 0.535797 0.659546
0.482239 0.543854 0.668030
0.591217 0.537109 0.660370
0.712463 0.538574 0.666870
0.825226 0.526215 0.665436
0.040192 0.571777 0.679626
0.078186 0.576569 0.677795
0.168152 0.595947 0.678284
0.285248 0.612976 0.681427
0.411743 0.631439 0.694275
0.531616 0.645172 0.705017
0.643097 0.655426 0.709869
0.753998 0.650665 0.709625
0.866974 0.650452 0.710938
0.074646 0.666260 0.709137
0.118195 0.674622 0.708252
0.202240 0.690033 0.709534
0.317627 0.706604 0.714478
0.437317 0.726410 0.728210
0.559357 0.743561 0.740509
0.673035 0.760651 0.747406
0.791046 0.775055 0.758240
0.912140 0.787354 0.766235
0.104431 0.740845 0.721100
0.138367 0.753601 0.722900
0.211761 0.773895 0.730804
0.315735 0.797943 0.744293
0.434509 0.826172 0.760132
0.559631 0.848389 0.770721
0.686737 0.866730 0.787598
0.819183 0.887756 0.806763
0.927917 0.898071 0.811401
0.000000 0.132538 0.457886
0.000000 0.120819 0.440582
0.002350 0.116150 0.430115
0.009888 0.117462 0.423035
0.050995 0.124847 0.447479
0.198944 0.130341 0.491150
0.328308 0.131317 0.528748
0.455994 0.127472 0.546722
0.592102 0.124756 0.561584
0.000000 0.157043 0.490356
0.001556 0.153809 0.485962
0.009308 0.137939 0.466644
0.019073 0.139069 0.460327
0.040070 0.146820 0.472443
0.199921 0.157593 0.522064
0.337280 0.161530 0.555267
0.471649 0.161377 0.574066
0.611389 0.161072 0.584503
0.002350 0.210327 0.548706
0.009308 0.204803 0.540863
0.022552 0.201965 0.537079
0.035828 0.188721 0.523163
0.050476 0.198578 0.531464
0.199127 0.213379 0.565491
0.356934 0.222900 0.595673
0.506287 0.227997 0.616638
0.645721 0.229645 0.621033
0.009857 0.284210 0.602020
0.019073 0.282288 0.599976
0.035828 0.276672 0.593567
0.057190 0.274139 0.590607
0.076263 0.272491 0.591675
0.205841 0.294159 0.619507
0.382599 0.307098 0.642548
0.545837 0.317169 0.660492
0.685120 0.321655 0.665588
0.018127 0.366547 0.655884
0.029633 0.364960 0.653870
0.050476 0.366852 0.651947
0.076263 0.366180 0.651672
0.114594 0.375610 0.662750
0.236023 0.389404 0.679962
0.417236 0.400604 0.691315
0.584900 0.410126 0.700958
0.731201 0.422668 0.706360
0.026611 0.458496 0.699188
0.040649 0.459564 0.698395
0.065826 0.463776 0.697571
0.104279 0.476532 0.702728
0.195038 0.493713 0.715820
0.332092 0.516724 0.738342
0.473846 0.519135 0.743835
0.638794 0.525421 0.744110
0.784790 0.535797 0.753540
0.035492 0.549225 0.736053
0.053009 0.552063 0.735992
0.088257 0.560699 0.737671
0.157684 0.574951 0.743408
0.265076 0.606995 0.759521
0.415649 0.637848 0.785950
0.567322 0.653961 0.801147
0.699646 0.650085 0.796417
0.840942 0.659271 0.808502
0.062561 0.646698 0.770721
0.085571 0.651031 0.770905
0.136688 0.660400 0.772797
0.207001 0.678345 0.780090
0.310699 0.705688 0.800110
0.455902 0.740112 0.823181
0.620422 0.769012 0.841766
0.774811 0.786041 0.853149
0.895325 0.787903 0.859467
0.084198 0.718414 0.788757
0.112427 0.725006 0.790161
0.158112 0.738068 0.794769
0.226074 0.764343 0.806396
0.324249 0.796082 0.823761
0.459900 0.834045 0.846893
0.626770 0.867493 0.869537
0.794464 0.892548 0.891022
0.937164 0.912292 0.908081
