Kodak 16mm (Variant) - Only contrast.cube
# Created by Benjamin (IWLTBAP) : http://luts.iwltbap.com
# Copyright: (C) Copyright 2010-2017 Triune Films and IWLTBAP SAS
# Cannot be resold, shared or otherwise redistributed
TITLE "Film Print Emulation LUTs Pack (Rec.709, sRGB, DCI-P3)"
LUT_3D_SIZE 9
0.000000 0.000000 0.000000
0.104736 0.000122 0.000122
0.222992 0.000153 0.000153
0.362183 0.000031 0.000031
0.492157 0.000000 0.000000
0.627136 0.000000 0.000000
0.761200 0.000000 0.000000
0.891876 0.000000 0.000000
0.999237 0.000000 0.000000
0.000122 0.104736 0.000122
0.104736 0.104736 0.000244
0.223175 0.104675 0.000244
0.362366 0.104431 0.000122
0.492432 0.104279 0.000092
0.627289 0.104095 0.000000
0.761414 0.103912 0.000000
0.891937 0.103760 0.000000
0.999420 0.103760 0.000000
0.000153 0.222992 0.000153
0.104675 0.223175 0.000244
0.223297 0.223297 0.000305
0.362427 0.223267 0.000183
0.492615 0.223328 0.000122
0.627319 0.223328 0.000031
0.761536 0.223358 0.000000
0.891846 0.223419 0.000000
0.999512 0.223633 0.000000
0.000031 0.362183 0.000031
0.104431 0.362366 0.000122
0.223267 0.362427 0.000183
0.362366 0.362366 0.000061
0.492645 0.362366 0.000000
0.627197 0.362305 0.000000
0.761505 0.362274 0.000000
0.891663 0.362244 0.000000
0.999451 0.362396 0.000000
0.000000 0.492157 0.000000
0.104279 0.492432 0.000092
0.223328 0.492615 0.000122
0.362366 0.492645 0.000000
0.492737 0.492737 0.000000
0.627167 0.492828 0.000000
0.761536 0.492889 0.000000
0.891479 0.493011 0.000000
0.999481 0.493256 0.000000
0.000000 0.627136 0.000000
0.104095 0.627289 0.000000
0.223328 0.627319 0.000031
0.362305 0.627197 0.000000
0.492828 0.627167 0.000000
0.627106 0.627106 0.000000
0.761536 0.627045 0.000000
0.891296 0.627014 0.000000
0.999451 0.627136 0.000000
0.000000 0.761200 0.000000
0.103912 0.761414 0.000000
0.223358 0.761536 0.000000
0.362274 0.761505 0.000000
0.492889 0.761536 0.000000
0.627045 0.761536 0.000000
0.761536 0.761536 0.000000
0.891083 0.761597 0.000000
0.999420 0.761780 0.000000
0.000000 0.891876 0.000000
0.103760 0.891937 0.000000
0.223419 0.891846 0.000000
0.362244 0.891663 0.000000
0.493011 0.891479 0.000000
0.627014 0.891296 0.000000
0.761597 0.891083 0.000000
0.890930 0.890930 0.000000
0.999451 0.890869 0.000000
0.000000 0.999237 0.000000
0.103760 0.999420 0.000000
0.223633 0.999512 0.000000
0.362396 0.999451 0.000000
0.493256 0.999481 0.000000
0.627136 0.999451 0.000000
0.761780 0.999420 0.000000
0.890869 0.999451 0.000000
0.999603 0.999451 0.021545
0.000122 0.000122 0.104736
0.104736 0.000244 0.104736
0.223175 0.000244 0.104675
0.362366 0.000122 0.104431
0.492432 0.000092 0.104279
0.627289 0.000000 0.104095
0.761414 0.000000 0.103912
0.891937 0.000000 0.103760
0.999420 0.000000 0.103760
0.000244 0.104736 0.104736
0.104767 0.104767 0.104767
0.223389 0.104675 0.104675
0.362549 0.104462 0.104462
0.492706 0.104309 0.104309
0.627411 0.104095 0.104095
0.761627 0.103943 0.103943
0.891968 0.103790 0.103790
0.999603 0.103790 0.103790
0.000244 0.223175 0.104675
0.104675 0.223389 0.104675
0.223511 0.223511 0.104584
0.362610 0.223511 0.104370
0.492889 0.223541 0.104218
0.627441 0.223572 0.104034
0.761749 0.223602 0.103851
0.891907 0.223633 0.103699
0.999695 0.223846 0.103729
0.000122 0.362366 0.104431
0.104462 0.362549 0.104462
0.223511 0.362610 0.104370
0.362549 0.362549 0.104156
0.492920 0.362518 0.104004
0.627350 0.362488 0.103821
0.761719 0.362427 0.103638
0.891663 0.362427 0.103516
0.999664 0.362549 0.103516
0.000092 0.492432 0.104279
0.104309 0.492706 0.104309
0.223541 0.492889 0.104218
0.362518 0.492920 0.104004
0.493042 0.493042 0.103851
0.627319 0.493103 0.103668
0.761749 0.493195 0.103516
0.891510 0.493286 0.103363
0.999664 0.493530 0.103394
0.000000 0.627289 0.104095
0.104095 0.627411 0.104095
0.223572 0.627441 0.104034
0.362488 0.627350 0.103821
0.493103 0.627319 0.103668
0.627258 0.627258 0.103516
0.761749 0.627197 0.103333
0.891296 0.627167 0.103210
0.999634 0.627289 0.103241
0.000000 0.761414 0.103912
0.103943 0.761627 0.103943
0.223602 0.761749 0.103851
0.362427 0.761719 0.103638
0.493195 0.761749 0.103516
0.627197 0.761749 0.103333
0.761780 0.761780 0.103180
0.891113 0.761810 0.103058
0.999634 0.761993 0.103058
0.000000 0.891937 0.103760
0.103790 0.891968 0.103790
0.223633 0.891907 0.103699
0.362427 0.891663 0.103516
0.493286 0.891510 0.103363
0.627167 0.891296 0.103210
0.761810 0.891113 0.103058
0.890930 0.890930 0.102936
0.999634 0.890869 0.102936
0.000000 0.999420 0.103760
0.103790 0.999603 0.103790
0.223846 0.999695 0.103729
0.362549 0.999664 0.103516
0.493530 0.999664 0.103394
0.627289 0.999634 0.103241
0.761993 0.999634 0.103058
0.890869 0.999634 0.102936
0.999786 0.999786 0.102966
0.000153 0.000153 0.222992
0.104675 0.000244 0.223175
0.223297 0.000305 0.223297
0.362427 0.000183 0.223267
0.492615 0.000122 0.223328
0.627319 0.000031 0.223328
0.761536 0.000000 0.223358
0.891846 0.000000 0.223419
0.999512 0.000000 0.223633
0.000244 0.104675 0.223175
0.104675 0.104675 0.223389
0.223511 0.104584 0.223511
0.362610 0.104370 0.223511
0.492889 0.104218 0.223541
0.627441 0.104034 0.223572
0.761749 0.103851 0.223602
0.891907 0.103699 0.223633
0.999695 0.103729 0.223846
0.000305 0.223297 0.223297
0.104584 0.223511 0.223511
0.223633 0.223633 0.223633
0.362671 0.223633 0.223633
0.493073 0.223663 0.223663
0.627472 0.223694 0.223694
0.761841 0.223724 0.223724
0.891815 0.223755 0.223755
0.999786 0.223969 0.223969
0.000183 0.362427 0.223267
0.104370 0.362610 0.223511
0.223633 0.362671 0.223633
0.362610 0.362610 0.223602
0.493103 0.362579 0.223663
0.627380 0.362549 0.223694
0.761810 0.362488 0.223694
0.891571 0.362457 0.223755
0.999725 0.362610 0.223969
0.000122 0.492615 0.223328
0.104218 0.492889 0.223541
0.223663 0.493073 0.223663
0.362579 0.493103 0.223663
0.493195 0.493195 0.223724
0.627350 0.493286 0.223724
0.761841 0.493347 0.223755
0.891388 0.493469 0.223816
0.999725 0.493713 0.223999
0.000031 0.627319 0.223328
0.104034 0.627441 0.223572
0.223694 0.627472 0.223694
0.362549 0.627380 0.223694
0.493286 0.627350 0.223724
0.627289 0.627289 0.223755
0.761871 0.627228 0.223785
0.891205 0.627228 0.223846
0.999725 0.627350 0.224030
0.000000 0.761536 0.223358
0.103851 0.761749 0.223602
0.223724 0.761841 0.223724
0.362488 0.761810 0.223694
0.493347 0.761841 0.223755
0.627228 0.761871 0.223785
0.761871 0.761871 0.223816
0.890961 0.761902 0.223877
0.999695 0.762115 0.224060
0.000000 0.891846 0.223419
0.103699 0.891907 0.223633
0.223755 0.891815 0.223755
0.362457 0.891571 0.223755
0.493469 0.891388 0.223816
0.627228 0.891205 0.223846
0.761902 0.890961 0.223877
0.890778 0.890778 0.223938
0.999695 0.890717 0.224121
0.000000 0.999512 0.223633
0.103729 0.999695 0.223846
0.223969 0.999786 0.223969
0.362610 0.999725 0.223969
0.493713 0.999725 0.223999
0.627350 0.999725 0.224030
0.762115 0.999695 0.224060
0.890717 0.999695 0.224121
0.999847 0.999847 0.224335
0.000031 0.000031 0.362183
0.104431 0.000122 0.362366
0.223267 0.000183 0.362427
0.362366 0.000061 0.362366
0.492645 0.000000 0.362366
0.627197 0.000000 0.362305
0.761505 0.000000 0.362274
0.891663 0.000000 0.362244
0.999451 0.000000 0.362396
0.000122 0.104431 0.362366
0.104462 0.104462 0.362549
0.223511 0.104370 0.362610
0.362549 0.104156 0.362549
0.492920 0.104004 0.362518
0.627350 0.103821 0.362488
0.761719 0.103638 0.362427
0.891663 0.103516 0.362427
0.999664 0.103516 0.362549
0.000183 0.223267 0.362427
0.104370 0.223511 0.362610
0.223633 0.223633 0.362671
0.362610 0.223602 0.362610
0.493103 0.223663 0.362579
0.627380 0.223694 0.362549
0.761810 0.223694 0.362488
0.891571 0.223755 0.362457
0.999725 0.223969 0.362610
0.000061 0.362366 0.362366
0.104156 0.362549 0.362549
0.223602 0.362610 0.362610
0.362518 0.362518 0.362518
0.493134 0.362518 0.362518
0.627289 0.362457 0.362457
0.761810 0.362396 0.362396
0.891357 0.362396 0.362396
0.999695 0.362518 0.362518
0.000000 0.492645 0.362366
0.104004 0.492920 0.362518
0.223663 0.493103 0.362579
0.362518 0.493134 0.362518
0.493256 0.493256 0.362488
0.627258 0.493317 0.362427
0.761841 0.493408 0.362366
0.891174 0.493500 0.362366
0.999695 0.493774 0.362457
0.000000 0.627197 0.362305
0.103821 0.627350 0.362488
0.223694 0.627380 0.362549
0.362457 0.627289 0.362457
0.493317 0.627258 0.362427
0.627197 0.627197 0.362366
0.761841 0.627167 0.362335
0.890961 0.627136 0.362305
0.999664 0.627289 0.362427
0.000000 0.761505 0.362274
0.103638 0.761719 0.362427
0.223694 0.761810 0.362488
0.362396 0.761810 0.362396
0.493408 0.761841 0.362366
0.627167 0.761841 0.362335
0.761841 0.761841 0.362274
0.890717 0.761902 0.362244
0.999634 0.762085 0.362335
0.000000 0.891663 0.362244
0.103516 0.891663 0.362427
0.223755 0.891571 0.362457
0.362396 0.891357 0.362396
0.493500 0.891174 0.362366
0.627136 0.890961 0.362305
0.761902 0.890717 0.362244
0.890503 0.890503 0.362213
0.999664 0.890442 0.362335
0.000000 0.999451 0.362396
0.103516 0.999664 0.362549
0.223969 0.999725 0.362610
0.362518 0.999695 0.362518
0.493774 0.999695 0.362457
0.627289 0.999664 0.362427
0.762085 0.999634 0.362335
0.890442 0.999664 0.362335
0.999817 0.999817 0.362427
0.000000 0.000000 0.492157
0.104279 0.000092 0.492432
0.223328 0.000122 0.492615
0.362366 0.000000 0.492645
0.492737 0.000000 0.492737
0.627167 0.000000 0.492828
0.761536 0.000000 0.492889
0.891479 0.000000 0.493011
0.999481 0.000000 0.493256
0.000092 0.104279 0.492432
0.104309 0.104309 0.492706
0.223541 0.104218 0.492889
0.362518 0.104004 0.492920
0.493042 0.103851 0.493042
0.627319 0.103668 0.493103
0.761749 0.103516 0.493195
0.891510 0.103363 0.493286
0.999664 0.103394 0.493530
0.000122 0.223328 0.492615
0.104218 0.223541 0.492889
0.223663 0.223663 0.493073
0.362579 0.223663 0.493103
0.493195 0.223724 0.493195
0.627350 0.223724 0.493286
0.761841 0.223755 0.493347
0.891388 0.223816 0.493469
0.999725 0.223999 0.493713
0.000000 0.362366 0.492645
0.104004 0.362518 0.492920
0.223663 0.362579 0.493103
0.362518 0.362518 0.493134
0.493256 0.362488 0.493256
0.627258 0.362427 0.493317
0.761841 0.362366 0.493408
0.891174 0.362366 0.493500
0.999695 0.362457 0.493774
0.000000 0.492737 0.492737
0.103851 0.493042 0.493042
0.223724 0.493195 0.493195
0.362488 0.493256 0.493256
0.493347 0.493347 0.493347
0.627228 0.493408 0.493408
0.761871 0.493500 0.493500
0.890961 0.493622 0.493622
0.999664 0.493896 0.493896
0.000000 0.627167 0.492828
0.103668 0.627319 0.493103
0.223724 0.627350 0.493286
0.362427 0.627258 0.493317
0.493408 0.627228 0.493408
0.627167 0.627167 0.493500
0.761871 0.627136 0.493591
0.890747 0.627106 0.493713
0.999664 0.627258 0.493988
0.000000 0.761536 0.492889
0.103516 0.761749 0.493195
0.223755 0.761841 0.493347
0.362366 0.761841 0.493408
0.493500 0.761871 0.493500
0.627136 0.761871 0.493591
0.761871 0.761871 0.493683
0.890503 0.761932 0.493805
0.999634 0.762115 0.494080
0.000000 0.891479 0.493011
0.103363 0.891510 0.493286
0.223816 0.891388 0.493469
0.362366 0.891174 0.493500
0.493622 0.890961 0.493622
0.627106 0.890747 0.493713
0.761932 0.890503 0.493805
0.890289 0.890289 0.493927
0.999664 0.890198 0.494202
0.000000 0.999481 0.493256
0.103394 0.999664 0.493530
0.223999 0.999725 0.493713
0.362457 0.999695 0.493774
0.493896 0.999664 0.493896
0.627258 0.999664 0.493988
0.762115 0.999634 0.494080
0.890198 0.999664 0.494202
0.999817 0.999817 0.494476
0.000000 0.000000 0.627136
0.104095 0.000000 0.627289
0.223328 0.000031 0.627319
0.362305 0.000000 0.627197
0.492828 0.000000 0.627167
0.627106 0.000000 0.627106
0.761536 0.000000 0.627045
0.891296 0.000000 0.627014
0.999451 0.000000 0.627136
0.000000 0.104095 0.627289
0.104095 0.104095 0.627411
0.223572 0.104034 0.627441
0.362488 0.103821 0.627350
0.493103 0.103668 0.627319
0.627258 0.103516 0.627258
0.761749 0.103333 0.627197
0.891296 0.103210 0.627167
0.999634 0.103241 0.627289
0.000031 0.223328 0.627319
0.104034 0.223572 0.627441
0.223694 0.223694 0.627472
0.362549 0.223694 0.627380
0.493286 0.223724 0.627350
0.627289 0.223755 0.627289
0.761871 0.223785 0.627228
0.891205 0.223846 0.627228
0.999725 0.224030 0.627350
0.000000 0.362305 0.627197
0.103821 0.362488 0.627350
0.223694 0.362549 0.627380
0.362457 0.362457 0.627289
0.493317 0.362427 0.627258
0.627197 0.362366 0.627197
0.761841 0.362335 0.627167
0.890961 0.362305 0.627136
0.999664 0.362427 0.627289
0.000000 0.492828 0.627167
0.103668 0.493103 0.627319
0.223724 0.493286 0.627350
0.362427 0.493317 0.627258
0.493408 0.493408 0.627228
0.627167 0.493500 0.627167
0.761871 0.493591 0.627136
0.890747 0.493713 0.627106
0.999664 0.493988 0.627258
0.000000 0.627106 0.627106
0.103516 0.627258 0.627258
0.223755 0.627289 0.627289
0.362366 0.627197 0.627197
0.493500 0.627167 0.627167
0.627136 0.627136 0.627136
0.761902 0.627075 0.627075
0.890503 0.627075 0.627075
0.999664 0.627228 0.627228
0.000000 0.761536 0.627045
0.103333 0.761749 0.627197
0.223785 0.761871 0.627228
0.362335 0.761841 0.627167
0.493591 0.761871 0.627136
0.627075 0.761902 0.627075
0.761902 0.761902 0.627045
0.890259 0.761932 0.627045
0.999634 0.762115 0.627197
0.000000 0.891296 0.627014
0.103210 0.891296 0.627167
0.223846 0.891205 0.627228
0.362305 0.890961 0.627136
0.493713 0.890747 0.627106
0.627075 0.890503 0.627075
0.761932 0.890259 0.627045
0.890015 0.890015 0.627075
0.999664 0.889923 0.627197
0.000000 0.999451 0.627136
0.103241 0.999634 0.627289
0.224030 0.999725 0.627350
0.362427 0.999664 0.627289
0.493988 0.999664 0.627258
0.627228 0.999664 0.627228
0.762115 0.999634 0.627197
0.889923 0.999664 0.627197
0.999786 0.999786 0.627350
0.000000 0.000000 0.761200
0.103912 0.000000 0.761414
0.223358 0.000000 0.761536
0.362274 0.000000 0.761505
0.492889 0.000000 0.761536
0.627045 0.000000 0.761536
0.761536 0.000000 0.761536
0.891083 0.000000 0.761597
0.999420 0.000000 0.761780
0.000000 0.103912 0.761414
0.103943 0.103943 0.761627
0.223602 0.103851 0.761749
0.362427 0.103638 0.761719
0.493195 0.103516 0.761749
0.627197 0.103333 0.761749
0.761780 0.103180 0.761780
0.891113 0.103058 0.761810
0.999634 0.103058 0.761993
0.000000 0.223358 0.761536
0.103851 0.223602 0.761749
0.223724 0.223724 0.761841
0.362488 0.223694 0.761810
0.493347 0.223755 0.761841
0.627228 0.223785 0.761871
0.761871 0.223816 0.761871
0.890961 0.223877 0.761902
0.999695 0.224060 0.762115
0.000000 0.362274 0.761505
0.103638 0.362427 0.761719
0.223694 0.362488 0.761810
0.362396 0.362396 0.761810
0.493408 0.362366 0.761841
0.627167 0.362335 0.761841
0.761841 0.362274 0.761841
0.890717 0.362244 0.761902
0.999634 0.362335 0.762085
0.000000 0.492889 0.761536
0.103516 0.493195 0.761749
0.223755 0.493347 0.761841
0.362366 0.493408 0.761841
0.493500 0.493500 0.761871
0.627136 0.493591 0.761871
0.761871 0.493683 0.761871
0.890503 0.493805 0.761932
0.999634 0.494080 0.762115
0.000000 0.627045 0.761536
0.103333 0.627197 0.761749
0.223785 0.627228 0.761871
0.362335 0.627167 0.761841
0.493591 0.627136 0.761871
0.627075 0.627075 0.761902
0.761902 0.627045 0.761902
0.890259 0.627045 0.761932
0.999634 0.627197 0.762115
0.000000 0.761536 0.761536
0.103180 0.761780 0.761780
0.223816 0.761871 0.761871
0.362274 0.761841 0.761841
0.493683 0.761871 0.761871
0.627045 0.761902 0.761902
0.761902 0.761902 0.761902
0.889984 0.761963 0.761963
0.999603 0.762115 0.762115
0.000000 0.891083 0.761597
0.103058 0.891113 0.761810
0.223877 0.890961 0.761902
0.362244 0.890717 0.761902
0.493805 0.890503 0.761932
0.627045 0.890259 0.761932
0.761963 0.889984 0.761963
0.889740 0.889740 0.761993
0.999634 0.889648 0.762177
0.000000 0.999420 0.761780
0.103058 0.999634 0.761993
0.224060 0.999695 0.762115
0.362335 0.999634 0.762085
0.494080 0.999634 0.762115
0.627197 0.999634 0.762115
0.762115 0.999603 0.762115
0.889648 0.999634 0.762177
0.999786 0.999786 0.762360
0.000000 0.000000 0.891876
0.103760 0.000000 0.891937
0.223419 0.000000 0.891846
0.362244 0.000000 0.891663
0.493011 0.000000 0.891479
0.627014 0.000000 0.891296
0.761597 0.000000 0.891083
0.890930 0.000000 0.890930
0.999451 0.000000 0.890869
0.000000 0.103760 0.891937
0.103790 0.103790 0.891968
0.223633 0.103699 0.891907
0.362427 0.103516 0.891663
0.493286 0.103363 0.891510
0.627167 0.103210 0.891296
0.761810 0.103058 0.891113
0.890930 0.102936 0.890930
0.999634 0.102936 0.890869
0.000000 0.223419 0.891846
0.103699 0.223633 0.891907
0.223755 0.223755 0.891815
0.362457 0.223755 0.891571
0.493469 0.223816 0.891388
0.627228 0.223846 0.891205
0.761902 0.223877 0.890961
0.890778 0.223938 0.890778
0.999695 0.224121 0.890717
0.000000 0.362244 0.891663
0.103516 0.362427 0.891663
0.223755 0.362457 0.891571
0.362396 0.362396 0.891357
0.493500 0.362366 0.891174
0.627136 0.362305 0.890961
0.761902 0.362244 0.890717
0.890503 0.362213 0.890503
0.999664 0.362335 0.890442
0.000000 0.493011 0.891479
0.103363 0.493286 0.891510
0.223816 0.493469 0.891388
0.362366 0.493500 0.891174
0.493622 0.493622 0.890961
0.627106 0.493713 0.890747
0.761932 0.493805 0.890503
0.890289 0.493927 0.890289
0.999664 0.494202 0.890198
0.000000 0.627014 0.891296
0.103210 0.627167 0.891296
0.223846 0.627228 0.891205
0.362305 0.627136 0.890961
0.493713 0.627106 0.890747
0.627075 0.627075 0.890503
0.761932 0.627045 0.890259
0.890015 0.627075 0.890015
0.999664 0.627197 0.889923
0.000000 0.761597 0.891083
0.103058 0.761810 0.891113
0.223877 0.761902 0.890961
0.362244 0.761902 0.890717
0.493805 0.761932 0.890503
0.627045 0.761932 0.890259
0.761963 0.761963 0.889984
0.889740 0.761993 0.889740
0.999634 0.762177 0.889648
0.000000 0.890930 0.890930
0.102936 0.890930 0.890930
0.223938 0.890778 0.890778
0.362213 0.890503 0.890503
0.493927 0.890289 0.890289
0.627075 0.890015 0.890015
0.761993 0.889740 0.889740
0.889526 0.889526 0.889526
0.999664 0.889404 0.889404
0.000000 0.999451 0.890869
0.102936 0.999634 0.890869
0.224121 0.999695 0.890717
0.362335 0.999664 0.890442
0.494202 0.999664 0.890198
0.627197 0.999664 0.889923
0.762177 0.999634 0.889648
0.889404 0.999664 0.889404
0.999817 0.999817 0.889252
0.000000 0.000000 0.999146
0.103760 0.000000 0.999420
0.223633 0.000000 0.999512
0.362396 0.000000 0.999451
0.493256 0.000000 0.999481
0.627136 0.000000 0.999451
0.761780 0.000000 0.999420
0.890869 0.000000 0.999451
0.999603 0.000000 0.999603
0.000000 0.103760 0.999420
0.103790 0.103790 0.999603
0.223846 0.103729 0.999695
0.362549 0.103516 0.999664
0.493530 0.103394 0.999664
0.627289 0.103241 0.999634
0.761993 0.103058 0.999634
0.890869 0.102936 0.999634
0.999786 0.102966 0.999786
0.000000 0.223633 0.999512
0.103729 0.223846 0.999695
0.223969 0.223969 0.999786
0.362610 0.223969 0.999725
0.493713 0.223999 0.999725
0.627350 0.224030 0.999725
0.762115 0.224060 0.999695
0.890717 0.224121 0.999695
0.999847 0.224335 0.999847
0.000000 0.362396 0.999451
0.103516 0.362549 0.999664
0.223969 0.362610 0.999725
0.362518 0.362518 0.999695
0.493774 0.362457 0.999695
0.627289 0.362427 0.999664
0.762085 0.362335 0.999634
0.890442 0.362335 0.999664
0.999817 0.362427 0.999817
0.000000 0.493256 0.999481
0.103394 0.493530 0.999664
0.223999 0.493713 0.999725
0.362457 0.493774 0.999695
0.493896 0.493896 0.999664
0.627258 0.493988 0.999664
0.762115 0.494080 0.999634
0.890198 0.494202 0.999664
0.999817 0.494476 0.999817
0.000000 0.627136 0.999451
0.103241 0.627289 0.999634
0.224030 0.627350 0.999725
0.362427 0.627289 0.999664
0.493988 0.627258 0.999664
0.627228 0.627228 0.999664
0.762115 0.627197 0.999634
0.889923 0.627197 0.999664
0.999786 0.627350 0.999786
0.000000 0.761780 0.999420
0.103058 0.761993 0.999634
0.224060 0.762115 0.999695
0.362335 0.762085 0.999634
0.494080 0.762115 0.999634
0.627197 0.762115 0.999634
0.762115 0.762115 0.999603
0.889648 0.762177 0.999634
0.999786 0.762360 0.999786
0.000000 0.890869 0.999451
0.102936 0.890869 0.999634
0.224121 0.890717 0.999695
0.362335 0.890442 0.999664
0.494202 0.890198 0.999664
0.627197 0.889923 0.999664
0.762177 0.889648 0.999634
0.889404 0.889404 0.999664
0.999817 0.889252 0.999817
0.000000 0.999603 0.999603
0.102966 0.999786 0.999786
0.224335 0.999847 0.999847
0.362427 0.999817 0.999817
0.494476 0.999817 0.999817
0.627350 0.999786 0.999786
0.762360 0.999786 0.999786
0.889252 0.999817 0.999817
0.999939 0.999939 0.999939
