Kodak Vision3 500T (5219) - Only contrast.cube
# Created by Benjamin (IWLTBAP) : http://luts.iwltbap.com
# Copyright: (C) Copyright 2010-2017 Triune Films and IWLTBAP SAS
# Cannot be resold, shared or otherwise redistributed
TITLE "Film Print Emulation LUTs Pack (Rec.709, sRGB, DCI-P3)"
LUT_3D_SIZE 33
0.001038 0.001038 0.001038
0.012634 0.001038 0.001038
0.029419 0.000977 0.000977
0.049500 0.000916 0.000916
0.069580 0.000854 0.000854
0.093140 0.000763 0.000763
0.116608 0.000671 0.000671
0.140930 0.000580 0.000580
0.164825 0.000488 0.000488
0.190125 0.000397 0.000397
0.216644 0.000275 0.000275
0.244354 0.000153 0.000153
0.273743 0.000031 0.000031
0.305542 0.000000 0.000000
0.340973 0.000000 0.000000
0.375824 0.000000 0.000000
0.409851 0.000000 0.000000
0.446472 0.000000 0.000000
0.486145 0.000000 0.000000
0.527466 0.000000 0.000000
0.570648 0.000000 0.000000
0.609131 0.000000 0.000000
0.640503 0.000000 0.000000
0.667969 0.000000 0.000000
0.693207 0.000000 0.000000
0.717102 0.000000 0.000000
0.739899 0.000000 0.000000
0.761658 0.000000 0.000000
0.782593 0.000000 0.000000
0.803040 0.000000 0.000000
0.822723 0.000000 0.000000
0.840729 0.000000 0.000000
0.856201 0.000000 0.000000
0.001038 0.012634 0.001038
0.012665 0.012665 0.001038
0.029480 0.012634 0.000977
0.049530 0.012604 0.000916
0.069641 0.012543 0.000854
0.093231 0.012482 0.000763
0.116699 0.012421 0.000671
0.141022 0.012360 0.000580
0.164917 0.012299 0.000488
0.190216 0.012238 0.000366
0.216766 0.012146 0.000244
0.244476 0.012054 0.000153
0.273865 0.011963 0.000000
0.305695 0.011841 0.000000
0.341156 0.011719 0.000000
0.375977 0.011566 0.000000
0.410004 0.011444 0.000000
0.446655 0.011292 0.000000
0.486328 0.011108 0.000000
0.527679 0.010956 0.000000
0.570862 0.010742 0.000000
0.609283 0.010590 0.000000
0.640625 0.010468 0.000000
0.668091 0.010406 0.000000
0.693298 0.010315 0.000000
0.717194 0.010284 0.000000
0.739960 0.010223 0.000000
0.761719 0.010193 0.000000
0.782654 0.010132 0.000000
0.803101 0.010101 0.000000
0.822754 0.010071 0.000000
0.840759 0.010071 0.000000
0.856201 0.010071 0.000000
0.000977 0.029419 0.000977
0.012634 0.029480 0.000977
0.029510 0.029510 0.000946
0.049561 0.029510 0.000854
0.069672 0.029510 0.000793
0.093262 0.029480 0.000702
0.116730 0.029449 0.000610
0.141052 0.029419 0.000519
0.164948 0.029388 0.000427
0.190277 0.029358 0.000336
0.216827 0.029297 0.000214
0.244537 0.029236 0.000092
0.273956 0.029175 0.000000
0.305817 0.029083 0.000000
0.341278 0.028992 0.000000
0.376099 0.028870 0.000000
0.410126 0.028778 0.000000
0.446808 0.028656 0.000000
0.486481 0.028534 0.000000
0.527863 0.028381 0.000000
0.571045 0.028229 0.000000
0.609406 0.028076 0.000000
0.640717 0.028015 0.000000
0.668152 0.027954 0.000000
0.693359 0.027924 0.000000
0.717224 0.027893 0.000000
0.739990 0.027863 0.000000
0.761749 0.027863 0.000000
0.782684 0.027832 0.000000
0.803131 0.027832 0.000000
0.822784 0.027832 0.000000
0.840729 0.027863 0.000000
0.856171 0.027893 0.000000
0.000916 0.049500 0.000916
0.012604 0.049530 0.000916
0.029510 0.049561 0.000854
0.049561 0.049561 0.000793
0.069702 0.049561 0.000732
0.093292 0.049530 0.000641
0.116760 0.049530 0.000549
0.141113 0.049500 0.000458
0.164978 0.049469 0.000366
0.190308 0.049438 0.000244
0.216858 0.049377 0.000153
0.244598 0.049316 0.000031
0.274048 0.049255 0.000000
0.305908 0.049194 0.000000
0.341370 0.049072 0.000000
0.376190 0.048981 0.000000
0.410217 0.048859 0.000000
0.446960 0.048767 0.000000
0.486633 0.048615 0.000000
0.528015 0.048462 0.000000
0.571198 0.048309 0.000000
0.609497 0.048187 0.000000
0.640778 0.048096 0.000000
0.668182 0.048035 0.000000
0.693390 0.048004 0.000000
0.717255 0.047974 0.000000
0.740021 0.047974 0.000000
0.761780 0.047943 0.000000
0.782684 0.047943 0.000000
0.803131 0.047943 0.000000
0.822754 0.047943 0.000000
0.840729 0.047943 0.000000
0.856140 0.047974 0.000000
0.000854 0.069580 0.000854
0.012543 0.069641 0.000854
0.029510 0.069672 0.000793
0.049561 0.069702 0.000732
0.069702 0.069702 0.000671
0.093323 0.069702 0.000580
0.116791 0.069702 0.000488
0.141113 0.069672 0.000397
0.165009 0.069672 0.000275
0.190369 0.069641 0.000183
0.216919 0.069641 0.000061
0.244659 0.069580 0.000000
0.274109 0.069550 0.000000
0.306000 0.069489 0.000000
0.341492 0.069397 0.000000
0.376282 0.069305 0.000000
0.410309 0.069244 0.000000
0.447083 0.069153 0.000000
0.486786 0.069031 0.000000
0.528168 0.068909 0.000000
0.571350 0.068756 0.000000
0.609589 0.068634 0.000000
0.640839 0.068604 0.000000
0.668213 0.068573 0.000000
0.693420 0.068542 0.000000
0.717255 0.068542 0.000000
0.740021 0.068542 0.000000
0.761780 0.068542 0.000000
0.782684 0.068573 0.000000
0.803131 0.068604 0.000000
0.822754 0.068604 0.000000
0.840698 0.068665 0.000000
0.856110 0.068695 0.000000
0.000763 0.093140 0.000763
0.012482 0.093231 0.000763
0.029480 0.093262 0.000702
0.049530 0.093292 0.000641
0.069702 0.093323 0.000580
0.093323 0.093323 0.000488
0.116791 0.093323 0.000397
0.141144 0.093323 0.000305
0.165009 0.093292 0.000183
0.190369 0.093292 0.000092
0.216949 0.093262 0.000000
0.244690 0.093231 0.000000
0.274170 0.093201 0.000000
0.306091 0.093140 0.000000
0.341553 0.093048 0.000000
0.376373 0.092987 0.000000
0.410370 0.092926 0.000000
0.447174 0.092834 0.000000
0.486908 0.092712 0.000000
0.528290 0.092590 0.000000
0.571503 0.092438 0.000000
0.609650 0.092346 0.000000
0.640869 0.092285 0.000000
0.668243 0.092255 0.000000
0.693420 0.092255 0.000000
0.717255 0.092255 0.000000
0.740021 0.092255 0.000000
0.761749 0.092285 0.000000
0.782654 0.092285 0.000000
0.803101 0.092316 0.000000
0.822723 0.092346 0.000000
0.840637 0.092377 0.000000
0.856049 0.092438 0.000000
0.000671 0.116608 0.000671
0.012421 0.116699 0.000671
0.029449 0.116730 0.000610
0.049530 0.116760 0.000549
0.069702 0.116791 0.000488
0.093323 0.116791 0.000397
0.116791 0.116791 0.000305
0.141144 0.116791 0.000214
0.165009 0.116791 0.000092
0.190399 0.116791 0.000000
0.216949 0.116760 0.000000
0.244720 0.116730 0.000000
0.274200 0.116699 0.000000
0.306152 0.116638 0.000000
0.341644 0.116547 0.000000
0.376465 0.116486 0.000000
0.410461 0.116425 0.000000
0.447296 0.116333 0.000000
0.487030 0.116211 0.000000
0.528412 0.116089 0.000000
0.571655 0.115967 0.000000
0.609711 0.115875 0.000000
0.640930 0.115814 0.000000
0.668274 0.115784 0.000000
0.693420 0.115784 0.000000
0.717255 0.115784 0.000000
0.739990 0.115784 0.000000
0.761749 0.115814 0.000000
0.782654 0.115845 0.000000
0.803070 0.115845 0.000000
0.822693 0.115875 0.000000
0.840607 0.115936 0.000000
0.855988 0.115997 0.000000
0.000580 0.140930 0.000580
0.012360 0.141022 0.000580
0.029419 0.141052 0.000519
0.049500 0.141113 0.000458
0.069672 0.141113 0.000397
0.093323 0.141144 0.000305
0.116791 0.141144 0.000214
0.141144 0.141144 0.000092
0.165009 0.141144 0.000000
0.190399 0.141144 0.000000
0.216980 0.141113 0.000000
0.244751 0.141083 0.000000
0.274261 0.141052 0.000000
0.306213 0.141022 0.000000
0.341736 0.140930 0.000000
0.376526 0.140869 0.000000
0.410522 0.140778 0.000000
0.447388 0.140717 0.000000
0.487122 0.140594 0.000000
0.528534 0.140472 0.000000
0.571777 0.140350 0.000000
0.609772 0.140259 0.000000
0.640961 0.140198 0.000000
0.668274 0.140167 0.000000
0.693420 0.140167 0.000000
0.717255 0.140167 0.000000
0.739990 0.140198 0.000000
0.761719 0.140198 0.000000
0.782623 0.140228 0.000000
0.803040 0.140259 0.000000
0.822632 0.140289 0.000000
0.840546 0.140320 0.000000
0.855927 0.140381 0.000000
0.000488 0.164825 0.000488
0.012299 0.164917 0.000488
0.029388 0.164948 0.000427
0.049469 0.164978 0.000366
0.069672 0.165009 0.000275
0.093292 0.165009 0.000183
0.116791 0.165009 0.000092
0.141144 0.165009 0.000000
0.165039 0.165039 0.000000
0.190430 0.165009 0.000000
0.217010 0.165009 0.000000
0.244781 0.164978 0.000000
0.274292 0.164948 0.000000
0.306305 0.164886 0.000000
0.341797 0.164825 0.000000
0.376587 0.164764 0.000000
0.410614 0.164673 0.000000
0.447510 0.164612 0.000000
0.487244 0.164490 0.000000
0.528656 0.164368 0.000000
0.571899 0.164246 0.000000
0.609833 0.164154 0.000000
0.640991 0.164124 0.000000
0.668304 0.164093 0.000000
0.693420 0.164093 0.000000
0.717255 0.164093 0.000000
0.739990 0.164124 0.000000
0.761719 0.164124 0.000000
0.782593 0.164154 0.000000
0.803009 0.164185 0.000000
0.822601 0.164246 0.000000
0.840485 0.164276 0.000000
0.855835 0.164337 0.000000
0.000397 0.190125 0.000397
0.012238 0.190216 0.000366
0.029358 0.190277 0.000336
0.049438 0.190308 0.000244
0.069641 0.190369 0.000183
0.093292 0.190369 0.000092
0.116791 0.190399 0.000000
0.141144 0.190399 0.000000
0.165009 0.190430 0.000000
0.190430 0.190430 0.000000
0.217010 0.190430 0.000000
0.244812 0.190430 0.000000
0.274323 0.190399 0.000000
0.306366 0.190369 0.000000
0.341888 0.190308 0.000000
0.376648 0.190247 0.000000
0.410645 0.190186 0.000000
0.447601 0.190094 0.000000
0.487366 0.190002 0.000000
0.528778 0.189911 0.000000
0.572021 0.189789 0.000000
0.609894 0.189728 0.000000
0.641022 0.189667 0.000000
0.668304 0.189667 0.000000
0.693420 0.189667 0.000000
0.717224 0.189697 0.000000
0.739960 0.189728 0.000000
0.761688 0.189758 0.000000
0.782562 0.189789 0.000000
0.802979 0.189819 0.000000
0.822571 0.189880 0.000000
0.840424 0.189941 0.000000
0.855774 0.190002 0.000000
0.000275 0.216644 0.000275
0.012146 0.216766 0.000244
0.029297 0.216827 0.000214
0.049377 0.216858 0.000153
0.069641 0.216919 0.000061
0.093262 0.216949 0.000000
0.116760 0.216949 0.000000
0.141113 0.216980 0.000000
0.165009 0.217010 0.000000
0.190430 0.217010 0.000000
0.217010 0.217010 0.000000
0.244812 0.217010 0.000000
0.274353 0.217010 0.000000
0.306396 0.216949 0.000000
0.341949 0.216919 0.000000
0.376709 0.216858 0.000000
0.410706 0.216797 0.000000
0.447693 0.216736 0.000000
0.487457 0.216644 0.000000
0.528900 0.216553 0.000000
0.572144 0.216431 0.000000
0.609924 0.216370 0.000000
0.641022 0.216339 0.000000
0.668304 0.216339 0.000000
0.693420 0.216339 0.000000
0.717224 0.216370 0.000000
0.739929 0.216400 0.000000
0.761627 0.216461 0.000000
0.782532 0.216492 0.000000
0.802948 0.216553 0.000000
0.822510 0.216583 0.000000
0.840363 0.216644 0.000000
0.855682 0.216736 0.000000
0.000153 0.244354 0.000153
0.012054 0.244476 0.000153
0.029236 0.244537 0.000092
0.049316 0.244598 0.000031
0.069580 0.244659 0.000000
0.093231 0.244690 0.000000
0.116730 0.244720 0.000000
0.141083 0.244751 0.000000
0.164978 0.244781 0.000000
0.190430 0.244812 0.000000
0.217010 0.244812 0.000000
0.244812 0.244812 0.000000
0.274384 0.244812 0.000000
0.306458 0.244781 0.000000
0.341980 0.244751 0.000000
0.376770 0.244720 0.000000
0.410767 0.244659 0.000000
0.447754 0.244598 0.000000
0.487549 0.244537 0.000000
0.528992 0.244446 0.000000
0.572266 0.244354 0.000000
0.609955 0.244293 0.000000
0.641052 0.244263 0.000000
0.668274 0.244263 0.000000
0.693390 0.244293 0.000000
0.717163 0.244324 0.000000
0.739899 0.244385 0.000000
0.761597 0.244415 0.000000
0.782471 0.244476 0.000000
0.802887 0.244537 0.000000
0.822449 0.244598 0.000000
0.840271 0.244659 0.000000
0.855591 0.244781 0.000000
0.000031 0.273743 0.000031
0.011963 0.273865 0.000000
0.029175 0.273956 0.000000
0.049255 0.274048 0.000000
0.069550 0.274109 0.000000
0.093201 0.274170 0.000000
0.116699 0.274200 0.000000
0.141052 0.274261 0.000000
0.164948 0.274292 0.000000
0.190399 0.274323 0.000000
0.217010 0.274353 0.000000
0.244812 0.274384 0.000000
0.274384 0.274384 0.000000
0.306488 0.274384 0.000000
0.342041 0.274353 0.000000
0.376801 0.274323 0.000000
0.410797 0.274292 0.000000
0.447815 0.274261 0.000000
0.487610 0.274200 0.000000
0.529083 0.274109 0.000000
0.572357 0.274048 0.000000
0.609985 0.273987 0.000000
0.641022 0.273987 0.000000
0.668243 0.274017 0.000000
0.693359 0.274048 0.000000
0.717133 0.274109 0.000000
0.739838 0.274170 0.000000
0.761536 0.274231 0.000000
0.782410 0.274292 0.000000
0.802826 0.274353 0.000000
0.822357 0.274445 0.000000
0.840179 0.274536 0.000000
0.855499 0.274658 0.000000
0.000000 0.305542 0.000000
0.011841 0.305695 0.000000
0.029083 0.305817 0.000000
0.049194 0.305908 0.000000
0.069489 0.306000 0.000000
0.093140 0.306091 0.000000
0.116638 0.306152 0.000000
0.141022 0.306213 0.000000
0.164886 0.306305 0.000000
0.190369 0.306366 0.000000
0.216949 0.306396 0.000000
0.244781 0.306458 0.000000
0.274384 0.306488 0.000000
0.306488 0.306488 0.000000
0.342041 0.306488 0.000000
0.376831 0.306488 0.000000
0.410797 0.306488 0.000000
0.447876 0.306488 0.000000
0.487671 0.306458 0.000000
0.529144 0.306396 0.000000
0.572418 0.306335 0.000000
0.609985 0.306335 0.000000
0.641022 0.306335 0.000000
0.668213 0.306396 0.000000
0.693298 0.306458 0.000000
0.717072 0.306549 0.000000
0.739777 0.306641 0.000000
0.761444 0.306732 0.000000
0.782318 0.306824 0.000000
0.802734 0.306915 0.000000
0.822266 0.307037 0.000000
0.840088 0.307159 0.000000
0.855377 0.307281 0.000000
0.000000 0.340973 0.000000
0.011719 0.341156 0.000000
0.028992 0.341278 0.000000
0.049072 0.341370 0.000000
0.069397 0.341492 0.000000
0.093048 0.341553 0.000000
0.116547 0.341644 0.000000
0.140930 0.341736 0.000000
0.164825 0.341797 0.000000
0.190308 0.341888 0.000000
0.216919 0.341949 0.000000
0.244751 0.341980 0.000000
0.274353 0.342041 0.000000
0.306488 0.342041 0.000000
0.342041 0.342041 0.000000
0.376831 0.342072 0.000000
0.410797 0.342072 0.000000
0.447906 0.342072 0.000000
0.487701 0.342010 0.000000
0.529175 0.341980 0.000000
0.572479 0.341919 0.000000
0.609985 0.341919 0.000000
0.640961 0.341949 0.000000
0.668152 0.342010 0.000000
0.693237 0.342072 0.000000
0.716980 0.342133 0.000000
0.739685 0.342224 0.000000
0.761353 0.342316 0.000000
0.782227 0.342438 0.000000
0.802612 0.342529 0.000000
0.822174 0.342621 0.000000
0.839935 0.342743 0.000000
0.855225 0.342896 0.000000
0.000000 0.375824 0.000000
0.011566 0.375977 0.000000
0.028870 0.376099 0.000000
0.048981 0.376190 0.000000
0.069305 0.376282 0.000000
0.092987 0.376373 0.000000
0.116486 0.376465 0.000000
0.140869 0.376526 0.000000
0.164764 0.376587 0.000000
0.190247 0.376648 0.000000
0.216858 0.376709 0.000000
0.244720 0.376770 0.000000
0.274323 0.376801 0.000000
0.306488 0.376831 0.000000
0.342072 0.376831 0.000000
0.376831 0.376831 0.000000
0.410797 0.376831 0.000000
0.447937 0.376801 0.000000
0.487762 0.376770 0.000000
0.529236 0.376740 0.000000
0.572540 0.376678 0.000000
0.609955 0.376648 0.000000
0.640930 0.376678 0.000000
0.668091 0.376740 0.000000
0.693146 0.376801 0.000000
0.716919 0.376862 0.000000
0.739594 0.376953 0.000000
0.761261 0.377045 0.000000
0.782135 0.377136 0.000000
0.802521 0.377258 0.000000
0.822052 0.377350 0.000000
0.839813 0.377472 0.000000
0.855072 0.377594 0.000000
0.000000 0.409851 0.000000
0.011444 0.410004 0.000000
0.028778 0.410126 0.000000
0.048859 0.410217 0.000000
0.069244 0.410309 0.000000
0.092926 0.410370 0.000000
0.116425 0.410461 0.000000
0.140778 0.410522 0.000000
0.164673 0.410614 0.000000
0.190186 0.410645 0.000000
0.216797 0.410706 0.000000
0.244659 0.410767 0.000000
0.274292 0.410797 0.000000
0.306488 0.410797 0.000000
0.342072 0.410797 0.000000
0.376831 0.410797 0.000000
0.410797 0.410797 0.000000
0.447968 0.410797 0.000000
0.487793 0.410736 0.000000
0.529297 0.410706 0.000000
0.572601 0.410645 0.000000
0.609955 0.410614 0.000000
0.640900 0.410645 0.000000
0.668030 0.410706 0.000000
0.693085 0.410767 0.000000
0.716827 0.410858 0.000000
0.739502 0.410919 0.000000
0.761169 0.411011 0.000000
0.782043 0.411133 0.000000
0.802429 0.411224 0.000000
0.821930 0.411316 0.000000
0.839691 0.411438 0.000000
0.854950 0.411591 0.000000
0.000000 0.446472 0.000000
0.011292 0.446655 0.000000
0.028656 0.446808 0.000000
0.048767 0.446960 0.000000
0.069153 0.447083 0.000000
0.092834 0.447174 0.000000
0.116333 0.447296 0.000000
0.140717 0.447388 0.000000
0.164612 0.447510 0.000000
0.190094 0.447601 0.000000
0.216736 0.447693 0.000000
0.244598 0.447754 0.000000
0.274261 0.447815 0.000000
0.306488 0.447876 0.000000
0.342072 0.447906 0.000000
0.376801 0.447937 0.000000
0.410797 0.447968 0.000000
0.447998 0.447998 0.000000
0.487823 0.447998 0.000000
0.529327 0.447968 0.000000
0.572632 0.447937 0.000000
0.609924 0.447968 0.000000
0.640839 0.448029 0.000000
0.667969 0.448090 0.000000
0.692993 0.448212 0.000000
0.716736 0.448303 0.000000
0.739410 0.448425 0.000000
0.761078 0.448547 0.000000
0.781921 0.448669 0.000000
0.802307 0.448822 0.000000
0.821808 0.448944 0.000000
0.839539 0.449097 0.000000
0.854797 0.449280 0.000000
0.000000 0.486145 0.000000
0.011108 0.486328 0.000000
0.028534 0.486481 0.000000
0.048615 0.486633 0.000000
0.069031 0.486786 0.000000
0.092712 0.486908 0.000000
0.116211 0.487030 0.000000
0.140594 0.487122 0.000000
0.164490 0.487244 0.000000
0.190002 0.487366 0.000000
0.216644 0.487457 0.000000
0.244537 0.487549 0.000000
0.274200 0.487610 0.000000
0.306458 0.487671 0.000000
0.342010 0.487701 0.000000
0.376770 0.487762 0.000000
0.410736 0.487793 0.000000
0.447998 0.487823 0.000000
0.487823 0.487823 0.000000
0.529327 0.487823 0.000000
0.572662 0.487823 0.000000
0.609863 0.487854 0.000000
0.640747 0.487915 0.000000
0.667847 0.488007 0.000000
0.692902 0.488129 0.000000
0.716614 0.488251 0.000000
0.739288 0.488373 0.000000
0.760925 0.488495 0.000000
0.781799 0.488647 0.000000
0.802185 0.488770 0.000000
0.821655 0.488922 0.000000
0.839386 0.489105 0.000000
0.854614 0.489258 0.000000
0.000000 0.527466 0.000000
0.010956 0.527679 0.000000
0.028381 0.527863 0.000000
0.048462 0.528015 0.000000
0.068909 0.528168 0.000000
0.092590 0.528290 0.000000
0.116089 0.528412 0.000000
0.140472 0.528534 0.000000
0.164368 0.528656 0.000000
0.189911 0.528778 0.000000
0.216553 0.528900 0.000000
0.244446 0.528992 0.000000
0.274109 0.529083 0.000000
0.306396 0.529144 0.000000
0.341980 0.529175 0.000000
0.376740 0.529236 0.000000
0.410706 0.529297 0.000000
0.447968 0.529327 0.000000
0.487823 0.529327 0.000000
0.529327 0.529327 0.000000
0.572662 0.529327 0.000000
0.609802 0.529358 0.000000
0.640656 0.529449 0.000000
0.667755 0.529541 0.000000
0.692780 0.529663 0.000000
0.716492 0.529785 0.000000
0.739136 0.529938 0.000000
0.760803 0.530060 0.000000
0.781647 0.530212 0.000000
0.802032 0.530365 0.000000
0.821503 0.530518 0.000000
0.839203 0.530701 0.000000
0.854431 0.530884 0.000000
0.000000 0.570648 0.000000
0.010742 0.570862 0.000000
0.028229 0.571045 0.000000
0.048309 0.571198 0.000000
0.068756 0.571350 0.000000
0.092438 0.571503 0.000000
0.115967 0.571655 0.000000
0.140350 0.571777 0.000000
0.164246 0.571899 0.000000
0.189789 0.572021 0.000000
0.216431 0.572144 0.000000
0.244354 0.572266 0.000000
0.274048 0.572357 0.000000
0.306335 0.572418 0.000000
0.341919 0.572479 0.000000
0.376678 0.572540 0.000000
0.410645 0.572601 0.000000
0.447937 0.572632 0.000000
0.487823 0.572662 0.000000
0.529327 0.572662 0.000000
0.572662 0.572662 0.000000
0.609741 0.572723 0.000000
0.640564 0.572784 0.000000
0.667633 0.572906 0.000000
0.692627 0.573029 0.000000
0.716370 0.573151 0.000000
0.738983 0.573303 0.000000
0.760651 0.573425 0.000000
0.781494 0.573578 0.000000
0.801849 0.573730 0.000000
0.821350 0.573883 0.000000
0.839020 0.574066 0.000000
0.854218 0.574249 0.000000
0.000000 0.609131 0.000000
0.010590 0.609283 0.000000
0.028076 0.609406 0.000000
0.048187 0.609497 0.000000
0.068634 0.609589 0.000000
0.092346 0.609650 0.000000
0.115875 0.609711 0.000000
0.140259 0.609772 0.000000
0.164154 0.609833 0.000000
0.189728 0.609894 0.000000
0.216370 0.609924 0.000000
0.244293 0.609955 0.000000
0.273987 0.609985 0.000000
0.306335 0.609985 0.000000
0.341919 0.609985 0.000000
0.376648 0.609955 0.000000
0.410614 0.609955 0.000000
0.447968 0.609924 0.000000
0.487854 0.609863 0.000000
0.529358 0.609802 0.000000
0.572723 0.609741 0.000000
0.609711 0.609711 0.000000
0.640503 0.609711 0.000000
0.667542 0.609772 0.000000
0.692566 0.609802 0.000000
0.716248 0.609863 0.000000
0.738892 0.609955 0.000000
0.760529 0.610016 0.000000
0.781372 0.610107 0.000000
0.801758 0.610168 0.000000
0.821228 0.610260 0.000000
0.838898 0.610382 0.000000
0.854065 0.610474 0.000000
0.000000 0.640503 0.000000
0.010468 0.640625 0.000000
0.028015 0.640717 0.000000
0.048096 0.640778 0.000000
0.068604 0.640839 0.000000
0.092285 0.640869 0.000000
0.115814 0.640930 0.000000
0.140198 0.640961 0.000000
0.164124 0.640991 0.000000
0.189667 0.641022 0.000000
0.216339 0.641022 0.000000
0.244263 0.641052 0.000000
0.273987 0.641022 0.000000
0.306335 0.641022 0.000000
0.341949 0.640961 0.000000
0.376678 0.640930 0.000000
0.410645 0.640900 0.000000
0.448029 0.640839 0.000000
0.487915 0.640747 0.000000
0.529449 0.640656 0.000000
0.572784 0.640564 0.000000
0.609711 0.640503 0.000000
0.640503 0.640503 0.000000
0.667511 0.640503 0.000000
0.692505 0.640533 0.000000
0.716217 0.640564 0.000000
0.738831 0.640594 0.000000
0.760468 0.640656 0.000000
0.781311 0.640717 0.000000
0.801666 0.640778 0.000000
0.821136 0.640839 0.000000
0.838806 0.640900 0.000000
0.853973 0.640991 0.000000
0.000000 0.667969 0.000000
0.010406 0.668091 0.000000
0.027954 0.668152 0.000000
0.048035 0.668182 0.000000
0.068573 0.668213 0.000000
0.092255 0.668243 0.000000
0.115784 0.668274 0.000000
0.140167 0.668274 0.000000
0.164093 0.668304 0.000000
0.189667 0.668304 0.000000
0.216339 0.668304 0.000000
0.244263 0.668274 0.000000
0.274017 0.668243 0.000000
0.306396 0.668213 0.000000
0.342010 0.668152 0.000000
0.376740 0.668091 0.000000
0.410706 0.668030 0.000000
0.448090 0.667969 0.000000
0.488007 0.667847 0.000000
0.529541 0.667755 0.000000
0.572906 0.667633 0.000000
0.609772 0.667542 0.000000
0.640503 0.667511 0.000000
0.667511 0.667511 0.000000
0.692505 0.667511 0.000000
0.716187 0.667542 0.000000
0.738800 0.667572 0.000000
0.760437 0.667603 0.000000
0.781281 0.667633 0.000000
0.801636 0.667664 0.000000
0.821075 0.667694 0.000000
0.838715 0.667755 0.000000
0.853882 0.667847 0.000000
0.000000 0.693207 0.000000
0.010315 0.693298 0.000000
0.027924 0.693359 0.000000
0.048004 0.693390 0.000000
0.068542 0.693420 0.000000
0.092255 0.693420 0.000000
0.115784 0.693420 0.000000
0.140167 0.693420 0.000000
0.164093 0.693420 0.000000
0.189667 0.693420 0.000000
0.216339 0.693420 0.000000
0.244293 0.693390 0.000000
0.274048 0.693359 0.000000
0.306458 0.693298 0.000000
0.342072 0.693237 0.000000
0.376801 0.693146 0.000000
0.410767 0.693085 0.000000
0.448212 0.692993 0.000000
0.488129 0.692902 0.000000
0.529663 0.692780 0.000000
0.573029 0.692627 0.000000
0.609802 0.692566 0.000000
0.640533 0.692505 0.000000
0.667511 0.692505 0.000000
0.692505 0.692505 0.000000
0.716187 0.692505 0.000000
0.738800 0.692505 0.000000
0.760406 0.692535 0.000000
0.781250 0.692566 0.000000
0.801605 0.692566 0.000000
0.821045 0.692627 0.000000
0.838654 0.692657 0.000000
0.853790 0.692719 0.000000
0.000000 0.717102 0.000000
0.010284 0.717194 0.000000
0.027893 0.717224 0.000000
0.047974 0.717255 0.000000
0.068542 0.717255 0.000000
0.092255 0.717255 0.000000
0.115784 0.717255 0.000000
0.140167 0.717255 0.000000
0.164093 0.717255 0.000000
0.189697 0.717224 0.000000
0.216370 0.717224 0.000000
0.244324 0.717163 0.000000
0.274109 0.717133 0.000000
0.306549 0.717072 0.000000
0.342133 0.716980 0.000000
0.376862 0.716919 0.000000
0.410858 0.716827 0.000000
0.448303 0.716736 0.000000
0.488251 0.716614 0.000000
0.529785 0.716492 0.000000
0.573151 0.716370 0.000000
0.609863 0.716248 0.000000
0.640564 0.716217 0.000000
0.667542 0.716187 0.000000
0.692505 0.716187 0.000000
0.716156 0.716156 0.000000
0.738770 0.716187 0.000000
0.760406 0.716187 0.000000
0.781219 0.716187 0.000000
0.801575 0.716217 0.000000
0.821014 0.716248 0.000000
0.838623 0.716278 0.000000
0.853729 0.716339 0.000000
0.000000 0.739899 0.000000
0.010223 0.739960 0.000000
0.027863 0.739990 0.000000
0.047974 0.740021 0.000000
0.068542 0.740021 0.000000
0.092255 0.740021 0.000000
0.115784 0.739990 0.000000
0.140198 0.739990 0.000000
0.164124 0.739990 0.000000
0.189728 0.739960 0.000000
0.216400 0.739929 0.000000
0.244385 0.739899 0.000000
0.274170 0.739838 0.000000
0.306641 0.739777 0.000000
0.342224 0.739685 0.000000
0.376953 0.739594 0.000000
0.410919 0.739502 0.000000
0.448425 0.739410 0.000000
0.488373 0.739288 0.000000
0.529938 0.739136 0.000000
0.573303 0.738983 0.000000
