Kodak Vision3 500T (5219) - Look.cube
# Created by Benjamin (IWLTBAP) : http://luts.iwltbap.com
# Copyright: (C) Copyright 2010-2017 Triune Films and IWLTBAP SAS
# Cannot be resold, shared or otherwise redistributed
TITLE "Film Print Emulation LUTs Pack (Rec.709, sRGB, DCI-P3)"
LUT_3D_SIZE 9
0.001587 0.001587 0.000000
0.067993 0.000000 0.000000
0.204285 0.012634 0.004944
0.315247 0.028442 0.000793
0.413971 0.040314 0.000793
0.517456 0.061157 0.000000
0.623596 0.070160 0.000000
0.725067 0.096527 0.000000
0.810486 0.126801 0.000793
0.000000 0.036346 0.008698
0.051788 0.053131 0.000000
0.216217 0.076782 0.025452
0.337677 0.092773 0.008698
0.433136 0.105499 0.000000
0.540649 0.125519 0.000000
0.644867 0.153137 0.000000
0.738373 0.182770 0.000000
0.814148 0.210999 0.000000
0.000000 0.092346 0.000000
0.051117 0.126495 0.000000
0.199524 0.139160 0.007385
0.339752 0.157562 0.000793
0.448364 0.175293 0.000000
0.556488 0.197510 0.000000
0.656982 0.225616 0.000000
0.740326 0.255219 0.000000
0.811981 0.285309 0.000000
0.005524 0.161530 0.000000
0.061188 0.191681 0.000000
0.190704 0.241425 0.000000
0.334381 0.228455 0.000000
0.459839 0.258148 0.000000
0.568390 0.284973 0.000000
0.659576 0.310608 0.000000
0.736359 0.339935 0.000000
0.806885 0.371063 0.000000
0.039490 0.243256 0.000000
0.089355 0.270752 0.000000
0.181549 0.327545 0.000000
0.337952 0.360077 0.000000
0.469879 0.336761 0.000000
0.572906 0.373474 0.000000
0.659027 0.408325 0.000000
0.734680 0.442474 0.000000
0.804993 0.471375 0.000000
0.056915 0.340759 0.000000
0.115601 0.374573 0.000000
0.187561 0.426178 0.000000
0.361572 0.486664 0.000000
0.466095 0.502594 0.000000
0.576385 0.458038 0.000000
0.665894 0.487823 0.000000
0.742950 0.525482 0.000000
0.810638 0.557495 0.000000
0.140900 0.459106 0.000000
0.180603 0.494202 0.000000
0.261658 0.536438 0.000000
0.397797 0.591614 0.000000
0.505280 0.634613 0.000000
0.586823 0.647980 0.000000
0.650726 0.609589 0.000000
0.737030 0.614288 0.000000
0.808502 0.640137 0.000793
0.215363 0.577881 0.000000
0.290710 0.617615 0.000000
0.403259 0.657257 0.000000
0.460724 0.695007 0.000000
0.524384 0.727661 0.000000
0.605286 0.755280 0.000000
0.677246 0.763947 0.000000
0.739197 0.743378 0.000000
0.799469 0.732056 0.000000
0.372681 0.689667 0.000000
0.444855 0.725220 0.000000
0.489838 0.752167 0.000000
0.525146 0.778076 0.000000
0.550323 0.804871 0.000000
0.611725 0.825317 0.000000
0.687683 0.846527 0.000000
0.757324 0.848694 0.000000
0.807220 0.821503 0.000000
0.020233 0.021240 0.054993
0.034485 0.028290 0.073242
0.163574 0.000000 0.069061
0.279968 0.000000 0.055176
0.396851 0.000793 0.036346
0.521240 0.030029 0.000000
0.629883 0.070679 0.000000
0.732605 0.109589 0.000000
0.815094 0.140594 0.000793
0.024689 0.043915 0.078522
0.039307 0.070099 0.100250
0.198456 0.089294 0.096680
0.330597 0.102814 0.066284
0.440613 0.112091 0.000000
0.555481 0.128052 0.000000
0.658325 0.155212 0.000000
0.748535 0.185364 0.000000
0.819885 0.213928 0.000000
0.036835 0.138153 0.126770
0.025970 0.146271 0.097809
0.164673 0.161011 0.043396
0.338531 0.176147 0.060120
0.448273 0.184998 0.000000
0.559875 0.207977 0.000000
0.657501 0.240845 0.000000
0.736908 0.274841 0.000000
0.806458 0.309082 0.000000
0.007782 0.214996 0.094086
0.019470 0.209625 0.054291
0.115875 0.257141 0.046173
0.324371 0.247040 0.043274
0.457397 0.270935 0.000000
0.566132 0.297668 0.000000
0.655762 0.330048 0.000000
0.732666 0.364563 0.000000
0.804993 0.396179 0.000000
0.020233 0.292389 0.062317
0.043915 0.289124 0.032410
0.124054 0.340546 0.021881
0.315216 0.389923 0.000000
0.465668 0.356903 0.049774
0.575562 0.390503 0.000000
0.661926 0.429779 0.000000
0.740265 0.463898 0.000000
0.812012 0.491943 0.000000
0.076233 0.381775 0.030029
0.102570 0.386627 0.018494
0.164703 0.441803 0.008209
0.297272 0.490509 0.000000
0.460052 0.528839 0.000000
0.559784 0.487823 0.016571
0.673157 0.511780 0.000000
0.753784 0.549652 0.000000
0.822052 0.579254 0.000000
0.151855 0.488007 0.021027
0.174866 0.500244 0.013123
0.218048 0.549194 0.000000
0.355774 0.592438 0.000000
0.486298 0.642548 0.000000
0.583435 0.666992 0.000000
0.654114 0.640503 0.000000
0.743408 0.638428 0.000000
0.814880 0.660095 0.000793
0.224823 0.597290 0.001648
0.267120 0.626801 0.000000
0.392059 0.670715 0.000000
0.448425 0.698547 0.000000
0.518738 0.734406 0.000000
0.605438 0.765106 0.000000
0.684631 0.779633 0.000000
0.753296 0.763519 0.000000
0.811310 0.750977 0.000000
0.359924 0.694580 0.000000
0.442383 0.740051 0.000000
0.487335 0.762848 0.000000
0.516968 0.782257 0.000000
0.549561 0.808197 0.000000
0.613647 0.833191 0.000000
0.691711 0.855835 0.000000
0.774475 0.863800 0.000000
0.823334 0.833893 0.000000
0.038177 0.047394 0.125549
0.036804 0.051453 0.123840
0.086792 0.050507 0.147308
0.261078 0.000000 0.135498
0.377380 0.000793 0.111572
0.494812 0.000000 0.098114
0.619171 0.031616 0.083954
0.735840 0.091522 0.056793
0.824097 0.136841 0.000793
0.043365 0.075806 0.153625
0.043182 0.098175 0.179932
0.081421 0.110443 0.191803
0.275604 0.095673 0.158539
0.414551 0.115265 0.136017
0.540100 0.145325 0.125519
0.658539 0.173157 0.106415
0.755859 0.194855 0.059784
0.832489 0.220917 0.000000
0.067261 0.121735 0.169678
0.086426 0.147186 0.194611
0.114807 0.171082 0.209686
0.325226 0.213806 0.207062
0.455688 0.230103 0.182953
0.562988 0.230804 0.132935
0.667816 0.252411 0.104034
0.756714 0.274292 0.053680
0.831879 0.302185 0.000000
0.102905 0.222290 0.233093
0.095764 0.250946 0.253601
0.081421 0.275330 0.225555
0.278748 0.287354 0.139252
0.460297 0.308472 0.184875
0.559235 0.314636 0.129913
0.659149 0.343323 0.102600
0.746277 0.370331 0.053680
0.823395 0.398651 0.000000
0.044983 0.346466 0.262726
0.082031 0.349426 0.237488
0.114075 0.347870 0.159363
0.224945 0.394257 0.148376
0.436005 0.390472 0.136902
0.573212 0.414551 0.136536
0.669464 0.448669 0.109253
0.754669 0.476257 0.035095
0.829437 0.502930 0.000000
0.126862 0.436981 0.200928
0.139313 0.437439 0.184052
0.155396 0.441559 0.158783
0.220276 0.491577 0.167572
0.442444 0.542358 0.063477
0.553101 0.521942 0.114502
0.670258 0.534088 0.151245
0.764130 0.570801 0.095062
0.839691 0.599213 0.000763
0.188385 0.535797 0.187561
0.192963 0.533478 0.149567
0.206329 0.546570 0.108063
0.306915 0.599518 0.128021
0.465729 0.645905 0.062927
0.579041 0.682617 0.000000
0.660034 0.661011 0.080597
0.749176 0.654266 0.102966
0.830536 0.679260 0.038208
0.246277 0.631927 0.105225
0.258331 0.633057 0.039856
0.344574 0.670532 0.000000
0.428436 0.710327 0.000000
0.505829 0.742401 0.028442
0.598236 0.774628 0.000000
0.686005 0.792297 0.000000
0.762299 0.779968 0.000000
0.828491 0.769165 0.000000
0.379089 0.727539 0.000000
0.405792 0.730499 0.000000
0.483185 0.769928 0.000000
0.525452 0.792603 0.000000
0.563080 0.826599 0.000000
0.628174 0.846283 0.000000
0.705292 0.870270 0.000000
0.794342 0.878235 0.000000
0.839661 0.849396 0.000000
0.047791 0.082428 0.191345
0.046478 0.085144 0.184509
0.050995 0.091980 0.201813
0.129547 0.067383 0.218658
0.352936 0.012634 0.190857
0.485016 0.000000 0.175446
0.601685 0.000000 0.153137
0.718262 0.056305 0.144592
0.813904 0.111694 0.139282
0.046295 0.117401 0.231140
0.043976 0.140869 0.261719
0.052826 0.145569 0.264832
0.138794 0.138306 0.269867
0.385834 0.114594 0.217133
0.528870 0.120605 0.197540
0.646179 0.163116 0.194397
0.748016 0.206482 0.198181
0.832214 0.238678 0.187714
0.049194 0.159271 0.259979
0.068420 0.180298 0.282990
0.087219 0.203217 0.310974
0.140625 0.215179 0.317047
0.422241 0.223602 0.263458
0.558411 0.249786 0.244995
0.667053 0.284943 0.240692
0.761902 0.306854 0.229156
0.840393 0.320984 0.206696
0.113831 0.201447 0.264008
0.124695 0.223877 0.289276
0.157837 0.258179 0.314850
0.220581 0.284119 0.320404
0.463501 0.347778 0.323334
0.587952 0.369019 0.305511
0.680267 0.374939 0.268097
0.760162 0.384796 0.239471
0.839783 0.401459 0.219086
0.131927 0.300598 0.325378
0.139008 0.337830 0.359131
0.128174 0.385895 0.393463
0.158508 0.409760 0.367676
0.420532 0.439758 0.239471
0.584320 0.457367 0.315491
0.669434 0.463104 0.264893
0.758850 0.480194 0.242310
0.840607 0.500793 0.219208
0.029205 0.474518 0.412689
0.068695 0.492188 0.427856
0.128662 0.501556 0.393707
0.213562 0.496643 0.263794
0.418640 0.547455 0.236725
0.559875 0.553650 0.238037
0.678101 0.562103 0.297211
0.773773 0.587708 0.258545
0.851227 0.608093 0.209137
0.180969 0.573334 0.366272
0.218719 0.577515 0.317078
0.260590 0.577393 0.261871
0.301422 0.600006 0.247009
0.460602 0.650635 0.205627
0.585297 0.689728 0.227814
0.668823 0.677246 0.217010
0.761993 0.671143 0.256500
0.841400 0.694214 0.245972
0.350098 0.677277 0.272369
0.367249 0.677155 0.247009
0.372620 0.674438 0.215485
0.437958 0.710358 0.189148
0.520233 0.748413 0.164062
0.601868 0.778473 0.178680
0.689911 0.800476 0.161621
0.765533 0.791290 0.149200
0.833618 0.777924 0.155182
0.473175 0.767334 0.196014
0.464722 0.766907 0.151581
0.474060 0.771545 0.089325
0.530182 0.809662 0.000000
0.572845 0.834503 0.038696
0.631287 0.855804 0.014801
0.703644 0.878021 0.111328
0.793121 0.885925 0.162079
0.844604 0.864960 0.000000
0.047516 0.122314 0.263763
0.046936 0.124237 0.254700
0.046295 0.127655 0.247375
0.065002 0.131226 0.284576
0.209229 0.083069 0.281006
0.458923 0.027649 0.235687
0.600861 0.000000 0.233643
0.708069 0.000000 0.221222
0.805756 0.072723 0.217834
0.042419 0.160095 0.310028
0.037781 0.185333 0.345093
0.041687 0.189331 0.338959
0.069672 0.189911 0.354126
0.247864 0.154236 0.331421
0.505157 0.139648 0.275513
0.640198 0.143494 0.271210
0.744354 0.177979 0.274780
0.829773 0.208008 0.273224
0.033356 0.199036 0.345093
0.029907 0.225403 0.378265
0.046875 0.249084 0.411285
0.072845 0.256439 0.423737
0.273956 0.248016 0.382019
0.537994 0.244934 0.319366
0.668365 0.265167 0.316711
0.769104 0.292053 0.318481
0.847839 0.318085 0.318542
0.089050 0.238770 0.363190
0.099487 0.261169 0.392426
0.116486 0.289032 0.427155
0.158630 0.316010 0.446838
0.273132 0.347107 0.442200
0.590332 0.374420 0.394623
0.695892 0.391113 0.377411
0.781555 0.408386 0.367828
0.859131 0.424164 0.363342
0.155762 0.292236 0.367950
0.173004 0.317505 0.392578
0.185303 0.350861 0.430511
0.245972 0.387085 0.445648
0.355652 0.425629 0.454071
0.590546 0.489441 0.458038
0.703705 0.507782 0.444794
0.793762 0.511139 0.410583
0.863556 0.515503 0.384491
0.139374 0.406281 0.445648
0.113861 0.443329 0.489288
0.096252 0.477325 0.522491
0.151367 0.521027 0.535553
0.342987 0.544922 0.493103
0.571136 0.590149 0.365234
0.687164 0.594604 0.447693
0.784912 0.601532 0.409851
0.860901 0.610443 0.381531
0.051758 0.577728 0.537598
0.065399 0.600037 0.556610
0.106384 0.617950 0.575470
0.244263 0.631592 0.523804
0.455688 0.653687 0.379944
0.588470 0.694733 0.370117
0.684723 0.694000 0.353424
0.779022 0.690765 0.407806
0.859650 0.709900 0.397949
0.265137 0.680908 0.493958
0.308350 0.691833 0.478119
0.417999 0.711426 0.416077
0.454071 0.717407 0.340607
0.530670 0.750641 0.305939
0.613037 0.783966 0.336670
0.702911 0.806671 0.325287
0.777679 0.799164 0.302216
0.847961 0.788239 0.335938
0.502045 0.784515 0.356323
0.521942 0.793610 0.327362
0.546021 0.798126 0.239532
0.558228 0.806274 0.197327
0.596222 0.839508 0.192139
0.649872 0.861176 0.272675
0.716705 0.882294 0.297302
0.799347 0.888458 0.298767
0.850189 0.871277 0.245728
0.039856 0.173340 0.355560
0.039490 0.175140 0.342590
0.040527 0.175110 0.332031
0.047699 0.176636 0.343018
0.084045 0.175781 0.382538
0.355957 0.101593 0.324036
0.576965 0.059906 0.288544
0.703949 0.035522 0.300385
0.801392 0.027618 0.312408
0.029846 0.211853 0.405151
0.022644 0.238953 0.445160
0.027618 0.240204 0.438171
0.045715 0.243683 0.444092
0.091980 0.242554 0.465820
0.428558 0.183258 0.368378
0.622589 0.175018 0.343170
0.741699 0.177795 0.350861
0.831268 0.182098 0.366547
0.018127 0.249817 0.442902
0.017426 0.279266 0.479797
0.025635 0.302460 0.514984
0.053406 0.311432 0.528748
0.118011 0.313385 0.535004
0.456421 0.279144 0.433990
0.652863 0.278473 0.394531
0.764404 0.286560 0.399445
0.846680 0.293091 0.413208
0.044983 0.288361 0.473053
0.059418 0.315460 0.511169
0.075409 0.340088 0.543030
0.109436 0.369781 0.579071
0.195404 0.383484 0.564941
0.459839 0.382294 0.489716
0.666992 0.382202 0.446228
0.776367 0.394104 0.445984
0.859344 0.401428 0.449463
0.089569 0.334290 0.498871
0.089355 0.363251 0.534760
0.099152 0.390259 0.565765
0.152313 0.425629 0.587372
0.285950 0.450867 0.570251
0.501160 0.488251 0.537628
0.731537 0.515381 0.526276
0.814301 0.512909 0.504852
0.879608 0.507385 0.485291
0.128662 0.405487 0.521210
0.114746 0.434265 0.554047
0.121033 0.461517 0.578247
0.195282 0.495789 0.591553
0.342896 0.521118 0.571503
0.547455 0.596497 0.579651
0.713257 0.622284 0.571442
0.818573 0.629730 0.559906
0.893829 0.627838 0.537994
0.068207 0.529053 0.571381
0.030975 0.561096 0.589142
0.000000 0.586792 0.606537
0.100128 0.612335 0.642120
0.271790 0.643158 0.632294
0.588562 0.692322 0.520874
0.690002 0.711792 0.484253
0.788879 0.711090 0.548737
0.878265 0.718719 0.531525
0.000000 0.680328 0.624054
0.000000 0.698120 0.637207
0.082489 0.705658 0.657532
0.209778 0.727844 0.658478
0.428467 0.743347 0.583221
0.612762 0.781921 0.475677
0.703918 0.806854 0.468018
0.787384 0.804901 0.445862
0.865997 0.798523 0.483795
0.277649 0.765747 0.617249
0.322937 0.775635 0.611664
0.384308 0.787659 0.600494
0.522827 0.814423 0.526611
0.605164 0.836548 0.398621
0.668793 0.866547 0.404175
0.730896 0.883759 0.430237
0.807983 0.893646 0.418915
0.865601 0.878296 0.410126
0.021118 0.237061 0.465851
0.022125 0.238068 0.452301
0.024139 0.237091 0.440399
0.027893 0.235626 0.428131
0.050751 0.233734 0.456757
0.129486 0.225067 0.489899
0.516693 0.128937 0.350250
0.690887 0.106171 0.353210
0.797729 0.096008 0.372620
0.013611 0.272949 0.514221
0.014435 0.302643 0.553619
0.020233 0.304413 0.548157
0.029694 0.304779 0.538483
0.068115 0.303223 0.556946
0.200806 0.300751 0.557220
0.584015 0.219543 0.410492
0.722321 0.211853 0.418640
0.825470 0.212769 0.439392
0.007477 0.310059 0.549561
0.014343 0.340118 0.587402
0.030975 0.361359 0.617126
0.052155 0.369110 0.621887
0.101410 0.370117 0.630096
0.278076 0.377136 0.605682
0.614868 0.317505 0.483765
0.744537 0.310791 0.477142
0.840454 0.316193 0.497131
0.002319 0.351105 0.578888
0.016663 0.378937 0.613159
0.059845 0.399689 0.641815
0.097778 0.423370 0.669403
0.158447 0.431854 0.670288
0.344818 0.451141 0.640991
0.649506 0.407196 0.533691
0.769501 0.407135 0.524963
0.855286 0.413208 0.537048
0.059143 0.394104 0.607147
0.063660 0.420593 0.634491
0.081879 0.442657 0.657806
0.115753 0.469849 0.687317
0.222687 0.493469 0.688995
0.421204 0.525482 0.661560
0.673859 0.502686 0.581207
0.788513 0.507324 0.570221
0.866699 0.507538 0.573273
0.036987 0.457306 0.625519
0.000000 0.484955 0.646027
0.033691 0.504913 0.669952
0.107361 0.529388 0.700470
0.257324 0.552734 0.692444
0.527374 0.591553 0.650665
0.694061 0.610779 0.629364
0.837036 0.622620 0.629425
0.903229 0.615784 0.615906
0.008911 0.538483 0.637207
0.000000 0.561737 0.659485
0.000000 0.581482 0.679382
0.117554 0.601013 0.709076
0.289825 0.622284 0.693726
0.555573 0.655609 0.659210
0.701660 0.715515 0.658020
0.809296 0.725342 0.661774
0.902283 0.729309 0.660004
0.000000 0.646027 0.669250
0.000000 0.664612 0.685364
0.000000 0.680023 0.698792
0.083923 0.695679 0.721039
0.235443 0.716858 0.719971
0.467560 0.762909 0.708954
0.721802 0.804749 0.586151
0.799561 0.815613 0.562439
0.875458 0.810547 0.614044
0.000000 0.749146 0.706696
0.000000 0.763733 0.717896
0.000000 0.774139 0.724976
0.107086 0.784271 0.743317
0.275543 0.811279 0.736694
0.668091 0.855072 0.559631
0.753479 0.882507 0.540375
0.819000 0.893402 0.535736
0.876068 0.886658 0.535217
0.010345 0.308075 0.577118
0.012634 0.308594 0.565125
0.014923 0.308411 0.553375
0.017273 0.305878 0.541138
0.032959 0.299744 0.543304
0.082520 0.301514 0.575897
0.348450 0.231842 0.526276
0.662750 0.171570 0.402344
0.781464 0.159332 0.444214
0.011200 0.340424 0.620361
0.024170 0.366577 0.653137
0.033539 0.371033 0.652588
0.040131 0.368134 0.641174
0.068878 0.369598 0.646698
0.138855 0.372925 0.660919
0.447388 0.319794 0.597260
0.703827 0.278351 0.507996
0.813141 0.264984 0.522430
0.014618 0.372986 0.653595
0.035492 0.398865 0.685822
0.058472 0.418213 0.710114
0.075104 0.422852 0.711517
0.111389 0.429169 0.716278
0.205750 0.435638 0.710449
0.519714 0.392120 0.640076
0.737274 0.359589 0.563812
0.831635 0.349182 0.570679
0.017181 0.408600 0.679260
0.045593 0.433105 0.708862
0.075165 0.452728 0.731140
0.106842 0.469238 0.749176
0.158936 0.482208 0.755676
0.274078 0.495880 0.742950
0.572540 0.463776 0.671997
0.759064 0.433563 0.604614
0.844086 0.430450 0.609894
0.046143 0.450165 0.702423
0.065399 0.473755 0.727509
0.093048 0.492188 0.746399
0.129364 0.510071 0.764862
0.214996 0.533966 0.773407
0.385193 0.558014 0.749054
0.616547 0.544098 0.701660
0.775116 0.516754 0.645905
0.855469 0.516907 0.648987
0.000000 0.505066 0.721344
0.007568 0.527100 0.740997
0.065613 0.543915 0.761292
0.121155 0.563354 0.779083
0.226379 0.588104 0.783844
0.492798 0.619690 0.740662
0.654907 0.633942 0.724487
0.790283 0.610748 0.687439
0.864258 0.606140 0.682434
0.000000 0.572662 0.737091
0.000000 0.592224 0.754669
0.040863 0.607910 0.770477
0.125366 0.626556 0.788879
0.249054 0.646057 0.786163
0.557312 0.669617 0.725830
0.688934 0.715210 0.735504
0.812347 0.711426 0.721893
0.903656 0.713104 0.726624
0.000000 0.652283 0.745819
0.000000 0.668762 0.761230
0.008575 0.682709 0.774078
0.127594 0.697174 0.792297
0.255249 0.711731 0.786255
0.554474 0.728638 0.735870
0.679291 0.781769 0.754852
0.805176 0.809174 0.725067
0.881744 0.816956 0.741058
0.000000 0.732941 0.761780
0.000000 0.744934 0.771484
0.038361 0.753876 0.781128
0.127594 0.761475 0.792419
0.227966 0.778809 0.792450
0.415924 0.804047 0.781799
0.731018 0.866730 0.714447
0.829803 0.888428 0.645752
0.878326 0.893188 0.634552
0.021637 0.377167 0.675323
0.024170 0.378601 0.666687
0.026733 0.379822 0.658905
0.030121 0.379944 0.651581
0.033752 0.379242 0.641937
0.079834 0.377960 0.666077
0.215363 0.400909 0.691223
0.606201 0.286133 0.577148
0.771545 0.252991 0.537079
0.036682 0.402496 0.713989
0.057556 0.425568 0.740601
0.067352 0.431610 0.744202
0.074554 0.433258 0.738617
0.084900 0.435486 0.732605
0.140381 0.438812 0.745544
0.329163 0.462463 0.742615
0.667542 0.351074 0.638977
0.805695 0.325317 0.600189
0.051453 0.430145 0.744934
0.075714 0.450958 0.767395
0.100189 0.467865 0.785065
0.116882 0.474396 0.789581
0.134949 0.480438 0.787354
0.207611 0.487732 0.787842
0.424072 0.509674 0.770996
0.713562 0.409729 0.679138
0.829712 0.386719 0.642212
0.066193 0.461792 0.769958
0.094421 0.481567 0.788147
0.122192 0.497375 0.803741
0.150452 0.510223 0.814728
0.187927 0.523315 0.818115
0.268311 0.534180 0.814453
0.515167 0.560181 0.786804
0.745331 0.474518 0.709717
0.845032 0.455841 0.680267
0.087158 0.499512 0.788605
0.113647 0.517944 0.804871
0.140717 0.533356 0.818359
0.178070 0.547333 0.827271
0.234528 0.567474 0.834503
0.341492 0.584778 0.825226
0.587860 0.614136 0.794495
0.766571 0.547119 0.737091
0.854034 0.530823 0.714630
0.072815 0.548096 0.808105
0.106445 0.565002 0.821777
0.141876 0.580292 0.833496
0.184113 0.594513 0.840118
0.246948 0.615356 0.846466
0.423920 0.638580 0.824005
0.638031 0.673157 0.801910
0.779572 0.628479 0.762146
0.858063 0.614807 0.745483
0.061615 0.607941 0.823547
0.100525 0.623718 0.834381
0.142395 0.635681 0.842682
0.194092 0.649567 0.848114
0.263367 0.667633 0.850922
0.470856 0.687012 0.818146
0.674133 0.727325 0.800323
0.782501 0.711945 0.783203
0.865448 0.703796 0.774384
0.035461 0.677490 0.832123
0.089325 0.689575 0.842651
0.138092 0.698975 0.848724
0.197693 0.710815 0.852386
0.272705 0.723724 0.851593
0.523407 0.736176 0.805969
0.715057 0.762878 0.783569
0.790192 0.799927 0.800873
0.889130 0.799896 0.802948
0.018463 0.737457 0.831512
0.077148 0.747101 0.839508
0.128723 0.754608 0.844727
0.193298 0.765564 0.847778
0.270447 0.776123 0.845367
0.490234 0.792480 0.818237
0.687469 0.814240 0.801025
0.786224 0.867462 0.814911
0.882843 0.885529 0.784149
