Kodak 16mm (Variant) - Look.cube
# Created by Benjamin (IWLTBAP) : http://luts.iwltbap.com
# Copyright: (C) Copyright 2010-2017 Triune Films and IWLTBAP SAS
# Cannot be resold, shared or otherwise redistributed
TITLE "Film Print Emulation LUTs Pack (Rec.709, sRGB, DCI-P3)"
LUT_3D_SIZE 9
0.000000 0.000000 0.000031
0.093964 0.006866 0.013245
0.237427 0.004272 0.019745
0.388824 0.000702 0.035065
0.515533 0.000214 0.044464
0.627319 0.000000 0.061951
0.723114 0.000000 0.078857
0.811646 0.000000 0.099396
0.839447 0.000000 0.105927
0.031403 0.079407 0.032379
0.091644 0.065735 0.028107
0.215881 0.053436 0.021912
0.365387 0.030273 0.030304
0.493347 0.011719 0.044281
0.611816 0.002594 0.054474
0.708282 0.000519 0.064545
0.803314 0.000000 0.084320
0.841431 0.000000 0.093658
0.083405 0.154358 0.050018
0.110992 0.143280 0.046844
0.209778 0.147644 0.047699
0.354309 0.136597 0.041473
0.482483 0.100830 0.032562
0.602112 0.062317 0.043945
0.709991 0.027832 0.059631
0.799561 0.012665 0.065308
0.843353 0.006897 0.065979
0.107056 0.230072 0.069000
0.127228 0.217529 0.065613
0.191650 0.216919 0.064392
0.346313 0.252747 0.070251
0.492188 0.244873 0.059937
0.600525 0.205627 0.033752
0.704041 0.162445 0.044403
0.801392 0.116974 0.060547
0.857697 0.081329 0.058380
0.121063 0.325714 0.095428
0.146790 0.314911 0.092041
0.203918 0.308685 0.089752
0.296967 0.312317 0.089417
0.472931 0.354401 0.093018
0.615204 0.352966 0.079742
0.717255 0.312622 0.061890
0.802551 0.271851 0.037109
0.873535 0.233185 0.048767
0.175354 0.450073 0.130524
0.210022 0.441254 0.127594
0.275879 0.438599 0.125977
0.371216 0.437683 0.123962
0.468445 0.430756 0.118835
0.619415 0.466827 0.119720
0.752411 0.458618 0.103546
0.833588 0.418182 0.091309
0.895081 0.377167 0.070465
0.300781 0.572235 0.165375
0.334137 0.575897 0.166077
0.376984 0.583252 0.167755
0.454865 0.593597 0.169983
0.533020 0.577484 0.164459
0.624084 0.561554 0.155487
0.751923 0.582733 0.149689
0.851685 0.563568 0.127472
0.912689 0.513702 0.098145
0.437408 0.714539 0.205750
0.453979 0.719330 0.207001
0.495850 0.735748 0.211426
0.577393 0.757233 0.216858
0.646057 0.753265 0.215424
0.718567 0.745544 0.212341
0.807556 0.738129 0.206635
0.880646 0.717194 0.187531
0.947906 0.671234 0.153992
0.580597 0.912445 0.258545
0.610779 0.918488 0.259766
0.669861 0.929535 0.262115
0.766327 0.951294 0.267151
0.827789 0.954987 0.269501
0.892242 0.957336 0.278809
0.956024 0.962494 0.298157
0.974457 0.929138 0.294037
0.971802 0.873688 0.269562
0.009399 0.048096 0.153290
0.096802 0.037872 0.135925
0.238983 0.025787 0.107941
0.398560 0.025787 0.098511
0.536530 0.016907 0.099731
0.654694 0.007874 0.105804
0.764893 0.002716 0.116302
0.860474 0.001038 0.137177
0.893372 0.000519 0.147766
0.029266 0.101746 0.104004
0.107666 0.098145 0.108582
0.235138 0.089752 0.102509
0.387115 0.078827 0.087860
0.525482 0.061249 0.091736
0.648743 0.028046 0.095245
0.756073 0.014069 0.101135
0.851593 0.006165 0.114410
0.894043 0.003235 0.124908
0.056396 0.174438 0.074615
0.110413 0.171173 0.081512
0.235626 0.184418 0.101959
0.386414 0.176483 0.097839
0.518585 0.147675 0.075806
0.643036 0.117218 0.080963
0.755096 0.080322 0.094299
0.847321 0.044861 0.096741
0.890015 0.031403 0.092438
0.087494 0.251526 0.077576
0.122864 0.245087 0.075531
0.208588 0.245728 0.077881
0.373138 0.282745 0.101318
0.524261 0.277557 0.103546
0.637451 0.240753 0.079376
0.745026 0.207275 0.073334
0.848022 0.165588 0.089050
0.896240 0.132202 0.086548
0.115051 0.357727 0.105316
0.149506 0.354126 0.103760
0.227051 0.348969 0.101471
0.327911 0.342987 0.099182
0.500061 0.380249 0.114258
0.639557 0.379974 0.115326
0.753906 0.343323 0.099915
0.845306 0.307739 0.071533
0.904266 0.271301 0.070648
0.170258 0.486481 0.141510
0.219391 0.486877 0.140778
0.300293 0.485046 0.139130
0.397614 0.475433 0.134583
0.494171 0.457764 0.126648
0.645416 0.488831 0.136383
0.776886 0.483185 0.135956
0.861816 0.443298 0.120575
0.918671 0.404266 0.093903
0.277222 0.613525 0.178009
0.329926 0.621185 0.179688
0.394775 0.630402 0.181732
0.481262 0.634338 0.181824
0.557892 0.609955 0.173676
0.656830 0.593445 0.164642
0.788055 0.610504 0.160919
0.877136 0.589355 0.147736
0.935364 0.541138 0.124847
0.416504 0.768188 0.221924
0.457550 0.783356 0.225891
0.525330 0.803375 0.230896
0.619324 0.814972 0.232758
0.688721 0.800049 0.228790
0.765564 0.794495 0.226898
0.858185 0.785461 0.221954
0.917511 0.760223 0.205292
0.952393 0.704529 0.180450
0.614075 0.948059 0.269257
0.659302 0.949463 0.270264
0.720001 0.952637 0.274811
0.796600 0.953918 0.281006
0.852051 0.955627 0.291290
0.920929 0.958771 0.308136
0.968597 0.963715 0.323425
0.979736 0.959991 0.333099
0.978149 0.920929 0.315796
0.001221 0.086761 0.336395
0.041565 0.078033 0.332031
0.180542 0.057739 0.295746
0.318634 0.031250 0.222260
0.486359 0.038574 0.196808
0.651245 0.062469 0.209686
0.782532 0.072266 0.216400
0.896484 0.065155 0.226471
0.942413 0.057373 0.234161
0.009705 0.119659 0.265381
0.065430 0.118347 0.269135
0.185242 0.107605 0.253754
0.328400 0.088745 0.217773
0.495605 0.094574 0.198212
0.654083 0.112976 0.201721
0.782257 0.115479 0.209137
0.892120 0.096954 0.208496
0.936249 0.076355 0.201172
0.028687 0.184021 0.182373
0.092133 0.190796 0.199371
0.226807 0.214081 0.229889
0.377655 0.216644 0.227325
0.525848 0.203827 0.213379
0.666809 0.197662 0.192780
0.785309 0.181183 0.191589
0.889343 0.154388 0.188843
0.931854 0.128357 0.172638
0.069580 0.282928 0.160187
0.099274 0.279297 0.160522
0.216949 0.290405 0.177917
0.406403 0.336761 0.230347
0.555603 0.333282 0.231079
0.673462 0.302979 0.204926
0.785645 0.277069 0.172485
0.889679 0.245789 0.174561
0.939026 0.216797 0.166107
0.115417 0.398346 0.174377
0.142761 0.399109 0.171600
0.235107 0.397156 0.169067
0.361786 0.392792 0.168182
0.539856 0.425568 0.215485
0.672607 0.422485 0.221100
0.790253 0.395111 0.209381
0.882324 0.358459 0.169128
0.934204 0.318390 0.135864
0.168640 0.519501 0.196838
0.193695 0.522156 0.190613
0.285797 0.521912 0.184113
0.403717 0.503662 0.170471
0.511505 0.486115 0.170532
0.660004 0.510925 0.209045
0.786560 0.502136 0.213165
0.876190 0.464172 0.188385
0.933502 0.431122 0.157104
0.234650 0.640839 0.198639
0.270355 0.649933 0.201050
0.383057 0.663940 0.204010
0.485748 0.663544 0.201874
0.572052 0.633514 0.189972
0.675293 0.612579 0.189575
0.808594 0.629486 0.213593
0.894318 0.607819 0.213501
0.938171 0.565674 0.188568
0.366638 0.811646 0.242432
0.446838 0.830444 0.252167
0.555756 0.856476 0.269592
0.660370 0.861847 0.278595
0.727325 0.843872 0.276276
0.804382 0.832825 0.276306
0.896393 0.829681 0.289246
0.939484 0.803345 0.284546
0.950073 0.744385 0.260284
0.612823 0.948792 0.314026
0.666687 0.949615 0.320343
0.739014 0.950653 0.329834
0.812225 0.952179 0.338135
0.870819 0.954071 0.347351
0.937714 0.959137 0.359558
0.966553 0.963287 0.367523
0.976501 0.964874 0.376648
0.985504 0.962677 0.378754
0.000122 0.120575 0.502228
0.017029 0.113617 0.506927
0.109619 0.107880 0.489960
0.272430 0.080353 0.432404
0.395691 0.039337 0.332764
0.504486 0.035004 0.273285
0.675262 0.046783 0.281433
0.866455 0.096893 0.308533
0.955719 0.119141 0.320435
0.000977 0.151978 0.442657
0.033325 0.150177 0.446442
0.130890 0.145996 0.439545
0.264771 0.127380 0.402802
0.395355 0.081757 0.326477
0.527191 0.064484 0.277008
0.697296 0.093719 0.285187
0.871796 0.146118 0.306885
0.965271 0.170471 0.304993
0.002594 0.178925 0.321320
0.040680 0.192566 0.346558
0.150452 0.209229 0.370728
0.277985 0.202148 0.358795
0.411621 0.185333 0.321899
0.574371 0.189117 0.303314
0.742157 0.215088 0.308624
0.892395 0.229248 0.302765
0.970154 0.226807 0.291229
0.033051 0.261505 0.258362
0.067719 0.263947 0.265961
0.184296 0.291656 0.307373
0.367004 0.350952 0.369629
0.511902 0.355255 0.369598
0.652466 0.348541 0.355835
0.792328 0.342865 0.336639
0.912689 0.323700 0.302490
0.976807 0.297516 0.272278
0.122620 0.425781 0.316650
0.153473 0.426086 0.319397
0.232391 0.427948 0.325043
0.385620 0.445404 0.344452
0.560211 0.482025 0.385376
0.692749 0.477112 0.375214
0.816071 0.454895 0.355286
0.912933 0.421570 0.315796
0.967377 0.384918 0.269897
0.179688 0.552521 0.348999
0.207458 0.552032 0.346527
0.270844 0.549622 0.338959
0.405396 0.535583 0.322357
0.531952 0.530426 0.324768
0.686218 0.555420 0.356476
0.807404 0.542297 0.342346
0.900299 0.502869 0.307373
0.942505 0.464783 0.264832
0.215179 0.645355 0.312134
0.240936 0.649292 0.314453
0.307922 0.656097 0.312469
0.436676 0.652954 0.306549
0.544525 0.632477 0.294189
0.662354 0.616028 0.296692
0.795044 0.627716 0.309174
0.888916 0.603638 0.292511
0.917938 0.571777 0.268707
0.307861 0.815613 0.331787
0.350800 0.830841 0.346252
0.502045 0.854584 0.364624
0.626068 0.863831 0.374847
0.717743 0.853882 0.376434
0.810974 0.845886 0.375214
0.903381 0.841949 0.384552
0.933289 0.814972 0.374420
0.940765 0.758514 0.335968
0.544464 0.940796 0.391602
0.616486 0.942474 0.398499
0.706451 0.945129 0.405334
0.792633 0.948730 0.414154
0.866821 0.953552 0.422058
0.936188 0.960327 0.429535
0.957764 0.963623 0.435425
0.972168 0.965851 0.440735
0.986328 0.966675 0.443207
0.000000 0.147522 0.638184
0.007355 0.144470 0.647247
0.080414 0.145050 0.637482
0.220825 0.134766 0.593536
0.367188 0.102173 0.522949
0.477783 0.055847 0.437103
0.555573 0.039276 0.349213
0.677551 0.037659 0.326843
0.809723 0.045654 0.349304
0.000153 0.184113 0.593628
0.016113 0.184967 0.599335
0.091370 0.185852 0.598724
0.222260 0.177826 0.571167
0.359985 0.153931 0.512634
0.476624 0.100708 0.428558
0.560913 0.047089 0.346741
0.701965 0.049622 0.331970
0.880127 0.101440 0.358002
0.000671 0.232880 0.513519
0.027405 0.238586 0.526855
0.104156 0.244781 0.540588
0.236450 0.235718 0.525940
0.356720 0.217499 0.484009
0.469727 0.179993 0.413086
0.583374 0.134888 0.356140
0.755676 0.145142 0.348602
0.942505 0.222900 0.370728
0.000458 0.221863 0.337952
0.012085 0.234406 0.369568
0.086670 0.266357 0.416046
0.250092 0.300842 0.457886
0.375092 0.298553 0.442139
0.500336 0.289825 0.412292
0.664825 0.300690 0.404816
0.843353 0.321289 0.411926
0.983673 0.344696 0.412628
0.051849 0.372467 0.386078
0.088623 0.373840 0.388062
0.145447 0.382477 0.397583
0.318207 0.421936 0.445038
0.498047 0.479187 0.502808
0.637421 0.487000 0.498199
0.779968 0.484039 0.485077
0.915527 0.469788 0.459320
0.995697 0.443695 0.423950
0.170197 0.573090 0.479279
0.203735 0.572906 0.478790
0.253693 0.576080 0.479523
0.387360 0.577240 0.478943
0.543152 0.593811 0.500824
0.705383 0.617737 0.527466
0.826050 0.602936 0.501068
0.927673 0.566223 0.457184
0.974396 0.528931 0.411835
0.217285 0.691467 0.467285
0.247864 0.693573 0.469574
0.287415 0.695282 0.468597
0.406921 0.693481 0.467834
0.542358 0.678345 0.455750
0.674286 0.667938 0.457489
0.801666 0.668518 0.452240
0.900513 0.639954 0.422607
0.930420 0.610718 0.397247
0.261047 0.799316 0.427887
0.295959 0.811279 0.438995
0.345062 0.829865 0.455566
0.531036 0.847595 0.467987
0.662079 0.850677 0.477173
0.778687 0.849884 0.480042
0.883606 0.842102 0.479614
0.919250 0.815186 0.464996
0.929657 0.766571 0.428619
0.375336 0.921722 0.470245
0.493439 0.926758 0.476135
0.609161 0.931427 0.486298
0.724762 0.937531 0.495911
0.830505 0.945312 0.506348
0.910553 0.953583 0.517151
0.941956 0.958221 0.518005
0.963623 0.962158 0.519348
0.984222 0.966125 0.517548
0.000000 0.170715 0.753876
0.005524 0.172150 0.765167
0.074188 0.176361 0.761322
0.173706 0.173492 0.731506
0.330536 0.160919 0.680389
0.458252 0.128906 0.619354
0.561707 0.066956 0.525848
0.644196 0.053162 0.447662
0.721222 0.050781 0.405914
0.000000 0.213287 0.723267
0.006500 0.215698 0.731720
0.078491 0.221619 0.738098
0.168457 0.218872 0.719147
0.326233 0.207275 0.672546
0.454956 0.182037 0.609680
0.560394 0.121368 0.525696
0.651855 0.067993 0.451965
0.749481 0.052094 0.399323
0.000092 0.271118 0.676239
0.017120 0.274506 0.684357
0.095276 0.280029 0.694458
0.183899 0.274872 0.684814
0.329437 0.262756 0.644196
0.448975 0.241089 0.593475
0.555542 0.198517 0.513367
0.664581 0.145966 0.455017
0.794678 0.123718 0.409271
0.000000 0.289001 0.533417
0.013336 0.304901 0.572083
0.095795 0.326965 0.606812
0.192688 0.336456 0.625000
0.340210 0.326447 0.599945
0.453918 0.312897 0.560486
0.568817 0.290741 0.508911
0.700592 0.268677 0.470459
0.865356 0.278168 0.456116
0.001709 0.327759 0.457214
0.012146 0.334595 0.472565
0.080170 0.351562 0.498505
0.196320 0.386871 0.542633
0.381409 0.419952 0.575562
0.508728 0.428406 0.563904
0.637939 0.424927 0.540863
0.791748 0.420563 0.521881
0.957031 0.435059 0.518494
0.077911 0.518738 0.551147
0.131470 0.526154 0.552521
0.188446 0.531036 0.553345
0.301483 0.537323 0.556244
0.462708 0.567322 0.590759
0.634735 0.611542 0.635223
0.767700 0.605499 0.617035
0.897461 0.587585 0.587189
0.995514 0.567078 0.551575
0.215759 0.738678 0.617065
0.250031 0.741455 0.624420
0.294067 0.745605 0.631287
0.382812 0.743958 0.633392
0.525024 0.734955 0.624847
0.679810 0.737305 0.631775
0.822418 0.736755 0.631195
0.930847 0.707245 0.591675
0.976471 0.675995 0.556122
0.253998 0.846039 0.579315
0.291473 0.854370 0.588623
0.337067 0.867157 0.604584
0.418732 0.872620 0.609650
0.600708 0.872528 0.610779
0.741547 0.871155 0.612793
0.856415 0.855408 0.604614
0.926483 0.829346 0.583557
0.949921 0.794067 0.556183
0.317932 0.914459 0.574677
0.355164 0.916077 0.574463
0.435242 0.921417 0.583679
0.603485 0.930237 0.598663
0.742401 0.938843 0.606049
0.866150 0.950684 0.621979
0.920807 0.956116 0.618591
0.955139 0.960358 0.614471
0.981689 0.965302 0.610535
0.000000 0.190857 0.841003
0.003815 0.193970 0.844574
0.066498 0.200195 0.838501
0.155823 0.204559 0.818817
0.300598 0.200531 0.781738
0.429016 0.187744 0.743286
0.549805 0.146667 0.687317
0.655060 0.098755 0.627991
0.743744 0.069336 0.561707
0.000000 0.240845 0.827820
0.003357 0.244537 0.833130
0.064087 0.252411 0.836365
0.156036 0.253998 0.826996
0.296509 0.247833 0.790222
0.429657 0.235657 0.749481
0.549927 0.208191 0.696228
0.659943 0.169128 0.635468
0.758698 0.116852 0.565491
0.000000 0.300018 0.805481
0.008575 0.304504 0.811615
0.081238 0.311188 0.817810
0.165710 0.310516 0.817139
0.298889 0.303894 0.789978
0.429474 0.294098 0.752228
0.556549 0.273315 0.698975
0.667511 0.246460 0.638794
0.772736 0.204895 0.572388
0.000000 0.356567 0.731598
0.010895 0.364319 0.754944
0.097382 0.377014 0.777893
0.181274 0.381226 0.788147
0.318787 0.377228 0.778961
0.450165 0.371338 0.750488
0.571259 0.356018 0.704926
0.682159 0.329468 0.642944
0.792969 0.297974 0.582764
0.000000 0.384766 0.637360
0.008270 0.399078 0.670349
0.097260 0.425812 0.705933
0.197296 0.452789 0.743652
0.350830 0.464172 0.758850
0.484161 0.462585 0.745789
0.599091 0.449921 0.706299
0.710297 0.424957 0.647766
0.831512 0.396942 0.596893
0.006927 0.491577 0.655243
0.048218 0.498352 0.664246
0.127563 0.507019 0.672119
0.199402 0.516235 0.679657
0.360962 0.540192 0.705139
0.529114 0.569763 0.740845
0.653656 0.566467 0.717438
0.771851 0.548279 0.676392
0.917999 0.536621 0.641571
0.147308 0.709076 0.709442
0.194672 0.712524 0.716522
0.244049 0.716949 0.724854
0.304901 0.717590 0.732513
0.463928 0.711151 0.726440
0.609558 0.724915 0.747406
0.771820 0.746002 0.768005
0.893738 0.722656 0.733215
0.991730 0.700653 0.696564
0.256317 0.899567 0.741913
0.293579 0.903290 0.752350
0.337433 0.908508 0.769897
0.412567 0.913361 0.777740
0.557526 0.907349 0.771545
0.692444 0.906097 0.774445
0.836090 0.894958 0.768707
0.947113 0.872559 0.747345
0.988007 0.839905 0.712433
0.303711 0.956818 0.737640
0.338623 0.955505 0.732513
0.386322 0.959473 0.741608
0.488892 0.965881 0.758057
0.649536 0.967377 0.753052
0.795135 0.972534 0.759644
0.909424 0.976166 0.755798
0.957214 0.977570 0.740997
0.990967 0.980255 0.731262
0.000000 0.210236 0.891052
0.000671 0.213287 0.893005
0.039490 0.221466 0.891357
0.132599 0.228333 0.875397
0.244751 0.232025 0.846252
0.384247 0.228180 0.811401
0.511017 0.207581 0.768951
0.626221 0.180756 0.727020
0.722626 0.148285 0.695496
0.000000 0.262878 0.889038
0.000092 0.266357 0.889374
0.030212 0.274536 0.889740
0.127777 0.278900 0.881775
0.235077 0.277863 0.854492
0.385590 0.272430 0.817505
0.512970 0.258606 0.778931
0.629883 0.241974 0.739410
0.732391 0.216736 0.708282
0.000000 0.319702 0.882751
0.001160 0.321716 0.881317
0.043945 0.329132 0.879211
0.138336 0.332489 0.875000
0.227203 0.333984 0.860107
0.388367 0.329224 0.827759
0.519897 0.319763 0.792145
0.637726 0.305847 0.756744
0.748108 0.281891 0.717133
0.000000 0.388031 0.857300
0.003143 0.389740 0.860077
0.063538 0.398865 0.865143
0.154327 0.404572 0.867218
0.238068 0.407043 0.864075
0.410034 0.405090 0.842163
0.537964 0.396545 0.812378
0.657593 0.380798 0.777435
0.766602 0.358490 0.734070
0.000000 0.438965 0.812714
0.006775 0.447174 0.826752
0.083832 0.463440 0.843475
0.176361 0.481750 0.858063
0.269958 0.494476 0.866364
0.441345 0.494934 0.860992
0.568085 0.488861 0.835236
0.682343 0.470306 0.800110
0.787415 0.441345 0.748138
0.000183 0.499756 0.777008
0.009705 0.507202 0.792847
0.082642 0.523468 0.807495
0.177338 0.546295 0.821564
0.264648 0.572510 0.844910
0.467072 0.594299 0.867676
0.603333 0.590454 0.858368
0.718658 0.567200 0.819397
0.828857 0.534760 0.759399
0.048767 0.664276 0.789368
0.106903 0.665985 0.801300
0.174408 0.678070 0.818817
0.234406 0.682190 0.833527
0.302032 0.684540 0.837860
0.498047 0.700775 0.853363
0.659576 0.715485 0.878235
0.783478 0.694366 0.848358
0.898254 0.666229 0.795105
0.207672 0.877228 0.831573
0.244049 0.877808 0.840149
0.285187 0.880188 0.858307
0.339813 0.889557 0.876831
0.497223 0.893341 0.883331
0.632446 0.896301 0.892303
0.766876 0.892181 0.897736
0.902252 0.878632 0.887817
0.990234 0.838074 0.839935
0.284332 0.976349 0.860107
0.317261 0.977234 0.859802
0.358276 0.978668 0.869995
0.435944 0.979614 0.888672
0.603973 0.981598 0.896759
0.731140 0.985504 0.905334
0.856354 0.990326 0.907043
0.955475 0.993011 0.885803
0.997711 0.992218 0.855164
0.000000 0.220215 0.933655
0.000549 0.222656 0.935272
0.035248 0.228241 0.929260
0.126434 0.235931 0.914825
0.221222 0.241150 0.889160
0.366791 0.242218 0.857819
0.494507 0.228180 0.820312
0.617584 0.208252 0.775269
0.709656 0.188324 0.751068
0.000000 0.274994 0.932373
0.000000 0.277435 0.932953
0.023804 0.282501 0.929321
0.117920 0.287811 0.921417
0.209991 0.289642 0.899292
0.364502 0.286774 0.864594
0.493896 0.278564 0.830261
0.614075 0.267365 0.793640
0.716217 0.248047 0.764648
0.000000 0.326904 0.925385
0.000397 0.329834 0.923920
0.033203 0.337128 0.919342
0.126251 0.343018 0.915009
0.207092 0.346985 0.905731
0.362549 0.346161 0.877899
0.497772 0.341248 0.845398
0.619690 0.329773 0.811188
0.723694 0.311310 0.779755
0.000000 0.398865 0.910583
0.000519 0.398468 0.911194
0.039520 0.403229 0.910431
0.134766 0.411499 0.909180
0.215057 0.418304 0.907776
0.371918 0.419189 0.892548
0.505005 0.414612 0.865967
0.629211 0.402832 0.832855
0.737000 0.385193 0.801758
0.000000 0.456085 0.886078
0.001160 0.459564 0.891876
0.054443 0.469147 0.899353
0.148254 0.483002 0.902527
0.230927 0.496674 0.906952
0.384796 0.501556 0.906586
0.525970 0.498474 0.885651
0.648773 0.486511 0.856232
0.750061 0.465149 0.824982
0.000000 0.505219 0.844696
0.000732 0.509003 0.858154
0.037720 0.521790 0.866547
0.136536 0.543304 0.873230
0.225922 0.568481 0.887878
0.380005 0.593231 0.907867
0.545776 0.597931 0.910492
0.671997 0.580261 0.882599
0.778961 0.555756 0.850555
0.002991 0.650024 0.858368
0.020996 0.636078 0.861908
0.083435 0.639404 0.870239
0.167969 0.652863 0.877197
0.240295 0.663208 0.880035
0.354462 0.682831 0.893005
0.565765 0.705017 0.918793
0.713348 0.696503 0.918457
0.815125 0.665039 0.886993
0.128876 0.837067 0.890289
0.161102 0.823547 0.888184
0.196045 0.815308 0.896851
0.244202 0.823029 0.920227
0.311707 0.846008 0.934296
0.465118 0.856537 0.939087
0.628906 0.856445 0.942505
0.780029 0.845917 0.954956
0.890869 0.809479 0.937134
0.242401 0.966888 0.936829
0.270508 0.968536 0.937347
0.300201 0.969543 0.940826
0.328552 0.969238 0.949921
0.409515 0.971771 0.970093
0.593506 0.975769 0.982208
0.738434 0.982666 0.987518
0.876068 0.992126 0.992737
0.999969 0.999969 0.999969
