Kodak 16mm - Only contrast.cube
# Created by Benjamin (IWLTBAP) : http://luts.iwltbap.com
# Copyright: (C) Copyright 2010-2017 Triune Films and IWLTBAP SAS
# Cannot be resold, shared or otherwise redistributed
TITLE "Film Print Emulation LUTs Pack (Rec.709, sRGB, DCI-P3)"
LUT_3D_SIZE 9
0.027283 0.027283 0.027283
0.068726 0.027252 0.027252
0.172028 0.026794 0.026794
0.323029 0.026001 0.026001
0.477020 0.025177 0.025177
0.614594 0.024506 0.024506
0.732269 0.023926 0.023926
0.820404 0.023560 0.023560
0.869598 0.023499 0.023499
0.027252 0.068726 0.027252
0.068848 0.068848 0.027222
0.172699 0.068542 0.026764
0.323883 0.067932 0.025970
0.477722 0.067261 0.025146
0.615204 0.066742 0.024445
0.732727 0.066345 0.023895
0.820618 0.066162 0.023529
0.869537 0.066254 0.023438
0.026794 0.172028 0.026794
0.068542 0.172699 0.026764
0.172943 0.172943 0.026276
0.324310 0.172852 0.025482
0.477997 0.172791 0.024658
0.615356 0.172821 0.023956
0.732727 0.173004 0.023407
0.820374 0.173370 0.023041
0.869049 0.174042 0.022949
0.026001 0.323029 0.026001
0.067932 0.323883 0.025970
0.172852 0.324310 0.025482
0.324371 0.324371 0.024689
0.477936 0.324432 0.023865
0.615173 0.324615 0.023163
0.732422 0.324921 0.022583
0.819855 0.325409 0.022247
0.868256 0.326172 0.022156
0.025177 0.477020 0.025177
0.067261 0.477722 0.025146
0.172791 0.477997 0.024658
0.324432 0.477936 0.023865
0.477875 0.477875 0.023041
0.614990 0.477936 0.022339
0.732117 0.478119 0.021790
0.819275 0.478516 0.021423
0.867432 0.479187 0.021332
0.024506 0.614594 0.024506
0.066742 0.615204 0.024445
0.172821 0.615356 0.023956
0.324615 0.615173 0.023163
0.477936 0.614990 0.022339
0.614929 0.614929 0.021637
0.731903 0.614990 0.021088
0.818848 0.615265 0.020721
0.866730 0.615814 0.020660
0.023926 0.732269 0.023926
0.066345 0.732727 0.023895
0.173004 0.732727 0.023407
0.324921 0.732422 0.022583
0.478119 0.732117 0.021790
0.614990 0.731903 0.021088
0.731842 0.731842 0.020538
0.818542 0.731964 0.020172
0.866180 0.732361 0.020111
0.023560 0.820404 0.023560
0.066162 0.820618 0.023529
0.173370 0.820374 0.023041
0.325409 0.819855 0.022247
0.478516 0.819275 0.021423
0.615265 0.818848 0.020721
0.731964 0.818542 0.020172
0.818451 0.818451 0.019836
0.865845 0.818604 0.019745
0.023499 0.869598 0.023499
0.066254 0.869537 0.023438
0.174042 0.869049 0.022949
0.326172 0.868256 0.022156
0.479187 0.867432 0.021332
0.615814 0.866730 0.020660
0.732361 0.866180 0.020111
0.818604 0.865845 0.019745
0.865753 0.865723 0.026306
0.027252 0.027252 0.068726
0.068848 0.027222 0.068848
0.172699 0.026764 0.068542
0.323883 0.025970 0.067932
0.477722 0.025146 0.067261
0.615204 0.024445 0.066742
0.732727 0.023895 0.066345
0.820618 0.023529 0.066162
0.869537 0.023438 0.066254
0.027222 0.068848 0.068848
0.068970 0.068970 0.068970
0.173370 0.068665 0.068665
0.324738 0.068024 0.068024
0.478424 0.067383 0.067383
0.615784 0.066864 0.066864
0.733185 0.066467 0.066467
0.820831 0.066284 0.066284
0.869507 0.066376 0.066376
0.026764 0.172699 0.068542
0.068665 0.173370 0.068665
0.173615 0.173615 0.068359
0.325134 0.173553 0.067719
0.478699 0.173462 0.067078
0.615936 0.173523 0.066528
0.733185 0.173676 0.066162
0.820587 0.174072 0.065979
0.868988 0.174713 0.066071
0.025970 0.323883 0.067932
0.068024 0.324738 0.068024
0.173553 0.325134 0.067719
0.325195 0.325195 0.067078
0.478638 0.325256 0.066437
0.615753 0.325409 0.065918
0.732880 0.325714 0.065521
0.820038 0.326202 0.065338
0.868195 0.326996 0.065430
0.025146 0.477722 0.067261
0.067383 0.478424 0.067383
0.173462 0.478699 0.067078
0.325256 0.478638 0.066437
0.478577 0.478577 0.065796
0.615570 0.478638 0.065277
0.732544 0.478821 0.064880
0.819489 0.479218 0.064728
0.867371 0.479858 0.064819
0.024445 0.615204 0.066742
0.066864 0.615784 0.066864
0.173523 0.615936 0.066528
0.325409 0.615753 0.065918
0.478638 0.615570 0.065277
0.615509 0.615509 0.064758
0.732330 0.615570 0.064362
0.819031 0.615845 0.064209
0.866669 0.616394 0.064301
0.023895 0.732727 0.066345
0.066467 0.733185 0.066467
0.173676 0.733185 0.066162
0.325714 0.732880 0.065521
0.478821 0.732544 0.064880
0.615570 0.732330 0.064362
0.732269 0.732269 0.063995
0.818726 0.732391 0.063843
0.866119 0.732788 0.063934
0.023529 0.820618 0.066162
0.066284 0.820831 0.066284
0.174072 0.820587 0.065979
0.326202 0.820038 0.065338
0.479218 0.819489 0.064728
0.615845 0.819031 0.064209
0.732391 0.818726 0.063843
0.818634 0.818634 0.063690
0.865784 0.818817 0.063782
0.023438 0.869537 0.066254
0.066376 0.869507 0.066376
0.174713 0.868988 0.066071
0.326996 0.868195 0.065430
0.479858 0.867371 0.064819
0.616394 0.866669 0.064301
0.732788 0.866119 0.063934
0.818817 0.865784 0.063782
0.865692 0.865692 0.063904
0.026794 0.026794 0.172028
0.068542 0.026764 0.172699
0.172943 0.026276 0.172943
0.324310 0.025482 0.172852
0.477997 0.024658 0.172791
0.615356 0.023956 0.172821
0.732727 0.023407 0.173004
0.820374 0.023041 0.173370
0.869049 0.022949 0.174042
0.026764 0.068542 0.172699
0.068665 0.068665 0.173370
0.173615 0.068359 0.173615
0.325134 0.067719 0.173553
0.478699 0.067078 0.173462
0.615936 0.066528 0.173523
0.733185 0.066162 0.173676
0.820587 0.065979 0.174072
0.868988 0.066071 0.174713
0.026276 0.172943 0.172943
0.068359 0.173615 0.173615
0.173859 0.173859 0.173859
0.325531 0.173798 0.173798
0.478943 0.173706 0.173706
0.616058 0.173767 0.173767
0.733185 0.173920 0.173920
0.820343 0.174316 0.174316
0.868469 0.174957 0.174957
0.025482 0.324310 0.172852
0.067719 0.325134 0.173553
0.173798 0.325531 0.173798
0.325592 0.325592 0.173737
0.478882 0.325623 0.173645
0.615875 0.325775 0.173676
0.732849 0.326080 0.173859
0.819794 0.326569 0.174225
0.867676 0.327332 0.174896
0.024658 0.477997 0.172791
0.067078 0.478699 0.173462
0.173706 0.478943 0.173706
0.325623 0.478882 0.173645
0.478821 0.478821 0.173584
0.615692 0.478882 0.173615
0.732544 0.479065 0.173798
0.819214 0.479431 0.174164
0.866852 0.480103 0.174835
0.023956 0.615356 0.172821
0.066528 0.615936 0.173523
0.173767 0.616058 0.173767
0.325775 0.615875 0.173676
0.478882 0.615692 0.173615
0.615631 0.615631 0.173645
0.732300 0.615692 0.173828
0.818787 0.615936 0.174225
0.866150 0.616486 0.174866
0.023407 0.732727 0.173004
0.066162 0.733185 0.173676
0.173920 0.733185 0.173920
0.326080 0.732849 0.173859
0.479065 0.732544 0.173798
0.615692 0.732300 0.173828
0.732239 0.732239 0.174011
0.818451 0.732330 0.174377
0.865601 0.732727 0.175049
0.023041 0.820374 0.173370
0.065979 0.820587 0.174072
0.174316 0.820343 0.174316
0.326569 0.819794 0.174225
0.479431 0.819214 0.174164
0.615936 0.818787 0.174225
0.732330 0.818451 0.174377
0.818359 0.818359 0.174774
0.865265 0.818542 0.175446
0.022949 0.869049 0.174042
0.066071 0.868988 0.174713
0.174957 0.868469 0.174957
0.327332 0.867676 0.174896
0.480103 0.866852 0.174835
0.616486 0.866150 0.174866
0.732727 0.865601 0.175049
0.818542 0.865265 0.175446
0.865173 0.865173 0.176117
0.026001 0.026001 0.323029
0.067932 0.025970 0.323883
0.172852 0.025482 0.324310
0.324371 0.024689 0.324371
0.477936 0.023865 0.324432
0.615173 0.023163 0.324615
0.732422 0.022583 0.324921
0.819855 0.022247 0.325409
0.868256 0.022156 0.326172
0.025970 0.067932 0.323883
0.068024 0.068024 0.324738
0.173553 0.067719 0.325134
0.325195 0.067078 0.325195
0.478638 0.066437 0.325256
0.615753 0.065918 0.325409
0.732880 0.065521 0.325714
0.820038 0.065338 0.326202
0.868195 0.065430 0.326996
0.025482 0.172852 0.324310
0.067719 0.173553 0.325134
0.173798 0.173798 0.325531
0.325592 0.173737 0.325592
0.478882 0.173645 0.325623
0.615875 0.173676 0.325775
0.732849 0.173859 0.326080
0.819794 0.174225 0.326569
0.867676 0.174896 0.327332
0.024689 0.324371 0.324371
0.067078 0.325195 0.325195
0.173737 0.325592 0.325592
0.325623 0.325623 0.325623
0.478821 0.325684 0.325684
0.615692 0.325836 0.325836
0.732544 0.326111 0.326111
0.819214 0.326599 0.326599
0.866852 0.327393 0.327393
0.023865 0.477936 0.324432
0.066437 0.478638 0.325256
0.173645 0.478882 0.325623
0.325684 0.478821 0.325684
0.478760 0.478760 0.325714
0.615509 0.478821 0.325867
0.732208 0.479004 0.326172
0.818665 0.479370 0.326660
0.866058 0.480042 0.327423
0.023163 0.615173 0.324615
0.065918 0.615753 0.325409
0.173676 0.615875 0.325775
0.325836 0.615692 0.325836
0.478821 0.615509 0.325867
0.615448 0.615448 0.326019
0.731964 0.615509 0.326324
0.818207 0.615753 0.326813
0.865356 0.616302 0.327576
0.022583 0.732422 0.324921
0.065521 0.732880 0.325714
0.173859 0.732849 0.326080
0.326111 0.732544 0.326111
0.479004 0.732208 0.326172
0.615509 0.731964 0.326324
0.731873 0.731873 0.326599
0.817902 0.731995 0.327118
0.864777 0.732361 0.327881
0.022247 0.819855 0.325409
0.065338 0.820038 0.326202
0.174225 0.819794 0.326569
0.326599 0.819214 0.326599
0.479370 0.818665 0.326660
0.615753 0.818207 0.326813
0.731995 0.817902 0.327118
0.817810 0.817810 0.327606
0.864441 0.817963 0.328400
0.022156 0.868256 0.326172
0.065430 0.868195 0.326996
0.174896 0.867676 0.327332
0.327393 0.866852 0.327393
0.480042 0.866058 0.327423
0.616302 0.865356 0.327576
0.732361 0.864777 0.327881
0.817963 0.864441 0.328400
0.864349 0.864349 0.329163
0.025177 0.025177 0.477020
0.067261 0.025146 0.477722
0.172791 0.024658 0.477997
0.324432 0.023865 0.477936
0.477875 0.023041 0.477875
0.614990 0.022339 0.477936
0.732117 0.021790 0.478119
0.819275 0.021423 0.478516
0.867432 0.021332 0.479187
0.025146 0.067261 0.477722
0.067383 0.067383 0.478424
0.173462 0.067078 0.478699
0.325256 0.066437 0.478638
0.478577 0.065796 0.478577
0.615570 0.065277 0.478638
0.732544 0.064880 0.478821
0.819489 0.064728 0.479218
0.867371 0.064819 0.479858
0.024658 0.172791 0.477997
0.067078 0.173462 0.478699
0.173706 0.173706 0.478943
0.325623 0.173645 0.478882
0.478821 0.173584 0.478821
0.615692 0.173615 0.478882
0.732544 0.173798 0.479065
0.819214 0.174164 0.479431
0.866852 0.174835 0.480103
0.023865 0.324432 0.477936
0.066437 0.325256 0.478638
0.173645 0.325623 0.478882
0.325684 0.325684 0.478821
0.478760 0.325714 0.478760
0.615509 0.325867 0.478821
0.732208 0.326172 0.479004
0.818665 0.326660 0.479370
0.866058 0.327423 0.480042
0.023041 0.477875 0.477875
0.065796 0.478577 0.478577
0.173584 0.478821 0.478821
0.325714 0.478760 0.478760
0.478699 0.478699 0.478699
0.615326 0.478729 0.478729
0.731873 0.478912 0.478912
0.818115 0.479309 0.479309
0.865234 0.479980 0.479980
0.022339 0.614990 0.477936
0.065277 0.615570 0.478638
0.173615 0.615692 0.478882
0.325867 0.615509 0.478821
0.478729 0.615326 0.478729
0.615234 0.615234 0.478790
0.731628 0.615295 0.478973
0.817657 0.615570 0.479370
0.864532 0.616119 0.480042
0.021790 0.732117 0.478119
0.064880 0.732544 0.478821
0.173798 0.732544 0.479065
0.326172 0.732208 0.479004
0.478912 0.731873 0.478912
0.615295 0.731628 0.478973
0.731537 0.731537 0.479156
0.817352 0.731659 0.479553
0.863983 0.732025 0.480225
0.021423 0.819275 0.478516
0.064728 0.819489 0.479218
0.174164 0.819214 0.479431
0.326660 0.818665 0.479370
0.479309 0.818115 0.479309
0.615570 0.817657 0.479370
0.731659 0.817352 0.479553
0.817230 0.817230 0.479950
0.863647 0.817413 0.480621
0.021332 0.867432 0.479187
0.064819 0.867371 0.479858
0.174835 0.866852 0.480103
0.327423 0.866058 0.480042
0.479980 0.865234 0.479980
0.616119 0.864532 0.480042
0.732025 0.863983 0.480225
0.817413 0.863647 0.480621
0.863556 0.863556 0.481293
0.024506 0.024506 0.614594
0.066742 0.024445 0.615204
0.172821 0.023956 0.615356
0.324615 0.023163 0.615173
0.477936 0.022339 0.614990
0.614929 0.021637 0.614929
0.731903 0.021088 0.614990
0.818848 0.020721 0.615265
0.866730 0.020660 0.615814
0.024445 0.066742 0.615204
0.066864 0.066864 0.615784
0.173523 0.066528 0.615936
0.325409 0.065918 0.615753
0.478638 0.065277 0.615570
0.615509 0.064758 0.615509
0.732330 0.064362 0.615570
0.819031 0.064209 0.615845
0.866669 0.064301 0.616394
0.023956 0.172821 0.615356
0.066528 0.173523 0.615936
0.173767 0.173767 0.616058
0.325775 0.173676 0.615875
0.478882 0.173615 0.615692
0.615631 0.173645 0.615631
0.732300 0.173828 0.615692
0.818787 0.174225 0.615936
0.866150 0.174866 0.616486
0.023163 0.324615 0.615173
0.065918 0.325409 0.615753
0.173676 0.325775 0.615875
0.325836 0.325836 0.615692
0.478821 0.325867 0.615509
0.615448 0.326019 0.615448
0.731964 0.326324 0.615509
0.818207 0.326813 0.615753
0.865356 0.327576 0.616302
0.022339 0.477936 0.614990
0.065277 0.478638 0.615570
0.173615 0.478882 0.615692
0.325867 0.478821 0.615509
0.478729 0.478729 0.615326
0.615234 0.478790 0.615234
0.731628 0.478973 0.615295
0.817657 0.479370 0.615570
0.864532 0.480042 0.616119
0.021637 0.614929 0.614929
0.064758 0.615509 0.615509
0.173645 0.615631 0.615631
0.326019 0.615448 0.615448
0.478790 0.615234 0.615234
0.615173 0.615173 0.615173
0.731415 0.615234 0.615234
0.817200 0.615509 0.615509
0.863831 0.616028 0.616028
0.021088 0.731903 0.614990
0.064362 0.732330 0.615570
0.173828 0.732300 0.615692
0.326324 0.731964 0.615509
0.478973 0.731628 0.615295
0.615234 0.731415 0.615234
0.731293 0.731293 0.615295
0.816895 0.731415 0.615570
0.863281 0.731781 0.616089
0.020721 0.818848 0.615265
0.064209 0.819031 0.615845
0.174225 0.818787 0.615936
0.326813 0.818207 0.615753
0.479370 0.817657 0.615570
0.615509 0.817200 0.615509
0.731415 0.816895 0.615570
0.816772 0.816772 0.615845
0.862946 0.816956 0.616364
0.020660 0.866730 0.615814
0.064301 0.866669 0.616394
0.174866 0.866150 0.616486
0.327576 0.865356 0.616302
0.480042 0.864532 0.616119
0.616028 0.863831 0.616028
0.731781 0.863281 0.616089
0.816956 0.862946 0.616364
0.862885 0.862885 0.616913
0.023926 0.023926 0.732269
0.066345 0.023895 0.732727
0.173004 0.023407 0.732727
0.324921 0.022583 0.732422
0.478119 0.021790 0.732117
0.614990 0.021088 0.731903
0.731842 0.020538 0.731842
0.818542 0.020172 0.731964
0.866180 0.020111 0.732361
0.023895 0.066345 0.732727
0.066467 0.066467 0.733185
0.173676 0.066162 0.733185
0.325714 0.065521 0.732880
0.478821 0.064880 0.732544
0.615570 0.064362 0.732330
0.732269 0.063995 0.732269
0.818726 0.063843 0.732391
0.866119 0.063934 0.732788
0.023407 0.173004 0.732727
0.066162 0.173676 0.733185
0.173920 0.173920 0.733185
0.326080 0.173859 0.732849
0.479065 0.173798 0.732544
0.615692 0.173828 0.732300
0.732239 0.174011 0.732239
0.818451 0.174377 0.732330
0.865601 0.175049 0.732727
0.022583 0.324921 0.732422
0.065521 0.325714 0.732880
0.173859 0.326080 0.732849
0.326111 0.326111 0.732544
0.479004 0.326172 0.732208
0.615509 0.326324 0.731964
0.731873 0.326599 0.731873
0.817902 0.327118 0.731995
0.864777 0.327881 0.732361
0.021790 0.478119 0.732117
0.064880 0.478821 0.732544
0.173798 0.479065 0.732544
0.326172 0.479004 0.732208
0.478912 0.478912 0.731873
0.615295 0.478973 0.731628
0.731537 0.479156 0.731537
0.817352 0.479553 0.731659
0.863983 0.480225 0.732025
0.021088 0.614990 0.731903
0.064362 0.615570 0.732330
0.173828 0.615692 0.732300
0.326324 0.615509 0.731964
0.478973 0.615295 0.731628
0.615234 0.615234 0.731415
0.731293 0.615295 0.731293
0.816895 0.615570 0.731415
0.863281 0.616089 0.731781
0.020538 0.731842 0.731842
0.063995 0.732269 0.732269
0.174011 0.732239 0.732239
0.326599 0.731873 0.731873
0.479156 0.731537 0.731537
0.615295 0.731293 0.731293
0.731201 0.731201 0.731201
0.816589 0.731293 0.731293
0.862732 0.731689 0.731689
0.020172 0.818542 0.731964
0.063843 0.818726 0.732391
0.174377 0.818451 0.732330
0.327118 0.817902 0.731995
0.479553 0.817352 0.731659
0.615570 0.816895 0.731415
0.731293 0.816589 0.731293
0.816467 0.816467 0.731415
0.862396 0.816620 0.731781
0.020111 0.866180 0.732361
0.063934 0.866119 0.732788
0.175049 0.865601 0.732727
0.327881 0.864777 0.732361
0.480225 0.863983 0.732025
0.616089 0.863281 0.731781
0.731689 0.862732 0.731689
0.816620 0.862396 0.731781
0.862335 0.862335 0.732178
0.023560 0.023560 0.820404
0.066162 0.023529 0.820618
0.173370 0.023041 0.820374
0.325409 0.022247 0.819855
0.478516 0.021423 0.819275
0.615265 0.020721 0.818848
0.731964 0.020172 0.818542
0.818451 0.019836 0.818451
0.865845 0.019745 0.818604
0.023529 0.066162 0.820618
0.066284 0.066284 0.820831
0.174072 0.065979 0.820587
0.326202 0.065338 0.820038
0.479218 0.064728 0.819489
0.615845 0.064209 0.819031
0.732391 0.063843 0.818726
0.818634 0.063690 0.818634
0.865784 0.063782 0.818817
0.023041 0.173370 0.820374
0.065979 0.174072 0.820587
0.174316 0.174316 0.820343
0.326569 0.174225 0.819794
0.479431 0.174164 0.819214
0.615936 0.174225 0.818787
0.732330 0.174377 0.818451
0.818359 0.174774 0.818359
0.865265 0.175446 0.818542
0.022247 0.325409 0.819855
0.065338 0.326202 0.820038
0.174225 0.326569 0.819794
0.326599 0.326599 0.819214
0.479370 0.326660 0.818665
0.615753 0.326813 0.818207
0.731995 0.327118 0.817902
0.817810 0.327606 0.817810
0.864441 0.328400 0.817963
0.021423 0.478516 0.819275
0.064728 0.479218 0.819489
0.174164 0.479431 0.819214
0.326660 0.479370 0.818665
0.479309 0.479309 0.818115
0.615570 0.479370 0.817657
0.731659 0.479553 0.817352
0.817230 0.479950 0.817230
0.863647 0.480621 0.817413
0.020721 0.615265 0.818848
0.064209 0.615845 0.819031
0.174225 0.615936 0.818787
0.326813 0.615753 0.818207
0.479370 0.615570 0.817657
0.615509 0.615509 0.817200
0.731415 0.615570 0.816895
0.816772 0.615845 0.816772
0.862946 0.616364 0.816956
0.020172 0.731964 0.818542
0.063843 0.732391 0.818726
0.174377 0.732330 0.818451
0.327118 0.731995 0.817902
0.479553 0.731659 0.817352
0.615570 0.731415 0.816895
0.731293 0.731293 0.816589
0.816467 0.731415 0.816467
0.862396 0.731781 0.816620
0.019836 0.818451 0.818451
0.063690 0.818634 0.818634
0.174774 0.818359 0.818359
0.327606 0.817810 0.817810
0.479950 0.817230 0.817230
0.615845 0.816772 0.816772
0.731415 0.816467 0.816467
0.816376 0.816376 0.816376
0.862061 0.816528 0.816528
0.019745 0.865845 0.818604
0.063782 0.865784 0.818817
0.175446 0.865265 0.818542
0.328400 0.864441 0.817963
0.480621 0.863647 0.817413
0.616364 0.862946 0.816956
0.731781 0.862396 0.816620
0.816528 0.862061 0.816528
0.862000 0.862000 0.816681
0.023499 0.023499 0.869568
0.066254 0.023438 0.869537
0.174042 0.022949 0.869049
0.326172 0.022156 0.868256
0.479187 0.021332 0.867432
0.615814 0.020660 0.866730
0.732361 0.020111 0.866180
0.818604 0.019745 0.865845
0.865753 0.019684 0.865753
0.023438 0.066254 0.869537
0.066376 0.066376 0.869507
0.174713 0.066071 0.868988
0.326996 0.065430 0.868195
0.479858 0.064819 0.867371
0.616394 0.064301 0.866669
0.732788 0.063934 0.866119
0.818817 0.063782 0.865784
0.865692 0.063904 0.865692
0.022949 0.174042 0.869049
0.066071 0.174713 0.868988
0.174957 0.174957 0.868469
0.327332 0.174896 0.867676
0.480103 0.174835 0.866852
0.616486 0.174866 0.866150
0.732727 0.175049 0.865601
0.818542 0.175446 0.865265
0.865173 0.176117 0.865173
0.022156 0.326172 0.868256
0.065430 0.326996 0.868195
0.174896 0.327332 0.867676
0.327393 0.327393 0.866852
0.480042 0.327423 0.866058
0.616302 0.327576 0.865356
0.732361 0.327881 0.864777
0.817963 0.328400 0.864441
0.864349 0.329163 0.864349
0.021332 0.479187 0.867432
0.064819 0.479858 0.867371
0.174835 0.480103 0.866852
0.327423 0.480042 0.866058
0.479980 0.479980 0.865234
0.616119 0.480042 0.864532
0.732025 0.480225 0.863983
0.817413 0.480621 0.863647
0.863556 0.481293 0.863556
0.020660 0.615814 0.866730
0.064301 0.616394 0.866669
0.174866 0.616486 0.866150
0.327576 0.616302 0.865356
0.480042 0.616119 0.864532
0.616028 0.616028 0.863831
0.731781 0.616089 0.863281
0.816956 0.616364 0.862946
0.862885 0.616913 0.862885
0.020111 0.732361 0.866180
0.063934 0.732788 0.866119
0.175049 0.732727 0.865601
0.327881 0.732361 0.864777
0.480225 0.732025 0.863983
0.616089 0.731781 0.863281
0.731689 0.731689 0.862732
0.816620 0.731781 0.862396
0.862335 0.732178 0.862335
0.019745 0.818604 0.865845
0.063782 0.818817 0.865784
0.175446 0.818542 0.865265
0.328400 0.817963 0.864441
0.480621 0.817413 0.863647
0.616364 0.816956 0.862946
0.731781 0.816620 0.862396
0.816528 0.816528 0.862061
0.862000 0.816681 0.862000
0.019684 0.865753 0.865753
0.063904 0.865692 0.865692
0.176117 0.865173 0.865173
0.329163 0.864349 0.864349
0.481293 0.863556 0.863556
0.616913 0.862885 0.862885
0.732178 0.862335 0.862335
0.816681 0.862000 0.862000
0.861938 0.861938 0.861938
