Kodak Vision 200T (5274) - Only contrast.cube
# Created by Benjamin (IWLTBAP) : http://luts.iwltbap.com
# Copyright: (C) Copyright 2010-2017 Triune Films and IWLTBAP SAS
# Cannot be resold, shared or otherwise redistributed
TITLE "Film Print Emulation LUTs Pack (Rec.709, sRGB, DCI-P3)"
LUT_3D_SIZE 9
0.000000 0.000000 0.000000
0.056152 0.000000 0.000000
0.173248 0.000000 0.000000
0.315552 0.000000 0.000000
0.445709 0.000000 0.000000
0.561401 0.000000 0.000000
0.678009 0.000000 0.000000
0.803436 0.000000 0.000000
0.944061 0.000000 0.000000
0.000000 0.056152 0.000000
0.056396 0.056396 0.000000
0.173828 0.056183 0.000000
0.316132 0.055847 0.000000
0.446136 0.055573 0.000000
0.561798 0.055389 0.000000
0.678436 0.055206 0.000000
0.803955 0.054993 0.000000
0.944641 0.054657 0.000000
0.000000 0.173248 0.000000
0.056183 0.173828 0.000000
0.173981 0.173981 0.000000
0.316284 0.173950 0.000000
0.446167 0.174042 0.000000
0.561768 0.174194 0.000000
0.678436 0.174377 0.000000
0.804047 0.174469 0.000000
0.944824 0.174469 0.000000
0.000000 0.315552 0.000000
0.055847 0.316132 0.000000
0.173950 0.316284 0.000000
0.316254 0.316254 0.000000
0.446014 0.316345 0.000000
0.561554 0.316498 0.000000
0.678284 0.316650 0.000000
0.803986 0.316742 0.000000
0.944855 0.316742 0.000000
0.000000 0.445709 0.000000
0.055573 0.446136 0.000000
0.174042 0.446167 0.000000
0.316345 0.446014 0.000000
0.445953 0.445953 0.000000
0.561462 0.445984 0.000000
0.678253 0.446014 0.000000
0.804016 0.445984 0.000000
0.944977 0.445862 0.000000
0.000000 0.561401 0.000000
0.055389 0.561798 0.000000
0.174194 0.561768 0.000000
0.316498 0.561554 0.000000
0.445984 0.561462 0.000000
0.561462 0.561462 0.000000
0.678284 0.561432 0.000000
0.804138 0.561371 0.000000
0.945190 0.561157 0.000000
0.000000 0.678009 0.000000
0.055206 0.678436 0.000000
0.174377 0.678436 0.000000
0.316650 0.678284 0.000000
0.446014 0.678253 0.000000
0.561432 0.678284 0.000000
0.678314 0.678314 0.000000
0.804260 0.678284 0.000000
0.945374 0.678131 0.000000
0.000000 0.803436 0.000000
0.054993 0.803955 0.000000
0.174469 0.804047 0.000000
0.316742 0.803986 0.000000
0.445984 0.804016 0.000000
0.561371 0.804138 0.000000
0.678284 0.804260 0.000000
0.804291 0.804291 0.000000
0.945526 0.804260 0.000000
0.000000 0.944061 0.000000
0.054657 0.944641 0.000000
0.174469 0.944824 0.000000
0.316742 0.944855 0.000000
0.445862 0.944977 0.000000
0.561157 0.945190 0.000000
0.678131 0.945374 0.000000
0.804260 0.945526 0.000000
0.945679 0.945496 0.000000
0.000000 0.000000 0.056152
0.056396 0.000000 0.056396
0.173828 0.000000 0.056183
0.316132 0.000000 0.055847
0.446136 0.000000 0.055573
0.561798 0.000000 0.055389
0.678436 0.000000 0.055206
0.803955 0.000000 0.054993
0.944641 0.000000 0.054657
0.000000 0.056396 0.056396
0.056610 0.056610 0.056610
0.174377 0.056427 0.056427
0.316681 0.056061 0.056061
0.446594 0.055786 0.055786
0.562164 0.055603 0.055603
0.678864 0.055450 0.055450
0.804443 0.055206 0.055206
0.945251 0.054871 0.054871
0.000000 0.173828 0.056183
0.056427 0.174377 0.056427
0.174530 0.174530 0.056213
0.316833 0.174530 0.055847
0.446594 0.174591 0.055603
0.562134 0.174774 0.055420
0.678864 0.174927 0.055237
0.804535 0.175018 0.055023
0.945404 0.175018 0.054688
0.000000 0.316132 0.055847
0.056061 0.316681 0.056061
0.174530 0.316833 0.055847
0.316803 0.316803 0.055511
0.446442 0.316895 0.055237
0.561951 0.317047 0.055084
0.678711 0.317200 0.054901
0.804474 0.317291 0.054657
0.945435 0.317291 0.054352
0.000000 0.446136 0.055573
0.055786 0.446594 0.055786
0.174591 0.446594 0.055603
0.316895 0.446442 0.055237
0.446381 0.446381 0.054962
0.561829 0.446411 0.054810
0.678650 0.446442 0.054657
0.804504 0.446381 0.054413
0.945557 0.446259 0.054108
0.000000 0.561798 0.055389
0.055603 0.562164 0.055603
0.174774 0.562134 0.055420
0.317047 0.561951 0.055084
0.446411 0.561829 0.054810
0.561829 0.561829 0.054657
0.678680 0.561798 0.054504
0.804626 0.561707 0.054260
0.945770 0.561523 0.053955
0.000000 0.678436 0.055206
0.055450 0.678864 0.055450
0.174927 0.678864 0.055237
0.317200 0.678711 0.054901
0.446442 0.678650 0.054657
0.561798 0.678680 0.054504
0.678711 0.678711 0.054321
0.804749 0.678680 0.054108
0.945953 0.678558 0.053772
0.000000 0.803955 0.054993
0.055206 0.804443 0.055206
0.175018 0.804535 0.055023
0.317291 0.804474 0.054657
0.446381 0.804504 0.054413
0.561707 0.804626 0.054260
0.678680 0.804749 0.054108
0.804779 0.804779 0.053894
0.946075 0.804749 0.053558
0.000000 0.944641 0.054657
0.054871 0.945251 0.054871
0.175018 0.945404 0.054688
0.317291 0.945435 0.054352
0.446259 0.945557 0.054108
0.561523 0.945770 0.053955
0.678558 0.945953 0.053772
0.804749 0.946075 0.053558
0.946106 0.946106 0.053253
0.000000 0.000000 0.173248
0.056183 0.000000 0.173828
0.173981 0.000000 0.173981
0.316284 0.000000 0.173950
0.446167 0.000000 0.174042
0.561768 0.000000 0.174194
0.678436 0.000000 0.174377
0.804047 0.000000 0.174469
0.944824 0.000000 0.174469
0.000000 0.056183 0.173828
0.056427 0.056427 0.174377
0.174530 0.056213 0.174530
0.316833 0.055847 0.174530
0.446594 0.055603 0.174591
0.562134 0.055420 0.174774
0.678864 0.055237 0.174927
0.804535 0.055023 0.175018
0.945404 0.054688 0.175018
0.000000 0.173981 0.173981
0.056213 0.174530 0.174530
0.174683 0.174683 0.174683
0.316986 0.174683 0.174683
0.446594 0.174744 0.174744
0.562103 0.174896 0.174896
0.678864 0.175079 0.175079
0.804626 0.175171 0.175171
0.945587 0.175171 0.175171
0.000000 0.316284 0.173950
0.055847 0.316833 0.174530
0.174683 0.316986 0.174683
0.316956 0.316956 0.174652
0.446442 0.317017 0.174713
0.561890 0.317169 0.174896
0.678711 0.317322 0.175049
0.804565 0.317413 0.175140
0.945618 0.317413 0.175140
0.000000 0.446167 0.174042
0.055603 0.446594 0.174591
0.174744 0.446594 0.174744
0.317017 0.446442 0.174713
0.446381 0.446381 0.174805
0.561798 0.446411 0.174957
0.678650 0.446442 0.175140
0.804596 0.446381 0.175232
0.945709 0.446228 0.175232
0.000000 0.561768 0.174194
0.055420 0.562134 0.174774
0.174896 0.562103 0.174896
0.317169 0.561890 0.174896
0.446411 0.561798 0.174957
0.561768 0.561768 0.175140
0.678680 0.561737 0.175293
0.804718 0.561676 0.175385
0.945923 0.561462 0.175385
0.000000 0.678436 0.174377
0.055237 0.678864 0.174927
0.175079 0.678864 0.175079
0.317322 0.678711 0.175049
0.446442 0.678650 0.175140
0.561737 0.678680 0.175293
0.678711 0.678711 0.175446
0.804810 0.678680 0.175568
0.946106 0.678528 0.175537
0.000000 0.804047 0.174469
0.055023 0.804535 0.175018
0.175171 0.804626 0.175171
0.317413 0.804565 0.175140
0.446381 0.804596 0.175232
0.561676 0.804718 0.175385
0.678680 0.804810 0.175568
0.804871 0.804871 0.175659
0.946259 0.804810 0.175629
0.000000 0.944824 0.174469
0.054688 0.945404 0.175018
0.175171 0.945587 0.175171
0.317413 0.945618 0.175140
0.446228 0.945709 0.175232
0.561462 0.945923 0.175385
0.678528 0.946106 0.175537
0.804810 0.946259 0.175629
0.946259 0.946259 0.175629
0.000000 0.000000 0.315552
0.055847 0.000000 0.316132
0.173950 0.000000 0.316284
0.316254 0.000000 0.316254
0.446014 0.000000 0.316345
0.561554 0.000000 0.316498
0.678284 0.000000 0.316650
0.803986 0.000000 0.316742
0.944855 0.000000 0.316742
0.000000 0.055847 0.316132
0.056061 0.056061 0.316681
0.174530 0.055847 0.316833
0.316803 0.055511 0.316803
0.446442 0.055237 0.316895
0.561951 0.055084 0.317047
0.678711 0.054901 0.317200
0.804474 0.054657 0.317291
0.945435 0.054352 0.317291
0.000000 0.173950 0.316284
0.055847 0.174530 0.316833
0.174683 0.174683 0.316986
0.316956 0.174652 0.316956
0.446442 0.174713 0.317017
0.561890 0.174896 0.317169
0.678711 0.175049 0.317322
0.804565 0.175140 0.317413
0.945618 0.175140 0.317413
0.000000 0.316254 0.316254
0.055511 0.316803 0.316803
0.174652 0.316956 0.316956
0.316925 0.316925 0.316925
0.446289 0.316986 0.316986
0.561707 0.317169 0.317169
0.678558 0.317322 0.317322
0.804504 0.317383 0.317383
0.945618 0.317383 0.317383
0.000000 0.446014 0.316345
0.055237 0.446442 0.316895
0.174713 0.446442 0.317017
0.316986 0.446289 0.316986
0.446228 0.446228 0.317078
0.561584 0.446259 0.317230
0.678497 0.446289 0.317383
0.804535 0.446228 0.317474
0.945740 0.446075 0.317444
0.000000 0.561554 0.316498
0.055084 0.561951 0.317047
0.174896 0.561890 0.317169
0.317169 0.561707 0.317169
0.446259 0.561584 0.317230
0.561584 0.561584 0.317383
0.678558 0.561554 0.317535
0.804657 0.561462 0.317627
0.945953 0.561279 0.317596
0.000000 0.678284 0.316650
0.054901 0.678711 0.317200
0.175049 0.678711 0.317322
0.317322 0.678558 0.317322
0.446289 0.678497 0.317383
0.561554 0.678558 0.317535
0.678558 0.678558 0.317688
0.804749 0.678528 0.317749
0.946136 0.678406 0.317749
0.000000 0.803986 0.316742
0.054657 0.804474 0.317291
0.175140 0.804565 0.317413
0.317383 0.804504 0.317383
0.446228 0.804535 0.317474
0.561462 0.804657 0.317627
0.678528 0.804749 0.317749
0.804810 0.804810 0.317841
0.946259 0.804749 0.317810
0.000000 0.944855 0.316742
0.054352 0.945435 0.317291
0.175140 0.945618 0.317413
0.317383 0.945618 0.317383
0.446075 0.945740 0.317444
0.561279 0.945953 0.317596
0.678406 0.946136 0.317749
0.804749 0.946259 0.317810
0.946289 0.946289 0.317780
0.000000 0.000000 0.445709
0.055573 0.000000 0.446136
0.174042 0.000000 0.446167
0.316345 0.000000 0.446014
0.445953 0.000000 0.445953
0.561462 0.000000 0.445984
0.678253 0.000000 0.446014
0.804016 0.000000 0.445984
0.944977 0.000000 0.445862
0.000000 0.055573 0.446136
0.055786 0.055786 0.446594
0.174591 0.055603 0.446594
0.316895 0.055237 0.446442
0.446381 0.054962 0.446381
0.561829 0.054810 0.446411
0.678650 0.054657 0.446442
0.804504 0.054413 0.446381
0.945557 0.054108 0.446259
0.000000 0.174042 0.446167
0.055603 0.174591 0.446594
0.174744 0.174744 0.446594
0.317017 0.174713 0.446442
0.446381 0.174805 0.446381
0.561798 0.174957 0.446411
0.678650 0.175140 0.446442
0.804596 0.175232 0.446381
0.945709 0.175232 0.446228
0.000000 0.316345 0.446014
0.055237 0.316895 0.446442
0.174713 0.317017 0.446442
0.316986 0.316986 0.446289
0.446228 0.317078 0.446228
0.561584 0.317230 0.446259
0.678497 0.317383 0.446289
0.804535 0.317474 0.446228
0.945740 0.317444 0.446075
0.000000 0.445953 0.445953
0.054962 0.446381 0.446381
0.174805 0.446381 0.446381
0.317078 0.446228 0.446228
0.446167 0.446167 0.446167
0.561493 0.446198 0.446198
0.678467 0.446198 0.446198
0.804565 0.446167 0.446167
0.945862 0.446014 0.446014
0.000000 0.561462 0.445984
0.054810 0.561829 0.446411
0.174957 0.561798 0.446411
0.317230 0.561584 0.446259
0.446198 0.561493 0.446198
0.561462 0.561462 0.446228
0.678497 0.561462 0.446228
0.804688 0.561371 0.446198
0.946045 0.561157 0.446045
0.000000 0.678253 0.446014
0.054657 0.678650 0.446442
0.175140 0.678650 0.446442
0.317383 0.678497 0.446289
0.446198 0.678467 0.446198
0.561462 0.678497 0.446228
0.678528 0.678528 0.446259
0.804810 0.678497 0.446198
0.946259 0.678345 0.446045
0.000000 0.804016 0.445984
0.054413 0.804504 0.446381
0.175232 0.804596 0.446381
0.317474 0.804535 0.446228
0.446167 0.804565 0.446167
0.561371 0.804688 0.446198
0.678497 0.804810 0.446198
0.804840 0.804840 0.446167
0.946381 0.804779 0.446014
0.000000 0.944977 0.445862
0.054108 0.945557 0.446259
0.175232 0.945709 0.446228
0.317444 0.945740 0.446075
0.446014 0.945862 0.446014
0.561157 0.946045 0.446045
0.678345 0.946259 0.446045
0.804779 0.946381 0.446014
0.946411 0.946411 0.445862
0.000000 0.000000 0.561401
0.055389 0.000000 0.561798
0.174194 0.000000 0.561768
0.316498 0.000000 0.561554
0.445984 0.000000 0.561462
0.561462 0.000000 0.561462
0.678284 0.000000 0.561432
0.804138 0.000000 0.561371
0.945190 0.000000 0.561157
0.000000 0.055389 0.561798
0.055603 0.055603 0.562164
0.174774 0.055420 0.562134
0.317047 0.055084 0.561951
0.446411 0.054810 0.561829
0.561829 0.054657 0.561829
0.678680 0.054504 0.561798
0.804626 0.054260 0.561707
0.945770 0.053955 0.561523
0.000000 0.174194 0.561768
0.055420 0.174774 0.562134
0.174896 0.174896 0.562103
0.317169 0.174896 0.561890
0.446411 0.174957 0.561798
0.561768 0.175140 0.561768
0.678680 0.175293 0.561737
0.804718 0.175385 0.561676
0.945923 0.175385 0.561462
0.000000 0.316498 0.561554
0.055084 0.317047 0.561951
0.174896 0.317169 0.561890
0.317169 0.317169 0.561707
0.446259 0.317230 0.561584
0.561584 0.317383 0.561584
0.678558 0.317535 0.561554
0.804657 0.317627 0.561462
0.945953 0.317596 0.561279
0.000000 0.445984 0.561462
0.054810 0.446411 0.561829
0.174957 0.446411 0.561798
0.317230 0.446259 0.561584
0.446198 0.446198 0.561493
0.561462 0.446228 0.561462
0.678497 0.446228 0.561462
0.804688 0.446198 0.561371
0.946045 0.446045 0.561157
0.000000 0.561462 0.561462
0.054657 0.561829 0.561829
0.175140 0.561768 0.561768
0.317383 0.561584 0.561584
0.446228 0.561462 0.561462
0.561462 0.561462 0.561462
0.678528 0.561432 0.561432
0.804810 0.561340 0.561340
0.946259 0.561157 0.561157
0.000000 0.678284 0.561432
0.054504 0.678680 0.561798
0.175293 0.678680 0.561737
0.317535 0.678558 0.561554
0.446228 0.678497 0.561462
0.561432 0.678528 0.561432
0.678558 0.678558 0.561401
0.804932 0.678528 0.561340
0.946472 0.678375 0.561127
0.000000 0.804138 0.561371
0.054260 0.804626 0.561707
0.175385 0.804718 0.561676
0.317627 0.804657 0.561462
0.446198 0.804688 0.561371
0.561340 0.804810 0.561340
0.678528 0.804932 0.561340
0.804962 0.804962 0.561249
0.946594 0.804932 0.561035
0.000000 0.945190 0.561157
0.053955 0.945770 0.561523
0.175385 0.945923 0.561462
0.317596 0.945953 0.561279
0.446045 0.946045 0.561157
0.561157 0.946259 0.561157
0.678375 0.946472 0.561127
0.804932 0.946594 0.561035
0.946625 0.946625 0.560852
0.000000 0.000000 0.678009
0.055206 0.000000 0.678436
0.174377 0.000000 0.678436
0.316650 0.000000 0.678284
0.446014 0.000000 0.678253
0.561432 0.000000 0.678284
0.678314 0.000000 0.678314
0.804260 0.000000 0.678284
0.945374 0.000000 0.678131
0.000000 0.055206 0.678436
0.055450 0.055450 0.678864
0.174927 0.055237 0.678864
0.317200 0.054901 0.678711
0.446442 0.054657 0.678650
0.561798 0.054504 0.678680
0.678711 0.054321 0.678711
0.804749 0.054108 0.678680
0.945953 0.053772 0.678558
0.000000 0.174377 0.678436
0.055237 0.174927 0.678864
0.175079 0.175079 0.678864
0.317322 0.175049 0.678711
0.446442 0.175140 0.678650
0.561737 0.175293 0.678680
0.678711 0.175446 0.678711
0.804810 0.175568 0.678680
0.946106 0.175537 0.678528
0.000000 0.316650 0.678284
0.054901 0.317200 0.678711
0.175049 0.317322 0.678711
0.317322 0.317322 0.678558
0.446289 0.317383 0.678497
0.561554 0.317535 0.678558
0.678558 0.317688 0.678558
0.804749 0.317749 0.678528
0.946136 0.317749 0.678406
0.000000 0.446014 0.678253
0.054657 0.446442 0.678650
0.175140 0.446442 0.678650
0.317383 0.446289 0.678497
0.446198 0.446198 0.678467
0.561462 0.446228 0.678497
0.678528 0.446259 0.678528
0.804810 0.446198 0.678497
0.946259 0.446045 0.678345
0.000000 0.561432 0.678284
0.054504 0.561798 0.678680
0.175293 0.561737 0.678680
0.317535 0.561554 0.678558
0.446228 0.561462 0.678497
0.561432 0.561432 0.678528
0.678558 0.561401 0.678558
0.804932 0.561340 0.678528
0.946472 0.561127 0.678375
0.000000 0.678314 0.678314
0.054321 0.678711 0.678711
0.175446 0.678711 0.678711
0.317688 0.678558 0.678558
0.446259 0.678528 0.678528
0.561401 0.678558 0.678558
0.678589 0.678589 0.678589
0.805023 0.678558 0.678558
0.946655 0.678406 0.678406
0.000000 0.804260 0.678284
0.054108 0.804749 0.678680
0.175568 0.804810 0.678680
0.317749 0.804749 0.678528
0.446198 0.804810 0.678497
0.561340 0.804932 0.678528
0.678558 0.805023 0.678558
0.805084 0.805084 0.678497
0.946777 0.805023 0.678375
0.000000 0.945374 0.678131
0.053772 0.945953 0.678558
0.175537 0.946106 0.678528
0.317749 0.946136 0.678406
0.446045 0.946259 0.678345
0.561127 0.946472 0.678375
0.678406 0.946655 0.678406
0.805023 0.946777 0.678375
0.946808 0.946808 0.678223
0.000000 0.000000 0.803436
0.054993 0.000000 0.803955
0.174469 0.000000 0.804047
0.316742 0.000000 0.803986
0.445984 0.000000 0.804016
0.561371 0.000000 0.804138
0.678284 0.000000 0.804260
0.804291 0.000000 0.804291
0.945526 0.000000 0.804260
0.000000 0.054993 0.803955
0.055206 0.055206 0.804443
0.175018 0.055023 0.804535
0.317291 0.054657 0.804474
0.446381 0.054413 0.804504
0.561707 0.054260 0.804626
0.678680 0.054108 0.804749
0.804779 0.053894 0.804779
0.946075 0.053558 0.804749
0.000000 0.174469 0.804047
0.055023 0.175018 0.804535
0.175171 0.175171 0.804626
0.317413 0.175140 0.804565
0.446381 0.175232 0.804596
0.561676 0.175385 0.804718
0.678680 0.175568 0.804810
0.804871 0.175659 0.804871
0.946259 0.175629 0.804810
0.000000 0.316742 0.803986
0.054657 0.317291 0.804474
0.175140 0.317413 0.804565
0.317383 0.317383 0.804504
0.446228 0.317474 0.804535
0.561462 0.317627 0.804657
0.678528 0.317749 0.804749
0.804810 0.317841 0.804810
0.946259 0.317810 0.804749
0.000000 0.445984 0.804016
0.054413 0.446381 0.804504
0.175232 0.446381 0.804596
0.317474 0.446228 0.804535
0.446167 0.446167 0.804565
0.561371 0.446198 0.804688
0.678497 0.446198 0.804810
0.804840 0.446167 0.804840
0.946381 0.446014 0.804779
0.000000 0.561371 0.804138
0.054260 0.561707 0.804626
0.175385 0.561676 0.804718
0.317627 0.561462 0.804657
0.446198 0.561371 0.804688
0.561340 0.561340 0.804810
0.678528 0.561340 0.804932
0.804962 0.561249 0.804962
0.946594 0.561035 0.804932
0.000000 0.678284 0.804260
0.054108 0.678680 0.804749
0.175568 0.678680 0.804810
0.317749 0.678528 0.804749
0.446198 0.678497 0.804810
0.561340 0.678528 0.804932
0.678558 0.678558 0.805023
0.805084 0.678497 0.805084
0.946777 0.678375 0.805023
0.000000 0.804291 0.804291
0.053894 0.804779 0.804779
0.175659 0.804871 0.804871
0.317841 0.804810 0.804810
0.446167 0.804840 0.804840
0.561249 0.804962 0.804962
0.678497 0.805084 0.805084
0.805145 0.805145 0.805145
0.946899 0.805084 0.805084
0.000000 0.945526 0.804260
0.053558 0.946075 0.804749
0.175629 0.946259 0.804810
0.317810 0.946259 0.804749
0.446014 0.946381 0.804779
0.561035 0.946594 0.804932
0.678375 0.946777 0.805023
0.805084 0.946899 0.805084
0.946930 0.946930 0.805023
0.000000 0.000000 0.943970
0.054657 0.000000 0.944641
0.174469 0.000000 0.944824
0.316742 0.000000 0.944855
0.445862 0.000000 0.944977
0.561157 0.000000 0.945190
0.678131 0.000000 0.945374
0.804260 0.000000 0.945526
0.945557 0.000000 0.945557
0.000000 0.054657 0.944641
0.054871 0.054871 0.945251
0.175018 0.054688 0.945404
0.317291 0.054352 0.945435
0.446259 0.054108 0.945557
0.561523 0.053955 0.945770
0.678558 0.053772 0.945953
0.804749 0.053558 0.946075
0.946106 0.053253 0.946106
0.000000 0.174469 0.944824
0.054688 0.175018 0.945404
0.175171 0.175171 0.945587
0.317413 0.175140 0.945618
0.446228 0.175232 0.945709
0.561462 0.175385 0.945923
0.678528 0.175537 0.946106
0.804810 0.175629 0.946259
0.946259 0.175629 0.946259
0.000000 0.316742 0.944855
0.054352 0.317291 0.945435
0.175140 0.317413 0.945618
0.317383 0.317383 0.945618
0.446075 0.317444 0.945740
0.561279 0.317596 0.945953
0.678406 0.317749 0.946136
0.804749 0.317810 0.946259
0.946289 0.317780 0.946289
0.000000 0.445862 0.944977
0.054108 0.446259 0.945557
0.175232 0.446228 0.945709
0.317444 0.446075 0.945740
0.446014 0.446014 0.945862
0.561157 0.446045 0.946045
0.678345 0.446045 0.946259
0.804779 0.446014 0.946381
0.946411 0.445862 0.946411
0.000000 0.561157 0.945190
0.053955 0.561523 0.945770
0.175385 0.561462 0.945923
0.317596 0.561279 0.945953
0.446045 0.561157 0.946045
0.561157 0.561157 0.946259
0.678375 0.561127 0.946472
0.804932 0.561035 0.946594
0.946625 0.560852 0.946625
0.000000 0.678131 0.945374
0.053772 0.678558 0.945953
0.175537 0.678528 0.946106
0.317749 0.678406 0.946136
0.446045 0.678345 0.946259
0.561127 0.678375 0.946472
0.678406 0.678406 0.946655
0.805023 0.678375 0.946777
0.946808 0.678223 0.946808
0.000000 0.804260 0.945526
0.053558 0.804749 0.946075
0.175629 0.804810 0.946259
0.317810 0.804749 0.946259
0.446014 0.804779 0.946381
0.561035 0.804932 0.946594
0.678375 0.805023 0.946777
0.805084 0.805084 0.946899
0.946930 0.805023 0.946930
0.000000 0.945557 0.945557
0.053253 0.946106 0.946106
0.175629 0.946259 0.946259
0.317780 0.946289 0.946289
0.445862 0.946411 0.946411
0.560852 0.946625 0.946625
0.678223 0.946808 0.946808
0.805023 0.946930 0.946930
0.946960 0.946960 0.946960
