Kodak Vision2 250D (5205) - Only color.cube
# Created by Benjamin (IWLTBAP) : http://luts.iwltbap.com
# Copyright: (C) Copyright 2010-2017 Triune Films and IWLTBAP SAS
# Cannot be resold, shared or otherwise redistributed
TITLE "Film Print Emulation LUTs Pack (Rec.709, sRGB, DCI-P3)"
LUT_3D_SIZE 5
0.000916 0.000916 0.000000
0.216217 0.000000 0.000000
0.426636 0.013977 0.000000
0.614410 0.099182 0.000000
0.780151 0.143463 0.000000
0.088165 0.172974 0.000000
0.305511 0.226013 0.000000
0.551392 0.258240 0.000000
0.715607 0.285828 0.000000
0.847992 0.288666 0.000000
0.321960 0.436005 0.000000
0.425781 0.504517 0.094818
0.586090 0.523621 0.000000
0.767029 0.517609 0.000000
0.909302 0.504852 0.025909
0.433655 0.661957 0.033356
0.520081 0.696014 0.111816
0.642090 0.726990 0.116852
0.747467 0.745056 0.133606
0.911011 0.739838 0.072571
0.498688 0.821350 0.075317
0.590851 0.838562 0.098846
0.725891 0.867493 0.082092
0.839569 0.892914 0.079803
0.945435 0.902039 0.118958
0.002716 0.082703 0.169403
0.205353 0.071320 0.196686
0.422424 0.000000 0.178894
0.603241 0.000000 0.178253
0.767212 0.000000 0.162354
0.000000 0.227386 0.257477
0.275635 0.253021 0.221771
0.495209 0.250641 0.206909
0.681488 0.269012 0.210938
0.843353 0.256927 0.182251
0.214569 0.460205 0.274567
0.387756 0.474152 0.243439
0.548889 0.481079 0.242218
0.748505 0.494293 0.240051
0.911774 0.478516 0.187500
0.345581 0.669495 0.294647
0.488159 0.680969 0.275513
0.645416 0.711151 0.284393
0.747253 0.741058 0.298706
0.921997 0.739716 0.207123
0.436096 0.833893 0.265717
0.560791 0.845276 0.234253
0.708557 0.878418 0.266449
0.844391 0.904205 0.263245
0.963562 0.912781 0.156403
0.000000 0.120636 0.306732
0.063141 0.127991 0.333710
0.381104 0.089478 0.341217
0.598816 0.093445 0.370605
0.774445 0.049988 0.350861
0.000000 0.250061 0.426880
0.183350 0.281799 0.436676
0.457245 0.266876 0.412933
0.675415 0.269836 0.414276
0.842926 0.243774 0.375122
0.029877 0.471741 0.519470
0.290222 0.494049 0.494598
0.534485 0.496796 0.468811
0.732117 0.502716 0.471039
0.911865 0.475342 0.429810
0.191956 0.686554 0.542786
0.390198 0.699677 0.532806
0.601685 0.722839 0.534729
0.777283 0.730988 0.532501
0.949097 0.735626 0.494171
0.325439 0.847046 0.546021
0.465485 0.859253 0.542419
0.670776 0.900635 0.541290
0.838440 0.927338 0.562500
0.962738 0.944519 0.560394
0.000000 0.158539 0.431580
0.000000 0.150574 0.407776
0.275818 0.153320 0.468750
0.522614 0.133148 0.495453
0.765930 0.140961 0.536530
0.000000 0.268555 0.555267
0.055756 0.284637 0.546783
0.335114 0.279907 0.558502
0.598236 0.281891 0.570740
0.833435 0.264008 0.578461
0.004028 0.462036 0.652649
0.209442 0.495789 0.649597
0.460297 0.516022 0.653381
0.694824 0.511261 0.651276
0.907471 0.472443 0.635101
0.114655 0.683868 0.726410
0.283783 0.706055 0.717163
0.546478 0.724182 0.712830
0.768188 0.748077 0.733215
0.960205 0.755280 0.730499
0.196594 0.854553 0.750793
0.322479 0.876190 0.754395
0.577911 0.911469 0.779846
0.818817 0.949921 0.805359
0.984222 0.972565 0.813171
0.000000 0.177795 0.543732
0.000000 0.162048 0.509308
0.095062 0.170471 0.531189
0.381561 0.176331 0.622437
0.677185 0.170105 0.661957
0.000000 0.258026 0.646057
0.050262 0.248627 0.632294
0.094849 0.244873 0.625793
0.412079 0.270813 0.698853
0.739105 0.277344 0.726318
0.040710 0.426910 0.758514
0.095398 0.427246 0.754974
0.169952 0.437622 0.765015
0.476288 0.466309 0.797058
0.825836 0.488525 0.812195
0.070831 0.644257 0.841370
0.143280 0.657318 0.842865
0.321014 0.702942 0.863953
0.648102 0.753143 0.894501
0.933533 0.759674 0.899872
0.139282 0.819122 0.886993
0.214966 0.838165 0.890717
0.377869 0.888550 0.913422
0.717621 0.950989 0.957977
0.996429 0.999969 0.999969
