Kodak Vision 250D (5246) - Only contrast.cube
# Created by Benjamin (IWLTBAP) : http://luts.iwltbap.com
# Copyright: (C) Copyright 2010-2017 Triune Films and IWLTBAP SAS
# Cannot be resold, shared or otherwise redistributed
TITLE "Film Print Emulation LUTs Pack (Rec.709, sRGB, DCI-P3)"
LUT_3D_SIZE 5
0.000885 0.000885 0.000885
0.203705 0.000549 0.000549
0.446899 0.000000 0.000000
0.713379 0.000000 0.000000
0.998077 0.000000 0.000000
0.000549 0.203705 0.000549
0.203918 0.203918 0.000214
0.447449 0.203827 0.000000
0.713867 0.203583 0.000000
0.998383 0.203217 0.000000
0.000000 0.446899 0.000000
0.203827 0.447449 0.000000
0.447693 0.447693 0.000000
0.714081 0.447815 0.000000
0.998413 0.447784 0.000000
0.000000 0.713379 0.000000
0.203583 0.713867 0.000000
0.447815 0.714081 0.000000
0.714142 0.714142 0.000000
0.998291 0.714081 0.000000
0.000000 0.998077 0.000000
0.203217 0.998383 0.000000
0.447784 0.998413 0.000000
0.714081 0.998291 0.000000
0.998108 0.997925 0.009705
0.000549 0.000549 0.203705
0.203918 0.000214 0.203918
0.447449 0.000000 0.203827
0.713867 0.000000 0.203583
0.998383 0.000000 0.203217
0.000214 0.203918 0.203918
0.204102 0.204102 0.204102
0.447968 0.204010 0.204010
0.714355 0.203766 0.203766
0.998688 0.203400 0.203400
0.000000 0.447449 0.203827
0.204010 0.447968 0.204010
0.448212 0.448212 0.203918
0.714569 0.448334 0.203674
0.998718 0.448334 0.203339
0.000000 0.713867 0.203583
0.203766 0.714355 0.203766
0.448334 0.714569 0.203674
0.714630 0.714630 0.203461
0.998596 0.714569 0.203094
0.000000 0.998383 0.203217
0.203400 0.998688 0.203400
0.448334 0.998718 0.203339
0.714569 0.998596 0.203094
0.998352 0.998352 0.202759
0.000000 0.000000 0.446899
0.203827 0.000000 0.447449
0.447693 0.000000 0.447693
0.714081 0.000000 0.447815
0.998413 0.000000 0.447784
0.000000 0.203827 0.447449
0.204010 0.204010 0.447968
0.448212 0.203918 0.448212
0.714569 0.203674 0.448334
0.998718 0.203339 0.448334
0.000000 0.447693 0.447693
0.203918 0.448212 0.448212
0.448486 0.448486 0.448486
0.714783 0.448608 0.448608
0.998718 0.448669 0.448669
0.000000 0.714081 0.447815
0.203674 0.714569 0.448334
0.448608 0.714783 0.448608
0.714844 0.714844 0.448792
0.998596 0.714783 0.448853
0.000000 0.998413 0.447784
0.203339 0.998718 0.448334
0.448669 0.998718 0.448669
0.714783 0.998596 0.448853
0.998352 0.998352 0.448975
0.000000 0.000000 0.713379
0.203583 0.000000 0.713867
0.447815 0.000000 0.714081
0.714142 0.000000 0.714142
0.998291 0.000000 0.714081
0.000000 0.203583 0.713867
0.203766 0.203766 0.714355
0.448334 0.203674 0.714569
0.714630 0.203461 0.714630
0.998596 0.203094 0.714569
0.000000 0.447815 0.714081
0.203674 0.448334 0.714569
0.448608 0.448608 0.714783
0.714844 0.448792 0.714844
0.998596 0.448853 0.714783
0.000000 0.714142 0.714142
0.203461 0.714630 0.714630
0.448792 0.714844 0.714844
0.714905 0.714905 0.714905
0.998474 0.714844 0.714844
0.000000 0.998291 0.714081
0.203094 0.998596 0.714569
0.448853 0.998596 0.714783
0.714844 0.998474 0.714844
0.998260 0.998260 0.714813
0.000000 0.000000 0.997986
0.203217 0.000000 0.998383
0.447784 0.000000 0.998413
0.714081 0.000000 0.998291
0.998047 0.000000 0.998047
0.000000 0.203217 0.998383
0.203400 0.203400 0.998688
0.448334 0.203339 0.998718
0.714569 0.203094 0.998596
0.998352 0.202759 0.998352
0.000000 0.447784 0.998413
0.203339 0.448334 0.998718
0.448669 0.448669 0.998718
0.714783 0.448853 0.998596
0.998352 0.448975 0.998352
0.000000 0.714081 0.998291
0.203094 0.714569 0.998596
0.448853 0.714783 0.998596
0.714844 0.714844 0.998474
0.998260 0.714813 0.998260
0.000000 0.998047 0.998047
0.202759 0.998352 0.998352
0.448975 0.998352 0.998352
0.714813 0.998260 0.998260
0.998016 0.998016 0.998016
