Kodak Eastman Color Negative 50T (5251) - Look.cube
# Created by Benjamin (IWLTBAP) : http://luts.iwltbap.com
# Copyright: (C) Copyright 2010-2017 Triune Films and IWLTBAP SAS
# Cannot be resold, shared or otherwise redistributed
TITLE "Film Print Emulation LUTs Pack (Rec.709, sRGB, DCI-P3)"
LUT_3D_SIZE 33
0.000000 0.000000 0.000000
0.012390 0.000000 0.000000
0.029694 0.000000 0.000000
0.047058 0.000000 0.000000
0.064850 0.000000 0.000000
0.082886 0.000000 0.000000
0.100922 0.000000 0.000000
0.119354 0.000000 0.000000
0.137665 0.000000 0.000000
0.155914 0.000000 0.000000
0.174408 0.000000 0.000000
0.192841 0.000000 0.000000
0.211273 0.000000 0.000000
0.229767 0.000000 0.000000
0.247925 0.000000 0.000000
0.265961 0.000061 0.000000
0.283936 0.000671 0.000000
0.301636 0.000946 0.000000
0.319519 0.001251 0.000000
0.337250 0.001251 0.000000
0.355103 0.001251 0.000000
0.372986 0.001251 0.000000
0.391113 0.001251 0.000000
0.409302 0.001251 0.000000
0.427734 0.001221 0.000000
0.446228 0.001221 0.000000
0.464874 0.001221 0.000000
0.483673 0.001190 0.000000
0.502533 0.001221 0.000000
0.521362 0.001190 0.000000
0.540344 0.001190 0.000000
0.559296 0.001190 0.000000
0.577637 0.001129 0.000000
0.000000 0.016296 0.000000
0.012939 0.016510 0.000000
0.030823 0.016632 0.000000
0.048279 0.016541 0.000000
0.066345 0.016388 0.000000
0.084625 0.016479 0.000000
0.103760 0.016571 0.000000
0.122894 0.016418 0.000000
0.141602 0.016205 0.000000
0.160522 0.015381 0.000000
0.179352 0.015198 0.000000
0.198242 0.014191 0.000000
0.216980 0.014038 0.000000
0.235565 0.014313 0.000000
0.254028 0.012970 0.000000
0.272278 0.013947 0.000000
0.290558 0.012970 0.000000
0.308472 0.012787 0.000000
0.326385 0.012970 0.000000
0.344391 0.012268 0.000000
0.362183 0.012238 0.000000
0.380402 0.011993 0.000000
0.398499 0.011932 0.000000
0.416748 0.011932 0.000000
0.435150 0.011902 0.000000
0.453583 0.011871 0.000000
0.472260 0.012054 0.000000
0.491058 0.011993 0.000000
0.509705 0.012177 0.000000
0.528473 0.012238 0.000000
0.547150 0.012299 0.000000
0.565674 0.012451 0.000000
0.583923 0.012390 0.000000
0.000000 0.036438 0.000000
0.013641 0.037048 0.000000
0.032501 0.037628 0.000214
0.050293 0.037537 0.000244
0.068420 0.037292 0.000458
0.087616 0.037964 0.000671
0.108246 0.038574 0.000549
0.128571 0.038605 0.000397
0.147888 0.038208 0.000122
0.167419 0.037292 0.000000
0.186768 0.036621 0.000000
0.206177 0.034790 0.000000
0.225464 0.033478 0.000000
0.244446 0.031738 0.000000
0.263367 0.029480 0.000000
0.281830 0.028564 0.000000
0.300232 0.026245 0.000000
0.318359 0.025208 0.000000
0.336395 0.024139 0.000000
0.354370 0.023102 0.000000
0.372253 0.022858 0.000000
0.390411 0.022491 0.000000
0.408417 0.022339 0.000000
0.426727 0.022400 0.000000
0.445099 0.022430 0.000000
0.463562 0.022552 0.000000
0.482056 0.022736 0.000000
0.500641 0.022858 0.000000
0.519104 0.023132 0.000000
0.537750 0.023285 0.000000
0.555786 0.023560 0.000000
0.574036 0.023804 0.000000
0.591553 0.023865 0.000000
0.000000 0.056549 0.000214
0.014160 0.057404 0.000427
0.033691 0.058289 0.000763
0.052582 0.058655 0.000854
0.071411 0.058838 0.001099
0.091431 0.059570 0.001282
0.112793 0.060425 0.001190
0.133453 0.060791 0.001099
0.153992 0.060425 0.000519
0.174194 0.059723 0.000000
0.194366 0.058990 0.000000
0.214203 0.057281 0.000000
0.233948 0.055847 0.000000
0.253326 0.053802 0.000000
0.272430 0.051605 0.000000
0.291321 0.049713 0.000000
0.309784 0.047211 0.000000
0.328461 0.045532 0.000000
0.346405 0.044189 0.000000
0.364532 0.042603 0.000000
0.382690 0.041626 0.000000
0.400696 0.041016 0.000000
0.418915 0.039886 0.000000
0.437103 0.039795 0.000000
0.455322 0.038879 0.000000
0.473572 0.038635 0.000000
0.491974 0.038574 0.000000
0.510132 0.037903 0.000000
0.528473 0.038055 0.000000
0.546387 0.037476 0.000000
0.564270 0.037720 0.000000
0.582031 0.037476 0.000000
0.599152 0.037476 0.000000
0.000000 0.076324 0.001404
0.014618 0.077301 0.001678
0.034729 0.078674 0.002075
0.055054 0.079803 0.002197
0.075378 0.080750 0.002411
0.096191 0.081696 0.002441
0.117615 0.082550 0.002319
0.138916 0.082764 0.002014
0.160522 0.082733 0.001343
0.181549 0.082306 0.000702
0.202301 0.081726 0.000000
0.222565 0.080536 0.000000
0.242767 0.079407 0.000000
0.262634 0.077789 0.000000
0.282135 0.076233 0.000000
0.301483 0.074615 0.000000
0.320251 0.072632 0.000000
0.339081 0.070953 0.000000
0.357391 0.069244 0.000000
0.375885 0.067535 0.000000
0.394104 0.066193 0.000000
0.412201 0.064758 0.000000
0.430450 0.063141 0.000000
0.448517 0.062317 0.000000
0.466553 0.060516 0.000000
0.484650 0.059692 0.000000
0.502533 0.058197 0.000000
0.520416 0.056793 0.000000
0.538300 0.056244 0.000000
0.555786 0.054840 0.000000
0.573517 0.054657 0.000000
0.590546 0.053864 0.000000
0.607483 0.053497 0.000000
0.000000 0.096100 0.002625
0.015350 0.097473 0.002930
0.036285 0.099396 0.003174
0.057770 0.101013 0.003143
0.078949 0.102600 0.003296
0.101013 0.103790 0.003235
0.123016 0.104767 0.003143
0.145447 0.105438 0.002625
0.167755 0.105713 0.002045
0.189789 0.105743 0.000824
0.211151 0.105408 0.000000
0.232666 0.104828 0.000000
0.253265 0.103638 0.000000
0.274017 0.102661 0.000000
0.293854 0.101196 0.000000
0.313629 0.099731 0.000000
0.332977 0.098083 0.000000
0.351868 0.096375 0.000000
0.370789 0.094696 0.000000
0.389099 0.092834 0.000000
0.407532 0.091064 0.000000
0.425537 0.089233 0.000000
0.443542 0.087372 0.000000
0.461395 0.085419 0.000000
0.479187 0.083374 0.000000
0.496796 0.081390 0.000000
0.514343 0.079407 0.000000
0.531769 0.077515 0.000000
0.548950 0.075775 0.000000
0.566284 0.074066 0.000000
0.582977 0.072723 0.000000
0.599823 0.071533 0.000000
0.616119 0.070618 0.000000
0.000000 0.115936 0.003479
0.015900 0.117889 0.003723
0.037750 0.120483 0.004272
0.060516 0.122528 0.004456
0.082428 0.124268 0.004639
0.105957 0.125916 0.004547
0.129120 0.127411 0.004364
0.152588 0.128723 0.003723
0.175598 0.129517 0.003052
0.198608 0.129974 0.001556
0.221222 0.130005 0.000305
0.243652 0.129761 0.000000
0.265228 0.129028 0.000000
0.286621 0.128143 0.000000
0.307281 0.126984 0.000000
0.327667 0.125580 0.000000
0.347443 0.123993 0.000000
0.366760 0.122192 0.000000
0.385864 0.120331 0.000000
0.404297 0.118286 0.000000
0.422607 0.116241 0.000000
0.440552 0.114105 0.000000
0.458282 0.111969 0.000000
0.475952 0.109680 0.000000
0.493286 0.107483 0.000000
0.510468 0.105408 0.000000
0.527618 0.103180 0.000000
0.544281 0.101288 0.000000
0.561157 0.099335 0.000000
0.577576 0.097748 0.000000
0.593872 0.096375 0.000000
0.610260 0.095032 0.000000
0.625793 0.094238 0.000000
0.000000 0.136139 0.004944
0.016846 0.138519 0.005219
0.039337 0.141663 0.005585
0.063080 0.144226 0.005615
0.086700 0.146667 0.005493
0.111206 0.148926 0.005524
0.135651 0.151245 0.005280
0.160004 0.153198 0.004883
0.184387 0.154816 0.003998
0.208405 0.155762 0.003052
0.232758 0.156372 0.001251
0.256195 0.156464 0.000000
0.279297 0.156250 0.000000
0.301422 0.155457 0.000000
0.323334 0.154358 0.000000
0.344025 0.152832 0.000000
0.364655 0.151001 0.000000
0.384064 0.149078 0.000000
0.403229 0.146820 0.000000
0.421692 0.144562 0.000000
0.439789 0.142181 0.000000
0.457458 0.139740 0.000000
0.474945 0.137360 0.000000
0.491943 0.134766 0.000000
0.508820 0.132385 0.000000
0.525543 0.130096 0.000000
0.541840 0.127991 0.000000
0.558105 0.125885 0.000000
0.574036 0.124115 0.000000
0.589874 0.122467 0.000000
0.605591 0.120972 0.000000
0.621063 0.119659 0.000000
0.636383 0.118591 0.000000
0.000000 0.156799 0.006012
0.017578 0.159698 0.006348
0.040985 0.163635 0.006805
0.065796 0.167084 0.007172
0.091064 0.170624 0.007416
0.116547 0.173676 0.007538
0.142456 0.176544 0.007019
0.168121 0.178925 0.006592
0.193756 0.181183 0.005493
0.219482 0.182739 0.004028
0.245117 0.184052 0.003143
0.270355 0.184601 0.000977
0.294952 0.184662 0.000000
0.318451 0.184143 0.000000
0.341217 0.183044 0.000000
0.362793 0.181396 0.000000
0.383667 0.179443 0.000000
0.403473 0.177155 0.000000
0.422668 0.174591 0.000000
0.440887 0.171875 0.000000
0.458740 0.169098 0.000000
0.476044 0.166290 0.000000
0.492767 0.163391 0.000000
0.509369 0.160553 0.000000
0.525574 0.157990 0.000000
0.541473 0.155518 0.000000
0.557404 0.153076 0.000000
0.572723 0.150909 0.000000
0.588135 0.148834 0.000000
0.603424 0.146973 0.000000
0.618408 0.145233 0.000000
0.633423 0.143524 0.000000
0.647980 0.142273 0.000000
0.000000 0.178284 0.007660
0.018097 0.181610 0.008087
0.042542 0.186340 0.008667
0.068695 0.190582 0.008972
0.095337 0.194977 0.008911
0.122467 0.199158 0.009308
0.149353 0.202759 0.009155
0.176727 0.206268 0.009247
0.203888 0.209198 0.009094
0.231567 0.211578 0.008270
0.259064 0.213348 0.007629
0.285889 0.214478 0.006561
0.312286 0.214752 0.003937
0.337219 0.214325 0.001770
0.360901 0.213287 0.000000
0.383118 0.211700 0.000000
0.404144 0.209473 0.000000
0.424133 0.206970 0.000000
0.443085 0.204041 0.000000
0.461334 0.201050 0.000000
0.478638 0.197845 0.000000
0.495361 0.194519 0.000000
0.511719 0.191284 0.000000
0.527466 0.188141 0.000000
0.543091 0.185181 0.000000
0.558441 0.182220 0.000000
0.573425 0.179504 0.000000
0.588409 0.177002 0.000000
0.602966 0.174530 0.000000
0.617554 0.172394 0.000000
0.632050 0.170105 0.000000
0.646271 0.168152 0.000000
0.660431 0.166565 0.000000
0.000244 0.199921 0.009216
0.019226 0.204132 0.009613
0.044678 0.210266 0.010315
0.071960 0.215363 0.010986
0.099792 0.220459 0.011566
0.128174 0.225464 0.012207
0.156555 0.230164 0.012787
0.185455 0.234558 0.012787
0.215027 0.238251 0.013397
0.244781 0.241455 0.014008
0.274048 0.243652 0.013702
0.303131 0.245270 0.013000
0.330627 0.245941 0.011047
0.356903 0.245911 0.008118
0.381195 0.244995 0.004974
0.404144 0.243378 0.002136
0.425476 0.241089 0.000000
0.445526 0.238434 0.000000
0.464478 0.235199 0.000000
0.482269 0.231812 0.000000
0.499390 0.228302 0.000000
0.515656 0.224548 0.000000
0.531403 0.221039 0.000000
0.546783 0.217346 0.000000
0.561676 0.214020 0.000000
0.576477 0.210663 0.000000
0.590881 0.207520 0.000000
0.604858 0.204407 0.000000
0.618927 0.201508 0.000000
0.632782 0.198761 0.000000
0.646393 0.196075 0.000000
0.660126 0.193604 0.000000
0.673645 0.191681 0.000000
0.001282 0.222656 0.011108
0.019073 0.227631 0.011780
0.046570 0.234650 0.012695
0.075317 0.240631 0.013031
0.104126 0.246399 0.014282
0.133820 0.252350 0.015930
0.163910 0.258118 0.018036
0.194489 0.263336 0.019592
0.226227 0.267853 0.021057
0.258423 0.271637 0.022186
0.289764 0.274567 0.022552
0.320129 0.276611 0.022278
0.349152 0.277802 0.020599
0.376587 0.278168 0.018097
0.401917 0.277374 0.014496
0.425446 0.276031 0.009888
0.446991 0.273804 0.004639
0.467102 0.271057 0.000000
0.485779 0.267700 0.000000
0.503510 0.264038 0.000000
0.520203 0.260254 0.000000
0.536438 0.256226 0.000000
0.551392 0.252197 0.000000
0.566193 0.248108 0.000000
0.580658 0.244293 0.000000
0.594604 0.240417 0.000000
0.608459 0.236694 0.000000
0.621979 0.233124 0.000000
0.635223 0.229523 0.000000
0.648529 0.226410 0.000000
0.661560 0.223175 0.000000
0.674438 0.220123 0.000000
0.687592 0.217804 0.000000
0.002930 0.246338 0.013336
0.019623 0.251648 0.013916
0.048309 0.259460 0.015381
0.078339 0.266235 0.017059
0.108398 0.273010 0.018799
0.139557 0.279785 0.020905
0.171082 0.285919 0.023956
0.203949 0.291626 0.027191
0.237671 0.296844 0.029877
0.271515 0.301270 0.032104
0.305298 0.305084 0.033600
0.337158 0.307800 0.033661
0.367828 0.309784 0.032898
0.396210 0.310577 0.030212
0.421967 0.310272 0.026276
0.446045 0.309204 0.021271
0.467682 0.307220 0.014832
0.488098 0.304596 0.008057
0.506622 0.301331 0.002014
0.524353 0.297394 0.000000
0.540649 0.293243 0.000000
0.556305 0.288788 0.000000
0.571167 0.284393 0.000000
0.585388 0.279968 0.000000
0.599365 0.275635 0.000000
0.612976 0.271240 0.000000
0.626190 0.266998 0.000000
0.639221 0.262939 0.000000
0.652100 0.258942 0.000000
0.664642 0.255219 0.000000
0.677094 0.251465 0.000000
0.689453 0.247803 0.000000
0.702026 0.244995 0.000000
0.002625 0.270508 0.015991
0.018372 0.276276 0.017090
0.049866 0.284729 0.018890
0.081055 0.292084 0.020874
0.112640 0.299225 0.024048
0.144897 0.306213 0.027527
0.177948 0.312927 0.031738
0.212921 0.319458 0.035767
0.248657 0.325073 0.039307
0.284698 0.330231 0.042084
0.319977 0.334381 0.043732
0.353943 0.337799 0.044434
0.385406 0.340363 0.043945
0.414124 0.341522 0.041809
0.440918 0.341949 0.038788
0.464966 0.341095 0.033447
0.487244 0.339417 0.027069
0.507629 0.336853 0.018341
0.526489 0.333618 0.010101
0.544037 0.329926 0.001404
0.560486 0.325806 0.000000
0.575775 0.321320 0.000000
0.590485 0.316772 0.000000
0.604584 0.312195 0.000000
0.618134 0.307617 0.000000
0.631287 0.302887 0.000000
0.644196 0.298248 0.000000
0.656708 0.293640 0.000000
0.669159 0.289032 0.000000
0.681305 0.284882 0.000000
0.693420 0.280731 0.000000
0.705200 0.276489 0.000000
0.717407 0.273315 0.000000
0.003418 0.294922 0.018982
0.018951 0.301117 0.020477
0.051239 0.309784 0.023010
0.083618 0.317566 0.026184
0.116272 0.325165 0.029907
0.149902 0.332153 0.034485
0.184784 0.338928 0.039520
0.221344 0.345520 0.044098
0.259033 0.352081 0.048340
0.297058 0.357819 0.051147
0.334167 0.362701 0.053009
0.369293 0.366943 0.054077
0.401642 0.369781 0.053528
0.431305 0.371613 0.051849
0.458435 0.372253 0.048798
0.483246 0.371735 0.043732
0.505890 0.370270 0.037079
0.526337 0.367859 0.028412
0.545471 0.364868 0.018951
0.563110 0.361389 0.008575
0.579651 0.357391 0.003357
0.595154 0.353241 0.000000
0.609833 0.348907 0.000000
0.623840 0.344269 0.000000
0.637299 0.339722 0.000000
0.650177 0.334961 0.000000
0.662811 0.329926 0.000000
0.674957 0.324982 0.000000
0.687103 0.320190 0.000000
0.698853 0.315582 0.000000
0.710602 0.311096 0.000000
0.721893 0.306366 0.000000
0.733643 0.302704 0.000000
0.002808 0.319214 0.022736
0.020966 0.325745 0.024689
0.053223 0.334961 0.027863
0.086090 0.342346 0.031586
0.119781 0.349609 0.036255
0.154602 0.356903 0.041504
0.190979 0.364166 0.046844
0.229218 0.371002 0.051788
0.268768 0.377594 0.055847
0.308594 0.384003 0.059113
0.347168 0.390045 0.061584
0.383026 0.394745 0.062225
0.416199 0.398315 0.062012
0.446838 0.400726 0.060913
0.474762 0.401733 0.057678
0.500183 0.401550 0.052948
0.523041 0.400299 0.047211
0.544098 0.398285 0.038513
0.563751 0.395691 0.030090
0.581787 0.392487 0.018768
0.598724 0.388947 0.009583
0.614319 0.384796 0.008514
0.629395 0.380707 0.001404
0.643250 0.376160 0.000061
0.656677 0.371460 0.000000
0.669525 0.366638 0.000000
0.682129 0.361664 0.000000
0.694000 0.356750 0.000000
0.705963 0.351990 0.000000
0.717407 0.347290 0.000000
0.728729 0.342499 0.000000
0.739594 0.337158 0.000000
0.751129 0.333069 0.000000
0.003174 0.344055 0.026947
0.022736 0.350250 0.029419
0.055420 0.358765 0.033295
0.088898 0.366364 0.037476
0.123230 0.373657 0.042542
0.158997 0.380737 0.048035
0.196655 0.388000 0.053528
0.236237 0.395355 0.058685
0.277374 0.402435 0.062561
0.318817 0.409363 0.065826
0.358185 0.415710 0.068054
0.395142 0.421326 0.069550
0.429596 0.425720 0.069885
0.460907 0.428528 0.068542
0.489349 0.429932 0.065948
0.515411 0.430328 0.062592
0.538971 0.429443 0.056671
0.561066 0.428040 0.050873
0.581421 0.425842 0.042816
0.600281 0.423218 0.033417
0.618011 0.420166 0.023834
0.634277 0.416656 0.015228
0.649719 0.412689 0.006592
0.663910 0.408386 0.000000
0.677582 0.403778 0.000000
0.690430 0.398926 0.000000
0.703033 0.394012 0.000000
0.714813 0.388977 0.000000
0.726318 0.384003 0.000000
0.737610 0.379150 0.000000
0.748688 0.374237 0.000000
0.759247 0.368561 0.000000
0.770477 0.364136 0.000000
0.003967 0.367981 0.031891
0.025726 0.374237 0.034546
0.057678 0.382355 0.038696
0.091858 0.389404 0.043274
0.126770 0.396667 0.048553
0.163391 0.403992 0.054169
0.201752 0.411133 0.059326
0.242401 0.418518 0.064270
0.285156 0.426300 0.068390
0.327515 0.433746 0.071564
0.368164 0.440613 0.074158
0.405975 0.446747 0.075897
0.441010 0.451538 0.076447
0.473053 0.455048 0.076019
0.502441 0.457245 0.074554
0.528961 0.458038 0.071686
0.553986 0.458069 0.068451
0.577423 0.457245 0.063995
0.598877 0.455811 0.058105
0.619324 0.453888 0.053131
0.637726 0.451202 0.044708
0.655243 0.448242 0.037567
0.671295 0.444733 0.027802
0.686218 0.440735 0.019165
0.700500 0.436523 0.012390
0.713593 0.431824 0.008759
0.726227 0.427124 0.005920
0.738190 0.422180 0.001678
0.749329 0.416992 0.000092
0.760284 0.411743 0.000000
0.771271 0.406464 0.000000
0.781555 0.400452 0.000000
0.792175 0.395782 0.000000
0.005371 0.391541 0.036926
0.027069 0.397278 0.039795
0.059967 0.405182 0.044159
0.094482 0.412231 0.048798
0.130249 0.419128 0.053802
0.167603 0.426270 0.059204
0.206604 0.433655 0.064545
0.248199 0.441254 0.069153
0.291870 0.449249 0.073273
0.335266 0.457092 0.077087
0.376801 0.464569 0.079895
0.415222 0.471161 0.081848
0.451019 0.476746 0.083191
0.483643 0.480896 0.083557
0.513641 0.483704 0.083038
0.541748 0.485596 0.081940
0.568176 0.486420 0.079987
0.593170 0.486542 0.077698
0.616882 0.486053 0.075439
0.638458 0.484650 0.071686
0.659058 0.482910 0.068512
0.677734 0.480377 0.063660
0.695068 0.477356 0.058289
0.711243 0.473724 0.050140
0.725952 0.469757 0.040344
0.739899 0.465363 0.030640
0.752228 0.460541 0.021912
0.764496 0.455566 0.011688
0.775543 0.450470 0.000031
0.786743 0.445129 0.000000
0.797150 0.439636 0.000000
0.806915 0.433228 0.000000
0.817291 0.428223 0.000000
0.009003 0.414581 0.042450
0.028412 0.420166 0.045135
0.062683 0.427643 0.049316
0.097443 0.434357 0.053772
0.133362 0.441284 0.058777
0.171448 0.448242 0.063721
0.211121 0.455566 0.068695
0.253418 0.463470 0.073486
0.297760 0.471497 0.077850
0.341736 0.479492 0.081879
0.383820 0.487427 0.085358
0.423035 0.494781 0.088135
0.459564 0.501068 0.089966
0.492798 0.506042 0.090973
0.524170 0.509979 0.091614
0.553802 0.512726 0.091949
0.581970 0.514648 0.091858
0.609192 0.515900 0.091736
0.635040 0.516296 0.091187
0.659637 0.516022 0.090271
0.682251 0.514954 0.088623
0.702789 0.513184 0.086304
0.721741 0.510620 0.082275
0.739136 0.507446 0.077454
0.754517 0.503571 0.071259
0.768829 0.499237 0.064941
0.781830 0.494568 0.057465
0.793610 0.489471 0.048370
0.804993 0.484192 0.039368
0.816101 0.478790 0.030304
0.826447 0.473175 0.022675
0.835449 0.466644 0.012390
0.845917 0.461517 0.004089
0.010376 0.437195 0.047638
0.031342 0.442627 0.050415
0.065857 0.449860 0.054291
0.100952 0.456207 0.058319
0.137024 0.462769 0.062897
0.174988 0.469757 0.067780
0.215149 0.477112 0.072632
0.258331 0.484863 0.077606
0.302887 0.492981 0.082306
0.347137 0.501251 0.086731
0.389801 0.509613 0.090759
0.429535 0.517395 0.093933
0.466400 0.524414 0.096588
0.500763 0.530609 0.098755
0.533569 0.535400 0.100311
0.564819 0.539246 0.101776
0.595642 0.542450 0.103699
0.625763 0.544739 0.105255
0.654510 0.546173 0.106232
0.681763 0.546783 0.106689
0.707153 0.546631 0.106567
0.729950 0.545532 0.105347
0.750793 0.543610 0.103546
0.768860 0.540741 0.100403
0.785553 0.537415 0.097076
0.799957 0.533234 0.092194
0.813538 0.528778 0.087219
0.825531 0.523773 0.081238
0.837219 0.518524 0.072235
0.847931 0.512909 0.061096
0.858368 0.507263 0.051300
0.867188 0.500610 0.037567
0.877625 0.495544 0.026550
0.012451 0.459839 0.052826
0.035797 0.464813 0.055176
0.070343 0.471497 0.058746
0.104950 0.477661 0.062439
0.140778 0.484100 0.066742
0.178558 0.490845 0.071350
0.218872 0.498016 0.076355
0.262482 0.505676 0.081421
0.307556 0.513763 0.086639
0.351929 0.522186 0.091492
0.394684 0.530792 0.095917
0.435150 0.539276 0.099792
0.472656 0.547089 0.103271
0.507629 0.553925 0.106232
0.541931 0.560089 0.109283
0.575684 0.565277 0.112640
0.609009 0.569397 0.115723
0.642242 0.572723 0.118774
0.675018 0.575226 0.121521
0.705139 0.576721 0.123230
0.732697 0.577209 0.124023
0.757629 0.576782 0.124054
0.779388 0.575409 0.122864
0.798828 0.573120 0.120850
0.816040 0.570160 0.117950
0.831329 0.566467 0.114258
0.845581 0.562347 0.109863
0.858246 0.557648 0.104584
0.869843 0.552551 0.098602
0.880768 0.547089 0.091888
0.891113 0.541473 0.084717
0.900055 0.534882 0.076294
0.910614 0.529846 0.068268
0.013275 0.481995 0.057587
0.040985 0.486755 0.059845
0.075531 0.492981 0.062775
0.109833 0.498779 0.066193
0.145081 0.505066 0.070251
0.182343 0.511658 0.074738
0.222992 0.518616 0.079956
0.266968 0.526031 0.085449
0.311676 0.534119 0.090759
0.356354 0.542542 0.096161
0.399475 0.551392 0.101318
0.439941 0.560242 0.105713
0.478027 0.568878 0.109863
0.514343 0.576965 0.114014
0.549927 0.584076 0.118225
0.585419 0.590179 0.122742
0.622162 0.595612 0.127716
0.659088 0.599976 0.132385
0.694214 0.603241 0.136169
0.727325 0.605591 0.139221
0.756836 0.606903 0.141205
0.782898 0.606964 0.141785
0.805786 0.606140 0.141510
0.826111 0.604401 0.140137
0.844055 0.601868 0.137787
0.860291 0.598541 0.134583
0.874786 0.594727 0.130676
0.887909 0.590363 0.126221
0.900085 0.585541 0.121033
0.911377 0.580444 0.115479
0.922150 0.575043 0.109253
0.931854 0.568756 0.102173
0.942261 0.563751 0.095215
0.018585 0.503876 0.061707
0.047302 0.508270 0.063660
0.081482 0.514282 0.066559
0.115265 0.519897 0.069824
0.150055 0.525787 0.073792
0.186768 0.532043 0.078278
0.227051 0.538788 0.083649
0.271088 0.546082 0.089264
0.315948 0.553955 0.095215
0.360229 0.562378 0.100952
0.403534 0.571381 0.106415
0.444641 0.580719 0.111481
0.482971 0.589966 0.116272
0.520020 0.598877 0.121307
0.557343 0.607300 0.127136
0.595642 0.614777 0.133392
0.634949 0.621033 0.139557
0.674530 0.626343 0.145416
0.712769 0.630676 0.150696
0.747742 0.633820 0.154846
0.778473 0.635742 0.157654
0.805359 0.636597 0.159332
0.829315 0.636322 0.159760
0.850067 0.634918 0.158966
0.868622 0.632751 0.157257
0.885468 0.629639 0.154449
0.900787 0.626160 0.151123
0.914001 0.621979 0.146820
0.926575 0.617432 0.142151
0.938751 0.612579 0.136810
0.949219 0.607483 0.131287
0.960724 0.601501 0.124512
0.971863 0.596802 0.118988
0.026306 0.525574 0.065613
0.054688 0.529724 0.067383
0.088470 0.535431 0.070129
0.121307 0.540802 0.073486
0.155426 0.546326 0.077362
0.192017 0.552277 0.082062
0.231964 0.558838 0.087372
0.275421 0.565887 0.093323
0.320160 0.573517 0.099365
0.364685 0.581818 0.105621
0.407867 0.591034 0.111664
0.448975 0.600647 0.117126
0.488068 0.610809 0.122833
0.525909 0.620728 0.128998
0.564178 0.629974 0.135834
0.604736 0.638611 0.143585
0.647400 0.646210 0.151489
0.690063 0.652588 0.158875
0.729797 0.657654 0.165100
0.765808 0.661530 0.170166
0.797546 0.664215 0.174042
0.825043 0.665680 0.176422
0.849335 0.665924 0.177551
0.871399 0.665070 0.177521
0.889252 0.663269 0.176270
0.905853 0.660614 0.174042
0.917694 0.657227 0.170959
0.930542 0.653229 0.167114
0.943939 0.648834 0.162689
0.955536 0.644012 0.157806
0.968872 0.639008 0.152649
0.978973 0.633301 0.146271
0.988373 0.628845 0.141266
0.035034 0.547119 0.069244
0.063324 0.551056 0.071045
0.095917 0.556305 0.073822
0.128082 0.561310 0.077240
0.161499 0.566589 0.081268
0.197754 0.572357 0.085938
0.237396 0.578583 0.091248
0.280334 0.585205 0.097351
0.324799 0.592651 0.103790
0.368958 0.600952 0.110199
0.412384 0.610138 0.116547
0.453766 0.620331 0.122833
0.492737 0.631073 0.129181
0.531372 0.641998 0.136475
0.571472 0.652710 0.144928
0.614044 0.662384 0.153961
0.658783 0.670746 0.162842
0.703583 0.678223 0.171265
0.744781 0.684296 0.178497
0.781555 0.689148 0.184631
0.813843 0.692566 0.189117
0.842346 0.694733 0.192383
0.865784 0.695587 0.194275
0.884003 0.695221 0.194763
0.898682 0.693817 0.194183
0.911469 0.691437 0.192505
0.923309 0.688263 0.189941
0.935944 0.684479 0.186676
0.947327 0.680145 0.182770
0.958984 0.675446 0.178436
0.969543 0.670654 0.173523
0.979919 0.665070 0.167725
0.991730 0.660675 0.162994
0.045227 0.568359 0.073059
0.072601 0.572021 0.075104
0.104370 0.576904 0.077942
0.135193 0.581665 0.081055
0.168365 0.586609 0.085175
0.204254 0.592072 0.090027
0.243469 0.597992 0.095367
0.285614 0.604462 0.101532
0.330170 0.611633 0.108063
0.374390 0.619751 0.114838
0.417450 0.629181 0.121674
0.458710 0.639740 0.128448
0.498108 0.651398 0.135834
0.537292 0.663330 0.144226
0.578430 0.675018 0.153870
0.623199 0.685822 0.164124
0.670380 0.695374 0.174133
0.716644 0.703644 0.183350
0.758606 0.710602 0.191406
0.795898 0.716583 0.198303
0.828369 0.720947 0.203674
