Kodak Vision3 500T (5219) - Look.cube
# Created by Benjamin (IWLTBAP) : http://luts.iwltbap.com
# Copyright: (C) Copyright 2010-2017 Triune Films and IWLTBAP SAS
# Cannot be resold, shared or otherwise redistributed
TITLE "Film Print Emulation LUTs Pack (Rec.709, sRGB, DCI-P3)"
LUT_3D_SIZE 33
0.001587 0.001587 0.000000
0.008698 0.000000 0.000000
0.017365 0.000000 0.000000
0.038696 0.000000 0.000000
0.067993 0.000000 0.000000
0.101990 0.000000 0.000824
0.137085 0.003937 0.003357
0.172546 0.009460 0.006561
0.204285 0.012634 0.004944
0.235352 0.018158 0.004883
0.262177 0.022125 0.003265
0.288971 0.025269 0.000000
0.315247 0.028442 0.000793
0.339783 0.030029 0.000793
0.361847 0.035553 0.000793
0.387421 0.038696 0.000793
0.413971 0.040314 0.000793
0.439270 0.045532 0.000000
0.464386 0.053741 0.000000
0.493317 0.050446 0.000000
0.517456 0.061157 0.000000
0.544464 0.060577 0.000000
0.571442 0.061188 0.000000
0.597198 0.064667 0.000000
0.623596 0.070160 0.000000
0.649811 0.076324 0.000000
0.675934 0.082123 0.000000
0.700134 0.089355 0.000000
0.725067 0.096527 0.000000
0.748260 0.104767 0.000763
0.770386 0.112091 0.000793
0.791473 0.119659 0.000793
0.810486 0.126801 0.000793
0.001587 0.001587 0.000000
0.007111 0.007904 0.000000
0.015808 0.011047 0.000000
0.038727 0.011047 0.000000
0.068512 0.011841 0.000000
0.102600 0.012634 0.002502
0.138489 0.017365 0.006714
0.174866 0.023682 0.009857
0.207916 0.028442 0.010651
0.239868 0.033966 0.009735
0.266876 0.037933 0.008087
0.294220 0.041840 0.003235
0.320679 0.044098 0.000793
0.345154 0.046265 0.000793
0.367828 0.049072 0.000793
0.392578 0.054382 0.000793
0.417480 0.059967 0.000000
0.445496 0.060577 0.000000
0.472015 0.066315 0.000000
0.496063 0.075317 0.000000
0.524414 0.075317 0.000000
0.551514 0.077301 0.000000
0.577148 0.082581 0.000000
0.603271 0.087585 0.000000
0.629395 0.093201 0.000000
0.654816 0.101685 0.000000
0.680878 0.106628 0.000000
0.705475 0.114197 0.000000
0.729675 0.121307 0.000000
0.751953 0.128357 0.000763
0.774231 0.135345 0.000793
0.793915 0.141724 0.000793
0.812714 0.149170 0.000793
0.000000 0.011841 0.004730
0.000000 0.015808 0.003143
0.013428 0.022919 0.000000
0.033966 0.023712 0.000000
0.062927 0.025269 0.000000
0.099701 0.026855 0.004211
0.136139 0.030792 0.010101
0.174713 0.037140 0.012299
0.211670 0.044800 0.016418
0.242950 0.050446 0.015442
0.270660 0.053741 0.012146
0.298340 0.057556 0.007294
0.325531 0.059967 0.001587
0.350159 0.062927 0.000793
0.373871 0.064087 0.000793
0.396210 0.070679 0.000793
0.422485 0.074799 0.000000
0.450073 0.077301 0.000000
0.476013 0.083954 0.000000
0.503265 0.087585 0.000000
0.530121 0.091919 0.000000
0.556793 0.096100 0.000000
0.580444 0.106232 0.000000
0.608826 0.109192 0.000000
0.634735 0.116608 0.000000
0.660400 0.122284 0.000000
0.685577 0.129303 0.000000
0.709442 0.136841 0.000000
0.733398 0.144531 0.000000
0.755188 0.151276 0.000763
0.776489 0.157776 0.000793
0.796295 0.164948 0.000793
0.814240 0.171356 0.000793
0.000000 0.023712 0.007111
0.000000 0.026062 0.007904
0.000000 0.034760 0.000000
0.031616 0.036346 0.000000
0.055695 0.037933 0.000000
0.095123 0.040283 0.001678
0.135345 0.046234 0.012604
0.175903 0.052429 0.015594
0.214691 0.060547 0.020508
0.247711 0.066864 0.021118
0.276703 0.070679 0.017029
0.304962 0.073792 0.011353
0.331665 0.076324 0.004761
0.356171 0.078766 0.000793
0.379883 0.080688 0.000793
0.403564 0.083038 0.000000
0.427765 0.090210 0.000000
0.455170 0.094452 0.000000
0.483215 0.097717 0.000000
0.507355 0.106628 0.000000
0.533752 0.111359 0.000000
0.560242 0.116272 0.000000
0.587219 0.121307 0.000000
0.614563 0.127106 0.000000
0.640350 0.134155 0.000000
0.665558 0.141724 0.000000
0.690033 0.149170 0.000000
0.712982 0.156494 0.000000
0.735809 0.163727 0.000763
0.756561 0.171112 0.000763
0.777618 0.177948 0.000793
0.796448 0.184723 0.000793
0.814453 0.191650 0.000793
0.000000 0.036346 0.008698
0.000000 0.038727 0.009460
0.000000 0.046265 0.006317
0.026855 0.051788 0.000000
0.051788 0.053131 0.000000
0.087158 0.055054 0.000000
0.131409 0.061707 0.013458
0.175842 0.068481 0.020508
0.216217 0.076782 0.025452
0.252136 0.083954 0.028442
0.282440 0.087128 0.021881
0.311188 0.090210 0.015320
0.337677 0.092773 0.008698
0.362061 0.095276 0.002380
0.385529 0.097717 0.000000
0.407898 0.101685 0.000000
0.433136 0.105499 0.000000
0.461487 0.109192 0.000000
0.488129 0.114532 0.000000
0.514557 0.120331 0.000000
0.540649 0.125519 0.000000
0.566376 0.131439 0.000000
0.592957 0.138275 0.000000
0.619537 0.145905 0.000000
0.644867 0.153137 0.000000
0.669678 0.160767 0.000000
0.693878 0.168060 0.000000
0.716492 0.175690 0.000000
0.738373 0.182770 0.000000
0.758667 0.190002 0.000000
0.778717 0.197327 0.000000
0.796661 0.204193 0.000000
0.814148 0.210999 0.000000
0.000000 0.047668 0.008698
0.000000 0.053741 0.008698
0.000000 0.058777 0.008698
0.025269 0.067444 0.000000
0.050446 0.072266 0.000000
0.079773 0.070679 0.000000
0.122742 0.077759 0.005890
0.174683 0.085693 0.026367
0.217224 0.093536 0.029572
0.252502 0.098511 0.027618
0.283722 0.102081 0.019470
0.312561 0.105133 0.012054
0.339081 0.107758 0.005554
0.364258 0.110291 0.000793
0.388214 0.112793 0.000000
0.409363 0.117981 0.000000
0.437408 0.122650 0.000000
0.464020 0.128998 0.000000
0.490204 0.134766 0.000000
0.519379 0.136810 0.000000
0.545410 0.142822 0.000000
0.571594 0.149414 0.000000
0.598083 0.156738 0.000000
0.623962 0.163971 0.000000
0.648560 0.171326 0.000000
0.672974 0.178619 0.000000
0.696930 0.186218 0.000000
0.718323 0.194305 0.000000
0.740021 0.200897 0.000000
0.759460 0.208008 0.000000
0.778961 0.215027 0.000000
0.796234 0.222687 0.000000
0.813538 0.229218 0.000000
0.000000 0.060577 0.006317
0.000000 0.066895 0.007904
0.000000 0.073792 0.003174
0.024475 0.083984 0.000000
0.051117 0.091095 0.000000
0.078796 0.091949 0.000000
0.112122 0.090668 0.000000
0.166718 0.102722 0.022369
0.216003 0.110870 0.035309
0.252014 0.114532 0.026001
0.283691 0.117645 0.017029
0.313171 0.120667 0.008789
0.339722 0.122986 0.002380
0.365143 0.125854 0.000793
0.389038 0.129333 0.000000
0.414276 0.133575 0.000000
0.441711 0.139465 0.000000
0.470123 0.143982 0.000000
0.495911 0.150482 0.000000
0.521484 0.156982 0.000000
0.549377 0.160522 0.000000
0.575714 0.168030 0.000000
0.601624 0.175690 0.000000
0.626740 0.183197 0.000000
0.652344 0.189575 0.000000
0.675995 0.196930 0.000000
0.698669 0.204193 0.000000
0.719696 0.210999 0.000000
0.740814 0.218628 0.000000
0.759949 0.225952 0.000000
0.779297 0.233215 0.000000
0.796783 0.241028 0.000000
0.812317 0.248566 0.000000
0.000000 0.076324 0.002380
0.000000 0.083496 0.001587
0.000000 0.090637 0.000000
0.025269 0.100128 0.000000
0.053772 0.108490 0.000000
0.083069 0.113861 0.000000
0.108856 0.113159 0.000000
0.158112 0.115265 0.003265
0.208954 0.127899 0.031189
0.248413 0.132019 0.026062
0.282471 0.134186 0.015411
0.312347 0.137146 0.005585
0.340271 0.139465 0.000793
0.366241 0.142303 0.000000
0.389160 0.146484 0.000000
0.417969 0.151062 0.000000
0.445801 0.156006 0.000000
0.473633 0.161285 0.000000
0.498871 0.168060 0.000000
0.526001 0.172729 0.000000
0.553589 0.178162 0.000000
0.579926 0.185364 0.000000
0.605316 0.193481 0.000000
0.630768 0.200104 0.000000
0.654938 0.207611 0.000000
0.677979 0.215027 0.000000
0.699951 0.221985 0.000000
0.720367 0.229187 0.000000
0.741119 0.236328 0.000000
0.759888 0.244049 0.000000
0.778961 0.251312 0.000000
0.796753 0.258636 0.000000
0.812592 0.266022 0.000000
0.000000 0.092346 0.000000
0.000000 0.099304 0.000793
0.000000 0.106995 0.000000
0.026855 0.114532 0.000000
0.051117 0.126495 0.000000
0.083984 0.133911 0.000000
0.112457 0.138031 0.000000
0.144287 0.132416 0.000000
0.199524 0.139160 0.007385
0.242615 0.149658 0.022034
0.278381 0.152374 0.013794
0.310669 0.154999 0.004822
0.339752 0.157562 0.000793
0.365784 0.160065 0.000000
0.392059 0.164978 0.000000
0.420959 0.169739 0.000000
0.448364 0.175293 0.000000
0.477081 0.179291 0.000000
0.503754 0.184509 0.000000
0.528778 0.191833 0.000000
0.556488 0.197510 0.000000
0.583191 0.203979 0.000000
0.608398 0.211884 0.000000
0.632355 0.219482 0.000000
0.656982 0.225616 0.000000
0.679077 0.232880 0.000000
0.700592 0.240051 0.000000
0.720398 0.247620 0.000000
0.740326 0.255219 0.000000
0.759094 0.262726 0.000000
0.778046 0.270264 0.000000
0.796021 0.277161 0.000000
0.811981 0.285309 0.000000
0.000000 0.108826 0.000000
0.000000 0.115234 0.000000
0.000000 0.122284 0.000000
0.029236 0.130219 0.000000
0.053101 0.143158 0.000000
0.083527 0.153442 0.000000
0.113159 0.160339 0.000000
0.145386 0.162079 0.000000
0.188599 0.153717 0.000000
0.233948 0.160583 0.000824
0.273682 0.169739 0.008118
0.307007 0.173492 0.000824
0.337952 0.176208 0.000000
0.365295 0.179779 0.000000
0.395355 0.183929 0.000000
0.423035 0.189636 0.000000
0.451782 0.194183 0.000000
0.480103 0.198761 0.000000
0.506195 0.204590 0.000000
0.532623 0.210388 0.000000
0.558990 0.217682 0.000000
0.585724 0.223511 0.000000
0.611389 0.230530 0.000000
0.634857 0.238281 0.000000
0.656891 0.245758 0.000000
0.679718 0.251587 0.000000
0.700714 0.258911 0.000000
0.720642 0.266022 0.000000
0.739929 0.274017 0.000000
0.758392 0.281311 0.000000
0.776917 0.289093 0.000000
0.795044 0.296722 0.000000
0.811096 0.304626 0.000000
0.001587 0.125519 0.000000
0.000793 0.131134 0.000000
0.004730 0.137695 0.000000
0.034760 0.147278 0.000000
0.055695 0.159821 0.000000
0.083527 0.171875 0.000000
0.112122 0.181091 0.000000
0.147308 0.186279 0.000000
0.182190 0.181549 0.000000
0.227020 0.175293 0.000824
0.267242 0.181549 0.000824
0.303406 0.190491 0.000000
0.333527 0.195007 0.000000
0.365997 0.200195 0.000000
0.397156 0.204834 0.000000
0.426300 0.209961 0.000000
0.456116 0.214172 0.000000
0.483826 0.219360 0.000000
0.510956 0.224762 0.000000
0.536774 0.231018 0.000000
0.562775 0.237946 0.000000
0.589020 0.244171 0.000000
0.613800 0.251282 0.000000
0.636292 0.258606 0.000000
0.658783 0.265137 0.000000
0.679443 0.272186 0.000000
0.699738 0.279297 0.000000
0.720337 0.286072 0.000000
0.739380 0.293549 0.000000
0.757416 0.301056 0.000000
0.775421 0.308716 0.000000
0.793762 0.317413 0.000000
0.809845 0.325409 0.000000
0.003937 0.143402 0.000000
0.004730 0.149170 0.000000
0.004730 0.155212 0.000000
0.039490 0.163971 0.000000
0.057556 0.175262 0.000000
0.084900 0.188599 0.000000
0.113861 0.199982 0.000000
0.148407 0.210693 0.000000
0.186066 0.212555 0.000000
0.217102 0.200378 0.000000
0.263702 0.198608 0.000000
0.298950 0.203888 0.000000
0.331879 0.212006 0.000000
0.365906 0.219757 0.000000
0.398285 0.225525 0.000000
0.427917 0.231140 0.000000
0.458008 0.235779 0.000000
0.486206 0.241852 0.000000
0.513336 0.248230 0.000000
0.540131 0.253815 0.000000
0.565552 0.260925 0.000000
0.590485 0.267548 0.000000
0.614868 0.274261 0.000000
0.637482 0.280640 0.000000
0.658142 0.287628 0.000000
0.679901 0.293549 0.000000
0.699280 0.301422 0.000000
0.719635 0.307495 0.000000
0.738495 0.315216 0.000000
0.756042 0.323029 0.000000
0.774200 0.331299 0.000000
0.792358 0.339539 0.000000
0.808594 0.347656 0.000000
0.005524 0.161530 0.000000
0.007111 0.167114 0.000000
0.011047 0.172729 0.000000
0.046265 0.181274 0.000000
0.061188 0.191681 0.000000
0.088043 0.204651 0.000000
0.115265 0.217804 0.000000
0.141754 0.230804 0.000000
0.190704 0.241425 0.000000
0.221191 0.235931 0.000000
0.257416 0.223114 0.000000
0.300446 0.222595 0.000000
0.334381 0.228455 0.000000
0.366669 0.236755 0.000000
0.398468 0.244904 0.000000
0.429901 0.251556 0.000000
0.459839 0.258148 0.000000
0.488556 0.265198 0.000000
0.516205 0.272339 0.000000
0.542297 0.278992 0.000000
0.568390 0.284973 0.000000
0.592621 0.291718 0.000000
0.616211 0.297943 0.000000
0.638031 0.304474 0.000000
0.659576 0.310608 0.000000
0.678955 0.318207 0.000000
0.699432 0.324707 0.000000
0.717926 0.331940 0.000000
0.736359 0.339935 0.000000
0.754395 0.348450 0.000000
0.773346 0.356018 0.000000
0.790588 0.363586 0.000000
0.806885 0.371063 0.000000
0.007904 0.180603 0.000000
0.011047 0.186432 0.000000
0.022125 0.192291 0.000000
0.049774 0.200714 0.000000
0.067444 0.209351 0.000000
0.092377 0.221161 0.000000
0.116974 0.235626 0.000000
0.142883 0.249878 0.000000
0.188202 0.263824 0.000000
0.230286 0.270355 0.000000
0.256073 0.260651 0.000000
0.298340 0.246155 0.000000
0.336334 0.247101 0.000000
0.368622 0.253235 0.000000
0.399445 0.261658 0.000000
0.430145 0.270935 0.000000
0.462128 0.279816 0.000000
0.490784 0.288208 0.000000
0.518982 0.295807 0.000000
0.544373 0.303223 0.000000
0.570007 0.310089 0.000000
0.593109 0.316925 0.000000
0.615936 0.323456 0.000000
0.637177 0.330261 0.000000
0.658142 0.336823 0.000000
0.678497 0.343628 0.000000
0.697235 0.351318 0.000000
0.717163 0.358002 0.000000
0.735657 0.366425 0.000000
0.752960 0.375244 0.000000
0.772247 0.381897 0.000000
0.788818 0.389313 0.000000
0.804718 0.396820 0.000000
0.013428 0.200714 0.000000
0.026855 0.206482 0.000000
0.036346 0.212646 0.000000
0.058777 0.219727 0.000000
0.074310 0.228241 0.000000
0.096924 0.238525 0.000000
0.120697 0.254120 0.000000
0.145111 0.269958 0.000000
0.186066 0.285278 0.000000
0.231628 0.296570 0.000000
0.267822 0.298462 0.000000
0.291138 0.284088 0.000000
0.336548 0.271210 0.000000
0.371307 0.272461 0.000000
0.402405 0.279297 0.000000
0.433350 0.289062 0.000000
0.463959 0.299194 0.000000
0.493408 0.309235 0.000000
0.520508 0.317505 0.000000
0.546143 0.326019 0.000000
0.570862 0.333862 0.000000
0.593689 0.340973 0.000000
0.615723 0.348511 0.000000
0.638336 0.354980 0.000000
0.657166 0.362762 0.000000
0.677124 0.369598 0.000000
0.697235 0.377289 0.000000
0.715454 0.385193 0.000000
0.734772 0.392273 0.000000
0.751648 0.400482 0.000000
0.770966 0.407654 0.000000
0.787628 0.415680 0.000000
0.803101 0.422943 0.000000
0.030029 0.221283 0.000000
0.037933 0.227844 0.000000
0.047668 0.233551 0.000000
0.066345 0.240753 0.000000
0.079254 0.248749 0.000000
0.104004 0.258728 0.000000
0.126831 0.273834 0.000000
0.149200 0.290222 0.000000
0.180450 0.306183 0.000000
0.232635 0.320648 0.000000
0.273438 0.329773 0.000000
0.302795 0.327545 0.000000
0.326538 0.311829 0.000000
0.370453 0.298218 0.000000
0.405426 0.300568 0.000000
0.436249 0.307648 0.000000
0.467010 0.317780 0.000000
0.495392 0.328125 0.000000
0.522095 0.337341 0.000000
0.547028 0.346313 0.000793
0.571472 0.354645 0.000000
0.594269 0.363037 0.000000
0.617035 0.371002 0.000000
0.637848 0.378876 0.000000
0.657928 0.386169 0.000000
0.678009 0.394135 0.000000
0.697021 0.402924 0.000000
0.715912 0.410278 0.000000
0.734375 0.417847 0.000000
0.752045 0.426270 0.000000
0.769104 0.434174 0.000000
0.787811 0.441101 0.000000
0.802612 0.448364 0.000000
0.039490 0.243256 0.000000
0.047668 0.249481 0.000000
0.058167 0.255554 0.000000
0.071716 0.262909 0.000000
0.089355 0.270752 0.000000
0.110321 0.281006 0.000000
0.130859 0.294159 0.000000
0.147858 0.311340 0.000000
0.181549 0.327545 0.000000
0.228088 0.344238 0.000000
0.276581 0.357788 0.000000
0.312164 0.365112 0.000000
0.337952 0.360077 0.000000
0.362549 0.343811 0.000000
0.405853 0.329559 0.000000
0.440094 0.330566 0.000000
0.469879 0.336761 0.000000
0.496826 0.345917 0.000000
0.523987 0.356201 0.000793
0.548615 0.364685 0.000000
0.572906 0.373474 0.000000
0.595673 0.382751 0.000000
0.617371 0.391052 0.000000
0.638458 0.399841 0.000000
0.659027 0.408325 0.000000
0.677948 0.417572 0.000000
0.697479 0.426331 0.000000
0.716644 0.434509 0.000000
0.734680 0.442474 0.000000
0.752930 0.450623 0.000000
0.771698 0.457733 0.000000
0.788849 0.465576 0.000000
0.804993 0.471375 0.000000
0.049072 0.265472 0.000000
0.049072 0.272217 0.000000
0.050446 0.279205 0.000000
0.066315 0.286652 0.000000
0.085327 0.294495 0.000000
0.109589 0.305298 0.000000
0.132080 0.316132 0.000000
0.149994 0.333496 0.000000
0.176208 0.350677 0.000000
0.223816 0.367828 0.000000
0.276184 0.384094 0.000000
0.315216 0.395203 0.000000
0.348297 0.399780 0.000000
0.370819 0.392883 0.000000
0.393951 0.377106 0.000000
0.435883 0.361572 0.000000
0.472443 0.360931 0.000000
0.500305 0.366272 0.000793
0.525177 0.374084 0.000000
0.549591 0.383392 0.000000
0.574066 0.392212 0.000000
0.597412 0.400879 0.000000
0.619171 0.410095 0.000000
0.640167 0.419800 0.000000
0.660675 0.429169 0.000000
0.680298 0.438110 0.000000
0.699432 0.448120 0.000000
0.718262 0.456970 0.000000
0.736298 0.465607 0.000000
0.754669 0.473236 0.000000
0.772827 0.480835 0.000000
0.791138 0.488068 0.000000
0.805817 0.494385 0.000000
0.039520 0.290253 0.000000
0.045532 0.297119 0.000000
0.053741 0.303772 0.000000
0.069611 0.311737 0.000000
0.093201 0.319458 0.000000
0.113159 0.330292 0.000000
0.136871 0.341766 0.000000
0.156006 0.357849 0.000000
0.170471 0.374725 0.000000
0.221710 0.392609 0.000000
0.276581 0.409210 0.000000
0.319183 0.421814 0.000000
0.353424 0.430481 0.000000
0.381775 0.434998 0.000000
0.403107 0.427734 0.000000
0.424103 0.411926 0.000000
0.461548 0.395111 0.000000
0.499847 0.391144 0.000000
0.527222 0.395355 0.000000
0.551422 0.402344 0.000000
0.575073 0.411346 0.000000
0.598480 0.419861 0.000000
0.620819 0.429291 0.000000
0.642090 0.438934 0.000000
0.662750 0.448792 0.000000
0.681885 0.458221 0.000000
0.701294 0.467773 0.000000
0.719330 0.476868 0.000000
0.738159 0.485931 0.000000
0.757111 0.494568 0.000000
0.774567 0.503174 0.000000
0.792480 0.510132 0.000000
0.808044 0.515991 0.000000
0.042603 0.315247 0.000000
0.053741 0.322144 0.000000
0.061768 0.329346 0.000000
0.081177 0.337433 0.000000
0.098114 0.345917 0.000000
0.124268 0.356934 0.000000
0.142609 0.369537 0.000000
0.158569 0.383331 0.000000
0.175537 0.400116 0.000000
0.220123 0.417450 0.000000
0.277252 0.434357 0.000000
0.321808 0.448242 0.000000
0.357269 0.459778 0.000000
0.388733 0.467499 0.000000
0.414246 0.471771 0.000000
0.434753 0.465393 0.000000
0.455017 0.450439 0.000000
0.485138 0.434296 0.000000
0.524384 0.423584 0.000000
0.552399 0.425415 0.000000
0.576721 0.431915 0.000000
0.600250 0.440399 0.000000
0.622314 0.449005 0.000000
0.643707 0.458374 0.000000
0.664093 0.467926 0.000000
0.683380 0.477661 0.000000
0.702850 0.487122 0.000000
0.721802 0.496704 0.000000
0.739929 0.506134 0.000000
0.758759 0.514801 0.000000
0.777039 0.523132 0.000000
0.794159 0.530731 0.000000
0.809174 0.537476 0.000000
0.056915 0.340759 0.000000
0.065765 0.348907 0.000000
0.080200 0.356262 0.000000
0.097717 0.364624 0.000000
0.115601 0.374573 0.000000
0.135071 0.386505 0.000000
0.153687 0.398438 0.000000
0.167389 0.409760 0.000000
0.187561 0.426178 0.000000
0.224670 0.442963 0.000000
0.280884 0.459686 0.000000
0.323700 0.474518 0.000000
0.361572 0.486664 0.000000
0.393921 0.496521 0.000000
0.421417 0.504028 0.000000
0.445557 0.506805 0.000000
0.466095 0.502594 0.000000
0.483551 0.489563 0.000000
0.510498 0.472290 0.000000
0.544769 0.459137 0.000000
0.576385 0.458038 0.000000
0.601074 0.463226 0.000000
0.623901 0.470612 0.000000
0.645447 0.478760 0.000000
0.665894 0.487823 0.000000
0.685669 0.496948 0.000000
0.705353 0.506439 0.000000
0.724365 0.515900 0.000000
0.742950 0.525482 0.000000
0.761108 0.534393 0.000000
0.779633 0.543060 0.000000
0.795685 0.550720 0.000000
0.810638 0.557495 0.000000
0.075806 0.369080 0.000000
0.087128 0.377197 0.000000
0.098511 0.385376 0.000000
0.115234 0.395111 0.000000
0.130554 0.405182 0.000000
0.149445 0.417145 0.000000
0.163757 0.427948 0.000000
0.175964 0.438721 0.000000
0.191925 0.452209 0.000000
0.232971 0.469177 0.000000
0.282837 0.484924 0.000000
0.333069 0.499451 0.000000
0.367859 0.513153 0.000000
0.401337 0.523468 0.000000
0.429596 0.532776 0.000000
0.454742 0.540680 0.000000
0.476929 0.542694 0.000000
0.496246 0.538422 0.000000
0.512634 0.527252 0.000000
0.534210 0.510864 0.000000
0.561218 0.498779 0.000000
0.595581 0.492157 0.000000
0.622772 0.495300 0.000000
0.645538 0.502228 0.000000
0.666595 0.509399 0.000000
0.687500 0.518036 0.000000
0.707520 0.526978 0.000000
0.726990 0.536133 0.000000
0.745850 0.545776 0.000000
0.764557 0.554932 0.000000
0.782745 0.563263 0.000000
0.798157 0.570892 0.000000
0.813446 0.577759 0.000000
0.097717 0.398468 0.000000
0.109558 0.408081 0.000000
0.119995 0.416779 0.000000
0.135071 0.425812 0.000000
0.148926 0.435394 0.000000
0.162537 0.446045 0.000000
0.173462 0.456909 0.000000
0.179108 0.466949 0.000000
0.212311 0.479828 0.000000
0.248108 0.495636 0.000000
0.293182 0.510071 0.000000
0.339813 0.524750 0.000000
0.378082 0.538269 0.000000
0.407501 0.550476 0.000000
0.437347 0.560760 0.000000
0.463348 0.569702 0.000000
0.486542 0.577087 0.000000
0.507904 0.579895 0.000000
0.525726 0.575714 0.000000
0.542267 0.566071 0.000000
0.558655 0.553986 0.000000
0.583099 0.538696 0.000000
0.606964 0.530823 0.000000
0.636322 0.530060 0.000000
0.664368 0.534241 0.000000
0.686829 0.541595 0.000000
0.707947 0.549591 0.000000
0.728180 0.558167 0.000000
0.747528 0.566956 0.000000
0.766296 0.575439 0.000000
0.785095 0.583954 0.000000
0.800079 0.591217 0.000000
0.815277 0.598145 0.000763
0.119995 0.428955 0.000000
0.131470 0.438843 0.000000
0.141174 0.447540 0.000000
0.154205 0.456451 0.000000
0.166168 0.464813 0.000000
0.176636 0.474945 0.000000
0.183014 0.485199 0.000000
0.204590 0.496490 0.000000
0.233368 0.507843 0.000000
0.272308 0.521942 0.000000
0.311401 0.536255 0.000000
0.350769 0.550995 0.000000
0.388245 0.565308 0.000000
0.417877 0.577332 0.000000
0.446625 0.588501 0.000000
0.473083 0.598053 0.000000
0.495575 0.607422 0.000000
0.517212 0.613647 0.000000
0.538300 0.616241 0.000000
0.556976 0.612885 0.000000
0.572479 0.604034 0.000000
0.587830 0.592560 0.000000
0.607056 0.578979 0.000000
0.628113 0.570892 0.000000
0.649231 0.568726 0.000000
0.675537 0.570129 0.000000
0.703033 0.574982 0.000000
0.725037 0.581818 0.000000
0.745392 0.589600 0.000000
0.766052 0.597443 0.000000
0.784576 0.605072 0.000763
0.800323 0.611969 0.000763
0.815063 0.618744 0.000793
0.140900 0.459106 0.000000
0.151031 0.468811 0.000000
0.159546 0.477814 0.000000
0.171112 0.485992 0.000000
0.180603 0.494202 0.000000
0.188751 0.503754 0.000000
0.198914 0.513458 0.000000
0.218964 0.524231 0.000000
0.261658 0.536438 0.000000
0.300873 0.549133 0.000000
0.332001 0.563721 0.000000
0.367432 0.577728 0.000000
0.397797 0.591614 0.000000
0.427765 0.603912 0.000000
0.455292 0.616425 0.000000
0.482513 0.626129 0.000000
0.505280 0.634613 0.000000
0.527252 0.643219 0.000000
0.548492 0.648834 0.000000
0.567871 0.650238 0.000000
0.586823 0.647980 0.000000
0.602417 0.640106 0.000000
0.615356 0.629700 0.000000
0.630890 0.619873 0.000000
0.650726 0.609589 0.000000
0.670502 0.606018 0.000000
0.691437 0.606293 0.000000
0.711975 0.609619 0.000000
0.737030 0.614288 0.000000
0.759094 0.620331 0.001556
0.778046 0.627014 0.000763
0.793945 0.633789 0.000793
0.808502 0.640137 0.000793
0.161041 0.488525 0.000000
0.170868 0.498993 0.000000
0.179718 0.508331 0.000000
0.188110 0.515869 0.000000
0.195709 0.523590 0.000000
0.201843 0.532196 0.000000
0.218414 0.542358 0.000000
0.256226 0.554779 0.000000
0.299408 0.566101 0.000000
0.337769 0.577820 0.000000
0.366089 0.591248 0.000000
0.387543 0.605286 0.000000
0.409912 0.618225 0.000000
0.437195 0.630127 0.000000
0.463959 0.641296 0.000000
0.488434 0.651978 0.000000
0.511658 0.660278 0.000000
0.533936 0.667999 0.000000
0.555084 0.674530 0.000000
0.574890 0.680634 0.000000
0.593781 0.681885 0.000000
0.611664 0.679535 0.000000
0.628357 0.673187 0.000000
0.641296 0.663940 0.000000
0.654785 0.655243 0.000000
0.673157 0.646881 0.000000
0.692322 0.642303 0.000000
0.710907 0.640167 0.000000
0.731384 0.642181 0.000000
0.750702 0.645691 0.000000
0.769012 0.650482 0.000000
0.786438 0.655457 0.000000
0.803070 0.660797 0.000793
0.181488 0.518402 0.000000
0.189148 0.528290 0.000000
0.196899 0.538086 0.000000
0.198517 0.545013 0.000000
0.198334 0.552032 0.000000
0.226288 0.562805 0.000000
0.261810 0.574127 0.000000
0.305511 0.584869 0.000000
0.340454 0.596252 0.000000
0.369751 0.607086 0.000000
0.388184 0.619904 0.000000
0.407440 0.632812 0.000000
0.426239 0.644653 0.000000
0.446808 0.656525 0.000000
0.471741 0.666321 0.000000
0.494629 0.675354 0.000000
0.515076 0.684296 0.000000
0.537201 0.691467 0.000000
0.559692 0.698029 0.000000
0.580139 0.704529 0.000000
0.598022 0.708740 0.000000
