Kodak Vision3 250D (5207) - Look.cube
# Created by Benjamin (IWLTBAP) : http://luts.iwltbap.com
# Copyright: (C) Copyright 2010-2017 Triune Films and IWLTBAP SAS
# Cannot be resold, shared or otherwise redistributed
TITLE "Film Print Emulation LUTs Pack (Rec.709, sRGB, DCI-P3)"
LUT_3D_SIZE 5
0.000000 0.000000 0.000000
0.224579 0.003479 0.003479
0.464844 0.026855 0.030060
0.685211 0.072693 0.068024
0.874390 0.129883 0.092102
0.009369 0.085663 0.004242
0.176605 0.132111 0.013947
0.479095 0.167847 0.024597
0.705627 0.208221 0.056427
0.886719 0.246490 0.085419
0.080200 0.252106 0.056335
0.169434 0.297546 0.065247
0.476929 0.360718 0.064545
0.746002 0.413727 0.074310
0.920807 0.436188 0.104431
0.183685 0.459900 0.138000
0.246887 0.485870 0.143524
0.551910 0.622925 0.175354
0.778534 0.626129 0.158325
0.957245 0.651489 0.159454
0.270447 0.628815 0.192780
0.341003 0.660950 0.207611
0.582611 0.762482 0.230621
0.827179 0.828766 0.238770
0.981598 0.826294 0.228851
0.009705 0.000031 0.111176
0.194275 0.012634 0.128662
0.471436 0.027069 0.147308
0.674530 0.049591 0.159973
0.866913 0.096497 0.191742
0.051453 0.147888 0.168640
0.116211 0.148682 0.159790
0.467712 0.194366 0.156433
0.712402 0.232819 0.170776
0.891357 0.267975 0.181091
0.098938 0.303833 0.218048
0.141968 0.315552 0.197144
0.453857 0.380859 0.201080
0.758240 0.403290 0.159088
0.924072 0.419250 0.181793
0.208496 0.504761 0.272247
0.254089 0.518646 0.259033
0.476562 0.610077 0.285614
0.780457 0.641510 0.250305
0.970520 0.670319 0.253204
0.282776 0.652161 0.293030
0.335175 0.671600 0.290161
0.548645 0.762665 0.323639
0.826996 0.846283 0.324249
0.988708 0.842163 0.313385
0.063416 0.034424 0.242981
0.106750 0.022614 0.249054
0.402588 0.064972 0.294708
0.651794 0.104797 0.318604
0.867432 0.109558 0.348236
0.115448 0.198608 0.319855
0.141113 0.201935 0.325958
0.346191 0.190521 0.309479
0.687164 0.218750 0.314453
0.876343 0.238220 0.316681
0.161652 0.338257 0.356598
0.194611 0.359131 0.370972
0.321472 0.386230 0.381744
0.740875 0.449066 0.365295
0.932861 0.464691 0.370819
0.204315 0.519592 0.415680
0.243805 0.547424 0.412567
0.356689 0.594482 0.415497
0.763885 0.676056 0.438965
0.984924 0.686462 0.409485
0.294006 0.675995 0.431213
0.337189 0.693481 0.419006
0.462189 0.749451 0.431366
0.801819 0.860565 0.475952
0.994781 0.869141 0.463531
0.114655 0.078613 0.361298
0.157684 0.064697 0.392670
0.292877 0.057617 0.389252
0.595093 0.119598 0.450958
0.820770 0.164673 0.481995
0.166748 0.237671 0.449463
0.191254 0.241547 0.458191
0.256592 0.202759 0.454865
0.592224 0.231262 0.458099
0.839661 0.279053 0.483337
0.211609 0.370209 0.486481
0.244446 0.391449 0.503448
0.293854 0.401459 0.525360
0.596954 0.415375 0.517334
0.895996 0.451172 0.518311
0.264771 0.531860 0.541351
0.304901 0.569031 0.565674
0.363586 0.597473 0.585602
0.629456 0.681763 0.633698
0.987732 0.733887 0.625671
0.302185 0.701569 0.597076
0.328094 0.717468 0.604095
0.392853 0.748108 0.608765
0.712799 0.851379 0.632751
1.000000 0.903625 0.656677
0.159119 0.112610 0.469757
0.194672 0.091370 0.491364
0.268280 0.075714 0.469543
0.483185 0.108093 0.519806
0.778259 0.169830 0.586639
0.202301 0.259644 0.539673
0.222687 0.255432 0.545288
0.260345 0.227570 0.541443
0.469879 0.212463 0.540222
0.793152 0.271698 0.592133
0.239075 0.384583 0.574951
0.263428 0.394440 0.587646
0.297424 0.393677 0.598907
0.489502 0.379730 0.609589
0.819916 0.421265 0.616241
0.289001 0.523560 0.616058
0.323425 0.548737 0.635315
0.368500 0.570709 0.660034
0.550537 0.639862 0.731171
0.890442 0.675964 0.730103
0.340424 0.681030 0.677490
0.373169 0.700897 0.693298
0.418915 0.728485 0.715118
0.541473 0.799805 0.770050
1.000000 0.947510 0.864563
