Kodak Vision2 500T Expression (5229) - Only color.cube
# Created by Benjamin (IWLTBAP) : http://luts.iwltbap.com
# Copyright: (C) Copyright 2010-2017 Triune Films and IWLTBAP SAS
# Cannot be resold, shared or otherwise redistributed
TITLE "Film Print Emulation LUTs Pack (Rec.709, sRGB, DCI-P3)"
LUT_3D_SIZE 9
0.000763 0.002350 0.003143
0.131012 0.001831 0.002075
0.254791 0.001526 0.001129
0.350525 0.004395 0.000427
0.425934 0.011353 0.000000
0.492096 0.014069 0.000000
0.571930 0.016876 0.000000
0.660797 0.024200 0.000000
0.738220 0.036591 0.000000
0.030823 0.162567 0.030060
0.149811 0.125183 0.020325
0.297333 0.147736 0.000000
0.392731 0.133118 0.000000
0.471466 0.117798 0.000000
0.551910 0.104034 0.000000
0.646729 0.104919 0.000000
0.732697 0.108093 0.000000
0.797241 0.110779 0.000000
0.066071 0.300537 0.064880
0.178162 0.266876 0.037628
0.296692 0.235443 0.032928
0.430908 0.251343 0.000000
0.530548 0.254395 0.000000
0.632812 0.231903 0.000000
0.727448 0.219482 0.000000
0.806122 0.218903 0.000000
0.865326 0.211060 0.000000
0.129944 0.413696 0.078369
0.203552 0.370605 0.054108
0.305176 0.359711 0.032166
0.425446 0.332977 0.040527
0.580200 0.337891 0.013458
0.695496 0.372620 0.000000
0.798279 0.352112 0.000000
0.868347 0.337372 0.000000
0.926849 0.326904 0.011017
0.189117 0.536652 0.093079
0.254700 0.479950 0.067596
0.313934 0.442444 0.048248
0.416504 0.449860 0.037476
0.549316 0.410797 0.052856
0.740204 0.422089 0.053528
0.837677 0.451080 0.041168
0.920563 0.460999 0.034302
0.970062 0.441711 0.053528
0.221771 0.669586 0.111877
0.288635 0.600433 0.082886
0.340820 0.553314 0.063110
0.424164 0.544281 0.053436
0.534637 0.552246 0.046875
0.691315 0.489288 0.066650
0.847748 0.506927 0.080597
0.932648 0.527679 0.097626
0.973358 0.583710 0.077484
0.274994 0.801941 0.118561
0.313629 0.737152 0.100342
0.365875 0.679352 0.076355
0.437805 0.652985 0.064301
0.539673 0.656067 0.059082
0.675232 0.663818 0.048279
0.802368 0.572144 0.084625
0.932220 0.595490 0.110260
0.973145 0.612762 0.141907
0.311066 0.911896 0.121307
0.350220 0.859711 0.112366
0.390289 0.807037 0.092499
0.453522 0.769440 0.071869
0.546295 0.763306 0.064392
0.681274 0.773438 0.060974
0.804077 0.788422 0.060333
0.899811 0.670807 0.110199
0.972626 0.680664 0.152863
0.329498 0.967834 0.125305
0.384399 0.958435 0.119568
0.418243 0.920074 0.106506
0.468201 0.877502 0.086823
0.555603 0.858185 0.072998
0.685181 0.866333 0.069946
0.803192 0.878357 0.073975
0.913147 0.879883 0.078735
0.970215 0.754883 0.138031
0.000275 0.001862 0.059662
0.060455 0.001587 0.032379
0.153381 0.001007 0.011322
0.267761 0.000183 0.009399
0.361664 0.000000 0.015106
0.438690 0.000000 0.020996
0.503143 0.000000 0.021027
0.575562 0.000000 0.020294
0.656250 0.000000 0.018829
0.046936 0.140076 0.128082
0.122528 0.131561 0.120087
0.253906 0.129181 0.101044
0.355194 0.124146 0.074890
0.448151 0.125519 0.067596
0.532990 0.117828 0.061401
0.621246 0.117950 0.060333
0.716675 0.120789 0.061493
0.787781 0.127319 0.067688
0.100586 0.314606 0.180725
0.177094 0.287811 0.173187
0.287872 0.245850 0.131287
0.406616 0.266846 0.132568
0.512146 0.255737 0.113220
0.613007 0.241638 0.099518
0.726990 0.237427 0.095367
0.811981 0.243591 0.101410
0.870483 0.238953 0.103638
0.164154 0.423187 0.187500
0.226105 0.404510 0.182831
0.310089 0.377350 0.167847
0.411835 0.342010 0.135406
0.555542 0.350891 0.115265
0.683746 0.374237 0.136322
0.787537 0.355927 0.125305
0.864594 0.346863 0.126068
0.927490 0.339111 0.129578
0.198090 0.533295 0.185394
0.270508 0.523224 0.194824
0.332001 0.479462 0.180237
0.419006 0.461456 0.165253
0.540344 0.427643 0.142609
0.720184 0.438477 0.136780
0.825653 0.464386 0.148468
0.914734 0.466736 0.153778
0.966187 0.450409 0.156281
0.224731 0.660522 0.199463
0.295837 0.656738 0.208710
0.361328 0.599457 0.194885
0.428955 0.563599 0.179016
0.532867 0.563354 0.168549
0.684723 0.514160 0.154816
0.836182 0.525909 0.159851
0.929291 0.547729 0.179718
0.972473 0.594788 0.186462
0.253082 0.796295 0.203400
0.327759 0.794525 0.219055
0.388336 0.740509 0.209106
0.448822 0.686005 0.190460
0.539520 0.675507 0.180267
0.672729 0.680969 0.171997
0.800201 0.600616 0.171509
0.930725 0.628571 0.201294
0.972107 0.646881 0.227478
0.284760 0.908386 0.201233
0.368225 0.908875 0.222900
0.419891 0.857849 0.218567
0.465454 0.809906 0.201691
0.546722 0.786499 0.188110
0.676422 0.789642 0.182251
0.804443 0.802887 0.183960
0.898895 0.699158 0.199799
0.971802 0.715454 0.229065
0.305206 0.967560 0.200775
0.391266 0.967377 0.225159
0.451263 0.959259 0.225494
0.492981 0.921997 0.212128
0.557587 0.889679 0.199982
0.681122 0.885834 0.195099
0.804932 0.897705 0.195282
0.912292 0.896484 0.193848
0.970520 0.787781 0.221588
0.000000 0.001495 0.105530
0.022675 0.001465 0.084930
0.087921 0.001190 0.053619
0.180481 0.000549 0.046387
0.285492 0.000000 0.042084
0.379974 0.000000 0.044952
0.460815 0.000000 0.043518
0.540314 0.000000 0.046356
0.638641 0.000000 0.055511
0.003235 0.084351 0.132965
0.073608 0.114594 0.172729
0.181763 0.113800 0.143463
0.280609 0.107178 0.121429
0.375854 0.103149 0.107391
0.470367 0.100281 0.098816
0.549042 0.093323 0.087372
0.643677 0.094299 0.090759
0.732117 0.098663 0.096558
0.076904 0.293182 0.244324
0.102692 0.263672 0.243347
0.259949 0.255768 0.234344
0.365173 0.250488 0.216858
0.471436 0.250031 0.201752
0.576416 0.246216 0.190094
0.691437 0.250061 0.187714
0.789917 0.252441 0.187958
0.853027 0.251953 0.193665
0.201935 0.448425 0.296234
0.210419 0.417664 0.284088
0.309265 0.400269 0.289062
0.399506 0.363220 0.253418
0.526123 0.377167 0.251343
0.656067 0.378662 0.249451
0.771484 0.368011 0.239838
0.855713 0.366211 0.234344
0.923767 0.360901 0.237762
0.273773 0.575989 0.304871
0.267426 0.531921 0.288818
0.339691 0.519196 0.298981
0.420074 0.486877 0.290253
0.527466 0.450287 0.258026
0.690704 0.456055 0.249268
0.811676 0.486877 0.269897
0.901917 0.477570 0.267609
0.963165 0.464386 0.265778
0.277191 0.688660 0.306305
0.291138 0.652283 0.289581
0.366913 0.649445 0.306915
0.440887 0.600983 0.301636
0.531403 0.581390 0.289185
0.666046 0.539917 0.264832
0.828033 0.557373 0.269775
0.925415 0.579529 0.284241
0.971924 0.603271 0.292755
0.288269 0.800629 0.287903
0.320465 0.789185 0.294434
0.395996 0.793182 0.317902
0.463074 0.741302 0.312286
0.542603 0.699158 0.298767
0.667145 0.699768 0.290314
0.785217 0.636200 0.277557
0.925323 0.661316 0.297211
0.971558 0.665955 0.308258
0.300598 0.896393 0.276367
0.361420 0.903473 0.298767
0.435516 0.911469 0.324188
0.492371 0.860382 0.321808
0.554749 0.815582 0.309540
0.671753 0.806519 0.302216
0.796295 0.815216 0.298004
0.893982 0.725647 0.295410
0.970764 0.753326 0.319427
0.310913 0.964722 0.270905
0.384033 0.966644 0.299622
0.458710 0.966644 0.327209
0.529083 0.960846 0.329407
0.576721 0.927399 0.318146
0.677002 0.906403 0.309174
0.801819 0.911011 0.306702
0.912537 0.916992 0.301392
0.969879 0.818420 0.318390
0.000000 0.005005 0.134094
0.020294 0.001495 0.121490
0.068176 0.001038 0.091736
0.123810 0.000763 0.072968
0.204193 0.000214 0.067078
0.296936 0.000000 0.065369
0.384247 0.000000 0.070312
0.468140 0.000000 0.066559
0.558411 0.000000 0.072510
0.000000 0.032928 0.103058
0.065247 0.111206 0.208893
0.150787 0.122162 0.195435
0.213837 0.111908 0.159882
0.298737 0.104401 0.142365
0.388885 0.099854 0.136566
0.491821 0.106079 0.139069
0.590820 0.102509 0.131592
0.697662 0.097839 0.134430
0.061249 0.206421 0.244476
0.064209 0.194336 0.261993
0.180298 0.235596 0.294983
0.310028 0.240692 0.265045
0.392212 0.239410 0.244873
0.502197 0.238312 0.233307
0.620026 0.234100 0.224091
0.722046 0.231903 0.224579
0.800446 0.231018 0.221283
0.148712 0.423309 0.357269
0.130524 0.396362 0.350250
0.213440 0.381622 0.355194
0.381317 0.383667 0.360992
0.495361 0.387238 0.354553
0.615173 0.385651 0.343536
0.737366 0.385315 0.337219
0.828094 0.382019 0.330963
0.895935 0.381531 0.332214
0.248718 0.566864 0.383575
0.244843 0.548187 0.381866
0.326324 0.533142 0.381073
0.421875 0.521423 0.400391
0.520660 0.487183 0.384796
0.666901 0.493103 0.376740
0.794159 0.499451 0.381592
0.885376 0.495941 0.376160
0.952728 0.488647 0.374939
0.313995 0.714417 0.403259
0.307861 0.692383 0.394348
0.356903 0.658295 0.380096
0.448181 0.654541 0.409729
0.537292 0.616974 0.404785
0.656860 0.577911 0.390991
0.805573 0.594482 0.391052
0.918182 0.621216 0.396454
0.971375 0.616669 0.398010
0.349457 0.826141 0.387512
0.340271 0.801300 0.381134
0.385468 0.785980 0.383453
0.468994 0.795135 0.416992
0.550751 0.747314 0.416290
0.665283 0.726776 0.407104
0.771240 0.682434 0.403992
0.916016 0.698608 0.408569
0.970520 0.713867 0.414825
0.354584 0.917786 0.370667
0.373535 0.895691 0.366882
0.443695 0.902405 0.387848
0.508575 0.911987 0.419403
0.574066 0.866913 0.426117
0.671204 0.831024 0.417297
0.793549 0.836792 0.413696
0.889313 0.771179 0.407410
0.969604 0.796753 0.426727
0.343750 0.959076 0.353271
0.395935 0.961548 0.355377
0.465057 0.965393 0.385406
0.538879 0.965393 0.424866
0.618103 0.962311 0.430511
0.699036 0.935455 0.423798
0.806580 0.930084 0.419281
0.913208 0.936096 0.414032
0.969177 0.855347 0.426025
0.000000 0.024902 0.143158
0.000946 0.024139 0.170563
0.061462 0.002350 0.135376
0.104767 0.000671 0.105164
0.159515 0.000397 0.085785
0.235992 0.000000 0.083038
0.314117 0.000000 0.085693
0.396149 0.000000 0.092010
0.469086 0.000000 0.095947
0.000000 0.015167 0.104492
0.058197 0.117950 0.245758
0.140289 0.133270 0.244049
0.184662 0.119690 0.204651
0.248810 0.109192 0.171936
0.319275 0.103577 0.163940
0.402222 0.102386 0.161743
0.494415 0.110046 0.169830
0.601746 0.115448 0.173737
0.042755 0.131622 0.203796
0.055969 0.151428 0.247833
0.170288 0.231110 0.325989
0.280579 0.251251 0.315552
0.335327 0.237305 0.277527
0.413696 0.237305 0.268982
0.517242 0.236511 0.264587
0.648376 0.235107 0.257996
0.759552 0.233368 0.269623
0.065948 0.340607 0.357178
0.065002 0.307434 0.353668
0.086365 0.302002 0.377106
0.314087 0.365784 0.407043
0.436707 0.378906 0.389740
0.530304 0.380249 0.377411
0.665375 0.377380 0.373260
0.774750 0.372711 0.365875
0.850342 0.366791 0.363831
0.211517 0.551605 0.452911
0.185699 0.516296 0.449677
0.205170 0.493103 0.449493
0.338684 0.501678 0.473083
0.501160 0.510223 0.488953
0.629272 0.513306 0.481537
0.752930 0.513275 0.476440
0.850159 0.516266 0.472382
0.924835 0.514404 0.469299
0.280548 0.699646 0.480469
0.274384 0.681854 0.484985
0.310760 0.671143 0.480927
0.436707 0.672150 0.500549
0.534821 0.655121 0.525177
0.644897 0.611786 0.517151
0.790527 0.623901 0.514404
0.907776 0.642883 0.516388
0.968231 0.632019 0.508118
0.336517 0.814178 0.477234
0.337036 0.811340 0.483093
0.395355 0.802399 0.480988
0.476166 0.789337 0.495911
0.555573 0.796448 0.536285
0.664490 0.762726 0.536865
0.767426 0.718231 0.530273
0.903748 0.727875 0.527710
0.969238 0.763489 0.525604
0.394501 0.911194 0.466888
0.423645 0.911652 0.467346
0.470367 0.903351 0.467926
0.530060 0.900513 0.490082
0.593994 0.918304 0.541412
0.695435 0.876892 0.546692
0.796478 0.857819 0.540741
0.887604 0.807281 0.541687
0.968475 0.823547 0.538849
0.377289 0.938019 0.444031
0.420898 0.943695 0.440857
0.483490 0.955811 0.449707
0.553955 0.964264 0.487885
0.635803 0.963440 0.540588
0.732635 0.962494 0.554565
0.812927 0.948883 0.546722
0.913574 0.952209 0.543793
0.968262 0.897461 0.542206
0.000000 0.037201 0.168854
0.000000 0.042267 0.202301
0.045593 0.028198 0.184906
0.098022 0.004303 0.147980
0.146545 0.000244 0.117584
0.190491 0.000061 0.102997
0.254913 0.000000 0.098969
0.330170 0.000000 0.103943
0.409119 0.000671 0.112274
0.000000 0.024078 0.123260
0.051056 0.126343 0.276764
0.116486 0.151428 0.293274
0.170959 0.129364 0.248627
0.222656 0.115692 0.215698
0.280762 0.106812 0.189911
0.338135 0.101959 0.181213
0.416382 0.103638 0.180634
0.503204 0.111603 0.192963
0.012970 0.088745 0.171326
0.051056 0.135529 0.255310
0.148956 0.234589 0.361877
0.266327 0.261078 0.358459
0.308472 0.245850 0.324768
0.364777 0.235840 0.294617
0.438171 0.235992 0.288239
0.530853 0.235352 0.287659
0.649933 0.237854 0.290405
0.067932 0.252441 0.319641
0.067932 0.241425 0.328613
0.096161 0.262634 0.374481
0.307190 0.360107 0.440613
0.402435 0.382812 0.433655
0.461731 0.379608 0.405762
0.551086 0.378693 0.398132
0.678589 0.376282 0.393860
0.790283 0.368164 0.392303
0.145905 0.463562 0.452209
0.120575 0.424286 0.445343
0.109802 0.400604 0.454468
0.188904 0.413727 0.494446
0.435547 0.480133 0.537384
0.554962 0.504608 0.523804
0.667755 0.507751 0.516754
0.789856 0.507233 0.512054
0.880676 0.501221 0.503967
0.257477 0.684265 0.550659
0.243011 0.654175 0.546356
0.232880 0.624603 0.544800
0.300812 0.612762 0.568604
0.453827 0.620972 0.595642
0.614594 0.637054 0.623596
0.760406 0.642426 0.614502
0.866760 0.643280 0.614044
0.946930 0.645111 0.605835
0.304108 0.808868 0.566010
0.298309 0.802246 0.578644
0.331757 0.794739 0.584503
0.432220 0.795776 0.602966
0.543274 0.793488 0.627563
0.669006 0.798676 0.664825
0.766357 0.745148 0.651733
0.901215 0.768250 0.643341
0.967896 0.786011 0.651855
0.354248 0.898895 0.548920
0.369019 0.901703 0.566650
0.443359 0.910095 0.581024
0.530426 0.911560 0.599518
0.621796 0.902710 0.616821
0.715302 0.920410 0.668396
0.809387 0.888794 0.674408
0.894348 0.835266 0.659332
0.967316 0.853271 0.654755
0.376617 0.927887 0.530701
0.408478 0.928894 0.546051
0.479065 0.937775 0.555298
0.563965 0.947693 0.561768
0.663879 0.962616 0.605011
0.748413 0.961090 0.666779
0.833466 0.961426 0.677307
0.922455 0.959351 0.671478
0.966949 0.931183 0.655945
0.000000 0.051849 0.200012
0.000000 0.054810 0.225342
0.030945 0.044006 0.222687
0.076904 0.024994 0.191650
0.135071 0.004425 0.161804
0.173309 0.000031 0.124146
0.213684 0.000000 0.111633
0.280273 0.000000 0.113251
0.350952 0.000000 0.118622
0.000000 0.037170 0.153778
0.054779 0.141388 0.304169
0.096100 0.161438 0.325012
0.158386 0.146179 0.296204
0.205170 0.128357 0.257568
0.254456 0.113800 0.223572
0.301849 0.108429 0.200470
0.356689 0.099884 0.198639
0.434357 0.100739 0.199738
0.000000 0.047119 0.132965
0.052979 0.138641 0.275177
0.131775 0.241394 0.394714
0.244629 0.269043 0.397491
0.292633 0.257965 0.363434
0.337219 0.244141 0.335693
0.389648 0.236664 0.306763
0.456512 0.235657 0.304443
0.548096 0.235046 0.305450
0.064148 0.205444 0.294647
0.064148 0.202545 0.305023
0.093658 0.251801 0.383881
0.296600 0.363525 0.473846
0.379059 0.384247 0.472961
0.426910 0.381653 0.449341
0.491638 0.380432 0.421844
0.573181 0.377045 0.416962
0.688599 0.375885 0.416412
0.088104 0.366211 0.417145
0.077789 0.349945 0.422241
0.078705 0.347412 0.444885
0.181641 0.384155 0.500122
0.428467 0.472351 0.566650
0.520111 0.501404 0.570770
0.580261 0.504425 0.550262
0.692017 0.505798 0.546539
0.800659 0.503906 0.544128
0.208160 0.590454 0.548950
0.182220 0.548462 0.537262
0.160950 0.514954 0.543549
0.170441 0.501617 0.578552
0.335693 0.525757 0.607025
0.555328 0.593597 0.652344
0.688690 0.626831 0.657837
0.795593 0.637421 0.657715
0.899261 0.633026 0.650085
0.287354 0.804291 0.632629
0.279602 0.787903 0.645996
0.274536 0.761017 0.655243
0.289917 0.739807 0.667572
0.416992 0.736694 0.680908
0.558533 0.735626 0.705322
0.747559 0.760345 0.742767
0.881042 0.777069 0.750397
0.960968 0.777130 0.735748
0.327393 0.900238 0.632721
0.327728 0.894165 0.653229
0.381226 0.887451 0.667633
0.458984 0.894073 0.688751
0.558441 0.907501 0.722290
0.688080 0.908813 0.751678
0.820557 0.920349 0.798706
0.896942 0.864227 0.777252
0.966034 0.886841 0.778503
0.346680 0.930359 0.614319
0.368408 0.933136 0.630493
0.434265 0.938995 0.654633
0.516296 0.946136 0.676849
0.621124 0.955658 0.700165
0.754822 0.960754 0.715942
0.848755 0.958771 0.799530
0.932465 0.959900 0.805298
0.965271 0.953400 0.778687
0.006500 0.067352 0.219879
0.009766 0.072144 0.245667
0.020386 0.060364 0.253693
0.069061 0.039001 0.221344
0.114319 0.019318 0.195923
0.159088 0.000122 0.161774
0.203644 0.000000 0.130524
0.248138 0.000000 0.122711
0.302155 0.000000 0.122650
0.000000 0.053314 0.188599
0.058136 0.152283 0.322144
0.076874 0.172668 0.359283
0.150848 0.159241 0.333374
0.188446 0.145294 0.298340
0.241180 0.125977 0.262207
0.284241 0.112671 0.227173
0.327606 0.103638 0.212524
0.379547 0.097778 0.209869
0.000000 0.034637 0.136902
0.057068 0.151428 0.300262
0.102783 0.249359 0.421692
0.222412 0.277161 0.431519
0.277588 0.265717 0.397156
0.315399 0.254852 0.369171
0.362213 0.240173 0.337677
0.417877 0.237274 0.317963
0.476746 0.234680 0.319427
0.054810 0.158417 0.256805
0.058136 0.163788 0.282562
0.087219 0.253326 0.404205
0.276947 0.363220 0.511108
0.360321 0.386902 0.509796
0.403564 0.382599 0.478668
0.451263 0.380859 0.459900
0.522858 0.379059 0.433807
0.596100 0.376404 0.434540
0.066895 0.310883 0.391724
0.067841 0.309418 0.403229
0.071655 0.309418 0.425964
0.186584 0.370667 0.513336
0.417816 0.468414 0.593140
0.496033 0.498169 0.597595
0.545105 0.500671 0.581360
0.607758 0.503662 0.570984
0.715363 0.504272 0.571472
0.146210 0.473938 0.504303
0.138062 0.447266 0.508575
0.134399 0.436920 0.525757
0.140381 0.441467 0.577637
0.318176 0.492218 0.629303
0.547821 0.578186 0.674286
0.639374 0.615234 0.692474
0.718781 0.627930 0.681244
0.813324 0.634796 0.686005
0.253784 0.717194 0.654358
0.238556 0.679840 0.644836
0.219543 0.644623 0.636353
0.208893 0.621552 0.659729
0.309479 0.620422 0.691742
0.463898 0.632233 0.708618
0.689972 0.708649 0.766449
0.813354 0.755981 0.783936
0.911591 0.763489 0.786224
0.308319 0.893585 0.703491
0.302521 0.874939 0.714630
0.301788 0.853790 0.725037
0.327972 0.842407 0.741760
0.424683 0.838074 0.755157
0.554230 0.838104 0.778168
0.712708 0.844238 0.820709
0.880157 0.877502 0.864990
0.965942 0.895508 0.879883
0.322937 0.934540 0.700439
0.326508 0.933411 0.715271
0.361023 0.935364 0.735352
0.436676 0.938690 0.761017
0.540283 0.949677 0.785583
0.672363 0.958862 0.826813
0.807098 0.960419 0.856476
0.939880 0.957031 0.923920
0.963348 0.959167 0.899231
0.025299 0.091156 0.247040
0.027740 0.092987 0.272308
0.022858 0.079895 0.289703
0.065277 0.056305 0.256439
0.115540 0.034790 0.224548
0.155945 0.013794 0.195557
0.187378 0.000000 0.155548
0.226715 0.000000 0.136261
0.270935 0.000000 0.132812
0.006500 0.070953 0.216400
0.061188 0.165100 0.345001
0.066956 0.184692 0.386505
0.143829 0.177399 0.369049
0.188446 0.153137 0.330597
0.237274 0.137665 0.297974
0.274170 0.121460 0.260406
0.307556 0.110382 0.228882
0.345703 0.100311 0.218781
0.000000 0.048767 0.178192
0.060211 0.163788 0.323029
0.084137 0.255402 0.455170
0.197906 0.282349 0.469147
0.268799 0.270447 0.431671
0.306519 0.261505 0.396912
0.348877 0.251373 0.368073
0.388550 0.237274 0.338318
0.441528 0.237122 0.324158
0.032562 0.109283 0.216034
0.055939 0.152283 0.288452
0.077789 0.260162 0.431854
0.252777 0.363739 0.554352
0.347473 0.389313 0.554321
0.389771 0.383667 0.511505
0.432281 0.382141 0.485352
0.481232 0.379547 0.462280
0.550354 0.378387 0.444794
0.071686 0.272247 0.375732
0.072632 0.265106 0.379303
0.073608 0.273407 0.412201
0.190063 0.366974 0.545563
0.406677 0.464478 0.621277
0.482391 0.493225 0.625610
0.526917 0.497284 0.604706
0.566223 0.498932 0.589203
0.643890 0.505463 0.581451
0.113373 0.402832 0.477997
0.112610 0.399445 0.491180
0.114960 0.401337 0.518829
0.131195 0.408203 0.574219
0.330933 0.477081 0.648163
0.539612 0.570984 0.694214
0.621185 0.606018 0.709961
0.674835 0.616180 0.704193
0.744598 0.631744 0.695618
0.189728 0.579407 0.594238
0.179077 0.554657 0.605804
0.173706 0.541504 0.624268
0.174957 0.541962 0.664062
0.274445 0.565338 0.709167
0.464294 0.598694 0.721100
0.685028 0.694489 0.784424
0.766632 0.735229 0.821899
0.830231 0.759888 0.810913
0.280731 0.815125 0.719666
0.271484 0.792511 0.720337
0.259399 0.760284 0.719513
0.251984 0.736481 0.736298
0.301392 0.733673 0.764618
0.446136 0.730621 0.775085
0.574036 0.733856 0.801025
0.816803 0.825714 0.892548
0.922974 0.881622 0.909698
0.305084 0.912842 0.773682
0.301300 0.903961 0.780701
0.297699 0.895111 0.786194
0.297699 0.886139 0.798676
0.407501 0.896637 0.812286
0.529938 0.906677 0.836212
0.676025 0.924194 0.873016
0.831360 0.948761 0.930298
0.962891 0.956543 0.954773
