Kodachrome 25 (K-14) - Look.cube
# Copyright: (C) Copyright 2017 by IWLTBAP
# Cannot be resold, shared or otherwise redistributed
# Website: https://luts.iwltbap.com
TITLE "Kodak Kodachrome 25 (K-14) - Neutral (Rec.709 sRGB)"
LUT_3D_SIZE 9
0.000000 0.000000 0.000000
0.059863 0.000000 0.000000
0.158128 0.000000 0.000000
0.301745 0.000000 0.000000
0.598803 0.000000 0.001994
0.903889 0.000000 0.000000
0.974341 0.000000 0.000000
0.974790 0.061791 0.000000
0.975129 0.223146 0.091454
0.034982 0.118038 0.053119
0.117136 0.110906 0.023993
0.271386 0.114780 0.014988
0.447042 0.126120 0.011580
0.710543 0.125487 0.000000
0.862603 0.165356 0.011461
0.943280 0.240975 0.053208
0.975108 0.316919 0.118798
0.975087 0.378476 0.165253
0.019082 0.344283 0.192631
0.135116 0.336834 0.173976
0.332823 0.330281 0.125030
0.500983 0.334778 0.111001
0.651905 0.340787 0.110667
0.762949 0.364199 0.114831
0.853594 0.389438 0.130412
0.935879 0.425192 0.155087
0.975252 0.464191 0.212237
0.271958 0.522443 0.233366
0.334990 0.507076 0.223038
0.434815 0.502182 0.210578
0.523733 0.494199 0.193218
0.632195 0.489747 0.177855
0.729634 0.486865 0.174540
0.821274 0.494695 0.170765
0.908144 0.511183 0.184643
0.975645 0.537005 0.222481
0.454738 0.632438 0.271938
0.480275 0.627118 0.268297
0.515196 0.614126 0.260732
0.577199 0.611446 0.255190
0.639933 0.598209 0.242441
0.712255 0.590607 0.238273
0.792548 0.591963 0.229651
0.889888 0.592191 0.218213
0.976104 0.601113 0.223326
0.543658 0.715497 0.306460
0.559152 0.707515 0.301035
0.588190 0.698117 0.297709
0.619684 0.690451 0.291285
0.674470 0.686130 0.284849
0.731415 0.680531 0.277116
0.800901 0.679403 0.268977
0.894591 0.676113 0.262387
0.976716 0.678381 0.255537
0.604614 0.797877 0.341779
0.618837 0.787268 0.338037
0.641395 0.783471 0.335363
0.664663 0.771715 0.331519
0.709014 0.769859 0.324932
0.756100 0.766457 0.322301
0.814900 0.764056 0.315220
0.900586 0.760124 0.304792
0.977189 0.759950 0.291571
0.702833 0.905929 0.396122
0.706553 0.898941 0.391829
0.722052 0.893503 0.388474
0.742932 0.889318 0.381004
0.767517 0.885677 0.381050
0.808041 0.880875 0.377652
0.853082 0.874274 0.369390
0.931280 0.878513 0.365407
0.977480 0.878475 0.355042
0.788148 0.980533 0.428680
0.803538 0.980522 0.424705
0.811038 0.980510 0.428809
0.833696 0.980481 0.428676
0.857439 0.982330 0.422470
0.887121 0.980379 0.422035
0.922632 0.980311 0.419621
0.971616 0.980684 0.412495
0.977775 0.987864 0.412777
0.000000 0.002863 0.075112
0.016620 0.000000 0.109787
0.104348 0.000000 0.119592
0.241039 0.000000 0.116227
0.541387 0.000000 0.063730
0.855261 0.000000 0.032466
0.969075 0.000000 0.039460
0.975139 0.054696 0.125016
0.975050 0.226736 0.256991
0.010337 0.106689 0.114568
0.086482 0.099112 0.118764
0.249479 0.099561 0.106661
0.418058 0.106843 0.106075
0.667224 0.099214 0.095455
0.846320 0.140771 0.096506
0.927655 0.211016 0.154125
0.972565 0.294502 0.231125
0.974953 0.374059 0.299236
0.015318 0.321724 0.219522
0.119816 0.318412 0.216887
0.318809 0.315065 0.171200
0.491446 0.319336 0.168733
0.637854 0.323029 0.164709
0.752652 0.350948 0.179300
0.839636 0.377619 0.211553
0.923521 0.414170 0.252777
0.975086 0.456801 0.304222
0.254792 0.517685 0.250494
0.329153 0.503565 0.243243
0.417447 0.494181 0.226547
0.512274 0.483917 0.215936
0.617596 0.476680 0.215580
0.716012 0.479255 0.214060
0.801193 0.484157 0.224588
0.898477 0.502856 0.243845
0.975507 0.529543 0.279265
0.446775 0.627073 0.284626
0.467187 0.618840 0.277119
0.510693 0.611485 0.270547
0.569600 0.602037 0.262881
0.637708 0.592165 0.252744
0.713354 0.584174 0.244427
0.796002 0.583435 0.243477
0.886279 0.586391 0.245186
0.975984 0.597000 0.258750
0.543607 0.711487 0.320902
0.553603 0.700064 0.313356
0.587633 0.698101 0.310478
0.615842 0.689361 0.300403
0.666714 0.682439 0.294020
0.728817 0.676990 0.289062
0.796944 0.671987 0.279191
0.884519 0.671705 0.271650
0.976654 0.671481 0.261498
0.601210 0.791461 0.355923
0.614966 0.783731 0.349345
0.634058 0.775962 0.346386
0.663774 0.769204 0.339381
0.700462 0.765986 0.334243
0.749341 0.764608 0.330497
0.817786 0.759362 0.318831
0.897116 0.756492 0.312918
0.977183 0.759928 0.298799
0.694895 0.898345 0.406750
0.698967 0.895931 0.399235
0.714716 0.889173 0.396183
0.739732 0.890198 0.395655
0.763938 0.883789 0.390074
0.804057 0.878027 0.384815
0.855822 0.877578 0.377159
0.927886 0.874746 0.372755
0.977486 0.878468 0.365570
0.780193 0.980529 0.439737
0.795569 0.980515 0.439251
0.814494 0.980495 0.439495
0.832280 0.976588 0.435558
0.854090 0.978495 0.437636
0.883633 0.978435 0.431895
0.926030 0.981234 0.431099
0.974430 0.983536 0.426984
0.977774 0.983953 0.420353
0.000000 0.022251 0.178340
0.010336 0.018948 0.179734
0.039308 0.000000 0.247250
0.198036 0.000000 0.235176
0.502625 0.000000 0.174010
0.846465 0.000000 0.117856
0.971341 0.000000 0.114667
0.975026 0.022994 0.180774
0.974995 0.225774 0.311073
0.000000 0.090355 0.236104
0.024870 0.091396 0.252513
0.178708 0.069752 0.291576
0.381491 0.089275 0.249049
0.638086 0.083694 0.223641
0.828950 0.115413 0.225572
0.913306 0.202182 0.273532
0.969368 0.289653 0.329236
0.974972 0.367427 0.383162
0.019737 0.299141 0.330359
0.079651 0.303578 0.325717
0.246094 0.295986 0.323902
0.450737 0.295535 0.306487
0.612809 0.308948 0.303895
0.726234 0.339583 0.329351
0.816657 0.366461 0.337924
0.900619 0.400340 0.373181
0.975104 0.445884 0.408663
0.223275 0.513839 0.378727
0.260778 0.491582 0.361025
0.376583 0.482114 0.336311
0.482060 0.470036 0.322804
0.599232 0.468153 0.323568
0.691448 0.469894 0.328231
0.782046 0.476372 0.343488
0.875152 0.491708 0.367010
0.974221 0.517684 0.406424
0.433847 0.623495 0.314614
0.458627 0.611432 0.307461
0.500127 0.603898 0.304016
0.552532 0.594573 0.298691
0.621716 0.585561 0.297418
0.697927 0.578764 0.295354
0.780405 0.576038 0.304191
0.866688 0.577730 0.320172
0.975876 0.589690 0.362052
0.534396 0.707411 0.328208
0.547511 0.693151 0.324323
0.577371 0.691221 0.321463
0.615323 0.682709 0.308659
0.660317 0.675370 0.300779
0.721440 0.667767 0.297132
0.795360 0.667595 0.292445
0.883925 0.663294 0.287997
0.976594 0.668140 0.294754
0.599626 0.789964 0.367104
0.614399 0.780658 0.363410
0.634010 0.778414 0.356764
0.663719 0.774598 0.353565
0.697917 0.765028 0.343607
0.749253 0.763144 0.340243
0.810948 0.753881 0.331203
0.895988 0.756478 0.319308
0.977178 0.759923 0.312496
0.689995 0.899279 0.416612
0.702433 0.893415 0.410397
0.717295 0.889219 0.407288
0.735252 0.883732 0.406477
0.764899 0.882693 0.401451
0.802588 0.878553 0.395420
0.855783 0.875709 0.390463
0.931281 0.874739 0.383808
0.977489 0.875536 0.376420
0.788114 0.983385 0.454135
0.802518 0.983375 0.449929
0.814937 0.980490 0.443354
0.832290 0.979472 0.442988
0.854599 0.981373 0.442372
0.883661 0.980837 0.442450
0.925618 0.980285 0.438162
0.975294 0.980650 0.434398
0.977780 0.983949 0.424020
0.000000 0.034695 0.238984
0.014256 0.026478 0.227171
0.031432 0.022633 0.256366
0.147151 0.000000 0.318548
0.461104 0.000000 0.237928
0.800633 0.000000 0.174031
0.972217 0.000000 0.160223
0.974971 0.019826 0.229709
0.975017 0.210795 0.354767
0.000000 0.088195 0.303878
0.009511 0.087123 0.299991
0.096923 0.036382 0.408716
0.346207 0.057818 0.312903
0.601325 0.067651 0.295393
0.822412 0.086541 0.281814
0.917058 0.161501 0.316335
0.969401 0.272112 0.383238
0.975028 0.360449 0.430171
0.000000 0.282645 0.441884
0.047013 0.264848 0.427916
0.174735 0.280763 0.423969
0.406519 0.268033 0.403307
0.590520 0.289221 0.398767
0.710639 0.311816 0.402930
0.807166 0.351556 0.414323
0.889574 0.389626 0.438055
0.975221 0.444916 0.469216
0.119655 0.490138 0.517827
0.176474 0.475250 0.504538
0.287507 0.469523 0.493974
0.418069 0.459035 0.478597
0.550582 0.451536 0.463993
0.658973 0.453381 0.456243
0.757391 0.462503 0.464239
0.853129 0.481780 0.465679
0.964106 0.510104 0.488214
0.340619 0.606580 0.510209
0.371019 0.598810 0.499348
0.424383 0.586730 0.481643
0.500633 0.580161 0.458182
0.576020 0.569923 0.450273
0.663343 0.567174 0.448303
0.743392 0.565278 0.460608
0.844080 0.567432 0.467321
0.963071 0.579394 0.485566
0.514769 0.700736 0.395755
0.527509 0.689107 0.381772
0.548761 0.682456 0.383715
0.592750 0.679144 0.378699
0.639354 0.671362 0.368874
0.699326 0.664910 0.372577
0.767062 0.662240 0.377730
0.861984 0.658052 0.400392
0.976608 0.657080 0.438753
0.594186 0.787082 0.376789
0.611935 0.779821 0.371832
0.628449 0.772473 0.366969
0.658745 0.769114 0.361737
0.695901 0.764001 0.356184
0.746724 0.756551 0.352045
0.808482 0.751569 0.344910
0.894496 0.749053 0.338086
0.977157 0.753863 0.337083
0.690883 0.901068 0.428455
0.702398 0.893041 0.424648
0.714597 0.890442 0.418478
0.732822 0.885644 0.413472
0.761918 0.882276 0.409859
0.800613 0.876689 0.402841
0.856322 0.875249 0.398572
0.927887 0.871381 0.390917
0.977496 0.875149 0.387782
0.788117 0.984267 0.461244
0.803544 0.983837 0.458004
0.817861 0.980472 0.461015
0.833678 0.981921 0.455122
0.857441 0.980414 0.453865
0.884627 0.981763 0.457365
0.923672 0.984040 0.452421
0.974914 0.986403 0.449265
0.977830 0.987831 0.442811
0.000000 0.044847 0.280882
0.009812 0.041227 0.275618
0.028871 0.036717 0.275666
0.104297 0.001250 0.364246
0.422528 0.000000 0.289864
0.766837 0.000000 0.231612
0.972938 0.000000 0.197233
0.974636 0.000000 0.252717
0.975052 0.194063 0.390974
0.000000 0.085771 0.336628
0.013508 0.082376 0.331823
0.044978 0.059955 0.392719
0.299139 0.023718 0.376867
0.550923 0.039409 0.337886
0.809419 0.053434 0.318013
0.922510 0.130773 0.349879
0.969374 0.247406 0.417808
0.975121 0.352916 0.472406
0.000000 0.245746 0.480811
0.013452 0.243977 0.476100
0.137774 0.244604 0.470237
0.353445 0.233850 0.474926
0.579857 0.235355 0.434266
0.715825 0.275783 0.443160
0.806885 0.321055 0.462017
0.899248 0.373867 0.484372
0.974609 0.431405 0.511487
0.046791 0.472682 0.591960
0.107552 0.456845 0.580918
0.233369 0.450505 0.567218
0.355561 0.449196 0.555580
0.521905 0.433222 0.534299
0.642963 0.433680 0.523101
0.740647 0.444302 0.522067
0.842350 0.469080 0.527265
0.959247 0.500893 0.537792
0.283743 0.601741 0.626414
0.302834 0.585891 0.612309
0.352589 0.577835 0.609243
0.419570 0.574109 0.600013
0.526186 0.561315 0.577620
0.625764 0.549950 0.562285
0.716651 0.554857 0.559867
0.822869 0.559509 0.559715
0.948329 0.575900 0.563348
0.418711 0.693249 0.622211
0.428164 0.677976 0.609670
0.462721 0.672516 0.602612
0.513143 0.660501 0.589640
0.579308 0.657165 0.569303
0.648388 0.649550 0.561048
0.730843 0.649486 0.564061
0.825694 0.649242 0.564355
0.950476 0.648801 0.566133
0.562656 0.784913 0.478246
0.576439 0.773080 0.474526
0.598453 0.769249 0.465182
0.621345 0.760349 0.460956
0.667066 0.758119 0.460734
0.718492 0.753296 0.448995
0.776111 0.747086 0.462856
0.862943 0.741908 0.469762
0.975792 0.743613 0.508488
0.685501 0.897999 0.439143
0.696887 0.891302 0.432399
0.705997 0.886972 0.431933
0.732803 0.882219 0.426177
0.756974 0.878981 0.420463
0.800607 0.875245 0.417251
0.854478 0.875212 0.408877
0.931287 0.871375 0.403845
0.977511 0.875145 0.402908
0.792177 0.988161 0.471918
0.803520 0.988150 0.470449
0.818840 0.986237 0.469450
0.833745 0.986684 0.470712
0.857491 0.988072 0.466593
0.883256 0.986120 0.462306
0.926661 0.987931 0.458830
0.974945 0.987823 0.460035
0.977850 0.987822 0.452452
0.000000 0.056279 0.326436
0.011806 0.051788 0.323065
0.027081 0.049343 0.306644
0.054998 0.016016 0.379832
0.348901 0.000000 0.346635
0.712339 0.000000 0.272480
0.969007 0.000000 0.224155
0.974590 0.000000 0.267435
0.975100 0.159396 0.416870
0.000000 0.085350 0.358757
0.013407 0.082739 0.353098
0.027343 0.068789 0.377527
0.222713 0.010048 0.453561
0.504459 0.014170 0.372933
0.784476 0.018783 0.350609
0.940628 0.068299 0.366101
0.975103 0.206245 0.435814
0.975316 0.336561 0.512762
0.000000 0.215703 0.499467
0.008072 0.210982 0.499619
0.085876 0.204941 0.494389
0.274451 0.179689 0.568776
0.559181 0.185011 0.457472
0.721622 0.224457 0.465059
0.810385 0.282930 0.489081
0.900349 0.349718 0.521380
0.975634 0.413634 0.553903
0.005154 0.441226 0.642999
0.044727 0.433190 0.627674
0.175868 0.416435 0.607365
0.315701 0.418160 0.598100
0.486829 0.412219 0.592481
0.633057 0.403580 0.562859
0.740743 0.423669 0.566344
0.846724 0.449958 0.574629
0.957006 0.489177 0.592461
0.236708 0.587818 0.689174
0.259908 0.570475 0.677364
0.309469 0.564114 0.669182
0.381465 0.558081 0.654816
0.472905 0.554117 0.644270
0.600839 0.541118 0.629738
0.697923 0.539916 0.616133
0.809949 0.545172 0.611975
0.939192 0.565381 0.618717
0.372740 0.682457 0.710270
0.386884 0.671635 0.702141
0.417872 0.664144 0.698078
0.456989 0.656760 0.688917
0.521009 0.651948 0.677234
0.610515 0.640045 0.659851
0.700579 0.636659 0.650166
0.802631 0.638410 0.642673
0.939592 0.643186 0.642213
0.474143 0.773990 0.710980
0.484069 0.762859 0.708351
0.502997 0.753626 0.700859
0.540228 0.752739 0.690203
0.584142 0.743742 0.677206
0.655162 0.737130 0.668281
0.726982 0.735659 0.649029
0.827066 0.730364 0.656329
0.957386 0.740259 0.654666
0.661683 0.896408 0.518751
0.672606 0.886857 0.501375
0.685865 0.885926 0.496590
0.706842 0.879399 0.501872
0.734689 0.877093 0.495619
0.780227 0.876772 0.494090
0.832699 0.867582 0.488572
0.906889 0.866639 0.506500
0.978045 0.874042 0.540741
0.796082 0.988159 0.485964
0.805517 0.988150 0.486113
0.821808 0.988132 0.486005
0.835191 0.988111 0.482398
0.857065 0.988071 0.478964
0.886221 0.988005 0.477644
0.926695 0.987925 0.474169
0.976240 0.987815 0.475449
0.977888 0.987813 0.467278
0.000000 0.060136 0.362404
0.010851 0.057345 0.361640
0.026873 0.056540 0.347433
0.043760 0.040695 0.368984
0.245790 0.000000 0.426398
0.638288 0.000000 0.319835
0.950645 0.000000 0.251413
0.974568 0.000000 0.287345
0.975135 0.117319 0.427170
0.000000 0.082563 0.386015
0.009150 0.081484 0.382948
0.026634 0.079685 0.385214
0.110847 0.025309 0.471918
0.438435 0.011169 0.414849
0.751128 0.009489 0.368974
0.950424 0.020132 0.376091
0.975164 0.149831 0.449731
0.975500 0.298787 0.539735
0.000000 0.182032 0.502345
0.009747 0.176621 0.501318
0.032658 0.164769 0.503448
0.189572 0.104152 0.628038
0.515386 0.135127 0.496503
0.729594 0.157555 0.475310
0.832861 0.229893 0.504538
0.911513 0.307147 0.543954
0.975855 0.399775 0.596683
0.000000 0.421429 0.677299
0.012156 0.393740 0.660032
0.075417 0.378615 0.641706
0.266154 0.377092 0.631609
0.442652 0.368910 0.647332
0.622188 0.371625 0.604580
0.740062 0.389685 0.603743
0.844558 0.419941 0.610677
0.957211 0.473304 0.627984
0.151910 0.567905 0.738863
0.179652 0.552536 0.727392
0.258334 0.544628 0.715129
0.340321 0.534994 0.703354
0.429015 0.534370 0.689586
0.558576 0.524051 0.695475
0.690622 0.519765 0.663061
0.803182 0.526572 0.665250
0.931052 0.548846 0.670873
0.328487 0.666457 0.769626
0.347766 0.656558 0.760634
0.379216 0.651698 0.753192
0.424448 0.650141 0.747291
0.477038 0.642492 0.738849
0.562697 0.636348 0.727414
0.671997 0.625168 0.717453
0.788597 0.627984 0.709367
0.929418 0.634659 0.704710
0.435753 0.762964 0.793282
0.443040 0.751833 0.786505
0.466787 0.748063 0.782687
0.493142 0.744121 0.773487
0.535944 0.735940 0.770090
0.603979 0.731528 0.759757
0.692634 0.728030 0.748707
0.803957 0.723934 0.743795
0.947907 0.731572 0.736498
0.552553 0.882226 0.779331
0.572509 0.879466 0.767047
0.589541 0.875802 0.768066
0.607811 0.867748 0.765687
0.640536 0.866481 0.756385
0.690888 0.860476 0.759456
0.763586 0.857758 0.752480
0.848663 0.853890 0.748471
0.966202 0.860593 0.749135
0.791260 0.988237 0.527321
0.796175 0.988209 0.516970
0.816994 0.988197 0.521323
0.834688 0.988153 0.511931
0.857728 0.988111 0.511429
0.883458 0.988058 0.513438
0.926731 0.987963 0.508960
0.975600 0.987856 0.509551
0.978091 0.987850 0.509105
0.000000 0.067236 0.395187
0.013240 0.067351 0.402790
0.026660 0.063581 0.392311
0.040304 0.055042 0.376363
0.155123 0.001432 0.454342
0.540305 0.000000 0.370962
0.943331 0.000000 0.283432
0.974484 0.000000 0.282879
0.975020 0.042802 0.419403
0.000000 0.085698 0.406013
0.012025 0.089419 0.409186
0.026529 0.086392 0.404998
0.047473 0.067498 0.436578
0.324689 0.010643 0.473405
0.666731 0.007286 0.393404
0.947317 0.007091 0.377859
0.975069 0.057030 0.430648
0.975606 0.253301 0.553081
0.000000 0.146388 0.488995
0.012578 0.139405 0.482049
0.026049 0.133481 0.484323
0.115843 0.054853 0.596681
0.416530 0.063669 0.532626
0.702186 0.067014 0.478208
0.866340 0.139506 0.501626
0.937559 0.248692 0.552612
0.975972 0.359901 0.614686
0.000000 0.357486 0.688611
0.008640 0.329192 0.661850
0.029726 0.319442 0.651533
0.186168 0.306067 0.644537
0.414930 0.279504 0.679675
0.628876 0.300613 0.614323
0.749337 0.330745 0.618575
0.852035 0.385092 0.635940
0.963233 0.446782 0.668636
0.041220 0.542173 0.781379
0.069433 0.526100 0.773809
0.153378 0.512880 0.755534
0.279406 0.507088 0.745390
0.386425 0.495512 0.728257
0.508747 0.487864 0.754806
0.673403 0.483583 0.707491
0.796441 0.499920 0.711317
0.933250 0.529225 0.720822
0.267059 0.649106 0.823501
0.284417 0.637718 0.813627
0.326365 0.634202 0.813075
0.375435 0.621695 0.801655
0.442738 0.620506 0.792901
0.511718 0.616494 0.781953
0.620988 0.608939 0.788536
0.771412 0.601214 0.763258
0.927059 0.614164 0.762447
0.389384 0.748542 0.860393
0.403842 0.740074 0.851582
0.422749 0.735961 0.851656
0.452042 0.726863 0.844573
0.497923 0.723199 0.842281
0.552299 0.716834 0.832561
0.638540 0.716509 0.825546
0.765996 0.709088 0.813962
0.928446 0.715446 0.806430
0.506519 0.871244 0.909344
0.520763 0.867844 0.897576
0.538804 0.864090 0.895013
0.555486 0.859841 0.893022
0.589359 0.852695 0.881661
0.638458 0.852061 0.888728
0.703734 0.849328 0.878663
0.810159 0.849495 0.874771
0.942585 0.841983 0.867437
0.680088 0.980554 0.891507
0.695314 0.981071 0.876626
0.710993 0.983515 0.871705
0.738906 0.980701 0.848772
0.760590 0.982564 0.860939
0.790241 0.984881 0.863865
0.837247 0.988214 0.858802
0.891242 0.988622 0.856313
0.980202 0.988415 0.870012
0.000000 0.070568 0.406600
0.013194 0.070689 0.410070
0.030785 0.070430 0.407286
0.040255 0.060888 0.394491
0.136591 0.004171 0.465193
0.505468 0.000000 0.388420
0.911522 0.000000 0.298062
0.974515 0.000000 0.290245
0.974934 0.019870 0.423237
0.000000 0.089274 0.420618
0.008969 0.089386 0.416843
0.023234 0.089556 0.416033
0.043181 0.067919 0.435453
0.294036 0.014494 0.495124
0.643150 0.011485 0.404909
0.939619 0.006366 0.375068
0.974985 0.025841 0.428209
0.975647 0.231472 0.557489
0.000000 0.143227 0.489871
0.010006 0.133210 0.486012
0.026095 0.129256 0.475494
0.086732 0.058780 0.584253
0.391343 0.050251 0.556962
0.690483 0.058524 0.485852
0.881646 0.086878 0.482460
0.955004 0.220973 0.558037
0.976113 0.345670 0.629286
0.000000 0.337858 0.687191
0.011214 0.310079 0.666039
0.023393 0.293963 0.649775
0.152210 0.277893 0.648401
0.402857 0.240624 0.685993
0.624218 0.266319 0.613541
0.753263 0.300903 0.620597
0.863501 0.362050 0.650155
0.972443 0.428886 0.686019
0.017139 0.535347 0.796163
0.048278 0.518145 0.781286
0.100412 0.499459 0.770445
0.255859 0.488503 0.758754
0.370278 0.476609 0.741103
0.500784 0.468766 0.773928
0.667087 0.463274 0.727887
0.796394 0.483490 0.724481
0.931376 0.520433 0.739189
0.239763 0.642022 0.835794
0.261459 0.632436 0.835629
0.292720 0.620896 0.831643
0.351637 0.612617 0.821251
0.415313 0.605215 0.813219
0.496867 0.605037 0.797742
0.602480 0.598485 0.817548
0.759779 0.590575 0.790666
0.920130 0.602541 0.792826
0.372968 0.745128 0.881608
0.383306 0.729376 0.880054
0.400948 0.724768 0.874375
0.436085 0.720749 0.870992
0.478944 0.713878 0.865611
0.540495 0.708931 0.864361
0.611398 0.702025 0.858665
0.744873 0.698107 0.851349
0.924958 0.700652 0.840104
0.491504 0.871576 0.935955
0.492129 0.860589 0.933007
0.512845 0.860133 0.930452
0.531120 0.850448 0.927876
0.569191 0.849071 0.928558
0.613237 0.838059 0.923123
0.691123 0.841885 0.926733
0.788338 0.842122 0.924880
0.938604 0.838507 0.914929
0.655089 0.976961 0.958757
0.669642 0.980895 0.963842
0.683765 0.977037 0.963837
0.700226 0.977088 0.967034
0.724732 0.977141 0.968678
0.761495 0.982451 0.968521
0.800291 0.981036 0.972808
0.862885 0.984788 0.981140
0.980701 0.988483 0.984547
