Kodak Vision2 500T (5218) - Only contrast.cube
# Created by Benjamin (IWLTBAP) : http://luts.iwltbap.com
# Copyright: (C) Copyright 2010-2017 Triune Films and IWLTBAP SAS
# Cannot be resold, shared or otherwise redistributed
TITLE "Film Print Emulation LUTs Pack (Rec.709, sRGB, DCI-P3)"
LUT_3D_SIZE 9
0.001831 0.001831 0.001831
0.078705 0.001862 0.001862
0.177338 0.001770 0.001770
0.298798 0.001495 0.001495
0.430420 0.001160 0.001160
0.570435 0.000793 0.000793
0.721313 0.000305 0.000305
0.862579 0.000000 0.000000
0.981628 0.000000 0.000000
0.001862 0.078705 0.001862
0.078735 0.078735 0.001923
0.177612 0.078613 0.001801
0.299164 0.078339 0.001556
0.430817 0.077972 0.001221
0.570953 0.077576 0.000824
0.721802 0.077087 0.000366
0.862976 0.076691 0.000000
0.981750 0.076447 0.000000
0.001770 0.177338 0.001770
0.078613 0.177612 0.001801
0.177704 0.177704 0.001709
0.299377 0.177643 0.001434
0.431061 0.177521 0.001099
0.571289 0.177368 0.000702
0.722107 0.177094 0.000244
0.863251 0.176910 0.000000
0.981720 0.176910 0.000000
0.001495 0.298798 0.001495
0.078339 0.299164 0.001556
0.177643 0.299377 0.001434
0.299438 0.299438 0.001160
0.431122 0.299408 0.000854
0.571503 0.299347 0.000458
0.722290 0.299194 0.000000
0.863342 0.299133 0.000000
0.981537 0.299225 0.000000
0.001160 0.430420 0.001160
0.077972 0.430817 0.001221
0.177521 0.431061 0.001099
0.299408 0.431122 0.000854
0.431122 0.431122 0.000519
0.571625 0.431091 0.000122
0.722382 0.430969 0.000000
0.863373 0.430908 0.000000
0.981293 0.431000 0.000000
0.000793 0.570435 0.000793
0.077576 0.570953 0.000824
0.177368 0.571289 0.000702
0.299347 0.571503 0.000458
0.431091 0.571625 0.000122
0.571686 0.571686 0.000000
0.722412 0.571686 0.000000
0.863342 0.571747 0.000000
0.980988 0.571991 0.000000
0.000305 0.721313 0.000305
0.077087 0.721802 0.000366
0.177094 0.722107 0.000244
0.299194 0.722290 0.000000
0.430969 0.722382 0.000000
0.571686 0.722412 0.000000
0.722382 0.722382 0.000000
0.863251 0.722412 0.000000
0.980591 0.722595 0.000000
0.000000 0.862579 0.000000
0.076691 0.862976 0.000000
0.176910 0.863251 0.000000
0.299133 0.863342 0.000000
0.430908 0.863373 0.000000
0.571747 0.863342 0.000000
0.722412 0.863251 0.000000
0.863220 0.863220 0.000000
0.980286 0.863373 0.000000
0.000000 0.981628 0.000000
0.076447 0.981750 0.000000
0.176910 0.981720 0.000000
0.299225 0.981537 0.000000
0.431000 0.981293 0.000000
0.571991 0.980988 0.000000
0.722595 0.980591 0.000000
0.863373 0.980286 0.000000
0.980164 0.980042 0.012024
0.001862 0.001862 0.078705
0.078735 0.001923 0.078735
0.177612 0.001801 0.078613
0.299164 0.001556 0.078339
0.430817 0.001221 0.077972
0.570953 0.000824 0.077576
0.721802 0.000366 0.077087
0.862976 0.000000 0.076691
0.981750 0.000000 0.076447
0.001923 0.078735 0.078735
0.078766 0.078766 0.078766
0.177856 0.078644 0.078644
0.299530 0.078369 0.078369
0.431213 0.078003 0.078003
0.571442 0.077606 0.077606
0.722260 0.077118 0.077118
0.863403 0.076721 0.076721
0.981903 0.076477 0.076477
0.001801 0.177612 0.078613
0.078644 0.177856 0.078644
0.177948 0.177948 0.078522
0.299744 0.177917 0.078217
0.431427 0.177795 0.077881
0.571808 0.177612 0.077484
0.722595 0.177368 0.076996
0.863647 0.177185 0.076599
0.981842 0.177155 0.076355
0.001556 0.299164 0.078339
0.078369 0.299530 0.078369
0.177917 0.299744 0.078217
0.299805 0.299805 0.077942
0.431519 0.299774 0.077606
0.571991 0.299713 0.077209
0.722748 0.299561 0.076721
0.863770 0.299500 0.076324
0.981659 0.299591 0.076080
0.001221 0.430817 0.077972
0.078003 0.431213 0.078003
0.177795 0.431427 0.077881
0.299774 0.431519 0.077606
0.431519 0.431519 0.077271
0.572113 0.431458 0.076874
0.722839 0.431335 0.076385
0.863800 0.431305 0.075989
0.981415 0.431396 0.075745
0.000824 0.570953 0.077576
0.077606 0.571442 0.077606
0.177612 0.571808 0.077484
0.299713 0.571991 0.077209
0.431458 0.572113 0.076874
0.572205 0.572205 0.076447
0.722900 0.572205 0.075989
0.863770 0.572266 0.075592
0.981110 0.572510 0.075348
0.000366 0.721802 0.077087
0.077118 0.722260 0.077118
0.177368 0.722595 0.076996
0.299561 0.722748 0.076721
0.431335 0.722839 0.076385
0.572205 0.722900 0.075989
0.722839 0.722839 0.075531
0.863678 0.722870 0.075134
0.980713 0.723083 0.074921
0.000000 0.862976 0.076691
0.076721 0.863403 0.076721
0.177185 0.863647 0.076599
0.299500 0.863770 0.076324
0.431305 0.863800 0.075989
0.572266 0.863770 0.075592
0.722870 0.863678 0.075134
0.863647 0.863647 0.074738
0.980408 0.863770 0.074524
0.000000 0.981750 0.076447
0.076477 0.981903 0.076477
0.177155 0.981842 0.076355
0.299591 0.981659 0.076080
0.431396 0.981415 0.075745
0.572510 0.981110 0.075348
0.723083 0.980713 0.074921
0.863770 0.980408 0.074524
0.980286 0.980286 0.074310
0.001770 0.001770 0.177338
0.078613 0.001801 0.177612
0.177704 0.001709 0.177704
0.299377 0.001434 0.177643
0.431061 0.001099 0.177521
0.571289 0.000702 0.177368
0.722107 0.000244 0.177094
0.863251 0.000000 0.176910
0.981720 0.000000 0.176910
0.001801 0.078613 0.177612
0.078644 0.078644 0.177856
0.177948 0.078522 0.177948
0.299744 0.078217 0.177917
0.431427 0.077881 0.177795
0.571808 0.077484 0.177612
0.722595 0.076996 0.177368
0.863647 0.076599 0.177185
0.981842 0.076355 0.177155
0.001709 0.177704 0.177704
0.078522 0.177948 0.177948
0.178070 0.178070 0.178070
0.299957 0.178009 0.178009
0.431671 0.177887 0.177887
0.572144 0.177704 0.177704
0.722900 0.177460 0.177460
0.863892 0.177277 0.177277
0.981812 0.177246 0.177246
0.001434 0.299377 0.177643
0.078217 0.299744 0.177917
0.178009 0.299957 0.178009
0.299988 0.299988 0.177948
0.431732 0.299988 0.177826
0.572327 0.299927 0.177643
0.723053 0.299774 0.177399
0.864014 0.299713 0.177216
0.981628 0.299774 0.177216
0.001099 0.431061 0.177521
0.077881 0.431427 0.177795
0.177887 0.431671 0.177887
0.299988 0.431732 0.177826
0.431732 0.431732 0.177704
0.572479 0.431702 0.177551
0.723145 0.431580 0.177277
0.864044 0.431519 0.177124
0.981384 0.431610 0.177094
0.000702 0.571289 0.177368
0.077484 0.571808 0.177612
0.177704 0.572144 0.177704
0.299927 0.572327 0.177643
0.431702 0.572479 0.177551
0.572540 0.572540 0.177368
0.723206 0.572540 0.177124
0.864014 0.572601 0.176941
0.981049 0.572845 0.176910
0.000244 0.722107 0.177094
0.076996 0.722595 0.177368
0.177460 0.722900 0.177460
0.299774 0.723053 0.177399
0.431580 0.723145 0.177277
0.572540 0.723206 0.177124
0.723145 0.723145 0.176849
0.863922 0.723175 0.176697
0.980682 0.723389 0.176666
0.000000 0.863251 0.176910
0.076599 0.863647 0.177185
0.177277 0.863892 0.177277
0.299713 0.864014 0.177216
0.431519 0.864044 0.177124
0.572601 0.864014 0.176941
0.723175 0.863922 0.176697
0.863892 0.863892 0.176514
0.980377 0.864014 0.176514
0.000000 0.981720 0.176910
0.076355 0.981842 0.177155
0.177246 0.981812 0.177246
0.299774 0.981628 0.177216
0.431610 0.981384 0.177094
0.572845 0.981049 0.176910
0.723389 0.980682 0.176666
0.864014 0.980377 0.176514
0.980225 0.980225 0.176483
0.001495 0.001495 0.298798
0.078339 0.001556 0.299164
0.177643 0.001434 0.299377
0.299438 0.001160 0.299438
0.431122 0.000854 0.299408
0.571503 0.000458 0.299347
0.722290 0.000000 0.299194
0.863342 0.000000 0.299133
0.981537 0.000000 0.299225
0.001556 0.078339 0.299164
0.078369 0.078369 0.299530
0.177917 0.078217 0.299744
0.299805 0.077942 0.299805
0.431519 0.077606 0.299774
0.571991 0.077209 0.299713
0.722748 0.076721 0.299561
0.863770 0.076324 0.299500
0.981659 0.076080 0.299591
0.001434 0.177643 0.299377
0.078217 0.177917 0.299744
0.178009 0.178009 0.299957
0.299988 0.177948 0.299988
0.431732 0.177826 0.299988
0.572327 0.177643 0.299927
0.723053 0.177399 0.299774
0.864014 0.177216 0.299713
0.981628 0.177216 0.299774
0.001160 0.299438 0.299438
0.077942 0.299805 0.299805
0.177948 0.299988 0.299988
0.300049 0.300049 0.300049
0.431824 0.300049 0.300049
0.572540 0.299957 0.299957
0.723236 0.299835 0.299835
0.864105 0.299744 0.299744
0.981445 0.299835 0.299835
0.000854 0.431122 0.299408
0.077606 0.431519 0.299774
0.177826 0.431732 0.299988
0.300049 0.431824 0.300049
0.431824 0.431824 0.300018
0.572662 0.431763 0.299957
0.723328 0.431641 0.299805
0.864136 0.431580 0.299744
0.981201 0.431702 0.299835
0.000458 0.571503 0.299347
0.077209 0.571991 0.299713
0.177643 0.572327 0.299927
0.299957 0.572540 0.299957
0.431763 0.572662 0.299957
0.572723 0.572723 0.299866
0.723358 0.572723 0.299744
0.864105 0.572815 0.299652
0.980865 0.573059 0.299744
0.000000 0.722290 0.299194
0.076721 0.722748 0.299561
0.177399 0.723053 0.299774
0.299835 0.723236 0.299835
0.431641 0.723328 0.299805
0.572723 0.723358 0.299744
0.723297 0.723297 0.299591
0.864014 0.723328 0.299530
0.980499 0.723541 0.299622
0.000000 0.863342 0.299133
0.076324 0.863770 0.299500
0.177216 0.864014 0.299713
0.299744 0.864105 0.299744
0.431580 0.864136 0.299744
0.572815 0.864105 0.299652
0.723328 0.864014 0.299530
0.863983 0.863983 0.299438
0.980194 0.864105 0.299530
0.000000 0.981537 0.299225
0.076080 0.981659 0.299591
0.177216 0.981628 0.299774
0.299835 0.981445 0.299835
0.431702 0.981201 0.299835
0.573059 0.980865 0.299744
0.723541 0.980499 0.299622
0.864105 0.980194 0.299530
0.980042 0.980042 0.299652
0.001160 0.001160 0.430420
0.077972 0.001221 0.430817
0.177521 0.001099 0.431061
0.299408 0.000854 0.431122
0.431122 0.000519 0.431122
0.571625 0.000122 0.431091
0.722382 0.000000 0.430969
0.863373 0.000000 0.430908
0.981293 0.000000 0.431000
0.001221 0.077972 0.430817
0.078003 0.078003 0.431213
0.177795 0.077881 0.431427
0.299774 0.077606 0.431519
0.431519 0.077271 0.431519
0.572113 0.076874 0.431458
0.722839 0.076385 0.431335
0.863800 0.075989 0.431305
0.981415 0.075745 0.431396
0.001099 0.177521 0.431061
0.077881 0.177795 0.431427
0.177887 0.177887 0.431671
0.299988 0.177826 0.431732
0.431732 0.177704 0.431732
0.572479 0.177551 0.431702
0.723145 0.177277 0.431580
0.864044 0.177124 0.431519
0.981384 0.177094 0.431610
0.000854 0.299408 0.431122
0.077606 0.299774 0.431519
0.177826 0.299988 0.431732
0.300049 0.300049 0.431824
0.431824 0.300018 0.431824
0.572662 0.299957 0.431763
0.723328 0.299805 0.431641
0.864136 0.299744 0.431580
0.981201 0.299835 0.431702
0.000519 0.431122 0.431122
0.077271 0.431519 0.431519
0.177704 0.431732 0.431732
0.300018 0.431824 0.431824
0.431824 0.431824 0.431824
0.572784 0.431763 0.431763
0.723419 0.431641 0.431641
0.864166 0.431580 0.431580
0.980927 0.431702 0.431702
0.000122 0.571625 0.431091
0.076874 0.572113 0.431458
0.177551 0.572479 0.431702
0.299957 0.572662 0.431763
0.431763 0.572784 0.431763
0.572876 0.572876 0.431702
0.723450 0.572876 0.431580
0.864136 0.572937 0.431519
0.980621 0.573181 0.431641
0.000000 0.722382 0.430969
0.076385 0.722839 0.431335
0.177277 0.723145 0.431580
0.299805 0.723328 0.431641
0.431641 0.723419 0.431641
0.572876 0.723450 0.431580
0.723389 0.723389 0.431458
0.864044 0.723419 0.431396
0.980225 0.723633 0.431519
0.000000 0.863373 0.430908
0.075989 0.863800 0.431305
0.177124 0.864044 0.431519
0.299744 0.864136 0.431580
0.431580 0.864166 0.431580
0.572937 0.864136 0.431519
0.723419 0.864044 0.431396
0.864014 0.864014 0.431366
0.979919 0.864136 0.431458
0.000000 0.981293 0.431000
0.075745 0.981415 0.431396
0.177094 0.981384 0.431610
0.299835 0.981201 0.431702
0.431702 0.980927 0.431702
0.573181 0.980621 0.431641
0.723633 0.980225 0.431519
0.864136 0.979919 0.431458
0.979797 0.979797 0.431610
0.000793 0.000793 0.570435
0.077576 0.000824 0.570953
0.177368 0.000702 0.571289
0.299347 0.000458 0.571503
0.431091 0.000122 0.571625
0.571686 0.000000 0.571686
0.722412 0.000000 0.571686
0.863342 0.000000 0.571747
0.980988 0.000000 0.571991
0.000824 0.077576 0.570953
0.077606 0.077606 0.571442
0.177612 0.077484 0.571808
0.299713 0.077209 0.571991
0.431458 0.076874 0.572113
0.572205 0.076447 0.572205
0.722900 0.075989 0.572205
0.863770 0.075592 0.572266
0.981110 0.075348 0.572510
0.000702 0.177368 0.571289
0.077484 0.177612 0.571808
0.177704 0.177704 0.572144
0.299927 0.177643 0.572327
0.431702 0.177551 0.572479
0.572540 0.177368 0.572540
0.723206 0.177124 0.572540
0.864014 0.176941 0.572601
0.981049 0.176910 0.572845
0.000458 0.299347 0.571503
0.077209 0.299713 0.571991
0.177643 0.299927 0.572327
0.299957 0.299957 0.572540
0.431763 0.299957 0.572662
0.572723 0.299866 0.572723
0.723358 0.299744 0.572723
0.864105 0.299652 0.572815
0.980865 0.299744 0.573059
0.000122 0.431091 0.571625
0.076874 0.431458 0.572113
0.177551 0.431702 0.572479
0.299957 0.431763 0.572662
0.431763 0.431763 0.572784
0.572876 0.431702 0.572876
0.723450 0.431580 0.572876
0.864136 0.431519 0.572937
0.980621 0.431641 0.573181
0.000000 0.571686 0.571686
0.076447 0.572205 0.572205
0.177368 0.572540 0.572540
0.299866 0.572723 0.572723
0.431702 0.572876 0.572876
0.572937 0.572937 0.572937
0.723450 0.572937 0.572937
0.864105 0.573029 0.573029
0.980286 0.573273 0.573273
0.000000 0.722412 0.571686
0.075989 0.722900 0.572205
0.177124 0.723206 0.572540
0.299744 0.723358 0.572723
0.431580 0.723450 0.572876
0.572937 0.723450 0.572937
0.723419 0.723419 0.572937
0.864014 0.723450 0.573029
0.979919 0.723663 0.573273
0.000000 0.863342 0.571747
0.075592 0.863770 0.572266
0.176941 0.864014 0.572601
0.299652 0.864105 0.572815
0.431519 0.864136 0.572937
0.573029 0.864105 0.573029
0.723450 0.864014 0.573029
0.863983 0.863983 0.573090
0.979614 0.864105 0.573334
0.000000 0.980988 0.571991
0.075348 0.981110 0.572510
0.176910 0.981049 0.572845
0.299744 0.980865 0.573059
0.431641 0.980621 0.573181
0.573273 0.980286 0.573273
0.723663 0.979919 0.573273
0.864105 0.979614 0.573334
0.979462 0.979462 0.573608
0.000305 0.000305 0.721313
0.077087 0.000366 0.721802
0.177094 0.000244 0.722107
0.299194 0.000000 0.722290
0.430969 0.000000 0.722382
0.571686 0.000000 0.722412
0.722382 0.000000 0.722382
0.863251 0.000000 0.722412
0.980591 0.000000 0.722595
0.000366 0.077087 0.721802
0.077118 0.077118 0.722260
0.177368 0.076996 0.722595
0.299561 0.076721 0.722748
0.431335 0.076385 0.722839
0.572205 0.075989 0.722900
0.722839 0.075531 0.722839
0.863678 0.075134 0.722870
0.980713 0.074921 0.723083
0.000244 0.177094 0.722107
0.076996 0.177368 0.722595
0.177460 0.177460 0.722900
0.299774 0.177399 0.723053
0.431580 0.177277 0.723145
0.572540 0.177124 0.723206
0.723145 0.176849 0.723145
0.863922 0.176697 0.723175
0.980682 0.176666 0.723389
0.000000 0.299194 0.722290
0.076721 0.299561 0.722748
0.177399 0.299774 0.723053
0.299835 0.299835 0.723236
0.431641 0.299805 0.723328
0.572723 0.299744 0.723358
0.723297 0.299591 0.723297
0.864014 0.299530 0.723328
0.980499 0.299622 0.723541
0.000000 0.430969 0.722382
0.076385 0.431335 0.722839
0.177277 0.431580 0.723145
0.299805 0.431641 0.723328
0.431641 0.431641 0.723419
0.572876 0.431580 0.723450
0.723389 0.431458 0.723389
0.864044 0.431396 0.723419
0.980225 0.431519 0.723633
0.000000 0.571686 0.722412
0.075989 0.572205 0.722900
0.177124 0.572540 0.723206
0.299744 0.572723 0.723358
0.431580 0.572876 0.723450
0.572937 0.572937 0.723450
0.723419 0.572937 0.723419
0.864014 0.573029 0.723450
0.979919 0.573273 0.723663
0.000000 0.722382 0.722382
0.075531 0.722839 0.722839
0.176849 0.723145 0.723145
0.299591 0.723297 0.723297
0.431458 0.723389 0.723389
0.572937 0.723419 0.723419
0.723389 0.723389 0.723389
0.863892 0.723419 0.723419
0.979553 0.723602 0.723602
0.000000 0.863251 0.722412
0.075134 0.863678 0.722870
0.176697 0.863922 0.723175
0.299530 0.864014 0.723328
0.431396 0.864044 0.723419
0.573029 0.864014 0.723450
0.723419 0.863892 0.723419
0.863861 0.863861 0.723450
0.979218 0.864014 0.723633
0.000000 0.980591 0.722595
0.074921 0.980713 0.723083
0.176666 0.980682 0.723389
0.299622 0.980499 0.723541
0.431519 0.980225 0.723633
0.573273 0.979919 0.723663
0.723602 0.979553 0.723602
0.864014 0.979218 0.723633
0.979095 0.979095 0.723846
0.000000 0.000000 0.862579
0.076691 0.000000 0.862976
0.176910 0.000000 0.863251
0.299133 0.000000 0.863342
0.430908 0.000000 0.863373
0.571747 0.000000 0.863342
0.722412 0.000000 0.863251
0.863220 0.000000 0.863220
0.980286 0.000000 0.863373
0.000000 0.076691 0.862976
0.076721 0.076721 0.863403
0.177185 0.076599 0.863647
0.299500 0.076324 0.863770
0.431305 0.075989 0.863800
0.572266 0.075592 0.863770
0.722870 0.075134 0.863678
0.863647 0.074738 0.863647
0.980408 0.074524 0.863770
0.000000 0.176910 0.863251
0.076599 0.177185 0.863647
0.177277 0.177277 0.863892
0.299713 0.177216 0.864014
0.431519 0.177124 0.864044
0.572601 0.176941 0.864014
0.723175 0.176697 0.863922
0.863892 0.176514 0.863892
0.980377 0.176514 0.864014
0.000000 0.299133 0.863342
0.076324 0.299500 0.863770
0.177216 0.299713 0.864014
0.299744 0.299744 0.864105
0.431580 0.299744 0.864136
0.572815 0.299652 0.864105
0.723328 0.299530 0.864014
0.863983 0.299438 0.863983
0.980194 0.299530 0.864105
0.000000 0.430908 0.863373
0.075989 0.431305 0.863800
0.177124 0.431519 0.864044
0.299744 0.431580 0.864136
0.431580 0.431580 0.864166
0.572937 0.431519 0.864136
0.723419 0.431396 0.864044
0.864014 0.431366 0.864014
0.979919 0.431458 0.864136
0.000000 0.571747 0.863342
0.075592 0.572266 0.863770
0.176941 0.572601 0.864014
0.299652 0.572815 0.864105
0.431519 0.572937 0.864136
0.573029 0.573029 0.864105
0.723450 0.573029 0.864014
0.863983 0.573090 0.863983
0.979614 0.573334 0.864105
0.000000 0.722412 0.863251
0.075134 0.722870 0.863678
0.176697 0.723175 0.863922
0.299530 0.723328 0.864014
0.431396 0.723419 0.864044
0.573029 0.723450 0.864014
0.723419 0.723419 0.863892
0.863861 0.723450 0.863861
0.979218 0.723633 0.864014
0.000000 0.863220 0.863220
0.074738 0.863647 0.863647
0.176514 0.863892 0.863892
0.299438 0.863983 0.863983
0.431366 0.864014 0.864014
0.573090 0.863983 0.863983
0.723450 0.863861 0.863861
0.863861 0.863861 0.863861
0.978912 0.863983 0.863983
0.000000 0.980286 0.863373
0.074524 0.980408 0.863770
0.176514 0.980377 0.864014
0.299530 0.980194 0.864105
0.431458 0.979919 0.864136
0.573334 0.979614 0.864105
0.723633 0.979218 0.864014
0.863983 0.978912 0.863983
0.978790 0.978790 0.864136
0.000000 0.000000 0.981567
0.076447 0.000000 0.981750
0.176910 0.000000 0.981720
0.299225 0.000000 0.981537
0.431000 0.000000 0.981293
0.571991 0.000000 0.980988
0.722595 0.000000 0.980591
0.863373 0.000000 0.980286
0.980133 0.000000 0.980133
0.000000 0.076447 0.981750
0.076477 0.076477 0.981903
0.177155 0.076355 0.981842
0.299591 0.076080 0.981659
0.431396 0.075745 0.981415
0.572510 0.075348 0.981110
0.723083 0.074921 0.980713
0.863770 0.074524 0.980408
0.980286 0.074310 0.980286
0.000000 0.176910 0.981720
0.076355 0.177155 0.981842
0.177246 0.177246 0.981812
0.299774 0.177216 0.981628
0.431610 0.177094 0.981384
0.572845 0.176910 0.981049
0.723389 0.176666 0.980682
0.864014 0.176514 0.980377
0.980225 0.176483 0.980225
0.000000 0.299225 0.981537
0.076080 0.299591 0.981659
0.177216 0.299774 0.981628
0.299835 0.299835 0.981445
0.431702 0.299835 0.981201
0.573059 0.299744 0.980865
0.723541 0.299622 0.980499
0.864105 0.299530 0.980194
0.980042 0.299652 0.980042
0.000000 0.431000 0.981293
0.075745 0.431396 0.981415
0.177094 0.431610 0.981384
0.299835 0.431702 0.981201
0.431702 0.431702 0.980927
0.573181 0.431641 0.980621
0.723633 0.431519 0.980225
0.864136 0.431458 0.979919
0.979797 0.431610 0.979797
0.000000 0.571991 0.980988
0.075348 0.572510 0.981110
0.176910 0.572845 0.981049
0.299744 0.573059 0.980865
0.431641 0.573181 0.980621
0.573273 0.573273 0.980286
0.723663 0.573273 0.979919
0.864105 0.573334 0.979614
0.979462 0.573608 0.979462
0.000000 0.722595 0.980591
0.074921 0.723083 0.980713
0.176666 0.723389 0.980682
0.299622 0.723541 0.980499
0.431519 0.723633 0.980225
0.573273 0.723663 0.979919
0.723602 0.723602 0.979553
0.864014 0.723633 0.979218
0.979095 0.723846 0.979095
0.000000 0.863373 0.980286
0.074524 0.863770 0.980408
0.176514 0.864014 0.980377
0.299530 0.864105 0.980194
0.431458 0.864136 0.979919
0.573334 0.864105 0.979614
0.723633 0.864014 0.979218
0.863983 0.863983 0.978912
0.978790 0.864136 0.978790
0.000000 0.980133 0.980133
0.074310 0.980286 0.980286
0.176483 0.980225 0.980225
0.299652 0.980042 0.980042
0.431610 0.979797 0.979797
0.573608 0.979462 0.979462
0.723846 0.979095 0.979095
0.864136 0.978790 0.978790
0.978668 0.978668 0.978668
