Kodak Vision 500T (5263) - Only contrast.cube
# Created by Benjamin (IWLTBAP) : http://luts.iwltbap.com
# Copyright: (C) Copyright 2010-2017 Triune Films and IWLTBAP SAS
# Cannot be resold, shared or otherwise redistributed
TITLE "Film Print Emulation LUTs Pack (Rec.709, sRGB, DCI-P3)"
LUT_3D_SIZE 5
0.000000 0.000000 0.000000
0.210114 0.000427 0.000427
0.423431 0.000885 0.000885
0.627777 0.001434 0.001434
0.776703 0.002319 0.002319
0.000427 0.210114 0.000427
0.210083 0.210083 0.000916
0.423431 0.209991 0.001373
0.627625 0.209991 0.001923
0.776031 0.210358 0.002838
0.000885 0.423431 0.000885
0.209991 0.423431 0.001373
0.423431 0.423431 0.001862
0.627441 0.423462 0.002411
0.775330 0.423889 0.003326
0.001434 0.627777 0.001434
0.209991 0.627625 0.001923
0.423462 0.627441 0.002411
0.627319 0.627319 0.002930
0.774689 0.627594 0.003845
0.002319 0.776703 0.002319
0.210358 0.776031 0.002838
0.423889 0.775330 0.003326
0.627594 0.774689 0.003845
0.774384 0.774292 0.026672
0.000427 0.000427 0.210114
0.210083 0.000916 0.210083
0.423431 0.001373 0.209991
0.627625 0.001923 0.209991
0.776031 0.002838 0.210358
0.000916 0.210083 0.210083
0.210022 0.210022 0.210022
0.423462 0.209961 0.209961
0.627502 0.209961 0.209961
0.775391 0.210358 0.210358
0.001373 0.423431 0.209991
0.209961 0.423462 0.209961
0.423462 0.423462 0.209900
0.627319 0.423492 0.209900
0.774689 0.423920 0.210297
0.001923 0.627625 0.209991
0.209961 0.627502 0.209961
0.423492 0.627319 0.209900
0.627197 0.627197 0.209900
0.774048 0.627472 0.210297
0.002838 0.776031 0.210358
0.210358 0.775391 0.210358
0.423920 0.774689 0.210297
0.627472 0.774048 0.210297
0.773804 0.773804 0.210693
0.000885 0.000885 0.423431
0.209991 0.001373 0.423431
0.423431 0.001862 0.423431
0.627441 0.002411 0.423462
0.775330 0.003326 0.423889
0.001373 0.209991 0.423431
0.209961 0.209961 0.423462
0.423462 0.209900 0.423462
0.627319 0.209900 0.423492
0.774689 0.210297 0.423920
0.001862 0.423431 0.423431
0.209900 0.423462 0.423462
0.423431 0.423431 0.423431
0.627136 0.423462 0.423462
0.773987 0.423920 0.423920
0.002411 0.627441 0.423462
0.209900 0.627319 0.423492
0.423462 0.627136 0.423462
0.627014 0.627014 0.423523
0.773346 0.627289 0.423950
0.003326 0.775330 0.423889
0.210297 0.774689 0.423920
0.423920 0.773987 0.423920
0.627289 0.773346 0.423950
0.773102 0.773102 0.424408
0.001434 0.001434 0.627777
0.209991 0.001923 0.627625
0.423462 0.002411 0.627441
0.627319 0.002930 0.627319
0.774689 0.003845 0.627594
0.001923 0.209991 0.627625
0.209961 0.209961 0.627502
0.423492 0.209900 0.627319
0.627197 0.209900 0.627197
0.774048 0.210297 0.627472
0.002411 0.423462 0.627441
0.209900 0.423492 0.627319
0.423462 0.423462 0.627136
0.627014 0.423523 0.627014
0.773346 0.423950 0.627289
0.002930 0.627319 0.627319
0.209900 0.627197 0.627197
0.423523 0.627014 0.627014
0.626892 0.626892 0.626892
0.772705 0.627167 0.627167
0.003845 0.774689 0.627594
0.210297 0.774048 0.627472
0.423950 0.773346 0.627289
0.627167 0.772705 0.627167
0.772491 0.772491 0.627441
0.002319 0.002319 0.776672
0.210358 0.002838 0.776031
0.423889 0.003326 0.775330
0.627594 0.003845 0.774689
0.774445 0.004761 0.774445
0.002838 0.210358 0.776031
0.210358 0.210358 0.775391
0.423920 0.210297 0.774689
0.627472 0.210297 0.774048
0.773804 0.210693 0.773804
0.003326 0.423889 0.775330
0.210297 0.423920 0.774689
0.423920 0.423920 0.773987
0.627289 0.423950 0.773346
0.773102 0.424408 0.773102
0.003845 0.627594 0.774689
0.210297 0.627472 0.774048
0.423950 0.627289 0.773346
0.627167 0.627167 0.772705
0.772491 0.627441 0.772491
0.004761 0.774445 0.774445
0.210693 0.773804 0.773804
0.424408 0.773102 0.773102
0.627441 0.772491 0.772491
0.772278 0.772278 0.772278
