Kodak Vision2 200T (5217) - Only color.cube
# Created by Benjamin (IWLTBAP) : http://luts.iwltbap.com
# Copyright: (C) Copyright 2010-2017 Triune Films and IWLTBAP SAS
# Cannot be resold, shared or otherwise redistributed
TITLE "Film Print Emulation LUTs Pack (Rec.709, sRGB, DCI-P3)"
LUT_3D_SIZE 5
0.000000 0.000000 0.001160
0.230530 0.032593 0.037445
0.440979 0.047150 0.050537
0.665070 0.071716 0.073456
0.880951 0.146973 0.153473
0.000000 0.129028 0.000092
0.230804 0.222778 0.052795
0.458710 0.228149 0.065033
0.707886 0.249756 0.100708
0.920135 0.325562 0.183075
0.000000 0.265778 0.000000
0.082336 0.312408 0.000000
0.462860 0.445374 0.089966
0.751862 0.488556 0.140625
0.941833 0.540497 0.240509
0.000000 0.383575 0.010254
0.000000 0.410553 0.021942
0.410950 0.618927 0.047668
0.766205 0.737671 0.181915
0.938141 0.770203 0.292053
0.000000 0.501221 0.083496
0.000000 0.522125 0.091034
0.313507 0.722076 0.048370
0.698456 0.905212 0.159882
0.936218 0.941254 0.348694
0.000000 0.000000 0.311218
0.279480 0.070068 0.283844
0.455475 0.062164 0.233704
0.683807 0.083038 0.240936
0.896484 0.155914 0.311432
0.000000 0.234833 0.271576
0.234375 0.230347 0.285126
0.477600 0.229431 0.238495
0.732727 0.263214 0.269714
0.936523 0.349152 0.357117
0.000000 0.315247 0.153259
0.051605 0.337616 0.130280
0.483002 0.469147 0.232544
0.771057 0.502930 0.310089
0.940643 0.546844 0.389221
0.000000 0.387848 0.000000
0.000000 0.416687 0.004028
0.390656 0.622681 0.146362
0.768860 0.745697 0.312164
0.937042 0.774963 0.424072
0.000000 0.506897 0.054077
0.000000 0.532898 0.067169
0.249725 0.679840 0.105988
0.674591 0.906738 0.226227
0.935364 0.940369 0.453705
0.000000 0.000000 0.533478
0.265625 0.000000 0.564484
0.530365 0.109863 0.527374
0.752625 0.142914 0.487885
0.927338 0.195679 0.493774
0.000000 0.237274 0.543182
0.135132 0.182373 0.589020
0.558411 0.208649 0.559174
0.799072 0.310059 0.527100
0.939728 0.381226 0.535278
0.000000 0.427612 0.481903
0.000000 0.453461 0.506683
0.491211 0.490631 0.518890
0.810699 0.525970 0.521606
0.937805 0.566010 0.558014
0.000000 0.523163 0.413788
0.001831 0.550903 0.420410
0.299835 0.662384 0.414368
0.789185 0.765717 0.478546
0.935638 0.783478 0.579834
0.000000 0.601105 0.377777
0.000000 0.614349 0.361877
0.153717 0.694489 0.347412
0.637421 0.931732 0.306885
0.934326 0.939301 0.572968
0.021912 0.000000 0.770355
0.257080 0.000000 0.812531
0.576691 0.133514 0.819000
0.818909 0.278564 0.810608
0.936951 0.339325 0.766632
0.000000 0.268188 0.800690
0.000000 0.204102 0.847015
0.584137 0.146698 0.850800
0.856812 0.396271 0.848755
0.938538 0.475891 0.805664
0.000000 0.466156 0.740906
0.000000 0.494171 0.777069
0.400085 0.434448 0.814728
0.843262 0.538300 0.836456
0.935760 0.618652 0.814117
0.000000 0.601013 0.649597
0.000000 0.627380 0.668213
0.102539 0.671417 0.708710
0.742340 0.770325 0.736664
0.933533 0.798462 0.822601
0.000000 0.662872 0.594055
0.000000 0.669586 0.590088
0.109161 0.729553 0.608276
0.519073 0.931946 0.666992
0.932404 0.937317 0.809601
0.051483 0.000000 0.875458
0.243622 0.076935 0.883942
0.516602 0.221436 0.907867
0.813293 0.360992 0.931549
0.937042 0.485779 0.929718
0.000000 0.261353 0.873291
0.160583 0.245361 0.873169
0.504395 0.225677 0.904236
0.842010 0.422638 0.932678
0.936890 0.567535 0.931946
0.000000 0.481842 0.859680
0.000000 0.531403 0.847443
0.302490 0.406677 0.880432
0.809235 0.489502 0.931091
0.935516 0.671722 0.931580
0.000000 0.646790 0.776886
0.000000 0.657928 0.765594
0.036713 0.670074 0.789703
0.645294 0.655151 0.922302
0.934296 0.802155 0.930573
0.000000 0.685455 0.721771
0.000000 0.692108 0.717285
0.042206 0.717804 0.739960
0.226135 0.875916 0.893707
0.931366 0.936218 0.927582
