Kodak Vision3 200T (5213) - Only contrast.cube
# Created by Benjamin (IWLTBAP) : http://luts.iwltbap.com
# Copyright: (C) Copyright 2010-2017 Triune Films and IWLTBAP SAS
# Cannot be resold, shared or otherwise redistributed
TITLE "Film Print Emulation LUTs Pack (Rec.709, sRGB, DCI-P3)"
LUT_3D_SIZE 5
0.000793 0.000793 0.000793
0.182434 0.000427 0.000427
0.490082 0.000000 0.000000
0.764160 0.000000 0.000000
0.974304 0.000000 0.000000
0.000427 0.182434 0.000427
0.182709 0.182709 0.000061
0.491119 0.182159 0.000000
0.764404 0.181885 0.000000
0.974274 0.182037 0.000000
0.000000 0.490082 0.000000
0.182159 0.491119 0.000000
0.491241 0.491241 0.000000
0.763794 0.491669 0.000000
0.973389 0.492493 0.000000
0.000000 0.764160 0.000000
0.181885 0.764404 0.000000
0.491669 0.763794 0.000000
0.763458 0.763458 0.000000
0.972748 0.763580 0.000000
0.000000 0.974304 0.000000
0.182037 0.974274 0.000000
0.492493 0.973389 0.000000
0.763580 0.972748 0.000000
0.972595 0.972473 0.006195
0.000427 0.000427 0.182434
0.182709 0.000061 0.182709
0.491119 0.000000 0.182159
0.764404 0.000000 0.181885
0.974274 0.000000 0.182037
0.000061 0.182709 0.182709
0.183044 0.183044 0.183044
0.492126 0.182495 0.182495
0.764648 0.182220 0.182220
0.974243 0.182373 0.182373
0.000000 0.491119 0.182159
0.182495 0.492126 0.182495
0.492249 0.492249 0.181946
0.764069 0.492676 0.181671
0.973328 0.493530 0.181824
0.000000 0.764404 0.181885
0.182220 0.764648 0.182220
0.492676 0.764069 0.181671
0.763733 0.763733 0.181396
0.972717 0.763885 0.181580
0.000000 0.974274 0.182037
0.182373 0.974243 0.182373
0.493530 0.973328 0.181824
0.763885 0.972717 0.181580
0.972504 0.972504 0.181732
0.000000 0.000000 0.490082
0.182159 0.000000 0.491119
0.491241 0.000000 0.491241
0.763794 0.000000 0.491669
0.973389 0.000000 0.492493
0.000000 0.182159 0.491119
0.182495 0.182495 0.492126
0.492249 0.181946 0.492249
0.764069 0.181671 0.492676
0.973328 0.181824 0.493530
0.000000 0.491241 0.491241
0.181946 0.492249 0.492249
0.492401 0.492401 0.492401
0.763458 0.492828 0.492828
0.972412 0.493683 0.493683
0.000000 0.763794 0.491669
0.181671 0.764069 0.492676
0.492828 0.763458 0.492828
0.763153 0.763153 0.493256
0.971802 0.763336 0.494110
0.000000 0.973389 0.492493
0.181824 0.973328 0.493530
0.493683 0.972412 0.493683
0.763336 0.971802 0.494110
0.971588 0.971588 0.494995
0.000000 0.000000 0.764160
0.181885 0.000000 0.764404
0.491669 0.000000 0.763794
0.763458 0.000000 0.763458
0.972748 0.000000 0.763580
0.000000 0.181885 0.764404
0.182220 0.182220 0.764648
0.492676 0.181671 0.764069
0.763733 0.181396 0.763733
0.972717 0.181580 0.763885
0.000000 0.491669 0.763794
0.181671 0.492676 0.764069
0.492828 0.492828 0.763458
0.763153 0.493256 0.763153
0.971802 0.494110 0.763336
0.000000 0.763458 0.763458
0.181396 0.763733 0.763733
0.493256 0.763153 0.763153
0.762909 0.762909 0.762909
0.971191 0.763092 0.763092
0.000000 0.972748 0.763580
0.181580 0.972717 0.763885
0.494110 0.971802 0.763336
0.763092 0.971191 0.763092
0.970978 0.970978 0.763245
0.000000 0.000000 0.974243
0.182037 0.000000 0.974274
0.492493 0.000000 0.973389
0.763580 0.000000 0.972748
0.972565 0.000000 0.972565
0.000000 0.182037 0.974274
0.182373 0.182373 0.974243
0.493530 0.181824 0.973328
0.763885 0.181580 0.972717
0.972504 0.181732 0.972504
0.000000 0.492493 0.973389
0.181824 0.493530 0.973328
0.493683 0.493683 0.972412
0.763336 0.494110 0.971802
0.971588 0.494995 0.971588
0.000000 0.763580 0.972748
0.181580 0.763885 0.972717
0.494110 0.763336 0.971802
0.763092 0.763092 0.971191
0.970978 0.763245 0.970978
0.000000 0.972565 0.972565
0.181732 0.972504 0.972504
0.494995 0.971588 0.971588
0.763245 0.970978 0.970978
0.970795 0.970795 0.970795
