Kodak 16mm (Variant) - Only color.cube
# Created by Benjamin (IWLTBAP) : http://luts.iwltbap.com
# Copyright: (C) Copyright 2010-2017 Triune Films and IWLTBAP SAS
# Cannot be resold, shared or otherwise redistributed
TITLE "Film Print Emulation LUTs Pack (Rec.709, sRGB, DCI-P3)"
LUT_3D_SIZE 33
0.000000 0.000000 0.000031
0.021820 0.001404 0.003906
0.049866 0.002808 0.006866
0.081512 0.004181 0.009827
0.112000 0.006958 0.013794
0.145782 0.009064 0.014801
0.183563 0.008331 0.015839
0.223114 0.006897 0.018799
0.263855 0.004028 0.020752
0.297089 0.002594 0.022705
0.332275 0.000427 0.026398
0.366943 0.000397 0.030792
0.401215 0.000366 0.035675
0.431152 0.000336 0.038818
0.462280 0.000000 0.041138
0.493195 0.000000 0.043457
0.519135 0.000000 0.045746
0.546387 0.000000 0.050079
0.570709 0.000000 0.054230
0.598114 0.000000 0.060089
0.625580 0.000000 0.066833
0.648193 0.000000 0.073090
0.670959 0.000000 0.078888
0.692963 0.000000 0.084259
0.714081 0.000000 0.089142
0.736359 0.000000 0.095215
0.761200 0.000000 0.102509
0.779663 0.000000 0.109650
0.794952 0.000000 0.116119
0.807465 0.000000 0.121674
0.814606 0.000000 0.124359
0.817108 0.000000 0.124695
0.819183 0.000000 0.125031
0.004181 0.018463 0.008759
0.023315 0.015594 0.008820
0.049896 0.014862 0.009827
0.080994 0.014099 0.011810
0.109650 0.014771 0.013794
0.142395 0.016174 0.015808
0.177399 0.014740 0.015869
0.216675 0.013275 0.018829
0.257294 0.008972 0.018890
0.289612 0.007538 0.021790
0.326141 0.003967 0.024597
0.359955 0.003204 0.029083
0.394592 0.003174 0.034882
0.424622 0.001740 0.037262
0.455078 0.001007 0.040405
0.487457 0.000977 0.043457
0.514252 0.000244 0.045746
0.541718 0.000214 0.049408
0.566711 0.000214 0.052887
0.594330 0.000000 0.058167
0.621887 0.000000 0.063843
0.644531 0.000000 0.069183
0.667023 0.000000 0.074738
0.688904 0.000000 0.079895
0.709961 0.000000 0.085175
0.731750 0.000000 0.090790
0.757294 0.000000 0.098297
0.776550 0.000000 0.105164
0.793060 0.000000 0.111816
0.806763 0.000000 0.117523
0.814850 0.000000 0.120636
0.817566 0.000000 0.121307
0.819855 0.000000 0.122009
0.011078 0.040558 0.018585
0.027954 0.036102 0.016693
0.050629 0.033020 0.016724
0.079437 0.029968 0.016724
0.107697 0.028473 0.016754
0.140350 0.027710 0.017761
0.173431 0.026215 0.017822
0.211639 0.023315 0.019775
0.251221 0.018250 0.019836
0.284302 0.015381 0.019897
0.320435 0.011780 0.023682
0.353638 0.009613 0.028198
0.388397 0.008148 0.033295
0.418610 0.006012 0.036499
0.448547 0.003845 0.039612
0.481689 0.003113 0.042694
0.509094 0.002380 0.044983
0.536774 0.001648 0.048676
0.562408 0.000916 0.052185
0.590332 0.000183 0.056885
0.617920 0.000153 0.061371
0.641052 0.000000 0.066254
0.663269 0.000000 0.070862
0.685089 0.000000 0.075256
0.705994 0.000000 0.080414
0.727478 0.000000 0.086060
0.753448 0.000000 0.093231
0.773743 0.000000 0.100616
0.791199 0.000000 0.107422
0.806091 0.000000 0.113281
0.814880 0.000000 0.116821
0.817963 0.000000 0.117523
0.820465 0.000000 0.118225
0.019592 0.066132 0.028931
0.036865 0.062439 0.027161
0.056854 0.057953 0.026245
0.079987 0.053558 0.024384
0.107300 0.049316 0.023468
0.137970 0.047394 0.023499
0.169617 0.044037 0.022614
0.207947 0.040497 0.021698
0.246887 0.033691 0.020813
0.280548 0.028381 0.018951
0.315125 0.024689 0.022766
0.348022 0.019592 0.027344
0.383179 0.016693 0.031647
0.412842 0.013123 0.034912
0.443024 0.010254 0.038849
0.476166 0.008087 0.042694
0.503906 0.005219 0.044983
0.531586 0.004486 0.048676
0.557678 0.003052 0.051514
0.585846 0.001617 0.054901
0.613617 0.000854 0.059448
0.637604 0.000153 0.062622
0.659637 0.000122 0.066833
0.681641 0.000092 0.070862
0.702515 0.000000 0.075256
0.723694 0.000000 0.080414
0.749573 0.000000 0.087830
0.770996 0.000000 0.095184
0.789459 0.000000 0.102112
0.805450 0.000000 0.108154
0.814941 0.000000 0.111816
0.818359 0.000000 0.112915
0.820923 0.000000 0.113617
0.032806 0.094574 0.033295
0.046295 0.090240 0.031616
0.063995 0.085663 0.030731
0.086578 0.081299 0.029877
0.108917 0.074585 0.028992
0.139771 0.070953 0.028992
0.167908 0.067780 0.027252
0.205505 0.062714 0.024536
0.242157 0.057800 0.022736
0.277222 0.050507 0.018982
0.311218 0.044037 0.020935
0.343658 0.036774 0.026459
0.377960 0.031342 0.031677
0.407928 0.024628 0.034119
0.438232 0.018799 0.038055
0.470856 0.014496 0.041931
0.500549 0.011627 0.045746
0.526550 0.009460 0.048676
0.554077 0.006592 0.050812
0.581116 0.003754 0.054230
0.609039 0.002289 0.056885
0.634247 0.001556 0.060120
0.656769 0.000824 0.063232
0.678955 0.000122 0.066254
0.700531 0.000092 0.070312
0.722137 0.000061 0.075775
0.745758 0.000000 0.081879
0.767517 0.000000 0.089111
0.787476 0.000000 0.095978
0.803802 0.000000 0.102112
0.814941 0.000000 0.106293
0.818909 0.000000 0.107788
0.820953 0.000000 0.108154
0.049988 0.117065 0.037354
0.059540 0.113678 0.036560
0.073517 0.110168 0.035736
0.092316 0.106567 0.034119
0.116211 0.103180 0.034119
0.141266 0.100037 0.033295
0.169617 0.097504 0.032471
0.203217 0.094147 0.031647
0.239685 0.088562 0.029114
0.274963 0.080414 0.026459
0.307007 0.072266 0.023773
0.340454 0.063507 0.025604
0.374115 0.055573 0.029144
0.406799 0.045349 0.033325
0.436646 0.035950 0.036499
0.466980 0.030579 0.040405
0.497345 0.025299 0.044250
0.523651 0.020905 0.047241
0.549927 0.014435 0.050110
0.577545 0.011566 0.052887
0.606201 0.007263 0.055573
0.632416 0.005127 0.058167
0.654694 0.003662 0.060730
0.677948 0.002930 0.063843
0.699066 0.001495 0.067444
0.720215 0.000763 0.071442
0.742645 0.000763 0.076843
0.765320 0.000031 0.083313
0.785767 0.000000 0.089508
0.803406 0.000000 0.095184
0.815216 0.000000 0.099060
0.819519 0.000000 0.100189
0.821655 0.000000 0.100586
0.068939 0.139740 0.042816
0.076324 0.136871 0.042023
0.088074 0.133118 0.040466
0.101593 0.129272 0.038910
0.122375 0.126434 0.038116
0.144104 0.123535 0.038086
0.172028 0.122650 0.037323
0.203613 0.121490 0.037323
0.239380 0.118805 0.036530
0.273651 0.113586 0.034943
0.304596 0.107483 0.032532
0.337799 0.099976 0.031708
0.369690 0.088135 0.029175
0.402679 0.074982 0.031708
0.434082 0.062927 0.034943
0.465637 0.054962 0.038849
0.495605 0.045990 0.042694
0.522369 0.039001 0.045746
0.548309 0.031311 0.047974
0.576233 0.025269 0.050110
0.603821 0.016541 0.053558
0.630859 0.012939 0.056213
0.653503 0.010071 0.058838
0.678192 0.007202 0.061981
0.698364 0.005066 0.065063
0.719086 0.004333 0.068604
0.740967 0.002869 0.072540
0.763184 0.001434 0.077362
0.783966 0.000732 0.082825
0.802551 0.000702 0.087372
0.814545 0.000000 0.090729
0.819092 0.000000 0.091553
0.822662 0.000000 0.092377
0.086670 0.160065 0.047363
0.091888 0.155334 0.045868
0.099915 0.152222 0.045105
0.111328 0.149536 0.044312
0.127197 0.147308 0.043549
0.148499 0.145813 0.042786
0.171326 0.145538 0.042755
0.203979 0.146301 0.042755
0.239044 0.146790 0.043518
0.273254 0.144531 0.042755
0.302704 0.140442 0.041229
0.337128 0.133575 0.038879
0.367218 0.124908 0.034149
0.401001 0.111938 0.030090
0.432251 0.100281 0.031738
0.463226 0.090576 0.034973
0.493073 0.079956 0.038879
0.518921 0.067505 0.041931
0.545807 0.056458 0.044220
0.574768 0.045288 0.046478
0.602234 0.033600 0.050110
0.631287 0.025970 0.052887
0.654266 0.020813 0.056885
0.678131 0.017181 0.060730
0.700073 0.013580 0.064453
0.720673 0.010712 0.068024
0.743073 0.008545 0.070312
0.763794 0.006409 0.073090
0.782074 0.004272 0.075775
0.801880 0.002838 0.078888
0.814819 0.002106 0.081848
0.819366 0.002106 0.082336
0.822266 0.001404 0.082794
0.098633 0.179535 0.052338
0.102905 0.176575 0.050934
0.108978 0.173126 0.050232
0.119202 0.169830 0.049530
0.132751 0.167603 0.048798
0.148224 0.165802 0.047333
0.172516 0.167145 0.048065
0.202850 0.169830 0.048767
0.235687 0.172485 0.049500
0.272095 0.173798 0.049469
0.304779 0.172699 0.049500
0.336243 0.168060 0.046570
0.367615 0.160278 0.042725
0.400146 0.148987 0.036530
0.432098 0.138855 0.032562
0.460602 0.129150 0.031769
0.491211 0.120209 0.033386
0.516876 0.111267 0.036530
0.542114 0.102661 0.038849
0.571350 0.086029 0.041931
0.598877 0.069305 0.044983
0.629517 0.055847 0.048676
0.654510 0.045258 0.053558
0.678345 0.034363 0.058197
0.702087 0.028198 0.063843
0.722351 0.024414 0.067444
0.745483 0.018585 0.069763
0.766296 0.015686 0.071442
0.784149 0.012085 0.071442
0.800995 0.009949 0.071442
0.814148 0.007782 0.071991
0.819550 0.007080 0.072540
0.822632 0.006348 0.072540
0.106201 0.200012 0.057648
0.109802 0.196289 0.056976
0.114807 0.192688 0.055664
0.123108 0.189392 0.054352
0.134949 0.186646 0.053650
0.149841 0.184845 0.052979
0.170380 0.186432 0.052979
0.200287 0.188599 0.053650
0.233521 0.193054 0.054993
0.269867 0.198883 0.056305
0.303772 0.202026 0.056305
0.337860 0.201111 0.054962
0.369934 0.196655 0.051575
0.402008 0.188782 0.046539
0.432434 0.179504 0.041168
0.461090 0.169617 0.034973
0.490601 0.159790 0.031799
0.514893 0.148468 0.030975
0.540253 0.138794 0.033386
0.569244 0.127686 0.036530
0.596893 0.116821 0.039612
0.628143 0.099854 0.044189
0.653625 0.085175 0.049377
0.677673 0.069733 0.054901
0.701355 0.057800 0.060760
0.722595 0.048431 0.065674
0.746704 0.041809 0.069183
0.769104 0.033569 0.070312
0.787018 0.025879 0.069183
0.802734 0.022919 0.066864
0.814209 0.019989 0.065063
0.820099 0.017792 0.064453
0.824249 0.017090 0.064453
0.113312 0.218719 0.063904
0.117767 0.215698 0.062683
0.122437 0.212280 0.061432
0.128876 0.207214 0.060181
0.138336 0.204742 0.058899
0.151428 0.202209 0.058258
0.169647 0.203125 0.057617
0.196472 0.206512 0.058258
0.227051 0.211761 0.060181
0.264923 0.219025 0.062073
0.298645 0.225037 0.063324
0.336609 0.229279 0.063293
0.372009 0.228485 0.060822
0.405548 0.226257 0.057587
0.436829 0.217987 0.052246
0.464111 0.206146 0.045013
0.492615 0.196075 0.038849
0.517120 0.186401 0.032593
0.541321 0.176971 0.028503
0.569916 0.165344 0.031799
0.595581 0.154785 0.034943
0.627075 0.141876 0.039612
0.652832 0.129913 0.044952
0.676666 0.117401 0.050079
0.699921 0.104309 0.056244
0.721954 0.092468 0.062012
0.745453 0.071594 0.066864
0.767426 0.059692 0.069214
0.787231 0.051361 0.067444
0.804474 0.043884 0.065063
0.816193 0.040375 0.061981
0.823273 0.037415 0.060730
0.827515 0.035858 0.060089
0.120331 0.235748 0.069244
0.123840 0.233337 0.068665
0.129211 0.230408 0.067505
0.135590 0.226471 0.066315
0.144104 0.223450 0.065125
0.154266 0.220520 0.063904
0.170135 0.219025 0.063293
0.193604 0.222778 0.063904
0.220856 0.227722 0.065125
0.258148 0.234955 0.066925
0.290955 0.243317 0.068695
0.331055 0.250854 0.070404
0.368958 0.256409 0.070953
0.407715 0.256256 0.068085
0.438446 0.251678 0.063293
0.469421 0.243866 0.057617
0.495636 0.234467 0.052216
0.519348 0.224182 0.043457
0.544098 0.213776 0.035736
0.569122 0.203949 0.030182
0.596069 0.193390 0.030975
0.624939 0.182770 0.034943
0.651611 0.171143 0.040375
0.675690 0.157166 0.045715
0.698517 0.147675 0.050781
0.719849 0.135040 0.057556
0.744202 0.122162 0.063263
0.765472 0.106262 0.066895
0.785919 0.092072 0.066895
0.805481 0.073486 0.065094
0.819427 0.062073 0.062012
0.827118 0.060608 0.060730
0.831635 0.058655 0.060089
0.128235 0.254852 0.076385
0.131500 0.252991 0.075867
0.135590 0.249420 0.074249
0.141266 0.246674 0.073151
0.149841 0.243195 0.072052
0.159332 0.239655 0.070374
0.172058 0.238434 0.069824
0.191925 0.238892 0.069244
0.217346 0.242584 0.070374
0.249573 0.248688 0.071503
0.279541 0.257141 0.074280
0.322266 0.267456 0.076416
0.360199 0.275757 0.077972
0.403351 0.281555 0.077942
0.439941 0.281433 0.074799
0.473328 0.276550 0.069824
0.499756 0.268555 0.063934
0.521820 0.260376 0.058899
0.546204 0.250519 0.050110
0.571625 0.241028 0.042664
0.597351 0.231506 0.034943
0.626343 0.221069 0.032593
0.650635 0.209595 0.035736
0.675293 0.199554 0.040344
0.696716 0.187958 0.045685
0.718750 0.177155 0.051483
0.742157 0.164154 0.058197
0.765076 0.154022 0.062653
0.785828 0.138458 0.065125
0.807068 0.121826 0.064484
0.824371 0.107544 0.063873
0.832123 0.101135 0.062622
0.836823 0.096863 0.062012
0.134064 0.273651 0.083435
0.136841 0.271912 0.082977
0.140991 0.269745 0.082001
0.146332 0.266754 0.080505
0.153992 0.263702 0.079498
0.164032 0.260376 0.077972
0.178192 0.257111 0.076385
0.194427 0.257416 0.076385
0.213074 0.258392 0.076385
0.240417 0.262207 0.076935
0.270477 0.269104 0.078979
0.307983 0.278778 0.081512
0.346222 0.289551 0.084839
0.392151 0.298981 0.085724
0.434448 0.305481 0.086151
0.473419 0.305695 0.082458
0.501587 0.301849 0.078461
0.524994 0.295593 0.074249
0.548431 0.285980 0.067505
0.573090 0.277191 0.060181
0.600098 0.268402 0.052856
0.628143 0.257965 0.044922
0.652679 0.248199 0.037262
0.674927 0.237274 0.038055
0.697998 0.227448 0.040344
0.718506 0.215240 0.045685
0.742401 0.204102 0.050781
0.763611 0.192780 0.055573
0.785461 0.182129 0.059509
0.808868 0.165985 0.062042
0.827667 0.149597 0.063263
0.836548 0.143341 0.063263
0.842285 0.138153 0.063263
0.138947 0.295441 0.091858
0.141846 0.291901 0.090607
0.146057 0.289703 0.089752
0.151672 0.287537 0.088898
0.158813 0.285187 0.087585
0.168701 0.280701 0.085785
0.182739 0.278900 0.084869
0.198914 0.277069 0.083923
0.214508 0.277588 0.083923
0.236572 0.278900 0.083923
0.264038 0.282715 0.084839
0.292206 0.290070 0.086670
0.331543 0.299347 0.089264
0.372833 0.310852 0.092133
0.420807 0.320740 0.093719
0.465302 0.326935 0.093292
0.500214 0.327545 0.089996
0.527496 0.324249 0.085205
0.551666 0.317261 0.080475
0.577667 0.310120 0.075317
0.602478 0.300995 0.069244
0.631256 0.291901 0.060791
0.655273 0.283020 0.052185
0.677155 0.273102 0.042633
0.699249 0.263580 0.037262
0.720581 0.252655 0.038788
0.741272 0.241730 0.043396
0.763184 0.232391 0.047150
0.785278 0.221191 0.050751
0.809753 0.206238 0.054871
0.829926 0.193909 0.058197
0.839111 0.187317 0.059479
0.846191 0.182312 0.060120
0.142151 0.316132 0.100464
0.145782 0.313324 0.099335
0.150879 0.310913 0.098175
0.157806 0.308807 0.097015
0.166260 0.306885 0.096252
0.177277 0.303406 0.094666
0.189148 0.301910 0.093872
0.203613 0.300415 0.093048
0.220673 0.299255 0.092651
0.239441 0.299957 0.092621
0.261871 0.300873 0.092621
0.285706 0.304749 0.093414
0.319183 0.310425 0.094971
0.359619 0.320740 0.097290
0.406616 0.332245 0.099945
0.450531 0.342651 0.101074
0.496002 0.349457 0.099121
0.526398 0.350403 0.094849
0.554718 0.346985 0.090363
0.580658 0.339905 0.086060
0.607910 0.332306 0.081421
0.635895 0.324005 0.075867
0.658752 0.315704 0.068665
0.682648 0.306641 0.060150
0.702423 0.297058 0.050049
0.721466 0.286926 0.042603
0.741791 0.278198 0.038788
0.762878 0.269745 0.038788
0.783447 0.258240 0.042603
0.807281 0.246857 0.046417
0.830811 0.233887 0.050018
0.841766 0.227386 0.052826
0.849304 0.222931 0.054199
0.143555 0.339355 0.110870
0.147675 0.336823 0.109772
0.152954 0.334259 0.108307
0.160339 0.331451 0.107178
0.170410 0.329803 0.106079
0.182770 0.326447 0.104553
0.197327 0.325043 0.103821
0.212524 0.325684 0.103821
0.229645 0.324402 0.103058
0.248657 0.323761 0.102661
0.268341 0.324066 0.102661
0.288055 0.324738 0.102295
0.317627 0.327454 0.102661
0.347473 0.332977 0.103760
0.388306 0.343567 0.105652
0.433990 0.355743 0.108246
0.482880 0.366150 0.107544
0.520844 0.373566 0.104889
0.551270 0.374847 0.099884
0.582672 0.372345 0.095184
0.612885 0.364685 0.090332
0.640137 0.356934 0.086487
0.665375 0.348145 0.081879
0.687653 0.336945 0.074768
0.708862 0.327698 0.066925
0.728485 0.318848 0.058868
0.749023 0.308838 0.047150
0.767365 0.301422 0.040314
0.786987 0.292694 0.037994
0.811310 0.280853 0.041840
0.834290 0.270538 0.045624
0.845917 0.262299 0.048584
0.854584 0.257660 0.050720
0.157562 0.368195 0.122772
0.160583 0.365448 0.121429
0.164795 0.362915 0.120392
0.170898 0.360138 0.119019
0.181213 0.358582 0.118317
0.193634 0.356384 0.117279
0.207367 0.355255 0.116577
0.225006 0.354218 0.115875
0.243774 0.353912 0.115509
0.263641 0.354401 0.115509
0.278351 0.351990 0.114471
0.300659 0.350159 0.113403
0.325165 0.351044 0.113037
0.349335 0.354095 0.113007
0.381134 0.358887 0.113007
0.423401 0.368317 0.114441
0.468231 0.380981 0.115540
0.507904 0.392914 0.115173
0.546234 0.400330 0.111572
0.582367 0.403168 0.106720
0.614990 0.401337 0.102142
0.645050 0.395721 0.097870
0.671600 0.384247 0.092712
0.695526 0.373138 0.088593
0.717255 0.361542 0.082825
0.737549 0.352722 0.077393
0.757690 0.341583 0.071503
0.776520 0.331451 0.061432
0.797272 0.322357 0.052826
0.819275 0.311615 0.046387
0.842133 0.300812 0.047119
0.854279 0.294983 0.049286
0.863708 0.290619 0.051422
0.170654 0.400757 0.134827
0.176361 0.398193 0.133881
0.183258 0.395752 0.132935
0.189392 0.391907 0.131348
0.198517 0.390137 0.130371
0.208313 0.386505 0.128784
0.221710 0.385529 0.128448
0.239136 0.385254 0.128113
0.261017 0.386047 0.127777
0.279053 0.386475 0.127808
0.296265 0.383698 0.126495
0.320312 0.381531 0.125153
0.339539 0.380127 0.124146
0.360901 0.378937 0.123138
0.389160 0.382202 0.122803
0.424561 0.388062 0.122803
0.464203 0.398163 0.123505
0.503632 0.408234 0.123840
0.540131 0.418640 0.123138
0.578064 0.426147 0.120422
0.617889 0.429047 0.116211
0.651459 0.427124 0.111542
0.680023 0.418915 0.105957
0.704468 0.410706 0.101715
0.726318 0.401001 0.097809
0.746185 0.389801 0.093079
0.765839 0.377747 0.088959
0.783295 0.368195 0.085052
0.802795 0.357941 0.078918
0.824951 0.345032 0.065704
0.846222 0.334320 0.054169
0.860321 0.326477 0.050720
0.870453 0.322021 0.053497
0.181458 0.430328 0.145691
0.189606 0.426208 0.144470
0.198700 0.424286 0.143555
0.208099 0.422668 0.142944
0.217682 0.419922 0.141724
0.228455 0.417419 0.140503
0.242645 0.417023 0.140167
0.259979 0.416534 0.139557
0.276184 0.417786 0.139862
0.296936 0.417572 0.139282
0.318878 0.416229 0.138336
0.338989 0.415192 0.137421
0.360382 0.413727 0.136444
0.380005 0.410309 0.134583
0.405151 0.408630 0.132996
0.433044 0.411469 0.132355
0.468750 0.417084 0.132690
0.504211 0.425934 0.132690
0.537415 0.436920 0.133667
0.575714 0.447906 0.133667
0.619049 0.454681 0.130127
0.656525 0.456543 0.125183
0.688202 0.453278 0.120056
0.713623 0.444336 0.114075
0.734344 0.434418 0.109680
0.754028 0.425049 0.106323
0.772552 0.414642 0.102478
0.790314 0.406708 0.099365
0.809143 0.396851 0.095795
0.830048 0.381226 0.088470
0.849609 0.368652 0.077881
0.864410 0.361023 0.068634
0.876953 0.355438 0.060120
0.201263 0.460022 0.154846
0.203766 0.456238 0.153687
0.213379 0.454803 0.152832
0.223969 0.453400 0.152252
0.236115 0.451782 0.151672
0.248535 0.449036 0.150818
0.264587 0.449219 0.150513
0.278870 0.449310 0.150238
0.296814 0.449249 0.149963
0.320099 0.451141 0.149963
0.341003 0.450500 0.149384
0.363159 0.450073 0.148804
0.383759 0.448273 0.147888
0.404541 0.443542 0.145813
0.424622 0.440460 0.143982
0.448151 0.439880 0.142761
0.478882 0.441345 0.141846
0.508270 0.447754 0.142181
0.538300 0.456573 0.143097
0.576355 0.466888 0.143738
0.617401 0.474976 0.142853
0.657990 0.479828 0.138794
0.693268 0.480560 0.133698
0.719635 0.475433 0.127533
0.742157 0.467621 0.121796
0.761505 0.460602 0.117645
0.779022 0.449738 0.113342
0.796600 0.438995 0.109314
0.814331 0.428680 0.105164
0.834534 0.416595 0.099304
0.854065 0.404510 0.091339
0.868042 0.396057 0.084534
0.881073 0.389618 0.078369
0.229645 0.486511 0.163574
0.237488 0.484161 0.162811
0.247070 0.483093 0.162262
0.257294 0.481079 0.161469
0.267181 0.480225 0.160950
0.275269 0.477722 0.160156
0.288513 0.478302 0.160156
0.304535 0.479095 0.160156
0.323792 0.481323 0.160431
0.342590 0.482758 0.160431
0.362152 0.483612 0.160431
0.384888 0.483490 0.160187
0.405945 0.480927 0.158813
0.426208 0.477081 0.157196
0.443573 0.473114 0.155243
0.467590 0.471924 0.154114
0.490417 0.469299 0.152100
0.514343 0.470886 0.151520
0.540771 0.476135 0.151825
0.575500 0.483734 0.152435
0.614471 0.491852 0.152130
0.655396 0.498596 0.149841
0.691467 0.502228 0.145966
0.722107 0.501343 0.139771
0.746033 0.498047 0.135315
0.765778 0.490997 0.129517
0.784729 0.481079 0.123169
0.802216 0.471436 0.117279
0.819153 0.462067 0.111877
0.838196 0.448090 0.105164
0.856354 0.437286 0.099304
0.871857 0.428955 0.093750
0.886078 0.422058 0.087982
0.259094 0.513031 0.172882
0.268738 0.511353 0.172180
0.277466 0.510773 0.171967
0.287109 0.509460 0.171265
0.296814 0.509399 0.171234
0.305817 0.506622 0.169830
0.317596 0.507568 0.170044
0.330597 0.509796 0.170776
0.345795 0.513214 0.171692
0.362671 0.514343 0.171936
0.381439 0.515625 0.172150
0.403381 0.514343 0.171448
0.424713 0.513641 0.170746
0.444092 0.511536 0.169800
0.465912 0.507385 0.168121
0.485382 0.503540 0.166138
0.504028 0.500000 0.164124
0.523071 0.498383 0.162598
0.546570 0.499359 0.161530
0.577118 0.502502 0.160767
0.612579 0.508514 0.160492
0.651733 0.516357 0.159973
0.688049 0.522186 0.156982
0.718781 0.525116 0.153046
0.745941 0.523407 0.148071
0.767303 0.519012 0.143219
0.787537 0.511200 0.136322
0.806427 0.502625 0.128845
0.822388 0.491455 0.121124
0.840942 0.480774 0.112976
0.860443 0.467316 0.104370
0.875183 0.460266 0.099304
0.889740 0.453278 0.094147
0.285370 0.539978 0.181824
0.295013 0.539856 0.181580
0.304169 0.538483 0.181152
0.315643 0.539490 0.181366
0.324188 0.539429 0.181152
0.330841 0.537903 0.180695
0.339478 0.539490 0.180908
0.350922 0.542084 0.181580
0.364716 0.544952 0.182220
0.381134 0.547607 0.182648
0.400635 0.549622 0.183075
0.423157 0.551605 0.183289
0.442535 0.550598 0.182831
0.464569 0.547791 0.181763
0.483704 0.542725 0.180023
0.501007 0.537903 0.178467
0.517792 0.532867 0.176239
0.535736 0.529083 0.174408
0.556213 0.526001 0.172119
0.583496 0.526642 0.170929
0.614105 0.529968 0.169983
0.648468 0.535858 0.169250
0.683014 0.543427 0.168060
0.714172 0.549408 0.165619
0.744690 0.551117 0.161285
0.768646 0.548676 0.156464
0.790588 0.543060 0.150787
0.808380 0.534210 0.144165
0.826660 0.522980 0.135010
0.845551 0.509247 0.123840
0.864990 0.499054 0.115112
0.881653 0.489838 0.107422
0.895477 0.483490 0.102051
0.321106 0.570221 0.190155
0.326660 0.569427 0.189728
0.334045 0.570862 0.190155
0.341736 0.573486 0.190796
0.349304 0.573761 0.190796
0.356262 0.573212 0.190582
0.365845 0.575073 0.190979
0.376373 0.577820 0.191620
0.389435 0.580933 0.192474
0.406128 0.584412 0.193359
0.423981 0.587952 0.194214
0.444794 0.591034 0.195068
0.465668 0.591309 0.194855
0.486145 0.590851 0.194641
0.502502 0.586151 0.192932
0.517670 0.580872 0.191010
0.534210 0.575226 0.189056
0.551483 0.569672 0.186920
0.570587 0.564697 0.184967
0.594513 0.559753 0.181915
0.622223 0.559540 0.180176
0.651459 0.563049 0.178833
0.683075 0.569305 0.177948
0.712616 0.575592 0.176605
0.741669 0.580261 0.174561
0.768005 0.581024 0.170654
0.791748 0.577087 0.165344
0.811157 0.570312 0.159180
0.831024 0.561401 0.151947
0.850739 0.544922 0.140747
0.872101 0.530212 0.128845
0.889191 0.521698 0.120056
0.904266 0.514862 0.114410
0.355133 0.602173 0.199707
0.360138 0.603210 0.199921
0.366272 0.605072 0.200531
0.371429 0.605621 0.200531
0.376892 0.606628 0.200958
0.383606 0.608215 0.201385
0.391479 0.610382 0.201996
0.402435 0.612274 0.202423
0.417725 0.618134 0.204071
0.433777 0.622986 0.205536
0.447815 0.624695 0.206146
0.471893 0.630127 0.207794
0.491150 0.631775 0.208008
0.508087 0.632050 0.208008
0.523132 0.628326 0.206360
0.538696 0.623596 0.204529
0.554169 0.618805 0.202454
0.570892 0.613312 0.200378
0.588257 0.605530 0.197418
0.610504 0.600433 0.195282
0.635712 0.597443 0.192719
0.662109 0.597870 0.191010
0.687225 0.600555 0.189484
0.716095 0.605591 0.187958
0.743927 0.610748 0.186676
0.769257 0.613098 0.183838
0.793915 0.612457 0.179443
0.814545 0.609497 0.174530
0.835571 0.600067 0.167297
0.858093 0.583954 0.155640
0.880493 0.568268 0.144806
0.898560 0.555725 0.134399
0.915894 0.546326 0.126221
0.387268 0.635193 0.210968
0.391388 0.635712 0.210968
0.397186 0.637756 0.211761
0.402985 0.640198 0.212555
0.407562 0.640900 0.212769
0.411438 0.640137 0.212372
0.419617 0.642731 0.213348
0.430145 0.646790 0.214539
0.444031 0.652771 0.216675
0.462738 0.656982 0.217834
0.480560 0.660431 0.218811
0.498901 0.664337 0.219727
0.517090 0.666992 0.220490
0.532410 0.669006 0.221039
0.547607 0.666077 0.219727
0.564789 0.664612 0.218994
0.580109 0.660248 0.217285
0.594269 0.653351 0.214569
0.613281 0.649109 0.212799
0.633148 0.644867 0.210846
0.653931 0.638580 0.207825
