Kodak Vision3 200T (5213) - Only color.cube
# Created by Benjamin (IWLTBAP) : http://luts.iwltbap.com
# Copyright: (C) Copyright 2010-2017 Triune Films and IWLTBAP SAS
# Cannot be resold, shared or otherwise redistributed
TITLE "Film Print Emulation LUTs Pack (Rec.709, sRGB, DCI-P3)"
LUT_3D_SIZE 33
0.000793 0.000793 0.000793
0.027496 0.000702 0.001831
0.055267 0.002655 0.005890
0.075775 0.005615 0.010406
0.105835 0.013031 0.015015
0.142944 0.021545 0.020538
0.185364 0.032684 0.023163
0.228119 0.046021 0.029755
0.261810 0.056030 0.033813
0.292145 0.066986 0.042023
0.314301 0.075531 0.044495
0.333954 0.083282 0.049347
0.353485 0.091980 0.049377
0.372467 0.099335 0.049347
0.390198 0.106415 0.049347
0.406525 0.114105 0.049347
0.423798 0.121277 0.049347
0.441956 0.128448 0.047699
0.458710 0.134827 0.047699
0.476807 0.141785 0.047668
0.495178 0.148010 0.047668
0.513794 0.152924 0.046021
0.531433 0.158386 0.046021
0.549500 0.163666 0.044342
0.568237 0.168457 0.044312
0.588043 0.173096 0.044312
0.608887 0.177917 0.042633
0.630188 0.182922 0.044312
0.653839 0.187469 0.044312
0.679047 0.192505 0.044312
0.706329 0.198517 0.046021
0.732483 0.203796 0.046082
0.756287 0.208954 0.047882
0.000610 0.020721 0.003815
0.025604 0.035522 0.012207
0.058441 0.045135 0.020020
0.078339 0.051819 0.021057
0.112427 0.059723 0.024628
0.155273 0.068237 0.028046
0.198151 0.076721 0.032990
0.239136 0.085571 0.038696
0.268372 0.093079 0.042847
0.298492 0.100403 0.049347
0.321014 0.105835 0.050964
0.341492 0.113098 0.050964
0.362427 0.118927 0.050964
0.381317 0.125763 0.050964
0.400513 0.132294 0.049347
0.419586 0.139343 0.049347
0.439209 0.145294 0.047699
0.457245 0.150299 0.047699
0.476013 0.155487 0.047668
0.495880 0.160156 0.047668
0.514801 0.164703 0.046021
0.534363 0.169434 0.045990
0.553070 0.174377 0.044342
0.573486 0.178833 0.044312
0.593872 0.183197 0.044312
0.615753 0.187744 0.044312
0.639557 0.192444 0.044281
0.664246 0.197021 0.044312
0.690735 0.201782 0.044312
0.718811 0.207214 0.046051
0.744019 0.212280 0.046143
0.768768 0.217651 0.047882
0.790558 0.223053 0.049622
0.000458 0.042999 0.007690
0.014648 0.054932 0.014313
0.053925 0.072296 0.025879
0.077698 0.082184 0.029327
0.111664 0.089844 0.032776
0.153412 0.097382 0.035339
0.199615 0.105713 0.041992
0.244110 0.113037 0.046112
0.273468 0.121704 0.052551
0.301178 0.130127 0.057343
0.324158 0.135651 0.057373
0.345459 0.141357 0.057373
0.367279 0.146454 0.055786
0.388367 0.151794 0.055786
0.409882 0.156219 0.052551
0.431824 0.160492 0.050964
0.453156 0.164703 0.049316
0.473145 0.168762 0.047668
0.493347 0.173401 0.047668
0.513306 0.177582 0.046021
0.533966 0.181641 0.045990
0.554626 0.186218 0.044312
0.575104 0.190979 0.044312
0.597260 0.194458 0.044312
0.619873 0.199249 0.044281
0.644684 0.203644 0.044281
0.670563 0.207397 0.044312
0.698608 0.212128 0.045990
0.727051 0.217499 0.046051
0.752258 0.222473 0.047852
0.777130 0.227539 0.047913
0.800598 0.232849 0.049652
0.827911 0.238373 0.049683
0.001923 0.068848 0.016327
0.011780 0.071533 0.018127
0.046387 0.088226 0.027496
0.073517 0.105560 0.036591
0.103912 0.116028 0.042572
0.141998 0.125488 0.045959
0.191315 0.135529 0.050873
0.239746 0.143677 0.055725
0.273132 0.150238 0.060486
0.301575 0.156189 0.062042
0.325928 0.161560 0.062042
0.347870 0.166718 0.060516
0.369965 0.171417 0.060547
0.391266 0.176300 0.060547
0.413086 0.179779 0.058990
0.435791 0.183807 0.057404
0.457794 0.188049 0.055817
0.479431 0.191284 0.054199
0.501740 0.195312 0.050934
0.524231 0.198700 0.049286
0.546570 0.201996 0.047638
0.569733 0.205780 0.044312
0.591797 0.209198 0.044312
0.615479 0.213837 0.044281
0.640869 0.217621 0.044281
0.668182 0.221069 0.044312
0.696716 0.224945 0.044342
0.726776 0.230377 0.046082
0.752716 0.234985 0.047852
0.777924 0.239655 0.047943
0.803253 0.244781 0.047974
0.831818 0.249695 0.049683
0.860565 0.254242 0.051392
0.011780 0.088104 0.022430
0.022430 0.092072 0.024109
0.043640 0.104797 0.032379
0.071594 0.126343 0.039856
0.097961 0.141205 0.050507
0.131195 0.150330 0.057007
0.177795 0.160004 0.061859
0.231110 0.170044 0.067963
0.267334 0.176270 0.071594
0.298645 0.181030 0.068024
0.325623 0.185913 0.065094
0.348236 0.190979 0.065094
0.371460 0.195618 0.063599
0.393219 0.200104 0.062103
0.415283 0.203644 0.062103
0.438141 0.207916 0.062103
0.460571 0.211578 0.060577
0.482910 0.215149 0.057434
0.505280 0.218628 0.055817
0.527893 0.222046 0.054199
0.550934 0.225372 0.052551
0.574768 0.228424 0.050903
0.598969 0.231628 0.050934
0.625793 0.234985 0.049255
0.654755 0.237854 0.047607
0.685669 0.240906 0.045990
0.717834 0.244995 0.046051
0.745636 0.249573 0.046143
0.772125 0.253662 0.047943
0.797455 0.258148 0.047974
0.825928 0.262848 0.049713
0.855988 0.267731 0.049713
0.890991 0.272247 0.051392
0.027161 0.113464 0.032318
0.032471 0.119293 0.034760
0.044922 0.124817 0.036407
0.068085 0.145264 0.045532
0.093658 0.162750 0.056763
0.125061 0.172729 0.064667
0.162811 0.179932 0.069977
0.214264 0.190033 0.079102
0.259918 0.200897 0.084412
0.293701 0.207916 0.080536
0.322449 0.211823 0.071655
0.346649 0.216156 0.068054
0.370850 0.220367 0.066620
0.393311 0.223999 0.065155
0.416840 0.228455 0.063660
0.439880 0.231903 0.063660
0.462463 0.235718 0.062134
0.485138 0.238983 0.060608
0.508087 0.242218 0.059052
0.530853 0.245361 0.059052
0.554016 0.248444 0.057465
0.578125 0.251862 0.057465
0.603394 0.255402 0.055878
0.630371 0.258087 0.055878
0.660583 0.261292 0.055939
0.692139 0.264282 0.054352
0.725067 0.267578 0.052795
0.754395 0.271027 0.051239
0.782684 0.274872 0.051331
0.811859 0.278900 0.051392
0.843903 0.282959 0.049713
0.878204 0.287048 0.051422
0.917206 0.291168 0.051392
0.034088 0.141907 0.039642
0.039734 0.148895 0.043762
0.047516 0.151550 0.046997
0.065247 0.164551 0.054932
0.086609 0.184113 0.067322
0.121490 0.196960 0.071198
0.157684 0.203735 0.075562
0.196198 0.208099 0.086212
0.246613 0.218872 0.093719
0.284790 0.231232 0.093781
0.318481 0.240112 0.087067
0.344971 0.243744 0.075867
0.369232 0.246857 0.071716
0.392822 0.249939 0.068115
0.416931 0.254517 0.065186
0.441193 0.257233 0.063690
0.463593 0.260071 0.063690
0.486938 0.263062 0.062164
0.510376 0.266327 0.060638
0.533356 0.269714 0.062195
0.556335 0.272339 0.062195
0.580750 0.275238 0.062195
0.606659 0.278900 0.060669
0.634247 0.281342 0.060699
0.664185 0.284241 0.059174
0.697113 0.287720 0.059235
0.729736 0.290894 0.057739
0.760071 0.294006 0.057892
0.788177 0.297485 0.057983
0.818481 0.301453 0.056427
0.850800 0.304871 0.056458
0.888885 0.308350 0.056427
0.930298 0.311584 0.054749
0.039673 0.167786 0.051666
0.043365 0.175659 0.059479
0.052399 0.177917 0.061035
0.064514 0.185730 0.065643
0.079468 0.205170 0.078430
0.116211 0.221252 0.083984
0.156403 0.231323 0.081604
0.188965 0.235016 0.088745
0.238708 0.238129 0.094910
0.273743 0.247284 0.102478
0.309692 0.260315 0.100281
0.341644 0.271942 0.093872
0.367828 0.276581 0.081970
0.392670 0.279419 0.074585
0.416870 0.281189 0.070343
0.441223 0.283936 0.066711
0.464813 0.286621 0.065247
0.488739 0.288788 0.063751
0.512238 0.291260 0.065247
0.534943 0.293823 0.063751
0.557922 0.296204 0.065277
0.582947 0.298859 0.065277
0.609100 0.301910 0.063812
0.637085 0.304199 0.063812
0.667389 0.307037 0.063873
0.700928 0.309967 0.062408
0.733429 0.313324 0.062531
0.763428 0.316223 0.062683
0.791351 0.319183 0.061188
0.823456 0.323212 0.061249
0.857056 0.327148 0.061279
0.895721 0.330597 0.061279
0.937134 0.334351 0.061249
0.046051 0.193848 0.066956
0.049866 0.203033 0.076782
0.056793 0.207092 0.079498
0.064941 0.209534 0.078247
0.077393 0.224823 0.086182
0.110229 0.244690 0.096802
0.155121 0.257751 0.095917
0.191071 0.265533 0.094849
0.235504 0.267181 0.093750
0.269623 0.267517 0.104736
0.301971 0.276764 0.108582
0.333221 0.289215 0.106476
0.364685 0.301971 0.101532
0.392334 0.308105 0.090332
0.417297 0.310883 0.080750
0.441803 0.311981 0.073242
0.466095 0.314667 0.071838
0.490479 0.316010 0.070435
0.514099 0.317322 0.068268
0.537262 0.319275 0.065308
0.559448 0.320312 0.066833
0.584747 0.322906 0.066833
0.611237 0.325562 0.066864
0.639465 0.327850 0.065399
0.669800 0.330353 0.065430
0.703735 0.333069 0.065521
0.736237 0.336304 0.065643
0.766296 0.339752 0.064270
0.795044 0.343170 0.065857
0.827332 0.346893 0.065918
0.861481 0.350281 0.065948
0.901672 0.353699 0.064423
0.944336 0.356934 0.064362
0.049805 0.220032 0.085297
0.055725 0.228394 0.091522
0.061096 0.233887 0.095154
0.067474 0.235535 0.092834
0.077911 0.246155 0.095367
0.108063 0.267456 0.104218
0.147522 0.282166 0.107178
0.188507 0.294189 0.107361
0.228058 0.299438 0.100250
0.270844 0.297333 0.101440
0.297791 0.295959 0.112305
0.327209 0.304291 0.115967
0.358185 0.317841 0.114990
0.387909 0.329834 0.112457
0.417419 0.338196 0.101624
0.443756 0.342804 0.092865
0.467621 0.344543 0.083466
0.492493 0.346161 0.078186
0.516449 0.346954 0.074768
0.540070 0.347961 0.071960
0.562988 0.348846 0.070526
0.587524 0.350067 0.068359
0.614136 0.351624 0.066925
0.641968 0.353302 0.065460
0.672180 0.355530 0.065491
0.706421 0.357513 0.065582
0.738129 0.359741 0.067200
0.768860 0.362823 0.067352
0.797485 0.365601 0.067444
0.830475 0.368225 0.067474
0.865753 0.371521 0.067505
0.907471 0.374420 0.067474
0.949951 0.376862 0.067444
0.058594 0.245972 0.099182
0.062469 0.254883 0.106445
0.066559 0.262207 0.111298
0.072571 0.264130 0.105499
0.082794 0.271576 0.104553
0.108612 0.289673 0.109131
0.143860 0.306854 0.115601
0.187683 0.319000 0.119781
0.220551 0.328094 0.119385
0.266296 0.331848 0.111328
0.301270 0.327026 0.112915
0.323975 0.324158 0.120972
0.351654 0.332977 0.124359
0.381714 0.345886 0.125824
0.413452 0.358276 0.122070
0.443573 0.367096 0.113098
0.469971 0.371674 0.103973
0.494598 0.374237 0.095367
0.518494 0.375244 0.086792
0.542816 0.376221 0.082275
0.566589 0.376495 0.078278
0.590759 0.377594 0.074860
0.617859 0.377350 0.072052
0.645752 0.378357 0.070648
0.675629 0.379364 0.067047
0.709290 0.380951 0.065643
0.740784 0.382690 0.067261
0.771667 0.384796 0.068878
0.800354 0.387054 0.068970
0.833405 0.390045 0.069000
0.868988 0.392670 0.071198
0.911041 0.395142 0.069031
0.953400 0.397308 0.068970
0.065247 0.271790 0.111816
0.069000 0.280640 0.118469
0.071869 0.289459 0.123840
0.078308 0.291992 0.118622
0.089508 0.297943 0.112671
0.111237 0.312500 0.115417
0.146637 0.331299 0.124023
0.188049 0.344513 0.129303
0.222168 0.355255 0.132996
0.243042 0.363251 0.131256
0.301941 0.364716 0.116577
0.330017 0.358368 0.124878
0.349518 0.353668 0.130432
0.377380 0.361023 0.133148
0.408844 0.372437 0.134064
0.440247 0.383301 0.131897
0.469910 0.392426 0.123596
0.496796 0.398376 0.115234
0.522339 0.402069 0.105743
0.544891 0.404083 0.097839
0.569427 0.404510 0.089417
0.594360 0.405121 0.083679
0.621704 0.405365 0.079742
0.649414 0.405182 0.076355
0.680054 0.406158 0.075043
0.713776 0.406525 0.073730
0.744141 0.407227 0.072449
0.774170 0.408356 0.071136
0.803284 0.409973 0.069031
0.835144 0.411285 0.069061
0.871307 0.413727 0.069092
0.914978 0.415833 0.069061
0.956451 0.417755 0.069031
0.071136 0.296906 0.124786
0.073517 0.305389 0.130829
0.076813 0.314728 0.137848
0.085052 0.321075 0.137939
0.100647 0.327118 0.127472
0.116974 0.339172 0.126221
0.154816 0.356567 0.133728
0.195648 0.368561 0.139038
0.231171 0.378448 0.144470
0.245789 0.386566 0.146881
0.284698 0.393219 0.136658
0.334625 0.393005 0.119659
0.356689 0.384521 0.135376
0.376068 0.379791 0.138794
0.405151 0.387177 0.141724
0.435791 0.396820 0.142181
0.466919 0.407745 0.139709
0.497101 0.416382 0.134613
0.525116 0.422943 0.127014
0.549164 0.427124 0.116852
0.573273 0.429199 0.106934
0.597565 0.430450 0.098511
0.625244 0.430756 0.090759
0.653778 0.431244 0.087036
0.684387 0.431488 0.083862
0.717712 0.431610 0.081329
0.747833 0.431915 0.078796
0.777252 0.432526 0.076843
0.805969 0.432953 0.075531
0.838043 0.433899 0.074158
0.875244 0.435333 0.071320
0.919312 0.436584 0.071289
0.958954 0.437958 0.071259
0.076782 0.324402 0.139984
0.080048 0.333984 0.146118
0.085754 0.344452 0.153107
0.095245 0.353455 0.156891
0.110992 0.357635 0.148804
0.129211 0.365417 0.139191
0.165710 0.379364 0.143127
0.205750 0.390686 0.147614
0.238220 0.399750 0.152679
0.255096 0.408813 0.156403
0.266602 0.416107 0.153870
0.326477 0.420349 0.138885
0.363861 0.417267 0.135895
0.383545 0.410126 0.144226
0.403351 0.405731 0.146240
0.431793 0.410583 0.148193
0.463959 0.420685 0.150146
0.495300 0.430115 0.147827
0.524597 0.437958 0.143494
0.551392 0.445190 0.136871
0.577820 0.450317 0.127533
0.603699 0.453369 0.117950
0.629364 0.454803 0.108124
0.657745 0.456024 0.100952
0.689087 0.456726 0.094574
0.721893 0.456757 0.091034
0.750977 0.456726 0.088043
0.780304 0.457153 0.085602
0.809113 0.457092 0.083069
0.841064 0.457367 0.080414
0.878326 0.458160 0.079071
0.921112 0.458679 0.075592
0.960907 0.458801 0.072754
0.086548 0.354645 0.155731
0.092590 0.363739 0.161896
0.100342 0.372833 0.168213
0.107452 0.382477 0.175262
0.125061 0.384613 0.168060
0.147186 0.391876 0.157623
0.175323 0.402191 0.152954
0.214081 0.412689 0.156372
0.244202 0.419708 0.160400
0.262878 0.427429 0.164307
0.269196 0.435516 0.165375
0.311096 0.441620 0.156494
0.361633 0.444092 0.137238
0.391937 0.440430 0.146271
0.411926 0.433807 0.151672
0.432068 0.429443 0.153198
0.460388 0.433655 0.155060
0.492432 0.442200 0.156555
0.523285 0.450989 0.155457
0.551483 0.459381 0.151733
0.579620 0.466919 0.146362
0.607849 0.472443 0.137360
0.635712 0.476501 0.128571
0.663208 0.478973 0.119080
0.692871 0.480072 0.109375
0.725342 0.481171 0.103455
0.753784 0.481079 0.098450
0.782410 0.481110 0.095001
0.811676 0.481323 0.091431
0.843994 0.481354 0.088318
0.881805 0.481598 0.085785
0.924500 0.481567 0.081818
0.962708 0.481689 0.079071
0.101166 0.381256 0.170929
0.108063 0.390320 0.177246
0.115417 0.399261 0.183655
0.124237 0.408173 0.190735
0.139679 0.411163 0.188995
0.162201 0.414703 0.178833
0.184784 0.423615 0.167328
0.219818 0.433746 0.166351
0.249115 0.439728 0.168793
0.269867 0.445496 0.172516
0.278534 0.452698 0.174835
0.296295 0.460327 0.172577
0.351837 0.465515 0.149445
0.393921 0.467407 0.144348
0.421814 0.462860 0.155090
0.440826 0.456177 0.158020
0.460724 0.451874 0.159454
0.488708 0.455475 0.160889
0.520233 0.463531 0.163055
0.550323 0.472046 0.162720
0.580078 0.480560 0.159882
0.609222 0.487274 0.154053
0.639252 0.493500 0.148010
0.668793 0.498444 0.139587
0.699890 0.501770 0.129639
0.729492 0.503815 0.119324
0.757141 0.504822 0.110779
0.785217 0.505249 0.104889
0.814758 0.505585 0.100433
0.846710 0.505341 0.097534
0.884003 0.505157 0.093964
0.926361 0.504913 0.090240
0.963959 0.506500 0.088318
0.116669 0.406708 0.186462
0.124969 0.414703 0.192566
0.133514 0.422729 0.199066
0.142151 0.430817 0.205353
0.154022 0.435577 0.207916
0.173828 0.435608 0.199829
0.194702 0.442322 0.189545
0.223450 0.453583 0.179352
0.251282 0.461578 0.179382
0.275787 0.465851 0.181946
0.286926 0.469727 0.183533
0.290710 0.476746 0.183868
0.337616 0.482330 0.169952
0.390472 0.487885 0.147949
0.427979 0.488098 0.155151
0.450928 0.483185 0.163422
0.468597 0.476685 0.164459
0.488892 0.473022 0.165161
0.516113 0.475952 0.166901
0.547119 0.483948 0.168945
0.577362 0.491638 0.168640
0.608398 0.500000 0.165924
0.639832 0.507721 0.161743
0.671265 0.514801 0.156006
0.704895 0.521088 0.148529
0.735077 0.525574 0.139435
0.762268 0.528839 0.128143
0.787842 0.529602 0.117645
0.817810 0.530518 0.110992
0.849243 0.530640 0.105042
0.886230 0.530701 0.100525
0.928314 0.530579 0.098755
0.964813 0.531189 0.095184
0.135315 0.430328 0.202240
0.143372 0.437775 0.208130
0.151611 0.445770 0.214417
0.159821 0.453766 0.221283
0.168060 0.460602 0.227844
0.183929 0.457581 0.220062
0.203369 0.461090 0.212982
0.224152 0.469208 0.200836
0.250946 0.483368 0.193329
0.278473 0.488525 0.192444
0.295288 0.490234 0.193054
0.296570 0.493011 0.193054
0.326782 0.497650 0.185791
0.383179 0.504120 0.158112
0.430237 0.508911 0.149933
0.459320 0.507721 0.165558
0.479034 0.502747 0.170013
0.497253 0.497437 0.171021
0.517090 0.493927 0.171661
0.543762 0.496826 0.173340
0.575104 0.503937 0.174683
0.606140 0.512085 0.173706
0.638367 0.520691 0.172089
0.670959 0.529297 0.169098
0.706512 0.537384 0.163666
0.737885 0.544006 0.156250
0.767090 0.549774 0.146881
0.792572 0.553192 0.136292
0.820526 0.554413 0.124603
0.851685 0.555603 0.115234
0.888702 0.556366 0.108948
0.930298 0.556519 0.103973
0.965576 0.556641 0.101685
0.153992 0.454773 0.218414
0.162048 0.461975 0.225586
0.169586 0.469482 0.233002
0.176331 0.477295 0.239868
0.182190 0.484802 0.246277
0.195007 0.481934 0.241760
0.212585 0.481506 0.234314
0.229523 0.486389 0.226044
0.251190 0.499176 0.211517
0.279266 0.511627 0.204926
0.302856 0.514923 0.203827
0.307831 0.514282 0.203278
0.315948 0.516083 0.197235
0.375244 0.520477 0.175354
0.427948 0.526917 0.143280
0.466736 0.531738 0.166626
0.489838 0.529846 0.175720
0.508301 0.525665 0.177643
0.525543 0.520660 0.177643
0.544495 0.516327 0.177948
0.571594 0.519165 0.179260
0.602966 0.525848 0.179596
0.635529 0.533936 0.179626
0.668243 0.542328 0.177734
0.704865 0.551178 0.174896
0.737610 0.559753 0.170013
0.767731 0.567322 0.162201
0.795715 0.574219 0.152771
0.825531 0.578827 0.143066
0.855377 0.580719 0.130676
0.891663 0.582520 0.119843
0.933105 0.583435 0.112671
0.966461 0.584198 0.107880
0.172424 0.479401 0.238464
0.178040 0.486298 0.244476
0.184143 0.493469 0.250916
0.190796 0.500763 0.257172
0.197113 0.508057 0.262604
0.207947 0.509308 0.262848
0.224335 0.505676 0.255127
0.238464 0.507324 0.247070
0.255280 0.516449 0.232483
0.281891 0.532318 0.220825
0.307739 0.541046 0.216431
0.317719 0.540314 0.213226
0.311035 0.538513 0.208618
0.368256 0.540222 0.189575
0.424866 0.545227 0.161774
0.467896 0.551392 0.162842
0.499237 0.554993 0.179291
0.519348 0.552979 0.183441
0.536285 0.549316 0.184357
0.553223 0.545135 0.184357
0.571747 0.540070 0.183746
0.600098 0.542480 0.184357
0.631866 0.548279 0.185333
0.665588 0.556458 0.186005
0.701630 0.564941 0.183899
0.735535 0.574280 0.180573
0.767242 0.583588 0.176514
0.795776 0.591736 0.168243
0.826691 0.598541 0.158752
0.858704 0.603485 0.147888
0.895538 0.607025 0.136871
0.935486 0.608521 0.125641
0.966492 0.609894 0.119843
0.186218 0.502472 0.255280
0.192444 0.509399 0.261169
0.199097 0.516479 0.266266
0.206848 0.523376 0.270691
0.214355 0.530334 0.275543
0.222443 0.535583 0.278992
0.236481 0.531189 0.273071
0.250153 0.532135 0.265350
0.266144 0.539124 0.249786
0.288422 0.553619 0.235931
0.312073 0.565186 0.230682
0.326660 0.568054 0.225250
0.317749 0.565582 0.220398
0.360260 0.564117 0.204224
0.422424 0.566650 0.169464
0.469727 0.572571 0.160065
0.504547 0.577820 0.176453
0.528961 0.580719 0.188141
0.546661 0.578400 0.190582
0.563538 0.574890 0.191467
0.581329 0.570526 0.191162
0.601257 0.565552 0.190247
0.629761 0.566864 0.190582
0.661499 0.572113 0.190613
0.697693 0.580444 0.191315
0.732605 0.588776 0.190216
0.765289 0.598358 0.187012
0.794983 0.607361 0.182709
0.826172 0.615601 0.175018
0.858215 0.623169 0.165192
0.896881 0.629181 0.152496
0.937714 0.633301 0.142700
0.967072 0.635284 0.135559
0.202454 0.524841 0.269897
0.209534 0.531219 0.274384
0.216980 0.537842 0.279175
0.224701 0.544159 0.283478
0.231140 0.550629 0.286774
0.237427 0.557495 0.289490
0.246979 0.552856 0.287506
0.260498 0.553894 0.282043
0.280853 0.563782 0.266632
0.298950 0.576721 0.250305
0.317749 0.589447 0.242493
0.332581 0.596222 0.236237
0.333649 0.594482 0.232178
0.343506 0.591583 0.220459
0.416046 0.591125 0.187225
0.468658 0.594574 0.154236
0.507355 0.600159 0.171539
0.535400 0.605225 0.188782
0.556519 0.606750 0.196594
0.574554 0.604523 0.198334
0.591888 0.600922 0.198029
0.610870 0.596191 0.198029
0.632385 0.591919 0.196869
0.660950 0.592834 0.197205
0.694550 0.597046 0.196960
0.729828 0.604401 0.196808
0.761810 0.613037 0.196655
0.792603 0.622986 0.194397
0.823730 0.632355 0.189941
0.858246 0.641907 0.181885
0.895874 0.649323 0.170380
0.937378 0.655182 0.160217
0.967804 0.658386 0.152863
0.220093 0.545135 0.282196
0.227417 0.551392 0.286407
0.234161 0.557861 0.290192
0.240082 0.564148 0.293030
0.245819 0.570465 0.295471
0.251312 0.576843 0.298401
0.258698 0.575043 0.297028
0.271118 0.573486 0.295990
0.288452 0.581848 0.289185
0.308441 0.597900 0.272797
0.324554 0.612946 0.258087
0.337616 0.623016 0.247742
0.342316 0.623901 0.242126
0.330597 0.621246 0.235352
0.395630 0.618256 0.210449
0.460327 0.618469 0.169220
0.505737 0.623199 0.163361
0.538300 0.629913 0.183899
0.563660 0.633942 0.198395
0.584625 0.635284 0.203827
0.603912 0.632599 0.205231
0.623077 0.628326 0.205231
0.642792 0.622955 0.204132
0.664703 0.618317 0.203857
0.695435 0.618744 0.204773
0.728333 0.623108 0.204590
0.758636 0.630371 0.204437
0.789307 0.639130 0.204559
0.821503 0.648651 0.202332
0.855469 0.658386 0.197754
0.894287 0.667267 0.189972
0.936005 0.674255 0.178986
0.967255 0.678711 0.171356
0.237091 0.564880 0.293213
0.242950 0.571136 0.295471
0.248352 0.577423 0.298065
0.253052 0.583588 0.300781
0.258057 0.589813 0.303467
0.262939 0.596130 0.304626
0.269135 0.598724 0.306274
0.281097 0.594635 0.306763
0.293304 0.598175 0.306763
0.310913 0.609985 0.302643
0.329315 0.632507 0.287445
0.343018 0.648773 0.268372
0.350006 0.653168 0.256470
0.341522 0.651154 0.249115
0.366730 0.648315 0.233002
0.442108 0.646118 0.195190
0.496338 0.648346 0.157684
0.536285 0.653748 0.173309
0.566864 0.659607 0.194305
0.593231 0.663574 0.206970
0.615387 0.661713 0.211365
0.635010 0.658325 0.212738
0.654449 0.654663 0.212738
0.675354 0.650757 0.212494
0.700256 0.646790 0.212250
0.728271 0.647034 0.213440
0.757599 0.650757 0.215424
0.786621 0.656830 0.215515
0.817810 0.665100 0.215027
0.851166 0.674286 0.212372
0.890717 0.683807 0.206604
0.933350 0.693085 0.198914
0.966156 0.698914 0.191162
0.249969 0.584076 0.300781
0.254974 0.590210 0.303467
0.259888 0.596436 0.305939
0.263855 0.602783 0.307587
0.267700 0.609070 0.308716
0.271637 0.615784 0.309845
0.275330 0.622894 0.311127
0.288513 0.617310 0.315552
0.299561 0.618500 0.317566
0.310547 0.622955 0.320312
0.327667 0.640869 0.320618
0.346069 0.665833 0.306488
0.356323 0.678619 0.283325
0.354034 0.679840 0.269012
0.345520 0.677094 0.253723
0.416595 0.675232 0.225189
0.480133 0.674805 0.182739
0.528778 0.677826 0.162384
0.565948 0.683960 0.185852
0.598175 0.689056 0.207031
0.625275 0.691132 0.216766
0.646545 0.689117 0.220154
0.666962 0.685944 0.221741
0.688904 0.682953 0.222534
0.712280 0.679962 0.223602
0.733154 0.676392 0.223663
0.757538 0.675171 0.226257
0.785675 0.677795 0.228821
0.815643 0.683655 0.230347
0.846954 0.691345 0.227661
0.885925 0.701721 0.223907
0.928253 0.710938 0.217163
0.964508 0.718140 0.210449
0.260559 0.603424 0.307892
0.264435 0.609528 0.310181
0.268280 0.615723 0.310974
0.271637 0.622620 0.312103
0.275238 0.629730 0.313538
0.278564 0.636841 0.315094
0.281738 0.643921 0.316040
0.291656 0.641754 0.319580
0.304077 0.640503 0.324097
0.313934 0.641937 0.327789
0.324860 0.647644 0.333282
0.343262 0.670471 0.337372
0.359497 0.696075 0.322174
0.363403 0.708038 0.301758
0.345947 0.708771 0.280762
0.399048 0.706207 0.253784
0.465271 0.704620 0.214386
0.518402 0.705383 0.170044
0.560944 0.709625 0.173401
0.598785 0.715759 0.202545
0.631195 0.720581 0.218903
0.658203 0.721985 0.227783
0.680389 0.720459 0.231995
0.703430 0.718689 0.234894
0.725098 0.716949 0.237549
0.743347 0.712524 0.239502
0.762909 0.707275 0.240723
0.785706 0.704559 0.243286
0.813995 0.706177 0.245575
0.844208 0.710602 0.244019
0.879974 0.718384 0.239868
0.923309 0.729065 0.235138
0.961243 0.736298 0.229553
0.268494 0.623016 0.313507
0.271667 0.629883 0.314453
0.275238 0.636627 0.316040
0.278351 0.643585 0.317902
0.281433 0.650635 0.319580
0.284607 0.657776 0.319611
0.287628 0.664703 0.319611
0.294800 0.666382 0.322937
0.307526 0.661774 0.327667
0.317688 0.662384 0.331421
0.326843 0.665070 0.335114
0.340637 0.677856 0.347137
0.358978 0.702881 0.352600
0.368652 0.725189 0.338074
0.358795 0.736633 0.318573
0.388611 0.738922 0.289154
0.460083 0.738312 0.249237
0.514801 0.737823 0.201447
0.557800 0.740631 0.170105
0.596863 0.744446 0.192352
0.633698 0.750000 0.218903
