Kodak Vision3 500T (5219) - Only color.cube
# Created by Benjamin (IWLTBAP) : http://luts.iwltbap.com
# Copyright: (C) Copyright 2010-2017 Triune Films and IWLTBAP SAS
# Cannot be resold, shared or otherwise redistributed
TITLE "Film Print Emulation LUTs Pack (Rec.709, sRGB, DCI-P3)"
LUT_3D_SIZE 5
0.001587 0.001587 0.000000
0.310577 0.034454 0.012604
0.505310 0.084625 0.000000
0.679291 0.128845 0.000000
0.899567 0.202545 0.002167
0.000427 0.157898 0.000000
0.305634 0.218079 0.021179
0.537262 0.263733 0.000000
0.711548 0.322479 0.000000
0.900879 0.387848 0.000153
0.083923 0.342590 0.000000
0.285034 0.429047 0.000000
0.557495 0.437012 0.000000
0.713928 0.501099 0.000000
0.893188 0.556732 0.001404
0.233398 0.546997 0.000000
0.355194 0.606537 0.000000
0.589172 0.682678 0.000336
0.704956 0.656677 0.000763
0.896667 0.688232 0.005768
0.467834 0.744598 0.000305
0.576660 0.826904 0.001404
0.624878 0.891144 0.002258
0.751038 0.940704 0.003540
0.895020 0.909546 0.004211
0.081787 0.095367 0.198761
0.146484 0.099884 0.229218
0.471741 0.000000 0.178741
0.675446 0.069977 0.139313
0.914490 0.214935 0.002441
0.117218 0.196289 0.254059
0.194336 0.258453 0.296600
0.544525 0.327545 0.267792
0.723999 0.352448 0.167938
0.923157 0.405090 0.000549
0.089813 0.445251 0.351807
0.192902 0.446381 0.243225
0.526672 0.484589 0.215759
0.726196 0.537598 0.175659
0.920013 0.581390 0.001923
0.293091 0.605713 0.272705
0.311890 0.612915 0.173920
0.554413 0.694275 0.113403
0.715088 0.710388 0.135406
0.920868 0.731567 0.084473
0.474243 0.793152 0.000702
0.570801 0.852234 0.001587
0.634827 0.915894 0.002594
0.774902 0.974854 0.003967
0.932251 0.944397 0.004822
0.093170 0.196930 0.353119
0.091858 0.203613 0.335144
0.314880 0.146271 0.370605
0.661255 0.000000 0.320343
0.894043 0.132263 0.304260
0.072083 0.291595 0.441925
0.091980 0.349030 0.504578
0.363922 0.347931 0.481201
0.725037 0.366394 0.409119
0.942932 0.420135 0.411469
0.252533 0.395142 0.467316
0.289642 0.449097 0.516815
0.449829 0.517517 0.531494
0.772522 0.584930 0.524506
0.966675 0.590820 0.482574
0.097107 0.632507 0.582550
0.180084 0.665741 0.605682
0.546234 0.702698 0.478912
0.746979 0.749481 0.451447
0.960236 0.769684 0.493103
0.588287 0.873474 0.454712
0.622009 0.884705 0.325714
0.658844 0.931000 0.277222
0.790314 0.994720 0.386932
0.945709 0.975891 0.332001
0.040405 0.335480 0.539886
0.049683 0.335571 0.523651
0.096588 0.331879 0.534119
0.597961 0.205139 0.447876
0.886017 0.162720 0.471680
0.011169 0.412842 0.590240
0.066589 0.458557 0.656647
0.171753 0.466705 0.672516
0.672546 0.419678 0.549194
0.933167 0.418518 0.556274
0.106049 0.488617 0.642273
0.138672 0.533447 0.704041
0.326477 0.575134 0.745880
0.732941 0.581482 0.608704
0.971741 0.585297 0.601624
0.013916 0.607880 0.680573
0.000000 0.635254 0.732330
0.377106 0.670746 0.753357
0.770874 0.777588 0.702271
1.000000 0.796082 0.704193
0.000000 0.823120 0.775421
0.000000 0.858795 0.796173
0.365509 0.898224 0.826416
0.839661 0.995087 0.580475
0.984192 1.000000 0.577179
0.042206 0.473083 0.726776
0.056610 0.475464 0.705414
0.072632 0.474976 0.686249
0.320404 0.495300 0.749481
0.863068 0.353241 0.580475
0.096832 0.522339 0.848114
0.169281 0.554657 0.993622
0.225739 0.564758 0.993958
0.518463 0.587250 0.939423
0.919983 0.481873 0.684784
0.147217 0.579437 0.993622
0.233704 0.604309 0.994202
0.334686 0.625732 0.994873
0.653839 0.661560 0.996033
0.951874 0.602478 0.779694
0.108276 0.655701 0.993805
0.235962 0.684296 0.994629
0.355774 0.718933 0.995483
0.733978 0.793030 0.996948
0.969452 0.762573 0.956482
0.032104 0.806641 0.993866
0.216919 0.831146 0.995239
0.361053 0.861908 0.996155
0.752075 0.900024 0.997711
0.991241 0.999969 0.999908
