Kodak Vision2 50D (5201) - Only contrast.cube
# Created by Benjamin (IWLTBAP) : http://luts.iwltbap.com
# Copyright: (C) Copyright 2010-2017 Triune Films and IWLTBAP SAS
# Cannot be resold, shared or otherwise redistributed
TITLE "Film Print Emulation LUTs Pack (Rec.709, sRGB, DCI-P3)"
LUT_3D_SIZE 9
0.003876 0.003876 0.003876
0.094269 0.003784 0.003784
0.229218 0.003357 0.003357
0.369110 0.002930 0.002930
0.486542 0.002625 0.002625
0.575867 0.002533 0.002533
0.659363 0.002502 0.002502
0.735352 0.002502 0.002502
0.829865 0.002380 0.002380
0.003784 0.094269 0.003784
0.094513 0.094513 0.003662
0.229584 0.094452 0.003265
0.369354 0.094360 0.002808
0.486633 0.094421 0.002533
0.575836 0.094666 0.002441
0.659271 0.094971 0.002380
0.735229 0.095306 0.002380
0.830383 0.095520 0.002258
0.003357 0.229218 0.003357
0.094452 0.229584 0.003265
0.229645 0.229645 0.002838
0.369263 0.229706 0.002411
0.486450 0.229858 0.002106
0.575500 0.230225 0.002014
0.658905 0.230621 0.001984
0.734833 0.231079 0.001953
0.830627 0.231384 0.001831
0.002930 0.369110 0.002930
0.094360 0.369354 0.002808
0.229706 0.369263 0.002411
0.369171 0.369171 0.001953
0.486237 0.369232 0.001678
0.575134 0.369507 0.001587
0.658508 0.369781 0.001526
0.734406 0.370117 0.001526
0.830841 0.370331 0.001404
0.002625 0.486542 0.002625
0.094421 0.486633 0.002533
0.229858 0.486450 0.002106
0.369232 0.486237 0.001678
0.486176 0.486176 0.001404
0.574921 0.486298 0.001312
0.658264 0.486450 0.001251
0.734131 0.486664 0.001251
0.831207 0.486694 0.001099
0.002533 0.575867 0.002533
0.094666 0.575836 0.002441
0.230225 0.575500 0.002014
0.369507 0.575134 0.001587
0.486298 0.574921 0.001312
0.574921 0.574921 0.001221
0.658203 0.574921 0.001160
0.734070 0.575012 0.001160
0.831787 0.574921 0.001038
0.002502 0.659363 0.002502
0.094971 0.659271 0.002380
0.230621 0.658905 0.001984
0.369781 0.658508 0.001526
0.486450 0.658264 0.001251
0.574921 0.658203 0.001160
0.658173 0.658173 0.001129
0.734009 0.658203 0.001129
0.832367 0.658081 0.000977
0.002502 0.735352 0.002502
0.095306 0.735229 0.002380
0.231079 0.734833 0.001953
0.370117 0.734406 0.001526
0.486664 0.734131 0.001251
0.575012 0.734070 0.001160
0.658203 0.734009 0.001129
0.734039 0.734039 0.001129
0.833008 0.733887 0.000977
0.002380 0.829865 0.002380
0.095520 0.830383 0.002258
0.231384 0.830627 0.001831
0.370331 0.830841 0.001404
0.486694 0.831207 0.001099
0.574921 0.831787 0.001038
0.658081 0.832367 0.000977
0.733887 0.833008 0.000977
0.833618 0.833405 0.013794
0.003784 0.003784 0.094269
0.094513 0.003662 0.094513
0.229584 0.003265 0.094452
0.369354 0.002808 0.094360
0.486633 0.002533 0.094421
0.575836 0.002441 0.094666
0.659271 0.002380 0.094971
0.735229 0.002380 0.095306
0.830383 0.002258 0.095520
0.003662 0.094513 0.094513
0.094757 0.094757 0.094757
0.229950 0.094666 0.094666
0.369568 0.094574 0.094574
0.486755 0.094635 0.094635
0.575806 0.094910 0.094910
0.659180 0.095184 0.095184
0.735138 0.095551 0.095551
0.830933 0.095764 0.095764
0.003265 0.229584 0.094452
0.094666 0.229950 0.094666
0.230011 0.230011 0.094604
0.369507 0.230011 0.094513
0.486542 0.230194 0.094574
0.575470 0.230560 0.094849
0.658813 0.230957 0.095123
0.734711 0.231415 0.095490
0.831146 0.231720 0.095673
0.002808 0.369354 0.094360
0.094574 0.369568 0.094574
0.230011 0.369507 0.094513
0.369415 0.369415 0.094421
0.486328 0.369476 0.094482
0.575104 0.369720 0.094757
0.658417 0.369995 0.095032
0.734283 0.370331 0.095398
0.831360 0.370544 0.095581
0.002533 0.486633 0.094421
0.094635 0.486755 0.094635
0.230194 0.486542 0.094574
0.369476 0.486328 0.094482
0.486267 0.486267 0.094543
0.574890 0.486389 0.094818
0.658173 0.486542 0.095123
0.734009 0.486725 0.095459
0.831726 0.486725 0.095642
0.002441 0.575836 0.094666
0.094910 0.575806 0.094910
0.230560 0.575470 0.094849
0.369720 0.575104 0.094757
0.486389 0.574890 0.094818
0.574860 0.574860 0.095062
0.658112 0.574860 0.095367
0.733948 0.574921 0.095734
0.832306 0.574829 0.095917
0.002380 0.659271 0.094971
0.095184 0.659180 0.095184
0.230957 0.658813 0.095123
0.369995 0.658417 0.095032
0.486542 0.658173 0.095123
0.574860 0.658112 0.095367
0.658081 0.658081 0.095673
0.733887 0.658112 0.096008
0.832886 0.657990 0.096222
0.002380 0.735229 0.095306
0.095551 0.735138 0.095551
0.231415 0.734711 0.095490
0.370331 0.734283 0.095398
0.486725 0.734009 0.095459
0.574921 0.733948 0.095734
0.658112 0.733887 0.096008
0.733917 0.733917 0.096375
0.833527 0.733765 0.096558
0.002258 0.830383 0.095520
0.095764 0.830933 0.095764
0.231720 0.831146 0.095673
0.370544 0.831360 0.095581
0.486725 0.831726 0.095642
0.574829 0.832306 0.095917
0.657990 0.832886 0.096222
0.733765 0.833527 0.096558
0.833984 0.833984 0.096741
0.003357 0.003357 0.229218
0.094452 0.003265 0.229584
0.229645 0.002838 0.229645
0.369263 0.002411 0.229706
0.486450 0.002106 0.229858
0.575500 0.002014 0.230225
0.658905 0.001984 0.230621
0.734833 0.001953 0.231079
0.830627 0.001831 0.231384
0.003265 0.094452 0.229584
0.094666 0.094666 0.229950
0.230011 0.094604 0.230011
0.369507 0.094513 0.230011
0.486542 0.094574 0.230194
0.575470 0.094849 0.230560
0.658813 0.095123 0.230957
0.734711 0.095490 0.231415
0.831146 0.095673 0.231720
0.002838 0.229645 0.229645
0.094604 0.230011 0.230011
0.230042 0.230042 0.230042
0.369446 0.230072 0.230072
0.486359 0.230225 0.230225
0.575104 0.230591 0.230591
0.658447 0.230988 0.230988
0.734314 0.231445 0.231445
0.831390 0.231750 0.231750
0.002411 0.369263 0.229706
0.094513 0.369507 0.230011
0.230072 0.369446 0.230072
0.369324 0.369324 0.230072
0.486115 0.369385 0.230255
0.574738 0.369629 0.230621
0.658020 0.369934 0.231018
0.733887 0.370270 0.231476
0.831604 0.370453 0.231781
0.002106 0.486450 0.229858
0.094574 0.486542 0.230194
0.230225 0.486359 0.230225
0.369385 0.486115 0.230255
0.486053 0.486053 0.230438
0.574524 0.486176 0.230804
0.657776 0.486298 0.231201
0.733612 0.486481 0.231659
0.831970 0.486481 0.231964
0.002014 0.575500 0.230225
0.094849 0.575470 0.230560
0.230591 0.575104 0.230591
0.369629 0.574738 0.230621
0.486176 0.574524 0.230804
0.574524 0.574524 0.231171
0.657715 0.574524 0.231567
0.733521 0.574554 0.232025
0.832520 0.574463 0.232330
0.001984 0.658905 0.230621
0.095123 0.658813 0.230957
0.230988 0.658447 0.230988
0.369934 0.658020 0.231018
0.486298 0.657776 0.231201
0.574524 0.657715 0.231567
0.657684 0.657684 0.231995
0.733490 0.657715 0.232452
0.833099 0.657562 0.232727
0.001953 0.734833 0.231079
0.095490 0.734711 0.231415
0.231445 0.734314 0.231445
0.370270 0.733887 0.231476
0.486481 0.733612 0.231659
0.574554 0.733521 0.232025
0.657715 0.733490 0.232452
0.733521 0.733521 0.232910
0.833740 0.733368 0.233185
0.001831 0.830627 0.231384
0.095673 0.831146 0.231720
0.231750 0.831390 0.231750
0.370453 0.831604 0.231781
0.486481 0.831970 0.231964
0.574463 0.832520 0.232330
0.657562 0.833099 0.232727
0.733368 0.833740 0.233185
0.834167 0.834167 0.233459
0.002930 0.002930 0.369110
0.094360 0.002808 0.369354
0.229706 0.002411 0.369263
0.369171 0.001953 0.369171
0.486237 0.001678 0.369232
0.575134 0.001587 0.369507
0.658508 0.001526 0.369781
0.734406 0.001526 0.370117
0.830841 0.001404 0.370331
0.002808 0.094360 0.369354
0.094574 0.094574 0.369568
0.230011 0.094513 0.369507
0.369415 0.094421 0.369415
0.486328 0.094482 0.369476
0.575104 0.094757 0.369720
0.658417 0.095032 0.369995
0.734283 0.095398 0.370331
0.831360 0.095581 0.370544
0.002411 0.229706 0.369263
0.094513 0.230011 0.369507
0.230072 0.230072 0.369446
0.369324 0.230072 0.369324
0.486115 0.230255 0.369385
0.574738 0.230621 0.369629
0.658020 0.231018 0.369934
0.733887 0.231476 0.370270
0.831604 0.231781 0.370453
0.001953 0.369171 0.369171
0.094421 0.369415 0.369415
0.230072 0.369324 0.369324
0.369232 0.369232 0.369232
0.485901 0.369293 0.369293
0.574371 0.369537 0.369537
0.657623 0.369843 0.369843
0.733459 0.370178 0.370178
0.831818 0.370361 0.370361
0.001678 0.486237 0.369232
0.094482 0.486328 0.369476
0.230255 0.486115 0.369385
0.369293 0.485901 0.369293
0.485809 0.485809 0.369354
0.574158 0.485931 0.369598
0.657379 0.486053 0.369904
0.733185 0.486206 0.370239
0.832184 0.486206 0.370422
0.001587 0.575134 0.369507
0.094757 0.575104 0.369720
0.230621 0.574738 0.369629
0.369537 0.574371 0.369537
0.485931 0.574158 0.369598
0.574127 0.574127 0.369873
0.657318 0.574127 0.370148
0.733124 0.574188 0.370483
0.832733 0.574097 0.370667
0.001526 0.658508 0.369781
0.095032 0.658417 0.369995
0.231018 0.658020 0.369934
0.369843 0.657623 0.369843
0.486053 0.657379 0.369904
0.574127 0.657318 0.370148
0.657288 0.657288 0.370453
0.733093 0.657288 0.370789
0.833313 0.657104 0.370941
0.001526 0.734406 0.370117
0.095398 0.734283 0.370331
0.231476 0.733887 0.370270
0.370178 0.733459 0.370178
0.486206 0.733185 0.370239
0.574188 0.733124 0.370483
0.657288 0.733093 0.370789
0.733093 0.733093 0.371124
0.833923 0.732941 0.371277
0.001404 0.830841 0.370331
0.095581 0.831360 0.370544
0.231781 0.831604 0.370453
0.370361 0.831818 0.370361
0.486206 0.832184 0.370422
0.574097 0.832733 0.370667
0.657104 0.833313 0.370941
0.732941 0.833923 0.371277
0.834351 0.834351 0.371460
0.002625 0.002625 0.486542
0.094421 0.002533 0.486633
0.229858 0.002106 0.486450
0.369232 0.001678 0.486237
0.486176 0.001404 0.486176
0.574921 0.001312 0.486298
0.658264 0.001251 0.486450
0.734131 0.001251 0.486664
0.831207 0.001099 0.486694
0.002533 0.094421 0.486633
0.094635 0.094635 0.486755
0.230194 0.094574 0.486542
0.369476 0.094482 0.486328
0.486267 0.094543 0.486267
0.574890 0.094818 0.486389
0.658173 0.095123 0.486542
0.734009 0.095459 0.486725
0.831726 0.095642 0.486725
0.002106 0.229858 0.486450
0.094574 0.230194 0.486542
0.230225 0.230225 0.486359
0.369385 0.230255 0.486115
0.486053 0.230438 0.486053
0.574524 0.230804 0.486176
0.657776 0.231201 0.486298
0.733612 0.231659 0.486481
0.831970 0.231964 0.486481
0.001678 0.369232 0.486237
0.094482 0.369476 0.486328
0.230255 0.369385 0.486115
0.369293 0.369293 0.485901
0.485809 0.369354 0.485809
0.574158 0.369598 0.485931
0.657379 0.369904 0.486053
0.733185 0.370239 0.486206
0.832184 0.370422 0.486206
0.001404 0.486176 0.486176
0.094543 0.486267 0.486267
0.230438 0.486053 0.486053
0.369354 0.485809 0.485809
0.485718 0.485718 0.485718
0.573944 0.485809 0.485809
0.657135 0.485931 0.485931
0.732910 0.486115 0.486115
0.832550 0.486115 0.486115
0.001312 0.574921 0.486298
0.094818 0.574890 0.486389
0.230804 0.574524 0.486176
0.369598 0.574158 0.485931
0.485809 0.573944 0.485809
0.573914 0.573914 0.485901
0.657074 0.573914 0.486023
0.732849 0.573975 0.486176
0.833069 0.573853 0.486176
0.001251 0.658264 0.486450
0.095123 0.658173 0.486542
0.231201 0.657776 0.486298
0.369904 0.657379 0.486053
0.485931 0.657135 0.485931
0.573914 0.657074 0.486023
0.657013 0.657013 0.486145
0.732819 0.656982 0.486298
0.833649 0.656769 0.486298
0.001251 0.734131 0.486664
0.095459 0.734009 0.486725
0.231659 0.733612 0.486481
0.370239 0.733185 0.486206
0.486115 0.732910 0.486115
0.573975 0.732849 0.486176
0.656982 0.732819 0.486298
0.732849 0.732849 0.486481
0.834259 0.732697 0.486450
0.001099 0.831207 0.486694
0.095642 0.831726 0.486725
0.231964 0.831970 0.486481
0.370422 0.832184 0.486206
0.486115 0.832550 0.486115
0.573853 0.833069 0.486176
0.656769 0.833649 0.486298
0.732697 0.834259 0.486450
0.833984 0.833984 0.486450
0.002533 0.002533 0.575867
0.094666 0.002441 0.575836
0.230225 0.002014 0.575500
0.369507 0.001587 0.575134
0.486298 0.001312 0.574921
0.574921 0.001221 0.574921
0.658203 0.001160 0.574921
0.734070 0.001160 0.575012
0.831787 0.001038 0.574921
0.002441 0.094666 0.575836
0.094910 0.094910 0.575806
0.230560 0.094849 0.575470
0.369720 0.094757 0.575104
0.486389 0.094818 0.574890
0.574860 0.095062 0.574860
0.658112 0.095367 0.574860
0.733948 0.095734 0.574921
0.832306 0.095917 0.574829
0.002014 0.230225 0.575500
0.094849 0.230560 0.575470
0.230591 0.230591 0.575104
0.369629 0.230621 0.574738
0.486176 0.230804 0.574524
0.574524 0.231171 0.574524
0.657715 0.231567 0.574524
0.733521 0.232025 0.574554
0.832520 0.232330 0.574463
0.001587 0.369507 0.575134
0.094757 0.369720 0.575104
0.230621 0.369629 0.574738
0.369537 0.369537 0.574371
0.485931 0.369598 0.574158
0.574127 0.369873 0.574127
0.657318 0.370148 0.574127
0.733124 0.370483 0.574188
0.832733 0.370667 0.574097
0.001312 0.486298 0.574921
0.094818 0.486389 0.574890
0.230804 0.486176 0.574524
0.369598 0.485931 0.574158
0.485809 0.485809 0.573944
0.573914 0.485901 0.573914
0.657074 0.486023 0.573914
0.732849 0.486176 0.573975
0.833069 0.486176 0.573853
0.001221 0.574921 0.574921
0.095062 0.574860 0.574860
0.231171 0.574524 0.574524
0.369873 0.574127 0.574127
0.485901 0.573914 0.573914
0.573883 0.573883 0.573883
0.656982 0.573883 0.573883
0.732788 0.573944 0.573944
0.833618 0.573822 0.573822
0.001160 0.658203 0.574921
0.095367 0.658112 0.574860
0.231567 0.657715 0.574524
0.370148 0.657318 0.574127
0.486023 0.657074 0.573914
0.573883 0.656982 0.573883
0.656921 0.656921 0.573914
0.732758 0.656891 0.573975
0.834198 0.656677 0.573853
0.001160 0.734070 0.575012
0.095734 0.733948 0.574921
0.232025 0.733521 0.574554
0.370483 0.733124 0.574188
0.486176 0.732849 0.573975
0.573944 0.732788 0.573944
0.656891 0.732758 0.573975
0.732788 0.732788 0.574005
0.834076 0.732666 0.573914
0.001038 0.831787 0.574921
0.095917 0.832306 0.574829
0.232330 0.832520 0.574463
0.370667 0.832733 0.574097
0.486176 0.833069 0.573853
0.573822 0.833618 0.573822
0.656677 0.834198 0.573853
0.732666 0.834076 0.573914
0.833374 0.833374 0.573792
0.002502 0.002502 0.659363
0.094971 0.002380 0.659271
0.230621 0.001984 0.658905
0.369781 0.001526 0.658508
0.486450 0.001251 0.658264
0.574921 0.001160 0.658203
0.658173 0.001129 0.658173
0.734009 0.001129 0.658203
0.832367 0.000977 0.658081
0.002380 0.094971 0.659271
0.095184 0.095184 0.659180
0.230957 0.095123 0.658813
0.369995 0.095032 0.658417
0.486542 0.095123 0.658173
0.574860 0.095367 0.658112
0.658081 0.095673 0.658081
0.733887 0.096008 0.658112
0.832886 0.096222 0.657990
0.001984 0.230621 0.658905
0.095123 0.230957 0.658813
0.230988 0.230988 0.658447
0.369934 0.231018 0.658020
0.486298 0.231201 0.657776
0.574524 0.231567 0.657715
0.657684 0.231995 0.657684
0.733490 0.232452 0.657715
0.833099 0.232727 0.657562
0.001526 0.369781 0.658508
0.095032 0.369995 0.658417
0.231018 0.369934 0.658020
0.369843 0.369843 0.657623
0.486053 0.369904 0.657379
0.574127 0.370148 0.657318
0.657288 0.370453 0.657288
0.733093 0.370789 0.657288
0.833313 0.370941 0.657104
0.001251 0.486450 0.658264
0.095123 0.486542 0.658173
0.231201 0.486298 0.657776
0.369904 0.486053 0.657379
0.485931 0.485931 0.657135
0.573914 0.486023 0.657074
0.657013 0.486145 0.657013
0.732819 0.486298 0.656982
0.833649 0.486298 0.656769
0.001160 0.574921 0.658203
0.095367 0.574860 0.658112
0.231567 0.574524 0.657715
0.370148 0.574127 0.657318
0.486023 0.573914 0.657074
0.573883 0.573883 0.656982
0.656921 0.573914 0.656921
0.732758 0.573975 0.656891
0.834198 0.573853 0.656677
0.001129 0.658173 0.658173
0.095673 0.658081 0.658081
0.231995 0.657684 0.657684
0.370453 0.657288 0.657288
0.486145 0.657013 0.657013
0.573914 0.656921 0.656921
0.656830 0.656830 0.656830
0.732727 0.656799 0.656799
0.834045 0.656586 0.656586
0.001129 0.734009 0.658203
0.096008 0.733887 0.658112
0.232452 0.733490 0.657715
0.370789 0.733093 0.657288
0.486298 0.732819 0.656982
0.573975 0.732758 0.656891
0.656799 0.732727 0.656799
0.732788 0.732788 0.656769
0.833496 0.732666 0.656555
0.000977 0.832367 0.658081
0.096222 0.832886 0.657990
0.232727 0.833099 0.657562
0.370941 0.833313 0.657104
0.486298 0.833649 0.656769
0.573853 0.834198 0.656677
0.656586 0.834045 0.656586
0.732666 0.833496 0.656555
0.832794 0.832794 0.656372
0.002502 0.002502 0.735352
0.095306 0.002380 0.735229
0.231079 0.001953 0.734833
0.370117 0.001526 0.734406
0.486664 0.001251 0.734131
0.575012 0.001160 0.734070
0.658203 0.001129 0.734009
0.734039 0.001129 0.734039
0.833008 0.000977 0.733887
0.002380 0.095306 0.735229
0.095551 0.095551 0.735138
0.231415 0.095490 0.734711
0.370331 0.095398 0.734283
0.486725 0.095459 0.734009
0.574921 0.095734 0.733948
0.658112 0.096008 0.733887
0.733917 0.096375 0.733917
0.833527 0.096558 0.733765
0.001953 0.231079 0.734833
0.095490 0.231415 0.734711
0.231445 0.231445 0.734314
0.370270 0.231476 0.733887
0.486481 0.231659 0.733612
0.574554 0.232025 0.733521
0.657715 0.232452 0.733490
0.733521 0.232910 0.733521
0.833740 0.233185 0.733368
0.001526 0.370117 0.734406
0.095398 0.370331 0.734283
0.231476 0.370270 0.733887
0.370178 0.370178 0.733459
0.486206 0.370239 0.733185
0.574188 0.370483 0.733124
0.657288 0.370789 0.733093
0.733093 0.371124 0.733093
0.833923 0.371277 0.732941
0.001251 0.486664 0.734131
0.095459 0.486725 0.734009
0.231659 0.486481 0.733612
0.370239 0.486206 0.733185
0.486115 0.486115 0.732910
0.573975 0.486176 0.732849
0.656982 0.486298 0.732819
0.732849 0.486481 0.732849
0.834259 0.486450 0.732697
0.001160 0.575012 0.734070
0.095734 0.574921 0.733948
0.232025 0.574554 0.733521
0.370483 0.574188 0.733124
0.486176 0.573975 0.732849
0.573944 0.573944 0.732788
0.656891 0.573975 0.732758
0.732788 0.574005 0.732788
0.834076 0.573914 0.732666
0.001129 0.658203 0.734009
0.096008 0.658112 0.733887
0.232452 0.657715 0.733490
0.370789 0.657288 0.733093
0.486298 0.656982 0.732819
0.573975 0.656891 0.732758
0.656799 0.656799 0.732727
0.732788 0.656769 0.732788
0.833496 0.656555 0.732666
0.001129 0.734039 0.734039
0.096375 0.733917 0.733917
0.232910 0.733521 0.733521
0.371124 0.733093 0.733093
0.486481 0.732849 0.732849
0.574005 0.732788 0.732788
0.656769 0.732788 0.732788
0.732849 0.732849 0.732849
0.832977 0.732758 0.732758
0.000977 0.833008 0.733887
0.096558 0.833527 0.733765
0.233185 0.833740 0.733368
0.371277 0.833923 0.732941
0.486450 0.834259 0.732697
0.573914 0.834076 0.732666
0.656555 0.833496 0.732666
0.732758 0.832977 0.732758
0.832275 0.832275 0.732666
0.002380 0.002380 0.829773
0.095520 0.002258 0.830383
0.231384 0.001831 0.830627
0.370331 0.001404 0.830841
0.486694 0.001099 0.831207
0.574921 0.001038 0.831787
0.658081 0.000977 0.832367
0.733887 0.000977 0.833008
0.833496 0.000793 0.833496
0.002258 0.095520 0.830383
0.095764 0.095764 0.830933
0.231720 0.095673 0.831146
0.370544 0.095581 0.831360
0.486725 0.095642 0.831726
0.574829 0.095917 0.832306
0.657990 0.096222 0.832886
0.733765 0.096558 0.833527
0.833984 0.096741 0.833984
0.001831 0.231384 0.830627
0.095673 0.231720 0.831146
0.231750 0.231750 0.831390
0.370453 0.231781 0.831604
0.486481 0.231964 0.831970
0.574463 0.232330 0.832520
0.657562 0.232727 0.833099
0.733368 0.233185 0.833740
0.834167 0.233459 0.834167
0.001404 0.370331 0.830841
0.095581 0.370544 0.831360
0.231781 0.370453 0.831604
0.370361 0.370361 0.831818
0.486206 0.370422 0.832184
0.574097 0.370667 0.832733
0.657104 0.370941 0.833313
0.732941 0.371277 0.833923
0.834351 0.371460 0.834351
0.001099 0.486694 0.831207
0.095642 0.486725 0.831726
0.231964 0.486481 0.831970
0.370422 0.486206 0.832184
0.486115 0.486115 0.832550
0.573853 0.486176 0.833069
0.656769 0.486298 0.833649
0.732697 0.486450 0.834259
0.833984 0.486450 0.833984
0.001038 0.574921 0.831787
0.095917 0.574829 0.832306
0.232330 0.574463 0.832520
0.370667 0.574097 0.832733
0.486176 0.573853 0.833069
0.573822 0.573822 0.833618
0.656677 0.573853 0.834198
0.732666 0.573914 0.834076
0.833374 0.573792 0.833374
0.000977 0.658081 0.832367
0.096222 0.657990 0.832886
0.232727 0.657562 0.833099
0.370941 0.657104 0.833313
0.486298 0.656769 0.833649
0.573853 0.656677 0.834198
0.656586 0.656586 0.834045
0.732666 0.656555 0.833496
0.832794 0.656372 0.832794
0.000977 0.733887 0.833008
0.096558 0.733765 0.833527
0.233185 0.733368 0.833740
0.371277 0.732941 0.833923
0.486450 0.732697 0.834259
0.573914 0.732666 0.834076
0.656555 0.732666 0.833496
0.732758 0.732758 0.832977
0.832275 0.732666 0.832275
0.000793 0.833496 0.833496
0.096741 0.833984 0.833984
0.233459 0.834167 0.834167
0.371460 0.834351 0.834351
0.486450 0.833984 0.833984
0.573792 0.833374 0.833374
0.656372 0.832794 0.832794
0.732666 0.832275 0.832275
0.831604 0.831604 0.831604
