Kodak Vision3 200T (5213) - Only color.cube
# Created by Benjamin (IWLTBAP) : http://luts.iwltbap.com
# Copyright: (C) Copyright 2010-2017 Triune Films and IWLTBAP SAS
# Cannot be resold, shared or otherwise redistributed
TITLE "Film Print Emulation LUTs Pack (Rec.709, sRGB, DCI-P3)"
LUT_3D_SIZE 9
0.000793 0.000793 0.000793
0.105835 0.013031 0.015015
0.261810 0.056030 0.033813
0.353485 0.091980 0.049377
0.423798 0.121277 0.049347
0.495178 0.148010 0.047668
0.568237 0.168457 0.044312
0.653839 0.187469 0.044312
0.756287 0.208954 0.047882
0.011780 0.088104 0.022430
0.097961 0.141205 0.050507
0.267334 0.176270 0.071594
0.371460 0.195618 0.063599
0.460571 0.211578 0.060577
0.550934 0.225372 0.052551
0.654755 0.237854 0.047607
0.772125 0.253662 0.047943
0.890991 0.272247 0.051392
0.046051 0.193848 0.066956
0.077393 0.224823 0.086182
0.235504 0.267181 0.093750
0.364685 0.301971 0.101532
0.466095 0.314667 0.071838
0.559448 0.320312 0.066833
0.669800 0.330353 0.065430
0.795044 0.343170 0.065857
0.944336 0.356934 0.064362
0.071136 0.296906 0.124786
0.100647 0.327118 0.127472
0.231171 0.378448 0.144470
0.356689 0.384521 0.135376
0.466919 0.407745 0.139709
0.573273 0.429199 0.106934
0.684387 0.431488 0.083862
0.805969 0.432953 0.075531
0.958954 0.437958 0.071259
0.116669 0.406708 0.186462
0.154022 0.435577 0.207916
0.251282 0.461578 0.179382
0.337616 0.482330 0.169952
0.468597 0.476685 0.164459
0.577362 0.491638 0.168640
0.704895 0.521088 0.148529
0.817810 0.530518 0.110992
0.964813 0.531189 0.095184
0.186218 0.502472 0.255280
0.214355 0.530334 0.275543
0.266144 0.539124 0.249786
0.317749 0.565582 0.220398
0.504547 0.577820 0.176453
0.581329 0.570526 0.191162
0.697693 0.580444 0.191315
0.826172 0.615601 0.175018
0.967072 0.635284 0.135559
0.249969 0.584076 0.300781
0.267700 0.609070 0.308716
0.299561 0.618500 0.317566
0.356323 0.678619 0.283325
0.480133 0.674805 0.182739
0.625275 0.691132 0.216766
0.712280 0.679962 0.223602
0.815643 0.683655 0.230347
0.964508 0.718140 0.210449
0.280792 0.666199 0.324890
0.293671 0.693268 0.325500
0.316254 0.708466 0.324005
0.360840 0.729889 0.365753
0.449127 0.789124 0.333954
0.630768 0.805420 0.214752
0.753052 0.826477 0.285919
0.828369 0.805511 0.294647
0.952454 0.799042 0.284393
0.310608 0.752411 0.341675
0.325134 0.774536 0.390991
0.335571 0.786804 0.449188
0.363647 0.802795 0.412781
0.446503 0.873932 0.406067
0.619995 0.896942 0.316437
0.748932 0.920868 0.320923
0.859375 0.939789 0.371399
0.946869 0.897461 0.379852
0.000244 0.017883 0.063782
0.080627 0.030334 0.123260
0.238586 0.032745 0.160797
0.346741 0.076660 0.144684
0.440674 0.102112 0.139374
0.532776 0.134796 0.130280
0.626434 0.159088 0.114960
0.740967 0.178436 0.106842
0.854828 0.197113 0.099854
0.022247 0.109406 0.081909
0.081390 0.146912 0.147156
0.275360 0.183746 0.169495
0.368195 0.203613 0.170898
0.460541 0.222229 0.166504
0.552856 0.235809 0.158752
0.657440 0.247711 0.151062
0.780029 0.261597 0.141174
0.916656 0.277985 0.131805
0.040802 0.207794 0.124451
0.076630 0.237122 0.136902
0.221771 0.285553 0.169525
0.372986 0.310791 0.191833
0.466827 0.318268 0.179504
0.560608 0.328644 0.173340
0.671600 0.339355 0.167358
0.797363 0.351105 0.158234
0.948364 0.364136 0.149628
0.068726 0.307892 0.156586
0.092651 0.333282 0.166351
0.221069 0.394257 0.189484
0.359192 0.400940 0.199921
0.471436 0.420898 0.214905
0.572205 0.431519 0.194153
0.681946 0.431335 0.182343
0.806702 0.434845 0.173981
0.961639 0.442474 0.167175
0.108704 0.413300 0.203461
0.145081 0.444733 0.224487
0.250366 0.482025 0.232178
0.314301 0.507965 0.243927
0.476318 0.492706 0.233673
0.583923 0.504761 0.240265
0.707428 0.529541 0.214447
0.818451 0.531647 0.192139
0.966492 0.532104 0.181854
0.180634 0.505798 0.263397
0.212189 0.537476 0.274994
0.253326 0.537628 0.281464
0.338379 0.595306 0.282623
0.484406 0.601868 0.196289
0.593536 0.589081 0.258209
0.708008 0.594635 0.261230
0.830963 0.627899 0.239502
0.968964 0.641113 0.200500
0.247711 0.588715 0.298065
0.264648 0.614807 0.296234
0.291962 0.618622 0.304657
0.342773 0.657501 0.344452
0.460419 0.699219 0.273102
0.639008 0.709473 0.274811
0.721497 0.697510 0.295807
0.819550 0.693665 0.302734
0.966949 0.728821 0.275421
0.278046 0.670349 0.315918
0.292297 0.698792 0.345978
0.314178 0.716034 0.385162
0.348358 0.728333 0.372955
0.398712 0.789795 0.384644
0.619415 0.811890 0.257385
0.752930 0.832123 0.340759
0.833740 0.816010 0.349945
0.958618 0.810455 0.338684
0.309418 0.758636 0.385712
0.323608 0.779846 0.438507
0.333038 0.795624 0.487488
0.351349 0.813751 0.465729
0.444061 0.880249 0.411102
0.614502 0.904022 0.356445
0.754089 0.924957 0.372284
0.867004 0.943817 0.418671
0.952606 0.905975 0.440399
0.014221 0.072113 0.173737
0.068329 0.072357 0.183289
0.167542 0.061584 0.236694
0.330078 0.061737 0.260895
0.442078 0.103210 0.245819
0.536285 0.113159 0.212189
0.634094 0.129272 0.203400
0.747162 0.162506 0.197083
0.855865 0.191071 0.191040
0.027832 0.164307 0.182739
0.058411 0.173462 0.217102
0.183990 0.177399 0.268707
0.345459 0.184387 0.275604
0.458801 0.202209 0.267181
0.559082 0.223145 0.258972
0.665741 0.246216 0.256714
0.783386 0.269135 0.256195
0.915863 0.290619 0.251678
0.030548 0.238770 0.208435
0.063446 0.253235 0.240479
0.160950 0.289642 0.296570
0.364655 0.309143 0.284271
0.462769 0.330139 0.294769
0.560760 0.343658 0.294220
0.672424 0.354401 0.289490
0.797028 0.364655 0.282928
0.946869 0.375519 0.275146
0.060059 0.321136 0.261200
0.078156 0.346588 0.276489
0.178497 0.388428 0.297577
0.331512 0.414673 0.316376
0.473236 0.428131 0.321960
0.565247 0.430267 0.307068
0.678070 0.434021 0.299805
0.806641 0.441315 0.294098
0.960480 0.449158 0.288696
0.088440 0.417847 0.305939
0.125122 0.454163 0.336731
0.218018 0.482483 0.295319
0.308502 0.507477 0.292603
0.480103 0.510681 0.334869
0.584747 0.519257 0.346130
0.699799 0.531464 0.326355
0.813354 0.528564 0.309875
0.965088 0.529877 0.300049
0.175049 0.517914 0.322571
0.207153 0.549805 0.359131
0.256866 0.554443 0.323242
0.322876 0.591705 0.313629
0.442017 0.619812 0.317322
0.601318 0.612823 0.365234
0.709534 0.609558 0.374268
0.830414 0.636536 0.346802
0.967560 0.640106 0.322479
0.242523 0.596954 0.344818
0.259491 0.626221 0.375305
0.287506 0.631226 0.372742
0.325195 0.657227 0.387543
0.364990 0.700256 0.375702
0.611237 0.725800 0.366608
0.724945 0.712738 0.401855
0.823822 0.708832 0.397522
0.967407 0.742554 0.374176
0.272766 0.679260 0.381165
0.287689 0.709717 0.430634
0.307770 0.729340 0.458832
0.332764 0.734436 0.463257
0.369720 0.781586 0.383026
0.591644 0.812469 0.348877
0.748474 0.839294 0.413513
0.838379 0.830902 0.427063
0.960388 0.822205 0.422485
0.303009 0.767242 0.457336
0.317230 0.792419 0.497314
0.319244 0.811523 0.543335
0.338745 0.829163 0.529907
0.441498 0.889343 0.444427
0.577515 0.919952 0.392944
0.739746 0.937256 0.426025
0.866364 0.953491 0.481445
0.957764 0.918640 0.510437
0.026428 0.144989 0.284088
0.071747 0.138580 0.296600
0.143799 0.121429 0.304962
0.282043 0.079620 0.343750
0.405945 0.089081 0.361389
0.530090 0.122650 0.350464
0.638000 0.130615 0.331665
0.752045 0.137177 0.297455
0.859711 0.150726 0.272034
0.035858 0.225891 0.285583
0.065308 0.218628 0.314575
0.150635 0.195404 0.362793
0.272797 0.171783 0.386902
0.428375 0.194489 0.380585
0.555359 0.211792 0.373535
0.675812 0.220306 0.367340
0.789551 0.229309 0.343750
0.916321 0.252625 0.331726
0.041046 0.280151 0.311279
0.066223 0.294586 0.329102
0.126007 0.304443 0.381378
0.302216 0.318695 0.401031
0.450317 0.324402 0.399231
0.566711 0.334778 0.389801
0.683258 0.345612 0.386963
0.802124 0.363831 0.385925
0.945129 0.383942 0.387421
0.054504 0.352966 0.352966
0.074005 0.377991 0.373535
0.113464 0.384247 0.395081
0.287872 0.410950 0.425598
0.457275 0.427185 0.413544
0.556824 0.437775 0.409637
0.674042 0.447296 0.411316
0.805573 0.456238 0.409149
0.959045 0.464386 0.405212
0.094177 0.440796 0.395203
0.130341 0.479126 0.420135
0.187744 0.487427 0.415802
0.270325 0.510193 0.432587
0.443420 0.516174 0.460663
0.579071 0.528015 0.440063
0.685974 0.527802 0.422150
0.811005 0.530762 0.415314
0.964325 0.536896 0.411591
0.159912 0.530365 0.423187
0.188538 0.564240 0.448944
0.245422 0.569092 0.428375
0.297485 0.603943 0.445953
0.412048 0.617096 0.455139
0.598328 0.620117 0.461945
0.711395 0.625946 0.459503
0.824554 0.638916 0.437408
0.965637 0.638184 0.423065
0.228027 0.609192 0.436035
0.244019 0.640167 0.462219
0.279266 0.651276 0.457428
0.310211 0.677216 0.476715
0.390747 0.708221 0.454132
0.587036 0.728851 0.447388
0.728912 0.727966 0.480072
0.827148 0.726624 0.476105
0.967804 0.755157 0.454773
0.264648 0.692413 0.460114
0.280640 0.727509 0.498383
0.299255 0.749695 0.519470
0.311890 0.751526 0.522369
0.394684 0.798065 0.498169
0.555054 0.831909 0.432617
0.729767 0.851715 0.472443
0.846130 0.854004 0.498840
0.963745 0.838745 0.496063
0.298828 0.784210 0.514343
0.308380 0.811859 0.553802
0.314850 0.833832 0.599579
0.376648 0.852783 0.589813
0.455841 0.905975 0.543732
0.566864 0.928436 0.495850
0.714478 0.946899 0.494049
0.861938 0.961731 0.550812
0.962250 0.931824 0.590118
0.060089 0.192230 0.386444
0.105194 0.182526 0.407166
0.152313 0.169281 0.395691
0.224335 0.125824 0.417847
0.354828 0.098999 0.436127
0.487061 0.114349 0.442413
0.614960 0.132477 0.437775
0.748779 0.151093 0.430939
0.860718 0.150848 0.408875
0.053345 0.284393 0.380432
0.092896 0.271881 0.432343
0.176270 0.227020 0.450928
0.250824 0.211395 0.458588
0.375946 0.181549 0.476410
0.526520 0.214478 0.468994
0.654236 0.229156 0.464935
0.786438 0.240723 0.460815
0.917664 0.242950 0.444183
0.058594 0.335938 0.399048
0.075623 0.348358 0.416626
0.126404 0.337036 0.464630
0.287781 0.324219 0.492554
0.407562 0.300415 0.501678
0.553253 0.334320 0.487396
0.676605 0.342957 0.481293
0.806091 0.356140 0.475098
0.943970 0.356323 0.460205
0.072510 0.402252 0.431946
0.097870 0.427734 0.449432
0.136719 0.422729 0.467133
0.261749 0.429718 0.495148
0.413055 0.444794 0.502228
0.559479 0.451477 0.507416
0.688416 0.455231 0.495239
0.806305 0.458405 0.489044
0.953674 0.466888 0.486725
0.110352 0.481293 0.459167
0.134583 0.515289 0.486115
0.171295 0.509735 0.483887
0.275635 0.520752 0.511658
0.435028 0.529266 0.537567
0.572632 0.534973 0.517975
0.674957 0.537750 0.510590
0.797852 0.546021 0.511505
0.959625 0.555176 0.509308
0.161133 0.557281 0.485413
0.182098 0.585968 0.513580
0.223480 0.587341 0.508911
0.286407 0.612305 0.524689
0.429749 0.622284 0.544250
0.573914 0.625549 0.557678
0.704803 0.635742 0.539581
0.811859 0.638062 0.523712
0.961884 0.642975 0.517181
0.207611 0.626282 0.512177
0.224884 0.658722 0.545288
0.254181 0.670013 0.544983
0.307281 0.696075 0.547211
0.426910 0.724396 0.558960
0.566589 0.742401 0.531799
0.728363 0.741547 0.558289
0.828217 0.744598 0.556427
0.967041 0.763184 0.538300
0.247192 0.709412 0.547302
0.263214 0.747345 0.582336
0.280548 0.770782 0.599182
0.348450 0.778412 0.590393
0.440918 0.825775 0.586792
0.567932 0.852875 0.542358
0.709412 0.867523 0.541748
0.849670 0.873322 0.578461
0.964966 0.856689 0.576691
0.286713 0.804413 0.583527
0.294342 0.833038 0.622498
0.360504 0.858429 0.668518
0.412689 0.880096 0.660095
0.478821 0.922150 0.630737
0.581238 0.943756 0.589325
0.706940 0.958832 0.573395
0.860046 0.968994 0.629333
0.964447 0.944916 0.682068
0.079285 0.235718 0.463196
0.136383 0.227966 0.502625
0.185791 0.202667 0.480896
0.237946 0.183380 0.481934
0.318970 0.115448 0.505920
0.454254 0.122040 0.512054
0.589355 0.150269 0.518066
0.722870 0.162781 0.521393
0.841492 0.165131 0.513947
0.064789 0.336029 0.480804
0.122253 0.323822 0.526459
0.202026 0.272461 0.538330
0.265717 0.243652 0.523621
0.359344 0.187500 0.545410
0.508972 0.218872 0.547546
0.634491 0.245850 0.554840
0.764954 0.257568 0.558868
0.891663 0.260345 0.549347
0.084534 0.395325 0.483276
0.105042 0.403656 0.504486
0.170837 0.387451 0.547852
0.309326 0.369110 0.570770
0.391785 0.310730 0.581451
0.546082 0.339478 0.575531
0.662964 0.358948 0.578766
0.785797 0.366577 0.576111
0.926788 0.370422 0.563324
0.104095 0.454498 0.505157
0.126129 0.475464 0.527618
0.173157 0.471283 0.546021
0.285522 0.464905 0.566437
0.417267 0.460083 0.592834
0.550140 0.451996 0.590820
0.684326 0.459747 0.593567
0.799622 0.460754 0.582153
0.945770 0.468140 0.571228
0.107483 0.516632 0.529541
0.128113 0.545746 0.561249
0.179626 0.543304 0.556976
0.286774 0.551849 0.582336
0.434326 0.550385 0.602783
0.567474 0.559937 0.606354
0.700226 0.558411 0.607635
0.807709 0.560486 0.596466
0.950043 0.560760 0.591156
0.142517 0.579437 0.556152
0.169342 0.608765 0.590515
0.237701 0.613159 0.588135
0.323883 0.629456 0.597809
0.442688 0.639618 0.622284
0.585571 0.647034 0.643982
0.698151 0.644073 0.620483
0.803253 0.654114 0.620789
0.948914 0.663879 0.624176
0.204132 0.649994 0.588287
0.236298 0.686462 0.624634
0.285797 0.698029 0.625610
0.356750 0.709167 0.627655
0.451874 0.737274 0.647980
0.578613 0.751740 0.644836
0.713715 0.750122 0.647522
0.823273 0.758209 0.649811
0.961731 0.767273 0.639984
0.242493 0.737244 0.626862
0.286682 0.774445 0.662872
0.332397 0.801025 0.685944
0.392456 0.803375 0.673584
0.469025 0.845917 0.680573
0.574432 0.870728 0.662598
0.692169 0.881470 0.637665
0.845673 0.883026 0.666107
0.964600 0.873352 0.667938
0.287659 0.829346 0.667725
0.340302 0.857727 0.705353
0.393616 0.883240 0.752258
0.447906 0.901611 0.739563
0.509491 0.934235 0.729980
0.597626 0.954254 0.706787
0.715393 0.966888 0.684631
0.853180 0.971344 0.716492
0.965240 0.958008 0.789276
0.098114 0.281097 0.526031
0.160065 0.282715 0.603577
0.221771 0.250946 0.570648
0.262177 0.220886 0.552216
0.319122 0.147705 0.573883
0.474182 0.156372 0.585968
0.593536 0.181854 0.593475
0.713470 0.194794 0.606995
0.824982 0.197632 0.612640
0.085205 0.382019 0.577362
0.140869 0.381866 0.612061
0.240448 0.334442 0.638367
0.296417 0.303680 0.606537
0.376312 0.230927 0.620178
0.528259 0.254272 0.624023
0.641022 0.277893 0.632843
0.757477 0.287048 0.647766
0.873749 0.288422 0.652466
0.108215 0.445740 0.575592
0.133362 0.451691 0.604584
0.221161 0.435425 0.622375
0.341003 0.421997 0.654297
0.403473 0.360535 0.661652
0.568024 0.365234 0.659760
0.669403 0.380188 0.659698
0.778839 0.385132 0.669891
0.902252 0.386536 0.673798
0.124176 0.498901 0.591339
0.148499 0.521454 0.620758
0.225494 0.516083 0.631470
0.336151 0.506897 0.649689
0.446320 0.487030 0.695099
0.592224 0.452240 0.695435
0.693481 0.467072 0.685577
0.794769 0.472473 0.689423
0.922882 0.476471 0.684052
0.135071 0.551544 0.614685
0.167786 0.582977 0.652069
0.241241 0.581573 0.645477
0.333099 0.587708 0.657745
0.458313 0.586456 0.686157
0.582703 0.565430 0.698914
0.702698 0.559875 0.704315
0.805298 0.566559 0.706818
0.939453 0.566986 0.690857
0.160950 0.610474 0.642029
0.212067 0.646210 0.678802
0.280579 0.647980 0.673218
0.359650 0.657135 0.676605
0.459869 0.668915 0.707733
0.593170 0.671692 0.723053
0.701874 0.674164 0.723938
0.820526 0.672180 0.722900
0.945251 0.676941 0.714478
0.225647 0.682831 0.674072
0.277618 0.718994 0.709625
0.330658 0.729462 0.713104
0.395081 0.737885 0.716309
0.479523 0.762146 0.745697
0.591705 0.774353 0.756500
0.713379 0.774200 0.762238
0.814514 0.773651 0.748901
0.955536 0.788971 0.753204
0.291718 0.765289 0.709473
0.328796 0.807129 0.755859
0.363953 0.840088 0.790039
0.427643 0.835602 0.773956
0.496307 0.863678 0.786041
0.586823 0.882843 0.788544
0.693451 0.892059 0.780945
0.819275 0.891968 0.765717
0.961884 0.888641 0.778870
0.333618 0.861969 0.760559
0.376343 0.889008 0.800232
0.432159 0.909088 0.835052
0.488403 0.919403 0.831116
0.545471 0.942932 0.833221
0.625702 0.958496 0.830505
0.730835 0.968445 0.824493
0.844482 0.970825 0.825439
0.965424 0.969116 0.887604
0.108521 0.322266 0.583649
0.197693 0.355835 0.715637
0.262115 0.320923 0.687195
0.306458 0.284088 0.653229
0.388763 0.209076 0.674255
0.536316 0.223297 0.679810
0.627136 0.236328 0.680664
0.722443 0.238434 0.689728
0.817749 0.232239 0.700073
0.125488 0.433411 0.676453
0.186768 0.439728 0.692017
0.297760 0.407013 0.736786
0.350006 0.381195 0.715912
0.443970 0.305206 0.732178
0.583099 0.314972 0.723297
0.669403 0.318390 0.725220
0.763397 0.317322 0.736176
0.865479 0.315125 0.750153
0.143646 0.492981 0.685211
0.207367 0.506104 0.715393
0.300568 0.485260 0.720764
0.385498 0.466522 0.755798
0.440826 0.410339 0.759521
0.598572 0.388031 0.758423
0.688965 0.395508 0.754822
0.782959 0.402435 0.767181
0.896606 0.406830 0.782074
0.157349 0.544373 0.688049
0.211670 0.572968 0.719269
0.302887 0.559021 0.717438
0.400360 0.549042 0.758728
0.481781 0.518860 0.819916
0.597992 0.455048 0.819397
0.709534 0.469177 0.793091
0.797516 0.483124 0.793213
0.915833 0.490906 0.804596
0.191772 0.596130 0.708008
0.247742 0.628296 0.743988
0.314514 0.622528 0.732391
0.394531 0.628113 0.743896
0.505249 0.631744 0.791718
0.594147 0.596252 0.830078
0.722595 0.566010 0.826355
0.813599 0.579681 0.816162
0.934174 0.583832 0.824432
0.235352 0.653687 0.732361
0.285767 0.687195 0.772522
0.338440 0.689270 0.768555
0.404755 0.700195 0.776428
0.493927 0.717865 0.806671
0.608612 0.720581 0.822906
0.713654 0.699524 0.826385
0.824371 0.680603 0.842468
0.945282 0.685364 0.849243
0.282227 0.722382 0.767578
0.323456 0.762970 0.809967
0.365204 0.776306 0.820618
0.425049 0.783081 0.823303
0.502472 0.805817 0.845917
0.595093 0.814178 0.862518
0.709412 0.813080 0.868927
0.820465 0.805756 0.870209
0.957947 0.799316 0.864594
0.325073 0.806946 0.810089
0.355560 0.850616 0.860474
0.399536 0.888641 0.898926
0.460785 0.875244 0.877625
0.534424 0.889130 0.888245
0.611694 0.900146 0.896271
0.713989 0.905701 0.898132
0.822876 0.905670 0.896881
0.961456 0.909546 0.889099
0.364594 0.898834 0.865082
0.414764 0.920776 0.891754
0.477783 0.933136 0.911224
0.536926 0.939819 0.912811
0.596039 0.951019 0.917542
0.669464 0.962738 0.918518
0.765228 0.969116 0.920380
0.872742 0.970428 0.928711
0.964783 0.971375 0.967377
0.120026 0.362915 0.646088
0.268707 0.435730 0.808044
0.326813 0.388184 0.793091
0.366486 0.348785 0.789917
0.472046 0.287292 0.802216
0.582977 0.295135 0.784729
0.656525 0.287598 0.782715
0.735687 0.276917 0.789673
0.820251 0.267761 0.800812
0.239502 0.485870 0.811005
0.292389 0.495270 0.833649
0.362762 0.457611 0.828918
0.403015 0.420197 0.837799
0.494537 0.358917 0.840698
0.616180 0.355682 0.828949
0.700623 0.348938 0.836639
0.779266 0.346619 0.853271
0.874786 0.347992 0.865295
0.247131 0.541260 0.805511
0.295380 0.560211 0.825623
0.380890 0.535004 0.852295
0.443329 0.506683 0.870148
0.482422 0.450897 0.864746
0.620392 0.414368 0.875000
0.721466 0.410889 0.882233
0.803375 0.417938 0.894104
0.913055 0.429047 0.902130
0.250397 0.595581 0.780670
0.292267 0.621521 0.806946
0.372772 0.606781 0.814117
0.464966 0.599762 0.880615
0.534149 0.563660 0.920685
0.571472 0.489655 0.922302
0.728180 0.481201 0.923828
0.816803 0.494965 0.913055
0.931366 0.509003 0.920166
0.279297 0.644562 0.799652
0.316071 0.673553 0.830292
0.372986 0.673187 0.828247
0.450165 0.679352 0.853271
0.552856 0.687775 0.889282
0.634949 0.653351 0.925140
0.716888 0.589752 0.929077
0.832214 0.596924 0.925934
0.943024 0.605988 0.935425
0.306488 0.701904 0.828644
0.337280 0.737671 0.865143
0.383057 0.744751 0.869720
0.447357 0.758270 0.883850
0.535522 0.777405 0.906464
0.630859 0.774902 0.924042
0.738922 0.751953 0.925903
0.841949 0.702026 0.949341
0.958160 0.702301 0.960663
0.332581 0.775543 0.868469
0.359650 0.814880 0.907623
0.400391 0.827850 0.921051
0.466888 0.834473 0.924438
0.543488 0.850708 0.938293
0.622894 0.855988 0.952240
0.724915 0.850769 0.957947
0.834534 0.835449 0.957184
0.962585 0.806213 0.978485
0.363312 0.858337 0.913483
0.401398 0.891876 0.946167
0.448639 0.904541 0.952057
0.514801 0.905060 0.953278
0.582336 0.911530 0.959137
0.649841 0.917328 0.968994
0.734802 0.920380 0.977203
0.836853 0.918671 0.980530
0.962952 0.919830 0.981384
0.427185 0.932770 0.948792
0.476959 0.944763 0.958527
0.529144 0.948517 0.963501
0.584503 0.953247 0.968140
0.645233 0.958954 0.973083
0.711426 0.966522 0.977692
0.791626 0.969574 0.981018
0.905731 0.970123 0.981232
0.963409 0.971191 0.980103
