Kodak Vision3 250D (5207) - Only color.cube
# Created by Benjamin (IWLTBAP) : http://luts.iwltbap.com
# Copyright: (C) Copyright 2010-2017 Triune Films and IWLTBAP SAS
# Cannot be resold, shared or otherwise redistributed
TITLE "Film Print Emulation LUTs Pack (Rec.709, sRGB, DCI-P3)"
LUT_3D_SIZE 33
0.000854 0.000000 0.000092
0.039124 0.000000 0.000000
0.081940 0.000549 0.000000
0.123383 0.003021 0.000977
0.164673 0.006409 0.002411
0.208130 0.009399 0.005615
0.252777 0.012146 0.008575
0.294739 0.015778 0.010681
0.332214 0.018799 0.012665
0.366119 0.022736 0.014648
0.398651 0.028473 0.018433
0.431732 0.037292 0.024658
0.466339 0.046783 0.032532
0.501984 0.056641 0.043457
0.537018 0.067291 0.055023
0.569824 0.078461 0.067261
0.600464 0.088623 0.078369
0.629578 0.097504 0.089050
0.657959 0.106598 0.098206
0.686005 0.115845 0.106689
0.713806 0.124481 0.114166
0.741394 0.132935 0.121216
0.768402 0.141815 0.127563
0.794220 0.150787 0.133331
0.818451 0.159546 0.138824
0.841400 0.168610 0.143860
0.863007 0.177643 0.148438
0.883179 0.186707 0.152863
0.902863 0.195526 0.157166
0.921448 0.204559 0.161346
0.939026 0.213409 0.165436
0.955597 0.222046 0.169678
0.970581 0.230530 0.173828
0.000763 0.010254 0.000000
0.034058 0.015778 0.000000
0.073029 0.021027 0.000031
0.113770 0.026642 0.002228
0.154297 0.031586 0.005371
0.197083 0.037140 0.009583
0.242462 0.040894 0.012543
0.286713 0.045227 0.015472
0.326874 0.049408 0.018341
0.363159 0.054047 0.021973
0.397675 0.059052 0.027252
0.432556 0.066101 0.033386
0.468445 0.074860 0.041779
0.504944 0.084381 0.050659
0.540222 0.093597 0.060425
0.572906 0.102570 0.070190
0.603363 0.112091 0.079895
0.632263 0.121338 0.089020
0.660278 0.129669 0.096954
0.688232 0.138123 0.104309
0.715851 0.146454 0.111206
0.743317 0.154877 0.118073
0.770111 0.163147 0.124207
0.795746 0.171478 0.129791
0.819855 0.179901 0.135132
0.842621 0.188385 0.139984
0.864044 0.196655 0.144958
0.884247 0.205231 0.149506
0.903839 0.213623 0.153900
0.922455 0.221863 0.158203
0.939850 0.230164 0.162628
0.956177 0.238281 0.166931
0.971100 0.246307 0.171143
0.000580 0.031494 0.000000
0.028137 0.037720 0.000061
0.064545 0.043610 0.000916
0.104462 0.049194 0.005096
0.144501 0.053833 0.008209
0.186829 0.058868 0.011475
0.232666 0.063080 0.015381
0.278748 0.067657 0.019196
0.321594 0.072632 0.023682
0.360107 0.077850 0.028961
0.396393 0.084320 0.034210
0.432739 0.090851 0.040955
0.469849 0.098358 0.048340
0.507172 0.107025 0.055725
0.542572 0.116241 0.064240
0.575256 0.124878 0.071869
0.605560 0.133667 0.080383
0.634369 0.142242 0.088074
0.662323 0.150940 0.095215
0.690216 0.159149 0.101868
0.717712 0.167206 0.108551
0.745239 0.175354 0.114807
0.771881 0.183563 0.120789
0.797363 0.191406 0.126495
0.821289 0.199371 0.131653
0.843964 0.207397 0.136627
0.865295 0.215302 0.141418
0.885406 0.223267 0.146088
0.904938 0.231110 0.150574
0.923431 0.239044 0.155212
0.940796 0.246826 0.159729
0.956909 0.254547 0.164398
0.971619 0.262024 0.168915
0.000397 0.054352 0.000824
0.024414 0.059265 0.001892
0.057983 0.065155 0.003418
0.096405 0.071289 0.007996
0.135986 0.077606 0.011383
0.177521 0.083099 0.014343
0.223389 0.088348 0.019104
0.271149 0.092499 0.023621
0.316071 0.097351 0.028046
0.356598 0.102020 0.033295
0.394562 0.108124 0.039246
0.432129 0.115082 0.045105
0.470276 0.122040 0.052124
0.508240 0.130005 0.058441
0.543945 0.138184 0.065430
0.576813 0.146515 0.072418
0.607178 0.155273 0.079346
0.636017 0.163544 0.086212
0.664001 0.171906 0.093018
0.692047 0.179840 0.099396
0.719604 0.187866 0.105804
0.747192 0.195740 0.111877
0.773834 0.203522 0.117615
0.799225 0.210968 0.123474
0.823120 0.218719 0.128723
0.845612 0.226196 0.133484
0.866852 0.233734 0.138397
0.886810 0.241364 0.143433
0.906311 0.248901 0.148041
0.924591 0.256378 0.153046
0.941864 0.263763 0.157623
0.957855 0.270935 0.162323
0.972321 0.278046 0.167175
0.000183 0.079010 0.003174
0.023621 0.084351 0.004700
0.053802 0.089966 0.007812
0.089996 0.096222 0.010345
0.128448 0.102173 0.014252
0.169556 0.108276 0.018097
0.214783 0.113739 0.022675
0.263580 0.118958 0.027100
0.310333 0.123322 0.031525
0.352570 0.128204 0.036713
0.391907 0.133575 0.042572
0.430634 0.139709 0.047516
0.469635 0.146484 0.052856
0.508362 0.153564 0.059082
0.544586 0.161377 0.064819
0.577728 0.169373 0.071289
0.608368 0.177429 0.077271
0.637390 0.185364 0.084290
0.665710 0.193390 0.090759
0.693909 0.201263 0.097290
0.721771 0.208832 0.103424
0.749451 0.216461 0.109589
0.776215 0.223846 0.115448
0.801575 0.231110 0.121063
0.825317 0.238312 0.126404
0.847748 0.245422 0.131561
0.868805 0.252655 0.136230
0.888641 0.259827 0.141357
0.908020 0.267120 0.146301
0.926208 0.274170 0.151093
0.943237 0.281158 0.156006
0.958984 0.287994 0.161041
0.973145 0.294800 0.165649
0.000031 0.103699 0.008942
0.025085 0.108856 0.009033
0.051941 0.114624 0.011200
0.085571 0.121246 0.014160
0.122955 0.127930 0.017090
0.162659 0.134308 0.021729
0.207184 0.140106 0.026184
0.255981 0.145386 0.030609
0.303986 0.150513 0.034973
0.347870 0.155151 0.039215
0.388458 0.160248 0.043396
0.428314 0.165680 0.048309
0.468353 0.171936 0.052856
0.507904 0.178680 0.058411
0.544769 0.185852 0.063568
0.578400 0.193207 0.069580
0.609436 0.200684 0.075653
0.638885 0.208466 0.082306
0.667542 0.216156 0.088928
0.696075 0.223572 0.095551
0.724274 0.230865 0.101776
0.752289 0.237885 0.107666
0.779053 0.244873 0.113617
0.804382 0.251770 0.119293
0.828003 0.258636 0.124725
0.850403 0.265472 0.129944
0.871216 0.272278 0.134979
0.890930 0.279175 0.139862
0.910156 0.286011 0.145142
0.928101 0.292694 0.149963
0.944946 0.299347 0.155182
0.960266 0.305878 0.159973
0.974243 0.312378 0.164886
0.004486 0.129181 0.013092
0.029480 0.133484 0.014038
0.053131 0.138947 0.015045
0.083893 0.145477 0.017944
0.118958 0.152893 0.021667
0.157135 0.159973 0.026093
0.200317 0.166779 0.030548
0.248688 0.172760 0.034058
0.297485 0.178040 0.038330
0.342743 0.182922 0.041687
0.384583 0.187683 0.045044
0.425385 0.192963 0.049072
0.466522 0.198517 0.052856
0.507080 0.204742 0.057068
0.544922 0.211395 0.062317
0.579163 0.218384 0.067810
0.610687 0.225525 0.074036
0.640625 0.232788 0.080811
0.669769 0.239929 0.087524
0.698792 0.246857 0.094238
0.727356 0.253906 0.100952
0.755585 0.260559 0.106873
0.782379 0.267151 0.112885
0.807678 0.273590 0.118591
0.831268 0.279999 0.124054
0.853424 0.286560 0.129303
0.873993 0.292908 0.134369
0.893677 0.299408 0.139252
0.912567 0.305908 0.144531
0.930298 0.312378 0.149658
0.946899 0.318695 0.154633
0.961853 0.324799 0.159698
0.975525 0.330902 0.164368
0.017059 0.153900 0.018738
0.036072 0.157867 0.019714
0.056671 0.162842 0.021545
0.084259 0.169464 0.024231
0.117157 0.177094 0.027802
0.153412 0.185333 0.032227
0.194794 0.192993 0.036560
0.242157 0.199860 0.039948
0.291260 0.205658 0.043304
0.337402 0.210693 0.045837
0.380371 0.215576 0.047485
0.422058 0.220734 0.050598
0.464325 0.225922 0.053558
0.506165 0.231720 0.057037
0.545044 0.238037 0.061646
0.580078 0.244537 0.067200
0.612274 0.251343 0.073456
0.642731 0.258240 0.080261
0.672394 0.264954 0.087036
0.701813 0.271759 0.094238
0.730804 0.278076 0.100525
0.759247 0.284546 0.106873
0.786224 0.290680 0.112854
0.811401 0.296661 0.118561
0.834808 0.302673 0.123688
0.856781 0.308655 0.128967
0.877136 0.314789 0.134338
0.896606 0.320801 0.139221
0.915314 0.326935 0.144531
0.932739 0.333099 0.149658
0.949005 0.339020 0.154633
0.963593 0.344849 0.159698
0.976959 0.350464 0.164612
0.029419 0.178223 0.026794
0.044678 0.181885 0.027679
0.063293 0.186401 0.029449
0.088287 0.192627 0.032104
0.117981 0.200592 0.035614
0.151825 0.209473 0.039856
0.191254 0.218384 0.044067
0.237152 0.226501 0.047394
0.285828 0.233246 0.050507
0.332550 0.238861 0.052032
0.376160 0.243805 0.052795
0.418640 0.248657 0.054260
0.461914 0.253876 0.055695
0.504883 0.259430 0.058380
0.545044 0.265320 0.062286
0.580994 0.271698 0.067780
0.613892 0.278198 0.073456
0.644989 0.284821 0.080261
0.675323 0.291382 0.087494
0.705292 0.297791 0.094208
0.734711 0.303925 0.100922
0.763367 0.309753 0.107239
0.790344 0.315460 0.113190
0.815430 0.321075 0.118896
0.838684 0.326691 0.124329
0.860413 0.332214 0.129578
0.880524 0.337891 0.134644
0.899872 0.343475 0.139801
0.918213 0.349213 0.145111
0.935364 0.354950 0.150208
0.951355 0.360596 0.155426
0.965576 0.365936 0.160217
0.978577 0.371307 0.165131
0.041809 0.202637 0.037231
0.056030 0.205627 0.038086
0.072754 0.209778 0.039764
0.094727 0.215668 0.042297
0.121124 0.223328 0.045654
0.152435 0.232758 0.049652
0.189636 0.242798 0.054138
0.233948 0.252197 0.057648
0.281799 0.260284 0.059662
0.328674 0.266968 0.060333
0.372589 0.272278 0.060364
0.415436 0.277313 0.060364
0.459412 0.282074 0.061035
0.503357 0.287323 0.062286
0.544678 0.293152 0.065369
0.581665 0.299255 0.069519
0.615448 0.305786 0.075592
0.647278 0.312256 0.081757
0.678284 0.318726 0.088867
0.708862 0.324890 0.095490
0.738861 0.330841 0.102112
0.767670 0.336517 0.107971
0.794678 0.341766 0.113922
0.819672 0.347046 0.119934
0.842804 0.351990 0.125336
0.864258 0.357086 0.130524
0.884125 0.362244 0.135864
0.903381 0.367523 0.140991
0.921387 0.372711 0.146240
0.938171 0.377960 0.151306
0.953796 0.383209 0.156494
0.967651 0.388214 0.161499
0.980408 0.393158 0.166382
0.057159 0.226868 0.049561
0.069824 0.229492 0.050323
0.084991 0.233032 0.051117
0.103516 0.238464 0.054047
0.126617 0.246002 0.056885
0.155060 0.255615 0.060913
0.189972 0.266571 0.064697
0.232452 0.277313 0.067749
0.279388 0.287048 0.070099
0.325928 0.294769 0.071259
0.369873 0.301025 0.070709
0.412842 0.306061 0.070160
0.457123 0.310730 0.069580
0.501740 0.315704 0.069550
0.543945 0.321198 0.071259
0.581970 0.327240 0.074005
0.616638 0.333649 0.078735
0.649384 0.340393 0.084656
0.681213 0.346863 0.090668
0.712433 0.353119 0.097168
0.743011 0.358887 0.103302
0.772156 0.364319 0.109497
0.799255 0.369324 0.115356
0.824127 0.374146 0.121277
0.847046 0.378815 0.126648
0.868256 0.383301 0.132111
0.887909 0.387970 0.137390
0.906921 0.392670 0.142761
0.924744 0.397491 0.147949
0.941284 0.402283 0.153229
0.956421 0.407013 0.158356
0.969940 0.411682 0.163330
0.982391 0.416199 0.168121
0.073639 0.251007 0.062103
0.085785 0.253357 0.062744
0.098297 0.256500 0.064026
0.114319 0.261383 0.065857
0.134186 0.268524 0.068268
0.159515 0.278137 0.071747
0.192047 0.289581 0.075623
0.232727 0.301605 0.078796
0.278412 0.312836 0.081848
0.324524 0.322266 0.082855
0.368256 0.329559 0.082855
0.411194 0.335114 0.081879
0.455383 0.339844 0.080353
0.500275 0.344482 0.079315
0.543060 0.349640 0.079285
0.581879 0.355377 0.081299
0.617340 0.361786 0.084198
0.650909 0.368530 0.088867
0.683716 0.375092 0.094177
0.715820 0.381561 0.100067
0.747101 0.387451 0.105652
0.776489 0.392853 0.111694
0.803741 0.397888 0.117462
0.828522 0.402435 0.123322
0.851440 0.406738 0.128601
0.872375 0.410889 0.134308
0.891937 0.415100 0.139496
0.910736 0.419342 0.145081
0.928192 0.423645 0.150177
0.944489 0.427979 0.155396
0.959167 0.432159 0.160706
0.972351 0.436340 0.165619
0.984497 0.440369 0.170349
0.091278 0.275513 0.074463
0.101410 0.277618 0.075012
0.112488 0.280457 0.076111
0.125488 0.284882 0.077698
0.142975 0.291504 0.080292
0.165680 0.300720 0.083282
0.195862 0.312256 0.086670
0.234314 0.325226 0.090363
0.278625 0.337891 0.093048
0.324188 0.349060 0.095245
0.367889 0.357819 0.095673
0.410645 0.364349 0.094818
0.454651 0.369324 0.093079
0.499451 0.373779 0.091278
0.542389 0.378387 0.090332
0.581512 0.383636 0.090302
0.617645 0.389740 0.092072
0.652069 0.396454 0.095093
0.685760 0.403320 0.099274
0.718689 0.409973 0.103699
0.750793 0.416168 0.109100
0.780762 0.421814 0.114624
0.808167 0.426880 0.120239
0.833038 0.431427 0.125641
0.855896 0.435547 0.131470
0.876617 0.439545 0.136780
0.896118 0.443390 0.142456
0.914673 0.447144 0.147949
0.931854 0.450928 0.153229
0.947876 0.454681 0.158600
0.962067 0.458405 0.163544
0.974884 0.462097 0.168365
0.986725 0.465515 0.173279
0.108032 0.300354 0.087067
0.116669 0.302277 0.087555
0.125977 0.304993 0.088470
0.137604 0.308899 0.090332
0.152557 0.314819 0.092133
0.173157 0.323547 0.094757
0.200958 0.334930 0.097778
0.237335 0.348297 0.101105
0.280060 0.362244 0.104340
0.324860 0.375092 0.107086
0.368347 0.385590 0.108276
0.411163 0.393433 0.108276
0.455078 0.399109 0.106720
0.499664 0.403412 0.104736
0.542267 0.407623 0.102692
0.581421 0.412384 0.101440
0.617798 0.418030 0.101837
0.652832 0.424286 0.102997
0.687317 0.431091 0.105743
0.721100 0.437805 0.109528
0.753998 0.444427 0.113922
0.784515 0.450287 0.118530
0.812347 0.455719 0.123993
0.837372 0.460480 0.129242
0.860291 0.464752 0.134918
0.880920 0.468658 0.140411
0.900513 0.472290 0.145935
0.918854 0.475769 0.151581
0.935669 0.479156 0.157013
0.951355 0.482513 0.162262
0.965118 0.485626 0.167084
0.977661 0.488708 0.172028
0.989166 0.491608 0.176605
0.123779 0.325470 0.099396
0.131531 0.327484 0.100220
0.139801 0.329956 0.101074
0.150055 0.333405 0.102295
0.163361 0.338867 0.104309
0.181854 0.346832 0.106293
0.207428 0.357910 0.109009
0.241425 0.371338 0.112396
0.282288 0.386017 0.116028
0.326202 0.400330 0.119232
0.369507 0.412628 0.121338
0.412659 0.422089 0.122040
0.456879 0.428864 0.121338
0.501160 0.433624 0.119232
0.543304 0.437500 0.116730
0.581970 0.441498 0.114899
0.618286 0.446320 0.113403
0.653442 0.451996 0.113342
0.688507 0.458435 0.114410
0.723083 0.465149 0.116852
0.756744 0.471710 0.120331
0.787933 0.477966 0.124359
0.816132 0.483826 0.129272
0.841492 0.488922 0.134033
0.864471 0.493530 0.139526
0.885223 0.497620 0.145111
0.904938 0.501190 0.150482
0.923004 0.504608 0.155945
0.939728 0.507782 0.161499
0.954926 0.510712 0.166595
0.968384 0.513519 0.171539
0.980652 0.516052 0.176361
0.991699 0.518463 0.181030
0.138794 0.351318 0.112335
0.145935 0.353394 0.113068
0.153595 0.355804 0.113831
0.162933 0.359009 0.114929
0.175049 0.363831 0.116730
0.191772 0.371094 0.118500
0.215302 0.381378 0.120941
0.247009 0.394501 0.124023
0.285675 0.409546 0.127716
0.328125 0.424896 0.130981
0.371246 0.438782 0.133850
0.414856 0.449982 0.135437
0.459656 0.458282 0.135742
0.504150 0.463898 0.134460
0.545715 0.467834 0.131897
0.583740 0.471313 0.129303
0.619476 0.475250 0.126984
0.654449 0.479980 0.125610
0.689697 0.485657 0.125549
0.724701 0.491791 0.126495
0.759064 0.498291 0.128723
0.790833 0.504639 0.131897
0.819550 0.510651 0.135925
0.845306 0.516205 0.140442
0.868408 0.521210 0.145691
0.889343 0.525574 0.150787
0.909149 0.529480 0.156219
0.927124 0.532898 0.161499
0.943848 0.536011 0.166595
0.958618 0.538849 0.171783
0.971802 0.541382 0.176575
0.983765 0.543671 0.181244
0.994324 0.545715 0.185760
0.153320 0.377808 0.125671
0.160400 0.380035 0.126343
0.167755 0.382355 0.127350
0.176727 0.385406 0.128326
0.187836 0.389557 0.129639
0.203247 0.396088 0.131256
0.224884 0.405670 0.133179
0.253876 0.418152 0.136322
0.290161 0.433136 0.139374
0.330994 0.448944 0.143280
0.373627 0.464081 0.146484
0.417603 0.477112 0.149078
0.463318 0.486908 0.150208
0.508392 0.493866 0.149902
0.549683 0.498352 0.147888
0.586914 0.501587 0.144989
0.621918 0.504578 0.142029
0.656311 0.508331 0.139587
0.691406 0.512848 0.138306
0.726532 0.518250 0.137939
0.761292 0.524170 0.139099
0.793488 0.530304 0.141449
0.822571 0.536438 0.144623
0.848663 0.542114 0.148865
0.872040 0.547485 0.153290
0.893311 0.552246 0.158142
0.913208 0.556458 0.163055
0.931213 0.560181 0.168121
0.947845 0.563416 0.173004
0.962311 0.566284 0.177979
0.975250 0.568817 0.182587
0.986877 0.570953 0.187073
0.996887 0.572845 0.191467
0.168121 0.404938 0.139038
0.175171 0.407410 0.139954
0.182709 0.409851 0.140839
0.191376 0.412659 0.141754
0.201874 0.416504 0.142944
0.216217 0.422272 0.144135
0.235962 0.430817 0.146149
0.262512 0.442596 0.148743
0.296143 0.456970 0.151855
0.334869 0.472900 0.155701
0.376556 0.488800 0.159454
0.420929 0.503082 0.162628
0.467560 0.514618 0.164673
0.513519 0.523010 0.165161
0.554871 0.528473 0.164124
0.591644 0.532013 0.161774
0.625977 0.534454 0.158569
0.659637 0.537109 0.155579
0.694122 0.540436 0.153076
0.729004 0.544708 0.151642
0.763702 0.549805 0.151855
0.796143 0.555481 0.153168
0.825470 0.561249 0.155304
0.851837 0.567017 0.158722
0.875366 0.572449 0.162598
0.896942 0.577515 0.166656
0.916901 0.582031 0.171326
0.934998 0.586060 0.175873
0.951508 0.589600 0.180542
0.965729 0.592651 0.185059
0.978577 0.595276 0.189484
0.989990 0.597595 0.193573
0.999268 0.599548 0.197815
0.183594 0.432953 0.152924
0.190643 0.435486 0.153748
0.198456 0.437988 0.154846
0.207001 0.440674 0.155640
0.217285 0.444122 0.156464
0.230530 0.449127 0.157562
0.248566 0.456848 0.159149
0.272675 0.467560 0.161530
0.303589 0.481201 0.164368
0.339905 0.496735 0.168182
0.380463 0.512909 0.172150
0.424835 0.528046 0.175781
0.472321 0.540955 0.178864
0.519379 0.550964 0.180695
0.561096 0.557800 0.180664
0.597778 0.561981 0.179016
0.631653 0.564423 0.175934
0.664703 0.566315 0.172516
0.698425 0.568481 0.169281
0.732758 0.571564 0.166962
0.766937 0.575623 0.166168
0.799133 0.580383 0.166351
0.828430 0.585663 0.167786
0.855042 0.591187 0.169983
0.878632 0.596466 0.173096
0.900482 0.601593 0.176880
0.920410 0.606262 0.180817
0.938538 0.610474 0.184845
0.954773 0.614227 0.189026
0.968933 0.617645 0.193115
0.981659 0.620483 0.197144
0.992737 0.623077 0.201263
1.000000 0.625244 0.204926
0.199615 0.461212 0.166870
0.207153 0.463898 0.167877
0.215057 0.466461 0.168640
0.223602 0.469086 0.169647
0.233582 0.472107 0.170135
0.246094 0.476593 0.171143
0.262329 0.483307 0.172363
0.284180 0.493011 0.174286
0.312378 0.505646 0.177185
0.346313 0.520416 0.180908
0.385468 0.536377 0.185028
0.429657 0.551941 0.189270
0.477875 0.565918 0.192932
0.525635 0.577393 0.195435
0.567963 0.585754 0.196686
0.605011 0.591095 0.196045
0.638824 0.594055 0.193695
0.671509 0.595612 0.190216
0.704437 0.596924 0.186646
0.738007 0.598877 0.183655
0.771332 0.601746 0.181763
0.802887 0.605530 0.181244
0.831879 0.610077 0.181641
0.858307 0.614929 0.182953
0.881836 0.619904 0.185181
0.903778 0.624725 0.188019
0.923615 0.629303 0.191254
0.941772 0.633606 0.194824
0.957764 0.637573 0.198364
0.971863 0.641144 0.202240
0.984375 0.644348 0.205841
0.995087 0.647217 0.209381
1.000000 0.649750 0.213074
0.216614 0.489380 0.180878
0.224335 0.492218 0.181793
0.232239 0.494781 0.182709
0.240875 0.497192 0.183411
0.250580 0.500031 0.184082
0.262207 0.503937 0.184540
0.277161 0.509827 0.185669
0.296875 0.518341 0.187439
0.322601 0.529938 0.190308
0.354279 0.543945 0.193756
0.391876 0.559387 0.197998
0.435699 0.574982 0.202301
0.484161 0.589722 0.206482
0.532440 0.602295 0.209991
0.575256 0.612213 0.212097
0.612732 0.618927 0.212616
0.647064 0.622894 0.211060
0.679932 0.624786 0.208313
0.712433 0.625641 0.204712
0.745117 0.626587 0.201233
0.777161 0.628296 0.198700
0.807678 0.631012 0.196960
0.835938 0.634583 0.196503
0.861908 0.638702 0.197083
0.885223 0.643036 0.198273
0.907043 0.647400 0.200287
0.926758 0.651733 0.202667
0.944885 0.655823 0.205444
0.960541 0.659729 0.208374
0.974426 0.663483 0.211853
0.986816 0.666809 0.215057
0.997040 0.669922 0.218445
1.000000 0.672821 0.221588
0.234009 0.516998 0.194580
0.241852 0.519745 0.195435
0.250031 0.522308 0.196289
0.258545 0.524750 0.197113
0.267914 0.527283 0.197540
0.278809 0.530670 0.197968
0.292480 0.535858 0.198792
0.310577 0.543549 0.200653
0.333954 0.553986 0.203278
0.363586 0.567139 0.206879
0.399872 0.581909 0.210999
0.443146 0.597351 0.215363
0.491669 0.612427 0.219788
0.539795 0.625824 0.223755
0.582794 0.636993 0.226715
0.620911 0.645264 0.228271
0.655945 0.650543 0.227875
0.689545 0.653198 0.225739
0.721954 0.654175 0.222656
0.753937 0.654541 0.219147
0.784576 0.655273 0.215942
0.813690 0.656830 0.213623
0.840912 0.659271 0.212250
0.865967 0.662506 0.211792
0.888885 0.666107 0.212128
0.910400 0.669891 0.213226
0.929962 0.673676 0.214722
0.947754 0.677460 0.216736
0.963074 0.681183 0.219116
0.976837 0.684814 0.221832
0.988922 0.688232 0.224701
0.998657 0.691467 0.227722
1.000000 0.694580 0.230560
0.251526 0.543518 0.207825
0.259460 0.546234 0.208832
0.267517 0.548706 0.209595
0.276031 0.551147 0.210388
0.285187 0.553528 0.210754
0.295502 0.556641 0.211151
0.308228 0.561279 0.211914
0.324738 0.568115 0.213470
0.346283 0.577728 0.216095
0.374420 0.589935 0.219818
0.409424 0.604065 0.223785
0.452209 0.619232 0.228210
0.500214 0.634155 0.232666
0.547791 0.648254 0.236816
0.590607 0.660370 0.240570
0.629303 0.670013 0.242950
0.665222 0.676636 0.243713
0.699646 0.680481 0.242676
0.732544 0.682007 0.240051
0.763885 0.682220 0.236542
0.793335 0.682251 0.233124
0.820831 0.682770 0.230164
0.846649 0.684113 0.228027
0.870667 0.686279 0.226929
0.892944 0.689056 0.226532
0.913971 0.692108 0.226685
0.933136 0.695374 0.227356
0.950562 0.698730 0.228729
0.965576 0.702087 0.230255
0.979156 0.705444 0.232483
0.990906 0.708740 0.234680
1.000000 0.711945 0.237213
1.000000 0.715088 0.239746
0.268524 0.568695 0.220337
0.276489 0.571381 0.221405
0.284729 0.573975 0.222321
0.293243 0.576263 0.223053
0.302094 0.578674 0.223419
0.312012 0.581573 0.223755
0.323944 0.585754 0.224670
0.339172 0.592041 0.226074
0.359497 0.600861 0.228882
0.386230 0.612274 0.232330
0.420502 0.625702 0.236542
0.462555 0.640411 0.240814
0.509918 0.655304 0.245300
0.556396 0.669617 0.249481
0.598724 0.682404 0.253601
0.637665 0.693024 0.256866
0.674438 0.701019 0.258575
0.709869 0.706055 0.258392
0.743439 0.708557 0.256531
0.774445 0.709076 0.253448
0.802887 0.708710 0.249878
0.828918 0.708405 0.246552
0.853241 0.708740 0.243805
0.875916 0.709839 0.242004
0.897430 0.711731 0.240845
0.917725 0.714081 0.240295
0.936401 0.716736 0.240448
0.953339 0.719574 0.240906
0.968048 0.722534 0.242035
0.981323 0.725616 0.243317
0.992706 0.728729 0.245087
1.000000 0.731781 0.247192
1.000000 0.734894 0.249298
0.284943 0.592529 0.231964
0.293121 0.595184 0.233154
0.301331 0.597748 0.234344
0.309692 0.600128 0.235199
0.318359 0.602448 0.235687
0.327942 0.605316 0.236023
0.339264 0.609283 0.236877
0.353790 0.615082 0.238525
0.373230 0.623169 0.241150
0.398987 0.633911 0.244690
0.432648 0.646790 0.248779
0.473999 0.660950 0.253082
0.520355 0.675629 0.257416
0.565369 0.689941 0.261658
0.606934 0.703003 0.265930
0.645844 0.714325 0.269714
0.683411 0.723358 0.272308
0.719604 0.729645 0.273102
0.753998 0.733276 0.272064
0.784912 0.734497 0.269470
0.812653 0.734192 0.266022
0.837402 0.733398 0.262360
0.860413 0.732910 0.259094
0.881714 0.733124 0.256683
0.902344 0.734100 0.255005
0.921783 0.735748 0.253906
0.939911 0.737854 0.253571
0.956177 0.740234 0.253571
0.970551 0.742767 0.253876
0.983459 0.745483 0.254791
0.994324 0.748291 0.256012
1.000000 0.751129 0.257385
1.000000 0.754028 0.258972
0.300690 0.614838 0.242737
0.308716 0.617523 0.244171
0.316925 0.620117 0.245453
0.325104 0.622559 0.246399
0.333679 0.624969 0.247040
0.343048 0.627777 0.247528
0.354126 0.631561 0.248474
0.368286 0.637024 0.250183
0.387024 0.644745 0.252930
0.412323 0.654785 0.256714
0.445435 0.666992 0.260712
0.486206 0.680695 0.264893
0.530945 0.695007 0.269257
0.574463 0.709045 0.273407
0.615051 0.722229 0.277740
0.653748 0.734039 0.281738
0.691711 0.743866 0.284821
0.728546 0.751190 0.286591
0.763428 0.755951 0.286377
0.794556 0.758087 0.284363
0.821777 0.758331 0.281281
0.845886 0.757477 0.277466
0.867676 0.756470 0.273865
0.887909 0.755859 0.270935
0.907532 0.756042 0.268799
0.925995 0.757019 0.267334
0.943542 0.758514 0.266479
0.959045 0.760468 0.266022
0.972992 0.762665 0.266022
0.985474 0.765106 0.266479
0.995850 0.767670 0.267059
1.000000 0.770355 0.267975
1.000000 0.773010 0.269196
0.315399 0.635712 0.252777
0.323303 0.638397 0.254303
0.331421 0.641113 0.255798
0.339630 0.643585 0.256989
0.348236 0.646179 0.257751
0.357483 0.648987 0.258484
0.368439 0.652649 0.259521
0.382233 0.657867 0.261444
0.400787 0.665100 0.264343
0.425812 0.674652 0.268066
0.458435 0.686249 0.272125
0.498230 0.699402 0.276367
0.541260 0.713226 0.280518
0.583008 0.726959 0.284698
0.622650 0.740112 0.288818
0.660950 0.752045 0.292847
0.699036 0.762451 0.296295
0.736389 0.770752 0.298584
0.771454 0.776611 0.299133
0.802826 0.779907 0.297943
0.829926 0.780975 0.295288
