Kodak Vision2 250D (5205) - Look.cube
# Created by Benjamin (IWLTBAP) : http://luts.iwltbap.com
# Copyright: (C) Copyright 2010-2017 Triune Films and IWLTBAP SAS
# Cannot be resold, shared or otherwise redistributed
TITLE "Film Print Emulation LUTs Pack (Rec.709, sRGB, DCI-P3)"
LUT_3D_SIZE 33
0.000916 0.000916 0.000000
0.010559 0.000000 0.000000
0.026062 0.000000 0.000000
0.043304 0.000000 0.000000
0.064087 0.000000 0.000000
0.086792 0.000000 0.000000
0.113190 0.000000 0.000000
0.136536 0.000763 0.000000
0.161621 0.000000 0.000000
0.187805 0.000000 0.000000
0.215179 0.000000 0.000000
0.241364 0.000000 0.000000
0.267731 0.000000 0.000000
0.293823 0.000305 0.000000
0.322906 0.002136 0.000000
0.347382 0.003937 0.000000
0.370819 0.006409 0.000000
0.393402 0.011047 0.000000
0.415283 0.016693 0.000000
0.436249 0.023132 0.000000
0.456451 0.029114 0.000000
0.476349 0.035431 0.000000
0.497528 0.042236 0.000000
0.518677 0.049103 0.000000
0.537415 0.055756 0.000000
0.556488 0.062653 0.000000
0.575104 0.068512 0.000000
0.593048 0.072906 0.000000
0.611206 0.077362 0.000000
0.630280 0.086151 0.000000
0.649292 0.091583 0.000000
0.667297 0.094604 0.000000
0.685150 0.098450 0.000000
0.006744 0.010773 0.004028
0.010559 0.009399 0.000000
0.026886 0.008026 0.000000
0.046448 0.008423 0.000000
0.068878 0.009949 0.000000
0.092926 0.012329 0.000000
0.120941 0.014862 0.000000
0.146698 0.014587 0.000000
0.175079 0.013275 0.000000
0.202972 0.013153 0.000000
0.230530 0.013794 0.000000
0.257385 0.015015 0.000000
0.282654 0.018188 0.000000
0.312469 0.019897 0.000000
0.337067 0.021729 0.000000
0.361267 0.023224 0.000000
0.384613 0.025848 0.000000
0.406708 0.029724 0.000000
0.428009 0.034729 0.000000
0.447998 0.040619 0.000000
0.467499 0.046417 0.000000
0.486816 0.052216 0.000000
0.509766 0.058105 0.000000
0.528046 0.063995 0.000000
0.545898 0.070221 0.000000
0.563812 0.076355 0.000000
0.582031 0.084534 0.000000
0.599731 0.089539 0.000000
0.617645 0.093475 0.000000
0.636383 0.098297 0.000000
0.654968 0.103271 0.000000
0.672791 0.105804 0.000000
0.690399 0.109222 0.000000
0.007507 0.017395 0.002472
0.015228 0.020630 0.000000
0.027679 0.021484 0.000000
0.049255 0.022461 0.000000
0.073273 0.024292 0.000000
0.102020 0.026794 0.000000
0.128021 0.028442 0.000000
0.155640 0.028687 0.000000
0.185883 0.028748 0.000000
0.214294 0.030090 0.000000
0.242249 0.031677 0.000000
0.268982 0.033722 0.000000
0.295746 0.036133 0.000000
0.324158 0.038361 0.000000
0.349182 0.039337 0.000000
0.373993 0.041382 0.000000
0.397278 0.044312 0.000000
0.418976 0.048187 0.000000
0.439575 0.052917 0.000000
0.459259 0.058380 0.000000
0.478271 0.063629 0.000000
0.500031 0.068970 0.000000
0.519135 0.074249 0.000000
0.536560 0.080811 0.000000
0.553894 0.089020 0.000000
0.571350 0.094299 0.000000
0.589233 0.098907 0.000000
0.606598 0.103027 0.000000
0.624237 0.107056 0.000000
0.642609 0.111298 0.000000
0.661011 0.115662 0.000000
0.678650 0.117706 0.000000
0.695831 0.120636 0.000000
0.008881 0.028015 0.001099
0.020599 0.032715 0.000000
0.034332 0.037201 0.000000
0.053040 0.039124 0.000000
0.077911 0.041565 0.000000
0.108246 0.043518 0.000000
0.136169 0.045013 0.000000
0.164368 0.046356 0.000000
0.195679 0.047791 0.000000
0.225006 0.050049 0.000000
0.253876 0.052460 0.000000
0.280762 0.055542 0.000000
0.312469 0.057678 0.000000
0.338623 0.060455 0.000000
0.364594 0.062195 0.000000
0.389313 0.064087 0.000000
0.412170 0.066833 0.000000
0.433563 0.070282 0.000000
0.453461 0.074768 0.000000
0.472260 0.080750 0.000000
0.490631 0.088470 0.000000
0.512817 0.093475 0.000000
0.530609 0.098175 0.000000
0.547638 0.102692 0.000000
0.564392 0.107819 0.000000
0.581116 0.112915 0.000000
0.598450 0.117432 0.000000
0.615631 0.121246 0.000000
0.632965 0.124756 0.000000
0.651001 0.128418 0.000000
0.668793 0.131927 0.000000
0.685669 0.133209 0.000000
0.706207 0.135437 0.000000
0.008423 0.044525 0.000000
0.023804 0.049896 0.000000
0.041107 0.053497 0.000000
0.061951 0.058075 0.000000
0.082764 0.060211 0.000000
0.114746 0.061798 0.000000
0.144104 0.064575 0.000000
0.173584 0.066772 0.000000
0.204956 0.069183 0.000000
0.235138 0.071808 0.000000
0.264832 0.075378 0.000000
0.293304 0.079041 0.000000
0.326721 0.084839 0.000000
0.353851 0.088776 0.000000
0.379944 0.091400 0.000000
0.405151 0.093842 0.000000
0.427490 0.097229 0.000000
0.448883 0.100281 0.000000
0.468475 0.104279 0.000000
0.486694 0.108582 0.000000
0.508514 0.113342 0.000000
0.526337 0.118042 0.000000
0.543610 0.122498 0.000000
0.560089 0.126556 0.000000
0.576416 0.130981 0.000000
0.592712 0.135315 0.000000
0.609528 0.139221 0.000000
0.626312 0.142181 0.000000
0.642975 0.145081 0.000000
0.659973 0.147400 0.000000
0.677399 0.149902 0.000000
0.693939 0.150452 0.000000
0.714264 0.152039 0.000000
0.012146 0.063690 0.000000
0.033508 0.066650 0.000000
0.051758 0.070099 0.000000
0.073120 0.076599 0.000000
0.097198 0.084351 0.000000
0.121521 0.087433 0.000000
0.151642 0.090424 0.000000
0.182617 0.093109 0.000000
0.215057 0.095825 0.000000
0.245209 0.098572 0.000000
0.276611 0.103363 0.000000
0.310883 0.107330 0.000000
0.340332 0.111725 0.000000
0.368530 0.115814 0.000000
0.395172 0.119507 0.000000
0.420624 0.123108 0.000000
0.443451 0.127167 0.000000
0.464447 0.130646 0.000000
0.484009 0.134460 0.000000
0.506256 0.138367 0.000000
0.523743 0.142334 0.000000
0.540771 0.146149 0.000000
0.557312 0.149658 0.000000
0.573242 0.153107 0.000000
0.589081 0.156616 0.000000
0.604950 0.160156 0.000000
0.621216 0.163330 0.000000
0.637573 0.166046 0.000000
0.653992 0.168304 0.000000
0.670227 0.169495 0.000000
0.687073 0.171112 0.000000
0.707153 0.171021 0.000000
0.723145 0.171783 0.000000
0.023102 0.085022 0.000000
0.042938 0.088654 0.000000
0.060425 0.093109 0.000000
0.084351 0.100983 0.000000
0.115295 0.108765 0.000000
0.137054 0.112488 0.000000
0.159912 0.114471 0.000000
0.191803 0.117920 0.000000
0.226318 0.120331 0.000000
0.258545 0.123871 0.000000
0.289276 0.128784 0.000000
0.323212 0.133636 0.000000
0.352875 0.138153 0.000000
0.381897 0.142670 0.000000
0.408783 0.147339 0.000000
0.434387 0.151703 0.000000
0.457642 0.156494 0.000000
0.478699 0.160400 0.000000
0.502319 0.164124 0.000000
0.520630 0.168213 0.000000
0.537659 0.171387 0.000000
0.554565 0.174469 0.000000
0.570648 0.177612 0.000000
0.586487 0.180481 0.000000
0.601959 0.183533 0.000000
0.617401 0.186584 0.000000
0.633331 0.189301 0.000000
0.649292 0.191833 0.000000
0.665436 0.193970 0.000000
0.681519 0.194580 0.000000
0.697418 0.195312 0.000000
0.717377 0.194275 0.000000
0.732910 0.193573 0.000000
0.034546 0.104279 0.000000
0.054749 0.109741 0.000000
0.073669 0.115540 0.000000
0.102234 0.123993 0.000000
0.128784 0.133698 0.000000
0.147430 0.141510 0.000000
0.172455 0.143433 0.000000
0.201691 0.144775 0.000000
0.238708 0.149536 0.000000
0.270844 0.151672 0.000000
0.306274 0.156219 0.000000
0.336670 0.160645 0.000000
0.365692 0.165649 0.000000
0.393738 0.170380 0.000000
0.420044 0.175201 0.000000
0.445892 0.179260 0.000000
0.469208 0.183624 0.000000
0.490448 0.187317 0.000000
0.513763 0.191254 0.000000
0.532623 0.195374 0.000000
0.550018 0.199249 0.000000
0.566986 0.202606 0.000000
0.582947 0.205750 0.000000
0.598572 0.208496 0.000000
0.614136 0.210999 0.000000
0.629456 0.213715 0.000000
0.645386 0.216064 0.000000
0.661011 0.217865 0.000000
0.676727 0.219574 0.000000
0.692413 0.219696 0.000000
0.711823 0.219788 0.000000
0.727234 0.218445 0.000000
0.742676 0.216949 0.000000
0.047028 0.127289 0.000000
0.070496 0.135162 0.000000
0.092072 0.141907 0.000000
0.122223 0.150391 0.000000
0.147003 0.161316 0.000000
0.161713 0.172302 0.000000
0.180176 0.179413 0.000000
0.220886 0.178284 0.000000
0.252380 0.181000 0.000000
0.284576 0.184174 0.000000
0.318054 0.186523 0.000000
0.348145 0.190979 0.000000
0.377075 0.195221 0.000000
0.405121 0.199646 0.000000
0.431335 0.203857 0.000000
0.456146 0.207703 0.000000
0.479370 0.210907 0.000000
0.504639 0.214417 0.000000
0.524139 0.217957 0.000000
0.543060 0.221741 0.000000
0.560638 0.225739 0.000000
0.577332 0.229218 0.000000
0.593384 0.232422 0.000000
0.609161 0.235474 0.000000
0.624664 0.238007 0.000000
0.640198 0.240234 0.000000
0.655792 0.242096 0.000000
0.671204 0.243042 0.000000
0.686676 0.244446 0.000000
0.706177 0.244629 0.000000
0.721649 0.244568 0.000000
0.736603 0.242920 0.000000
0.751923 0.241272 0.000000
0.063934 0.154297 0.000000
0.089600 0.163452 0.000000
0.116333 0.169708 0.000000
0.143463 0.177185 0.000000
0.170135 0.187775 0.000000
0.187653 0.199646 0.000000
0.200226 0.210510 0.001282
0.232697 0.212555 0.004425
0.265472 0.214844 0.000000
0.295685 0.217072 0.000000
0.331055 0.218475 0.000000
0.359222 0.220398 0.000000
0.388458 0.224457 0.000000
0.414978 0.228058 0.000000
0.441254 0.232147 0.000000
0.465088 0.236420 0.000000
0.488464 0.239655 0.000000
0.513641 0.242706 0.000000
0.533508 0.245667 0.000000
0.552124 0.250305 0.000000
0.569763 0.255981 0.000000
0.586639 0.259277 0.000000
0.602936 0.262390 0.000000
0.618744 0.265442 0.000000
0.634308 0.268280 0.000000
0.649750 0.270386 0.000000
0.665649 0.272034 0.000000
0.680878 0.272705 0.000000
0.695923 0.273224 0.000000
0.715210 0.273254 0.000000
0.730652 0.273163 0.000000
0.745697 0.271393 0.000000
0.761017 0.269653 0.000000
0.086273 0.184631 0.000000
0.117676 0.193542 0.000000
0.140381 0.199066 0.000000
0.168365 0.206268 0.000000
0.195953 0.216766 0.000000
0.214447 0.228699 0.000000
0.225555 0.239288 0.000427
0.241577 0.247375 0.012482
0.283356 0.246948 0.000000
0.309479 0.255127 0.000000
0.333374 0.258057 0.000000
0.371857 0.255280 0.000000
0.399048 0.257904 0.000000
0.425964 0.261047 0.000000
0.450562 0.264191 0.000000
0.474518 0.268127 0.000000
0.500275 0.271851 0.000000
0.522064 0.275024 0.000000
0.541779 0.277832 0.000000
0.560425 0.280365 0.000000
0.578094 0.282867 0.000000
0.595062 0.285645 0.000000
0.611359 0.288269 0.000000
0.626923 0.290833 0.000000
0.642395 0.293427 0.000000
0.657593 0.295471 0.000000
0.673401 0.296906 0.000000
0.688812 0.297272 0.000000
0.708435 0.297607 0.000000
0.723846 0.297882 0.000000
0.739563 0.297791 0.000000
0.754364 0.295898 0.000000
0.769318 0.294098 0.000000
0.115204 0.214569 0.000000
0.144928 0.223724 0.000000
0.168518 0.229584 0.000000
0.197174 0.236877 0.000000
0.223511 0.246582 0.000000
0.238373 0.262146 0.000000
0.248810 0.273560 0.003265
0.260681 0.282684 0.016479
0.294128 0.284271 0.006927
0.328094 0.286224 0.000000
0.347260 0.289551 0.000000
0.368134 0.292725 0.000000
0.402527 0.292267 0.000000
0.435547 0.290710 0.000000
0.459991 0.293396 0.000000
0.483459 0.296295 0.000000
0.509827 0.299652 0.000000
0.530334 0.302582 0.000000
0.550049 0.305115 0.000000
0.568420 0.307526 0.000000
0.585876 0.309692 0.000000
0.602631 0.311981 0.000000
0.618927 0.314209 0.000000
0.634369 0.316132 0.000000
0.649658 0.318207 0.000000
0.664764 0.319946 0.000000
0.680420 0.321198 0.000000
0.695892 0.321686 0.000000
0.715698 0.321716 0.000000
0.731354 0.321289 0.000000
0.747559 0.321045 0.000000
0.762512 0.319244 0.000000
0.777557 0.317780 0.000122
0.146545 0.248657 0.000000
0.175629 0.260010 0.000000
0.198364 0.265564 0.000000
0.226166 0.272034 0.000000
0.250916 0.280609 0.000000
0.260651 0.293671 0.000000
0.271393 0.304901 0.009918
0.279358 0.314606 0.028290
0.310516 0.317535 0.017731
0.340118 0.319550 0.004028
0.364746 0.321777 0.000000
0.383331 0.324097 0.000000
0.401703 0.327667 0.000000
0.430206 0.328369 0.000000
0.460297 0.327026 0.000000
0.490387 0.326080 0.000000
0.516785 0.327972 0.000000
0.537659 0.330200 0.000000
0.558044 0.332092 0.000000
0.576202 0.334198 0.000000
0.593201 0.336029 0.000000
0.609711 0.337830 0.000000
0.626160 0.339813 0.000000
0.641846 0.341431 0.000000
0.657135 0.342926 0.000000
0.672180 0.344208 0.000000
0.687592 0.345367 0.000000
0.706757 0.346039 0.000000
0.722565 0.346039 0.000000
0.738190 0.345032 0.000000
0.754547 0.344177 0.000000
0.769958 0.341766 0.000702
0.784729 0.340393 0.002014
0.180145 0.284485 0.000000
0.206299 0.291656 0.000000
0.226776 0.296692 0.000000
0.252838 0.302887 0.000000
0.276215 0.310699 0.000000
0.283417 0.324036 0.003357
0.293091 0.335571 0.018616
0.304810 0.344696 0.034912
0.329315 0.349152 0.029663
0.351837 0.351898 0.016449
0.375000 0.354584 0.004303
0.396881 0.356018 0.000000
0.415009 0.357574 0.000000
0.433777 0.360687 0.000000
0.456116 0.362549 0.000000
0.481964 0.361877 0.000000
0.511841 0.361664 0.000000
0.537384 0.360168 0.000000
0.561981 0.359375 0.000000
0.580780 0.361389 0.000000
0.598724 0.362610 0.000000
0.616730 0.363281 0.000000
0.632782 0.364807 0.000000
0.648621 0.365967 0.000000
0.664001 0.367126 0.000000
0.679199 0.368225 0.000000
0.694397 0.369293 0.000000
0.713562 0.370056 0.000000
0.729004 0.370361 0.000000
0.744507 0.369110 0.000031
0.760498 0.367859 0.001282
0.776276 0.365051 0.002655
0.791656 0.362671 0.004028
0.212372 0.316162 0.000000
0.235077 0.322021 0.000000
0.253601 0.326508 0.000000
0.277527 0.332367 0.000000
0.302460 0.340393 0.000000
0.309998 0.353149 0.009949
0.317902 0.364502 0.025970
0.325958 0.373688 0.041626
0.346405 0.379303 0.039917
0.368134 0.382019 0.030823
0.387543 0.385071 0.019501
0.405426 0.387665 0.006927
0.423309 0.389160 0.000000
0.441376 0.390167 0.000000
0.463409 0.391510 0.000000
0.479980 0.393738 0.000000
0.505188 0.393951 0.000000
0.528107 0.393829 0.000000
0.550903 0.392853 0.000000
0.573761 0.392670 0.000000
0.597504 0.391510 0.000000
0.620148 0.389679 0.000000
0.637421 0.390198 0.000000
0.654602 0.390259 0.000000
0.669952 0.391113 0.000000
0.685242 0.392151 0.000000
0.703064 0.393127 0.000000
0.719696 0.393646 0.000000
0.734955 0.393982 0.000427
0.750275 0.392883 0.001770
0.766083 0.391571 0.003174
0.781921 0.388611 0.004639
0.797394 0.385773 0.006104
0.241455 0.346161 0.000000
0.260742 0.350922 0.000000
0.277954 0.354980 0.000000
0.303772 0.360077 0.000000
0.321503 0.368225 0.000000
0.330750 0.379700 0.014221
0.338013 0.390930 0.030823
0.345825 0.400208 0.044708
0.359222 0.407257 0.050598
0.379913 0.410553 0.045441
0.399323 0.413696 0.035278
0.417145 0.418762 0.024506
0.432953 0.421265 0.013611
0.447113 0.423065 0.002960
0.462402 0.424896 0.000000
0.486481 0.425140 0.000000
0.509460 0.425659 0.000000
0.525696 0.427246 0.000000
0.546112 0.427063 0.000000
0.567963 0.425873 0.000000
0.590973 0.424988 0.000000
0.613403 0.423676 0.000000
0.635986 0.421814 0.000000
0.656891 0.420258 0.000000
0.673920 0.420258 0.000000
0.690704 0.420135 0.000000
0.710052 0.420807 0.000000
0.724945 0.421112 0.000763
0.740326 0.421234 0.002197
0.755524 0.420227 0.003632
0.771149 0.418396 0.005096
0.787170 0.412537 0.006622
0.802765 0.409241 0.008179
0.267029 0.374451 0.000000
0.283661 0.378387 0.000000
0.303436 0.382050 0.000000
0.323181 0.386444 0.000000
0.339233 0.393890 0.000000
0.349030 0.404419 0.016815
0.355957 0.418518 0.034302
0.361725 0.428528 0.048553
0.370026 0.436554 0.059357
0.389221 0.440765 0.057892
0.408325 0.443115 0.049896
0.426392 0.445404 0.041107
0.442902 0.447479 0.032104
0.457031 0.449188 0.023987
0.470917 0.450653 0.013916
0.486267 0.452271 0.001007
0.512451 0.452667 0.000000
0.534149 0.451935 0.000000
0.549408 0.453094 0.000000
0.567169 0.453156 0.000000
0.586609 0.452301 0.000000
0.607147 0.451691 0.000000
0.628265 0.450684 0.000000
0.649872 0.449341 0.000000
0.671661 0.447510 0.000000
0.691986 0.445770 0.000000
0.713104 0.445312 0.000885
0.730072 0.444550 0.002472
0.745209 0.444366 0.003967
0.760437 0.443329 0.005493
0.775848 0.442139 0.007050
0.791992 0.439545 0.008667
0.807800 0.436798 0.010284
0.288574 0.401306 0.000000
0.308105 0.404755 0.000000
0.322937 0.408020 0.000000
0.341248 0.412048 0.000000
0.355103 0.422424 0.002319
0.364624 0.432129 0.019958
0.371521 0.442261 0.037842
0.378296 0.451233 0.051239
0.384583 0.459534 0.063446
0.399475 0.464996 0.065491
0.415863 0.468414 0.062256
0.432739 0.470551 0.056274
0.449890 0.472504 0.048920
0.464813 0.474426 0.042694
0.479187 0.475769 0.035278
0.493500 0.476929 0.025818
0.512878 0.478149 0.012634
0.531525 0.479340 0.000000
0.555939 0.477112 0.000000
0.572479 0.476837 0.000000
0.586884 0.477539 0.000000
0.604431 0.477386 0.000000
0.623352 0.477142 0.000000
0.643585 0.476654 0.000000
0.663910 0.475800 0.000000
0.684601 0.473999 0.000885
0.709930 0.471588 0.002533
0.730652 0.468933 0.004181
0.748657 0.467560 0.005768
0.765076 0.466217 0.007355
0.780487 0.465057 0.009003
0.796478 0.462830 0.010681
0.812561 0.460480 0.012390
0.310944 0.430511 0.000000
0.325470 0.433685 0.000000
0.339539 0.436676 0.000000
0.356812 0.440063 0.000000
0.369019 0.446045 0.005829
0.378510 0.454590 0.022430
0.385376 0.464172 0.040680
0.392792 0.472748 0.053284
0.398590 0.480988 0.065826
0.412048 0.486664 0.071014
0.424316 0.491699 0.074646
0.438049 0.494659 0.071869
0.454468 0.496552 0.063965
0.469940 0.498413 0.058777
0.484772 0.500092 0.053375
0.503448 0.501221 0.046478
0.517670 0.502075 0.038757
0.533447 0.502991 0.026855
0.550995 0.504181 0.008331
0.572388 0.502380 0.000275
0.592529 0.500458 0.000000
0.607269 0.501099 0.000000
0.622772 0.501373 0.000000
0.640564 0.501556 0.000000
0.659088 0.501526 0.000824
0.678284 0.500427 0.002441
0.699280 0.498932 0.004211
0.723694 0.496521 0.005890
0.746429 0.493073 0.007568
0.766174 0.490448 0.009247
0.785034 0.488037 0.010956
0.800842 0.485931 0.012726
0.816711 0.484039 0.014526
0.326111 0.454315 0.000000
0.339691 0.457184 0.000000
0.353149 0.459991 0.000000
0.369385 0.462921 0.000000
0.381592 0.468292 0.008301
0.390686 0.475983 0.024109
0.397156 0.485138 0.043579
0.404053 0.493286 0.056152
0.411041 0.500946 0.067169
0.423279 0.506866 0.074738
0.434357 0.512512 0.078827
0.444702 0.516968 0.082275
0.457397 0.519714 0.081787
0.473297 0.521545 0.077362
0.487946 0.523407 0.072540
0.506531 0.524872 0.065033
0.521606 0.525757 0.058594
0.535950 0.526398 0.051636
0.552155 0.527069 0.040955
0.569916 0.527863 0.024780
0.585999 0.527863 0.008514
0.609283 0.525085 0.006592
0.627563 0.524048 0.003326
0.641968 0.524475 0.001617
0.658234 0.524994 0.003052
0.675232 0.524841 0.004028
0.694092 0.524078 0.005859
0.717896 0.522980 0.007599
0.739044 0.520844 0.009369
0.761322 0.517395 0.011139
0.784424 0.513367 0.012939
0.804291 0.509888 0.014801
0.821564 0.507721 0.016663
0.339081 0.477234 0.000122
0.351807 0.479858 0.000671
0.364502 0.482483 0.001221
0.379761 0.485107 0.002075
0.392975 0.489563 0.009125
0.401031 0.496796 0.026093
0.405762 0.505798 0.047760
0.413696 0.513153 0.058594
0.423096 0.519897 0.066315
0.432953 0.526245 0.076752
0.443024 0.532135 0.082214
0.452118 0.537415 0.087555
0.461365 0.541412 0.091614
0.474213 0.544220 0.091736
0.488983 0.546082 0.088623
0.507416 0.547729 0.085114
0.522461 0.548981 0.080627
0.537476 0.549683 0.075073
0.552429 0.550110 0.064697
0.569946 0.550568 0.054077
0.587860 0.551056 0.040710
0.604218 0.551025 0.025208
0.622864 0.549957 0.015045
0.644348 0.547577 0.012390
0.661896 0.546783 0.010071
0.676270 0.547455 0.007172
0.693268 0.547455 0.008636
0.714905 0.547638 0.009705
0.734436 0.546875 0.011200
0.755280 0.544464 0.013031
0.777008 0.541534 0.014923
0.801025 0.536438 0.016846
0.823181 0.532318 0.018768
0.350922 0.500000 0.003510
0.362640 0.502197 0.004059
0.374237 0.504395 0.004578
0.388855 0.506744 0.005249
0.402557 0.510529 0.010712
0.409729 0.517395 0.028290
0.414642 0.525543 0.048584
0.422638 0.532654 0.060120
0.432098 0.539154 0.068939
0.442322 0.545227 0.077728
0.453094 0.550751 0.082367
0.463715 0.555908 0.086517
0.473389 0.560516 0.090973
0.482147 0.564270 0.095245
0.490906 0.567810 0.099335
0.506561 0.570251 0.100128
0.519958 0.571960 0.098511
0.535614 0.572815 0.093994
0.551880 0.573242 0.088013
0.567902 0.573547 0.081238
0.586273 0.573700 0.068268
0.604553 0.573792 0.055206
0.621765 0.573608 0.042542
0.637848 0.573425 0.026825
0.659271 0.571350 0.021576
0.679138 0.569885 0.019012
0.696564 0.569794 0.016968
0.715698 0.570984 0.014893
0.733429 0.571167 0.014923
0.751984 0.570038 0.015747
0.772339 0.568115 0.016907
0.794891 0.563904 0.018951
0.817963 0.559753 0.020905
0.361664 0.522491 0.006561
0.372101 0.524231 0.007050
0.382721 0.525940 0.007690
0.396484 0.528107 0.008636
0.410614 0.531250 0.012512
0.417084 0.537842 0.030518
0.423065 0.544922 0.048004
0.429810 0.552185 0.062439
0.439819 0.558319 0.072540
0.450867 0.563995 0.078674
0.462860 0.569214 0.081909
0.474884 0.574005 0.084717
0.486633 0.578552 0.087524
0.500641 0.583557 0.089691
0.511963 0.588959 0.091797
0.522125 0.591766 0.094055
0.532440 0.594330 0.095795
0.541077 0.597229 0.099670
0.547424 0.600586 0.106750
0.563873 0.601135 0.102386
0.582275 0.601044 0.094696
0.601593 0.600891 0.084778
0.621033 0.600616 0.071625
0.639038 0.600098 0.057709
0.655914 0.599762 0.044983
0.672516 0.599823 0.030884
0.695068 0.597931 0.029846
0.718628 0.597443 0.027588
0.736176 0.597778 0.025848
0.752014 0.597931 0.022858
0.770264 0.597137 0.021240
0.790802 0.594269 0.021820
0.812897 0.590820 0.023071
0.370239 0.544098 0.010315
0.379547 0.545593 0.010773
0.389740 0.547028 0.011261
0.402710 0.549011 0.012054
0.417633 0.551575 0.014160
0.423920 0.557770 0.031952
0.430328 0.564301 0.048798
0.435577 0.571716 0.066193
0.446320 0.577393 0.075836
0.457855 0.584839 0.080261
0.471008 0.591522 0.082153
0.484070 0.596008 0.083710
0.499664 0.600342 0.085388
0.513550 0.603851 0.086121
0.525238 0.606689 0.087189
0.536804 0.609283 0.088135
0.548492 0.611694 0.088715
0.559357 0.614319 0.090576
0.568817 0.617126 0.094208
0.576691 0.620117 0.099762
0.581787 0.623718 0.108704
0.594299 0.625244 0.109650
0.616882 0.624237 0.097900
0.637329 0.623749 0.086304
0.656281 0.623108 0.076172
0.674011 0.623077 0.061920
0.690704 0.623322 0.050446
0.713135 0.623108 0.040161
0.735016 0.621857 0.038452
0.755249 0.620697 0.035919
0.772339 0.620575 0.033203
0.789856 0.619293 0.029541
0.809479 0.617096 0.027344
0.377655 0.565399 0.014130
0.386505 0.566742 0.014587
0.396057 0.568176 0.015015
0.408264 0.570038 0.015930
0.423340 0.572174 0.016602
0.430573 0.577759 0.032410
0.437225 0.587463 0.049164
0.442688 0.594849 0.066650
0.452423 0.600616 0.078430
0.464020 0.605347 0.082153
0.478088 0.609924 0.082764
0.491913 0.614258 0.083649
0.509766 0.618347 0.083954
0.523804 0.622009 0.083771
0.536713 0.625031 0.084015
0.549133 0.627411 0.084045
0.561798 0.629669 0.083679
0.574066 0.632141 0.084137
0.585052 0.634796 0.086395
0.594879 0.637390 0.089905
0.603668 0.640167 0.095062
0.610809 0.643280 0.102386
0.616089 0.646912 0.111847
0.631012 0.647980 0.111359
0.653259 0.646973 0.099426
0.673004 0.646637 0.090271
0.691406 0.646698 0.081879
0.713287 0.646851 0.069244
0.730408 0.647217 0.056732
0.751099 0.646149 0.048889
0.772888 0.644531 0.046265
0.793549 0.642609 0.042877
0.810211 0.642059 0.039062
0.384644 0.591125 0.017822
0.393036 0.592346 0.018219
0.401764 0.593567 0.018616
0.413391 0.595245 0.019318
0.427643 0.597321 0.020294
0.436951 0.601746 0.032227
0.444122 0.607513 0.048431
0.450043 0.614105 0.065735
0.458008 0.620300 0.081360
0.470581 0.624512 0.083344
0.484894 0.628662 0.083435
0.503296 0.632751 0.083344
0.518127 0.636536 0.082581
0.533203 0.640015 0.081299
0.547882 0.643127 0.080231
0.561584 0.645569 0.079224
0.574860 0.647552 0.077911
0.588074 0.649719 0.077179
0.600677 0.652039 0.077698
0.612183 0.654388 0.079529
0.622253 0.656982 0.083649
0.631012 0.659943 0.089844
0.638306 0.663300 0.097565
0.644104 0.666992 0.107422
0.645660 0.671692 0.122284
0.668152 0.670532 0.112793
0.689270 0.670044 0.104187
0.712799 0.669983 0.095825
0.731659 0.670074 0.086792
0.749756 0.670258 0.077057
0.767242 0.670563 0.060669
0.790680 0.668457 0.056641
0.812958 0.666290 0.053345
0.390930 0.613098 0.022064
0.398712 0.614197 0.022461
0.406738 0.615356 0.022827
0.417755 0.616852 0.023346
0.431000 0.618652 0.023956
0.441406 0.622437 0.033203
0.451050 0.627136 0.045471
0.457123 0.633453 0.064026
0.463654 0.639801 0.082062
0.476654 0.644104 0.084290
0.491241 0.647980 0.083954
0.510468 0.651581 0.082458
0.526306 0.654938 0.080322
0.542053 0.658112 0.078156
0.557800 0.661316 0.076050
0.573242 0.664032 0.072052
0.587006 0.666077 0.068939
0.600525 0.668030 0.066711
0.614105 0.670105 0.065369
0.626923 0.672333 0.065857
0.638824 0.674652 0.069550
