Kodak Vision2 500T (5260) - Only color.cube
# Created by Benjamin (IWLTBAP) : http://luts.iwltbap.com
# Copyright: (C) Copyright 2010-2017 Triune Films and IWLTBAP SAS
# Cannot be resold, shared or otherwise redistributed
TITLE "Film Print Emulation LUTs Pack (Rec.709, sRGB, DCI-P3)"
LUT_3D_SIZE 9
0.000000 0.000000 0.000000
0.195343 0.059662 0.022400
0.351410 0.079651 0.048889
0.490204 0.087341 0.079254
0.595886 0.104065 0.099823
0.686554 0.114532 0.114563
0.780334 0.128357 0.131500
0.889130 0.148346 0.144989
1.000000 0.168335 0.156769
0.004242 0.062714 0.016998
0.131470 0.121979 0.018463
0.310150 0.146942 0.054962
0.469513 0.166046 0.079651
0.593658 0.188110 0.099030
0.694855 0.203674 0.116577
0.793152 0.220062 0.129761
0.901917 0.236938 0.139679
1.000000 0.250153 0.148834
0.005676 0.135406 0.042114
0.007996 0.172089 0.019348
0.268524 0.253784 0.065857
0.455688 0.271149 0.079987
0.592255 0.290222 0.099945
0.700195 0.309631 0.119690
0.805328 0.323761 0.133057
0.916046 0.334442 0.142517
1.000000 0.347504 0.155975
0.005463 0.208801 0.080902
0.005493 0.207245 0.057129
0.121704 0.338593 0.056335
0.424988 0.388428 0.085632
0.586945 0.402863 0.109955
0.702393 0.422516 0.119263
0.811279 0.436493 0.131592
0.922577 0.444580 0.141907
1.000000 0.461517 0.143890
0.010254 0.288635 0.131592
0.008301 0.283203 0.091888
0.020050 0.382599 0.074493
0.339478 0.498413 0.069458
0.559326 0.525757 0.113617
0.701294 0.539520 0.138336
0.815796 0.550690 0.141663
0.918610 0.559326 0.136475
1.000000 0.564667 0.146423
0.017181 0.382874 0.195923
0.014343 0.378967 0.142944
0.017853 0.439606 0.131683
0.208557 0.581757 0.112610
0.494476 0.630219 0.133606
0.678528 0.644989 0.158234
0.816345 0.649719 0.183746
0.928772 0.653473 0.190979
1.000000 0.653107 0.178650
0.022949 0.460114 0.244995
0.021484 0.465149 0.196045
0.023621 0.516602 0.182098
0.089691 0.647125 0.181946
0.507904 0.706696 0.177338
0.663879 0.731049 0.229034
0.796234 0.741882 0.214325
0.920135 0.745270 0.194092
1.000000 0.747650 0.188354
0.026581 0.518127 0.282013
0.025116 0.527832 0.229401
0.026550 0.562958 0.216553
0.076935 0.673462 0.216156
0.480682 0.747040 0.233215
0.666931 0.794678 0.270721
0.776947 0.815918 0.256653
0.906189 0.827301 0.208069
1.000000 0.836182 0.158966
0.031647 0.599945 0.364807
0.030914 0.605255 0.316010
0.030914 0.622040 0.288696
0.031616 0.667786 0.252014
0.115601 0.753540 0.267059
0.553345 0.821838 0.268707
0.727661 0.874634 0.236206
0.876221 0.903992 0.223572
1.000000 0.924591 0.175140
0.009369 0.012360 0.083344
0.260315 0.070984 0.132629
0.373688 0.075928 0.129333
0.506744 0.082489 0.157593
0.603577 0.103333 0.172424
0.689087 0.121368 0.185272
0.778442 0.129333 0.198090
0.883820 0.136017 0.217896
0.998627 0.164612 0.236786
0.020355 0.105652 0.160828
0.124298 0.124298 0.126221
0.314636 0.158356 0.127106
0.471741 0.181030 0.148560
0.595276 0.197937 0.171509
0.692902 0.214783 0.184998
0.789276 0.222992 0.199615
0.896881 0.239166 0.214539
1.000000 0.259186 0.226440
0.009033 0.189545 0.190216
0.008453 0.190796 0.110809
0.286407 0.262909 0.138580
0.465485 0.279480 0.156067
0.598663 0.295715 0.177765
0.704315 0.312225 0.192596
0.810669 0.320099 0.203156
0.918091 0.332245 0.211823
1.000000 0.343018 0.221466
0.012329 0.274780 0.185577
0.008331 0.245575 0.129486
0.066742 0.341034 0.130676
0.436920 0.389160 0.163513
0.591583 0.400330 0.183197
0.709900 0.413330 0.197937
0.820312 0.424042 0.206665
0.930420 0.433441 0.215485
1.000000 0.441620 0.225342
0.017212 0.352631 0.228912
0.012970 0.326385 0.171112
0.014343 0.381134 0.131195
0.320007 0.497528 0.139771
0.567322 0.519135 0.196198
0.705078 0.530640 0.212860
0.821594 0.539795 0.218719
0.930176 0.548767 0.224060
1.000000 0.549225 0.230713
0.023712 0.434662 0.277283
0.020782 0.424683 0.224731
0.019318 0.443542 0.162445
0.086761 0.574249 0.164459
0.478607 0.627136 0.197235
0.689392 0.637329 0.248016
0.826477 0.641724 0.262512
0.946198 0.645905 0.267822
1.000000 0.642883 0.252838
0.026581 0.507324 0.310669
0.025116 0.506226 0.265869
0.024353 0.516113 0.196869
0.057404 0.632507 0.204346
0.468536 0.705597 0.226898
0.662964 0.733215 0.295593
0.808868 0.743378 0.303192
0.937256 0.747131 0.295166
1.000000 0.745270 0.286316
0.028778 0.548218 0.331909
0.027283 0.552368 0.285980
0.026550 0.563873 0.228149
0.030182 0.645874 0.210297
0.398895 0.743805 0.267792
0.655853 0.798248 0.317749
0.785156 0.821014 0.329010
0.920593 0.833191 0.306030
0.999573 0.839630 0.281158
0.033051 0.611694 0.399078
0.031647 0.613007 0.352661
0.031647 0.621552 0.320465
0.031616 0.656433 0.280731
0.098053 0.746643 0.282806
0.520233 0.818359 0.312347
0.709320 0.876678 0.306702
0.866608 0.910492 0.305237
0.999664 0.927795 0.290771
0.045197 0.033203 0.179932
0.312073 0.060577 0.261810
0.450134 0.072510 0.245758
0.524323 0.082977 0.262848
0.616730 0.099915 0.273834
0.701752 0.114288 0.285187
0.789612 0.136139 0.299408
0.892639 0.150146 0.318054
0.998596 0.171234 0.327423
0.013153 0.167114 0.257324
0.034271 0.104187 0.209534
0.360748 0.154480 0.218964
0.487976 0.173157 0.242432
0.598846 0.189301 0.258453
0.693237 0.202820 0.271820
0.782562 0.219055 0.283142
0.885437 0.233276 0.294250
0.996826 0.261780 0.313354
0.023132 0.238770 0.321991
0.023926 0.208771 0.290955
0.252533 0.258514 0.240601
0.444489 0.285767 0.255280
0.581726 0.308746 0.272705
0.695038 0.326141 0.288696
0.799408 0.336975 0.301086
0.904724 0.343353 0.309296
1.000000 0.350311 0.315369
0.022339 0.311005 0.329498
0.018707 0.292786 0.279083
0.038727 0.344116 0.233124
0.416382 0.398407 0.269745
0.580688 0.412506 0.288086
0.701843 0.426422 0.300781
0.814972 0.435883 0.310272
0.923065 0.441101 0.315826
1.000000 0.446594 0.316986
0.023743 0.385529 0.306885
0.021545 0.377014 0.270599
0.020081 0.395874 0.234253
0.200836 0.495544 0.259674
0.552490 0.527191 0.291199
0.701080 0.534790 0.312805
0.825012 0.538391 0.317780
0.932434 0.546722 0.322571
1.000000 0.545013 0.323456
0.026642 0.463654 0.330353
0.025879 0.467163 0.308746
0.023682 0.471405 0.261780
0.044739 0.560852 0.248505
0.435638 0.628632 0.279419
0.681793 0.638123 0.325867
0.824890 0.638641 0.339478
0.947601 0.642883 0.346283
1.000000 0.634064 0.337341
0.029510 0.532074 0.361359
0.028778 0.537537 0.334900
0.027313 0.542297 0.279968
0.029449 0.609222 0.257751
0.378479 0.701813 0.293549
0.652466 0.738647 0.359253
0.806488 0.745178 0.388275
0.943726 0.747681 0.383484
0.999664 0.737488 0.370758
0.030945 0.565796 0.376923
0.030212 0.571259 0.343109
0.028748 0.579956 0.282196
0.030884 0.637390 0.265869
0.295227 0.741608 0.310577
0.640289 0.802094 0.364197
0.785706 0.826996 0.395538
0.927338 0.838837 0.395081
0.998749 0.842224 0.382111
0.034424 0.622314 0.434479
0.033752 0.620911 0.391418
0.033051 0.627502 0.360687
0.033051 0.651978 0.329742
0.080750 0.740479 0.328674
0.480560 0.815338 0.362976
0.700745 0.877411 0.367035
0.862823 0.915741 0.383240
0.999023 0.931427 0.383514
0.042114 0.102692 0.276978
0.281708 0.056824 0.354614
0.501831 0.072540 0.332336
0.566589 0.087067 0.342621
0.632446 0.092224 0.359528
0.711578 0.107147 0.376343
0.801361 0.129761 0.388336
0.904083 0.146881 0.407318
0.999725 0.180481 0.418030
0.020233 0.209015 0.329895
0.032837 0.119843 0.272552
0.303040 0.136230 0.347778
0.524536 0.171539 0.323944
0.617615 0.188477 0.345917
0.705872 0.199371 0.360809
0.796692 0.214203 0.369385
0.890686 0.232452 0.382568
0.994415 0.257996 0.393707
0.026062 0.272552 0.383301
0.024597 0.236084 0.349762
0.029785 0.225006 0.356445
0.466614 0.279999 0.330719
0.593506 0.299896 0.348877
0.695496 0.313538 0.364624
0.795898 0.324097 0.374969
0.894257 0.335480 0.386383
0.997070 0.359467 0.402618
0.026764 0.331879 0.402100
0.028961 0.325226 0.402130
0.035400 0.332458 0.397614
0.376343 0.391632 0.357269
0.560669 0.412506 0.373596
0.686951 0.435303 0.388641
0.803131 0.449493 0.402069
0.907684 0.455536 0.410767
0.999695 0.457520 0.410004
0.028168 0.395081 0.401398
0.028137 0.408173 0.392456
0.026672 0.418274 0.335754
0.065399 0.489380 0.359039
0.535400 0.535248 0.388550
0.692780 0.546417 0.414520
0.816010 0.551971 0.422668
0.923126 0.556030 0.428101
1.000000 0.550659 0.419403
0.028839 0.478851 0.383667
0.028809 0.495422 0.372009
0.028076 0.498505 0.342163
0.037140 0.558350 0.345032
0.346436 0.626862 0.384613
0.669495 0.646881 0.423676
0.816254 0.645844 0.446014
0.938690 0.647095 0.446564
1.000000 0.633789 0.434052
0.030975 0.546967 0.399353
0.030945 0.558075 0.389923
0.030212 0.562561 0.351440
0.031647 0.608551 0.341583
0.100342 0.693359 0.384979
0.631317 0.744415 0.439758
0.800964 0.749359 0.475739
0.940643 0.750732 0.484436
0.998962 0.735107 0.467438
0.032379 0.580688 0.414459
0.032379 0.587433 0.390594
0.030914 0.593262 0.346924
0.032349 0.637177 0.328491
0.101624 0.736115 0.378937
0.617310 0.806610 0.440918
0.785553 0.834656 0.470093
0.927917 0.845428 0.492249
0.997894 0.845001 0.487823
0.035767 0.631653 0.463470
0.034424 0.629608 0.423431
0.033752 0.633209 0.395294
0.033722 0.653870 0.368561
0.058350 0.731689 0.374542
0.418671 0.813171 0.424713
0.695862 0.879059 0.432831
0.867126 0.924500 0.470459
0.998291 0.935272 0.480347
0.036987 0.125122 0.327942
0.281464 0.059418 0.393402
0.510986 0.070526 0.375183
0.585541 0.083954 0.399414
0.643280 0.090149 0.423126
0.713501 0.101501 0.441132
0.793579 0.116760 0.456696
0.901733 0.143250 0.484467
1.000000 0.186005 0.503174
0.023865 0.239197 0.373138
0.032074 0.137726 0.332581
0.235382 0.121185 0.392944
0.510040 0.152527 0.414337
0.636139 0.177307 0.419861
0.723724 0.190247 0.440521
0.811859 0.208832 0.458923
0.907623 0.231812 0.473419
0.997559 0.257141 0.476471
0.027496 0.294556 0.424225
0.026062 0.261841 0.399841
0.024658 0.217163 0.387970
0.378265 0.261200 0.449707
0.613007 0.292694 0.417511
0.713257 0.313354 0.440125
0.810120 0.321686 0.460297
0.906616 0.330780 0.472565
0.997009 0.346893 0.474670
0.030426 0.343872 0.455444
0.032623 0.343750 0.465454
0.034027 0.325653 0.449982
0.210144 0.359039 0.474701
0.573303 0.404663 0.441132
0.695251 0.422394 0.456146
0.802185 0.435089 0.473480
0.904633 0.443634 0.484436
0.997253 0.461914 0.492523
0.031097 0.403473 0.464478
0.031799 0.425842 0.480743
0.034637 0.419739 0.473938
0.065033 0.469330 0.497253
0.501984 0.525818 0.471497
0.673370 0.542236 0.490387
0.798981 0.560608 0.503815
0.909424 0.565521 0.511292
0.999847 0.557922 0.506409
0.031738 0.485443 0.455872
0.032440 0.515259 0.454712
0.031708 0.519531 0.428894
0.041626 0.565033 0.436981
0.156799 0.619080 0.474609
0.662720 0.653046 0.513123
0.814178 0.654877 0.533905
0.935883 0.653839 0.535919
1.000000 0.639465 0.528870
0.033112 0.559845 0.445221
0.033081 0.575256 0.437805
0.033081 0.583221 0.421936
0.037079 0.619965 0.422607
0.076782 0.685883 0.465851
0.592529 0.745544 0.521454
0.796692 0.755096 0.553955
0.936523 0.756012 0.566223
0.998383 0.738861 0.554352
0.034454 0.593445 0.447998
0.033752 0.602936 0.436859
0.033051 0.608978 0.405182
0.033722 0.642548 0.391937
0.078857 0.725647 0.441498
0.573334 0.805420 0.512726
0.778473 0.845154 0.541687
0.927643 0.852417 0.569122
0.997162 0.850952 0.574127
0.037079 0.639893 0.489441
0.035767 0.639313 0.458984
0.035095 0.638519 0.423584
0.035095 0.656189 0.406616
0.040253 0.716248 0.403656
0.351227 0.809204 0.480713
0.686096 0.879608 0.501984
0.868683 0.929077 0.538422
0.997589 0.939270 0.557281
0.032074 0.139526 0.364655
0.294250 0.064148 0.432831
0.499817 0.068481 0.442688
0.590881 0.083069 0.446259
0.650574 0.090607 0.482635
0.711761 0.100403 0.506927
0.787567 0.118500 0.524353
0.883789 0.134155 0.539185
1.000000 0.171631 0.569641
0.026794 0.269379 0.417969
0.036316 0.151093 0.391388
0.193298 0.106873 0.439423
0.455048 0.132111 0.484253
0.621857 0.151794 0.504974
0.731476 0.177399 0.518921
0.823334 0.198059 0.528992
0.924377 0.222076 0.550720
1.000000 0.256165 0.556824
0.029724 0.317169 0.459290
0.028259 0.288177 0.445557
0.027588 0.226715 0.443420
0.296631 0.237610 0.492004
0.557831 0.267029 0.520569
0.729492 0.301636 0.511017
0.832062 0.314575 0.528290
0.923096 0.330475 0.544617
0.999573 0.344482 0.549744
0.031860 0.362396 0.499420
0.032593 0.360199 0.503418
0.031189 0.331848 0.485931
0.039307 0.324493 0.505951
0.489990 0.377991 0.548859
0.717957 0.412994 0.519958
0.825287 0.428009 0.535583
0.919678 0.436279 0.550903
0.998749 0.445496 0.554688
0.033966 0.411865 0.520996
0.036621 0.430267 0.542816
0.040497 0.428955 0.551697
0.045532 0.439392 0.564331
0.374451 0.487823 0.577209
0.693909 0.534027 0.544952
0.807495 0.543762 0.554443
0.902100 0.550995 0.565216
0.996918 0.554199 0.569092
0.035217 0.492554 0.524292
0.036530 0.526154 0.539124
0.037811 0.541504 0.543823
0.046753 0.559967 0.552399
0.138672 0.611633 0.586609
0.634399 0.654205 0.586029
0.793488 0.659393 0.603424
0.912048 0.661377 0.607819
0.998230 0.650879 0.598877
0.036469 0.572174 0.516144
0.037109 0.593506 0.521515
0.037109 0.607178 0.512299
0.042877 0.629578 0.514069
0.058563 0.679260 0.541840
0.497162 0.738251 0.595398
0.794434 0.765137 0.625061
0.932312 0.764648 0.636810
0.997711 0.746399 0.627777
0.036438 0.609558 0.505676
0.037079 0.622162 0.496460
0.036438 0.631866 0.483734
0.037079 0.654602 0.475037
0.051422 0.714905 0.506439
0.466827 0.796234 0.587860
0.759613 0.853699 0.611145
0.927429 0.862427 0.644623
0.996674 0.860870 0.648407
0.038361 0.651184 0.525757
0.037720 0.652527 0.503937
0.037079 0.651001 0.473969
0.036407 0.661377 0.451538
0.038361 0.712463 0.464661
0.208191 0.802612 0.537628
0.663361 0.879303 0.563110
0.865204 0.937927 0.604584
0.996918 0.946472 0.625244
0.035645 0.129272 0.392731
0.325439 0.069550 0.468475
0.514435 0.072601 0.477081
0.605499 0.084442 0.468933
0.652832 0.090210 0.512573
0.713562 0.102753 0.552887
0.780151 0.120911 0.583313
0.869751 0.136322 0.607513
0.999420 0.168335 0.628967
0.029724 0.297363 0.458496
0.045715 0.143311 0.421326
0.195312 0.100830 0.482483
0.427673 0.118958 0.514038
0.590881 0.134003 0.553467
0.719971 0.155060 0.583130
0.821747 0.178497 0.601044
0.920319 0.211243 0.616821
1.000000 0.253479 0.620209
0.031891 0.337524 0.493744
0.030457 0.300232 0.481812
0.030548 0.225220 0.488068
0.214447 0.208130 0.511688
0.497864 0.243805 0.558899
0.699860 0.273895 0.582520
0.833099 0.299072 0.594788
0.933197 0.321655 0.606659
1.000000 0.342285 0.615265
0.033997 0.379700 0.527191
0.033997 0.375549 0.533630
0.032623 0.338257 0.514557
0.033386 0.293427 0.528473
0.407440 0.342072 0.578156
0.668396 0.375397 0.596863
0.837860 0.404266 0.590973
0.941040 0.424622 0.608704
0.999786 0.445618 0.613434
0.035980 0.423889 0.559204
0.036621 0.433075 0.572083
0.036621 0.421692 0.569244
0.036652 0.407837 0.567078
0.240631 0.442932 0.601135
0.637299 0.491333 0.620819
0.833923 0.520599 0.603027
0.929810 0.542328 0.620819
0.998413 0.544586 0.622406
0.037872 0.492462 0.581482
0.039124 0.515808 0.597107
0.042328 0.532318 0.613007
0.049469 0.536194 0.630585
0.099792 0.579926 0.667816
0.570160 0.619202 0.673553
0.820465 0.644775 0.645325
0.921204 0.645386 0.649628
0.995483 0.633362 0.640289
0.039703 0.576691 0.583771
0.040985 0.599609 0.594849
0.041626 0.617950 0.605164
0.048798 0.636414 0.618225
0.077057 0.680969 0.651611
0.474396 0.734222 0.691498
0.774872 0.775757 0.701477
0.921295 0.773315 0.713470
0.997498 0.752228 0.698334
0.040955 0.625153 0.580902
0.040955 0.642548 0.587158
0.041595 0.656555 0.588470
0.040955 0.666840 0.572052
0.056793 0.714966 0.597656
0.331757 0.781342 0.648865
0.699738 0.849396 0.689209
0.928101 0.876709 0.723816
0.996033 0.875946 0.734100
0.041595 0.664246 0.585724
0.040955 0.670074 0.569244
0.040314 0.670776 0.545471
0.039001 0.671967 0.521362
0.042877 0.711060 0.531769
0.099884 0.787415 0.590088
0.597748 0.867340 0.630035
0.855621 0.939850 0.661957
0.996521 0.950714 0.695404
0.029114 0.191315 0.438385
0.373871 0.075104 0.503143
0.550385 0.083557 0.504700
0.628326 0.086273 0.505554
0.669586 0.093994 0.530884
0.714935 0.106171 0.577454
0.774475 0.122253 0.615784
0.854431 0.137878 0.651154
0.990723 0.168610 0.690582
0.031189 0.318970 0.485291
0.055023 0.115173 0.444153
0.264282 0.106567 0.520996
0.458466 0.110626 0.539825
0.587616 0.130005 0.570251
0.706085 0.148804 0.615112
0.812439 0.167084 0.643738
0.907318 0.201691 0.670990
0.998505 0.251343 0.693329
0.033295 0.358887 0.521057
0.031921 0.308014 0.504974
0.033478 0.203644 0.506622
0.240509 0.196625 0.537537
0.467651 0.223846 0.574219
0.665131 0.255249 0.613586
0.813751 0.281494 0.638397
0.921112 0.305878 0.662384
0.999268 0.340515 0.684357
0.035339 0.397034 0.553497
0.034668 0.378571 0.543365
0.034027 0.329163 0.539093
0.034119 0.267365 0.548889
0.355957 0.305237 0.584869
0.619904 0.340149 0.624237
0.809052 0.370941 0.639374
0.931671 0.398285 0.660919
0.999908 0.437103 0.675995
0.037262 0.437958 0.582825
0.037262 0.431763 0.584229
0.036652 0.411346 0.576355
0.036682 0.384094 0.573425
0.134369 0.384308 0.603760
0.576172 0.437988 0.646515
0.794220 0.469757 0.645020
0.931366 0.504425 0.657684
0.999695 0.535583 0.679657
0.040436 0.496674 0.617737
0.040436 0.504272 0.625061
0.041077 0.505249 0.630096
0.041077 0.493774 0.630554
0.046844 0.510895 0.653381
0.476929 0.564178 0.682220
0.771515 0.594604 0.675232
0.947632 0.612366 0.681915
0.998901 0.631958 0.700653
0.042297 0.572418 0.633026
0.042938 0.584259 0.642578
0.043579 0.599030 0.654114
0.049530 0.612366 0.674408
0.067780 0.642273 0.713989
0.433350 0.694000 0.775391
0.727753 0.742828 0.762909
0.939575 0.757477 0.764374
0.996857 0.742310 0.752411
0.043579 0.627808 0.640137
0.044891 0.643585 0.654327
0.046204 0.658569 0.667267
0.063110 0.688477 0.694031
0.085785 0.718323 0.717590
0.366730 0.772766 0.759399
0.647247 0.842010 0.789124
0.913361 0.895355 0.815552
0.994934 0.896210 0.834869
0.045532 0.669220 0.649323
0.045563 0.679413 0.651764
0.045563 0.686340 0.648102
0.045563 0.691315 0.641296
0.063080 0.725159 0.657928
0.079254 0.767822 0.663025
0.460968 0.838470 0.694672
0.811127 0.929382 0.725098
0.995209 0.964172 0.778015
0.028320 0.240387 0.455414
0.366150 0.074127 0.513336
0.560883 0.084930 0.512512
0.643127 0.088043 0.511780
0.690094 0.096436 0.507111
0.728302 0.108368 0.570770
0.776367 0.123230 0.623108
0.860840 0.140839 0.676605
0.997620 0.195984 0.756012
0.032623 0.341583 0.508392
0.044464 0.182495 0.497131
0.256409 0.126495 0.537140
0.489746 0.125244 0.558105
0.620178 0.128418 0.570770
0.723663 0.143707 0.619202
0.816467 0.183899 0.652679
0.903687 0.228699 0.691803
0.994843 0.275940 0.738464
0.034668 0.383026 0.542847
0.033325 0.339996 0.516968
0.040100 0.210876 0.526489
0.268066 0.198944 0.555420
0.490662 0.209351 0.571625
0.667389 0.235535 0.615143
0.804382 0.275208 0.653412
0.911591 0.313019 0.691681
0.996521 0.353668 0.735687
0.036621 0.421051 0.573090
0.035339 0.391693 0.556152
0.034729 0.328064 0.542389
0.045654 0.245758 0.556885
0.350189 0.268066 0.576630
0.603638 0.300537 0.619873
0.786407 0.346283 0.657318
0.917969 0.388733 0.693817
0.997498 0.436829 0.733154
0.039185 0.461426 0.603973
0.037903 0.438660 0.591797
0.036652 0.404297 0.571686
0.036041 0.349731 0.571503
0.038055 0.302612 0.570709
0.535156 0.371552 0.636322
0.761230 0.424164 0.666016
0.916595 0.474091 0.690277
0.998260 0.524292 0.733887
0.041046 0.514404 0.632202
0.040436 0.498596 0.626526
0.040436 0.480042 0.622192
0.039185 0.448944 0.608765
0.038574 0.423187 0.604706
0.373077 0.467255 0.659302
0.725220 0.531128 0.696838
0.915833 0.570953 0.699280
0.998749 0.609924 0.745056
0.042938 0.570953 0.645996
0.042938 0.562897 0.651703
0.043610 0.558594 0.659180
0.043610 0.554138 0.666534
0.044250 0.549561 0.671234
0.094604 0.602325 0.737671
0.659760 0.659302 0.755737
0.911896 0.684601 0.742798
0.997528 0.720673 0.789734
0.044891 0.621033 0.666138
0.045563 0.626526 0.674408
0.046234 0.634491 0.684326
0.048920 0.645142 0.696411
0.066101 0.670715 0.728455
0.097015 0.710663 0.789001
0.573242 0.772186 0.868988
0.854645 0.847198 0.854034
0.994843 0.868805 0.889893
0.047577 0.661163 0.694214
0.048279 0.669464 0.701996
0.057587 0.685547 0.719696
0.068481 0.699097 0.734497
0.079834 0.710480 0.746277
0.117889 0.751373 0.787659
0.394318 0.797943 0.833557
0.668091 0.883789 0.897156
0.993530 0.969818 0.890503
