Kodak Vision 500T (5263) - Only contrast.cube
# Created by Benjamin (IWLTBAP) : http://luts.iwltbap.com
# Copyright: (C) Copyright 2010-2017 Triune Films and IWLTBAP SAS
# Cannot be resold, shared or otherwise redistributed
TITLE "Film Print Emulation LUTs Pack (Rec.709, sRGB, DCI-P3)"
LUT_3D_SIZE 9
0.000000 0.000000 0.000000
0.106964 0.000214 0.000214
0.210114 0.000427 0.000427
0.313416 0.000671 0.000671
0.423431 0.000885 0.000885
0.528137 0.001129 0.001129
0.627777 0.001434 0.001434
0.711700 0.001801 0.001801
0.776703 0.002319 0.002319
0.000214 0.106964 0.000214
0.106934 0.106934 0.000427
0.210083 0.106934 0.000671
0.313416 0.106964 0.000916
0.423431 0.106903 0.001129
0.528107 0.106903 0.001373
0.627716 0.106934 0.001648
0.711487 0.107086 0.002045
0.776367 0.107361 0.002594
0.000427 0.210114 0.000427
0.106934 0.210083 0.000671
0.210083 0.210083 0.000916
0.313446 0.210052 0.001160
0.423431 0.209991 0.001373
0.528107 0.209991 0.001617
0.627625 0.209991 0.001923
0.711273 0.210114 0.002319
0.776031 0.210358 0.002838
0.000671 0.313416 0.000671
0.106964 0.313416 0.000916
0.210052 0.313446 0.001160
0.313477 0.313477 0.001434
0.423462 0.313446 0.001648
0.528107 0.313477 0.001892
0.627563 0.313507 0.002197
0.711060 0.313690 0.002563
0.775696 0.313995 0.003113
0.000885 0.423431 0.000885
0.106903 0.423431 0.001129
0.209991 0.423431 0.001373
0.313446 0.423462 0.001648
0.423431 0.423431 0.001862
0.528046 0.423431 0.002106
0.627441 0.423462 0.002411
0.710815 0.423615 0.002808
0.775330 0.423889 0.003326
0.001129 0.528137 0.001129
0.106903 0.528107 0.001373
0.209991 0.528107 0.001617
0.313477 0.528107 0.001892
0.423431 0.528046 0.002106
0.528046 0.528046 0.002350
0.627380 0.528046 0.002655
0.710602 0.528198 0.003052
0.774994 0.528442 0.003571
0.001434 0.627777 0.001434
0.106934 0.627716 0.001648
0.209991 0.627625 0.001923
0.313507 0.627563 0.002197
0.423462 0.627441 0.002411
0.528046 0.627380 0.002655
0.627319 0.627319 0.002930
0.710419 0.627411 0.003326
0.774689 0.627594 0.003845
0.001801 0.711700 0.001801
0.107086 0.711487 0.002045
0.210114 0.711273 0.002319
0.313690 0.711060 0.002563
0.423615 0.710815 0.002808
0.528198 0.710602 0.003052
0.627411 0.710419 0.003326
0.710358 0.710358 0.003723
0.774506 0.710419 0.004242
0.002319 0.776703 0.002319
0.107361 0.776367 0.002594
0.210358 0.776031 0.002838
0.313995 0.775696 0.003113
0.423889 0.775330 0.003326
0.528442 0.774994 0.003571
0.627594 0.774689 0.003845
0.710419 0.774506 0.004242
0.774384 0.774292 0.026672
0.000214 0.000214 0.106964
0.106934 0.000427 0.106934
0.210083 0.000671 0.106934
0.313416 0.000916 0.106964
0.423431 0.001129 0.106903
0.528107 0.001373 0.106903
0.627716 0.001648 0.106934
0.711487 0.002045 0.107086
0.776367 0.002594 0.107361
0.000427 0.106934 0.106934
0.106934 0.106934 0.106934
0.210052 0.106934 0.106934
0.313416 0.106934 0.106934
0.423431 0.106903 0.106903
0.528076 0.106903 0.106903
0.627625 0.106934 0.106934
0.711273 0.107086 0.107086
0.776031 0.107361 0.107361
0.000671 0.210083 0.106934
0.106934 0.210052 0.106934
0.210052 0.210052 0.106934
0.313446 0.210022 0.106964
0.423431 0.209961 0.106903
0.528076 0.209961 0.106903
0.627563 0.209961 0.106964
0.711060 0.210114 0.107086
0.775696 0.210358 0.107361
0.000916 0.313416 0.106964
0.106934 0.313416 0.106934
0.210022 0.313446 0.106964
0.313477 0.313477 0.106964
0.423462 0.313477 0.106934
0.528076 0.313477 0.106934
0.627502 0.313538 0.106964
0.710846 0.313721 0.107117
0.775391 0.314026 0.107391
0.001129 0.423431 0.106903
0.106903 0.423431 0.106903
0.209961 0.423431 0.106903
0.313477 0.423462 0.106934
0.423431 0.423431 0.106873
0.528046 0.423431 0.106873
0.627380 0.423462 0.106934
0.710602 0.423615 0.107056
0.774994 0.423920 0.107361
0.001373 0.528107 0.106903
0.106903 0.528076 0.106903
0.209961 0.528076 0.106903
0.313477 0.528076 0.106934
0.423431 0.528046 0.106873
0.528015 0.528015 0.106873
0.627289 0.528046 0.106934
0.710388 0.528198 0.107086
0.774658 0.528442 0.107361
0.001648 0.627716 0.106934
0.106934 0.627625 0.106934
0.209961 0.627563 0.106964
0.313538 0.627502 0.106964
0.423462 0.627380 0.106934
0.528046 0.627289 0.106934
0.627258 0.627258 0.106964
0.710205 0.627319 0.107117
0.774384 0.627533 0.107391
0.002045 0.711487 0.107086
0.107086 0.711273 0.107086
0.210114 0.711060 0.107086
0.313721 0.710846 0.107117
0.423615 0.710602 0.107056
0.528198 0.710388 0.107086
0.627319 0.710205 0.107117
0.710144 0.710144 0.107269
0.774200 0.710205 0.107544
0.002594 0.776367 0.107361
0.107361 0.776031 0.107361
0.210358 0.775696 0.107361
0.314026 0.775391 0.107391
0.423920 0.774994 0.107361
0.528442 0.774658 0.107361
0.627533 0.774384 0.107391
0.710205 0.774200 0.107544
0.774139 0.774139 0.107849
0.000427 0.000427 0.210114
0.106934 0.000671 0.210083
0.210083 0.000916 0.210083
0.313446 0.001160 0.210052
0.423431 0.001373 0.209991
0.528107 0.001617 0.209991
0.627625 0.001923 0.209991
0.711273 0.002319 0.210114
0.776031 0.002838 0.210358
0.000671 0.106934 0.210083
0.106934 0.106934 0.210052
0.210052 0.106934 0.210052
0.313446 0.106964 0.210022
0.423431 0.106903 0.209961
0.528076 0.106903 0.209961
0.627563 0.106964 0.209961
0.711060 0.107086 0.210114
0.775696 0.107361 0.210358
0.000916 0.210083 0.210083
0.106934 0.210052 0.210052
0.210022 0.210022 0.210022
0.313477 0.210022 0.210022
0.423462 0.209961 0.209961
0.528076 0.209961 0.209961
0.627502 0.209961 0.209961
0.710846 0.210083 0.210083
0.775391 0.210358 0.210358
0.001160 0.313446 0.210052
0.106964 0.313446 0.210022
0.210022 0.313477 0.210022
0.313507 0.313507 0.210022
0.423492 0.313507 0.209961
0.528076 0.313507 0.209930
0.627441 0.313568 0.209961
0.710663 0.313751 0.210083
0.775055 0.314056 0.210327
0.001373 0.423431 0.209991
0.106903 0.423431 0.209961
0.209961 0.423462 0.209961
0.313507 0.423492 0.209961
0.423462 0.423462 0.209900
0.528046 0.423462 0.209869
0.627319 0.423492 0.209900
0.710388 0.423645 0.210022
0.774689 0.423920 0.210297
0.001617 0.528107 0.209991
0.106903 0.528076 0.209961
0.209961 0.528076 0.209961
0.313507 0.528076 0.209930
0.423462 0.528046 0.209869
0.528015 0.528015 0.209869
0.627228 0.528046 0.209869
0.710175 0.528198 0.210022
0.774353 0.528442 0.210266
0.001923 0.627625 0.209991
0.106964 0.627563 0.209961
0.209961 0.627502 0.209961
0.313568 0.627441 0.209961
0.423492 0.627319 0.209900
0.528046 0.627228 0.209869
0.627197 0.627197 0.209900
0.709991 0.627258 0.210022
0.774048 0.627472 0.210297
0.002319 0.711273 0.210114
0.107086 0.711060 0.210114
0.210083 0.710846 0.210083
0.313751 0.710663 0.210083
0.423645 0.710388 0.210022
0.528198 0.710175 0.210022
0.627258 0.709991 0.210022
0.709930 0.709930 0.210175
0.773865 0.709991 0.210419
0.002838 0.776031 0.210358
0.107361 0.775696 0.210358
0.210358 0.775391 0.210358
0.314056 0.775055 0.210327
0.423920 0.774689 0.210297
0.528442 0.774353 0.210266
0.627472 0.774048 0.210297
0.709991 0.773865 0.210419
0.773804 0.773804 0.210693
0.000671 0.000671 0.313416
0.106964 0.000916 0.313416
0.210052 0.001160 0.313446
0.313477 0.001434 0.313477
0.423462 0.001648 0.313446
0.528107 0.001892 0.313477
0.627563 0.002197 0.313507
0.711060 0.002563 0.313690
0.775696 0.003113 0.313995
0.000916 0.106964 0.313416
0.106934 0.106934 0.313416
0.210022 0.106964 0.313446
0.313477 0.106964 0.313477
0.423462 0.106934 0.313477
0.528076 0.106934 0.313477
0.627502 0.106964 0.313538
0.710846 0.107117 0.313721
0.775391 0.107391 0.314026
0.001160 0.210052 0.313446
0.106964 0.210022 0.313446
0.210022 0.210022 0.313477
0.313507 0.210022 0.313507
0.423492 0.209961 0.313507
0.528076 0.209930 0.313507
0.627441 0.209961 0.313568
0.710663 0.210083 0.313751
0.775055 0.210327 0.314056
0.001434 0.313477 0.313477
0.106964 0.313477 0.313477
0.210022 0.313507 0.313507
0.313538 0.313538 0.313538
0.423492 0.313538 0.313538
0.528076 0.313538 0.313538
0.627350 0.313599 0.313599
0.710449 0.313782 0.313782
0.774719 0.314087 0.314087
0.001648 0.423462 0.313446
0.106934 0.423462 0.313477
0.209961 0.423492 0.313507
0.313538 0.423492 0.313538
0.423462 0.423462 0.313507
0.528046 0.423462 0.313538
0.627228 0.423492 0.313599
0.710175 0.423645 0.313782
0.774353 0.423950 0.314087
0.001892 0.528107 0.313477
0.106934 0.528076 0.313477
0.209930 0.528076 0.313507
0.313538 0.528076 0.313538
0.423462 0.528046 0.313538
0.528015 0.528015 0.313568
0.627167 0.528046 0.313629
0.709961 0.528168 0.313812
0.774017 0.528442 0.314117
0.002197 0.627563 0.313507
0.106964 0.627502 0.313538
0.209961 0.627441 0.313568
0.313599 0.627350 0.313599
0.423492 0.627228 0.313599
0.528046 0.627167 0.313629
0.627136 0.627136 0.313690
0.709778 0.627197 0.313873
0.773712 0.627411 0.314178
0.002563 0.711060 0.313690
0.107117 0.710846 0.313721
0.210083 0.710663 0.313751
0.313782 0.710449 0.313782
0.423645 0.710175 0.313782
0.528168 0.709961 0.313812
0.627197 0.709778 0.313873
0.709717 0.709717 0.314056
0.773529 0.709778 0.314362
0.003113 0.775696 0.313995
0.107391 0.775391 0.314026
0.210327 0.775055 0.314056
0.314087 0.774719 0.314087
0.423950 0.774353 0.314087
0.528442 0.774017 0.314117
0.627411 0.773712 0.314178
0.709778 0.773529 0.314362
0.773468 0.773468 0.314667
0.000885 0.000885 0.423431
0.106903 0.001129 0.423431
0.209991 0.001373 0.423431
0.313446 0.001648 0.423462
0.423431 0.001862 0.423431
0.528046 0.002106 0.423431
0.627441 0.002411 0.423462
0.710815 0.002808 0.423615
0.775330 0.003326 0.423889
0.001129 0.106903 0.423431
0.106903 0.106903 0.423431
0.209961 0.106903 0.423431
0.313477 0.106934 0.423462
0.423431 0.106873 0.423431
0.528046 0.106873 0.423431
0.627380 0.106934 0.423462
0.710602 0.107056 0.423615
0.774994 0.107361 0.423920
0.001373 0.209991 0.423431
0.106903 0.209961 0.423431
0.209961 0.209961 0.423462
0.313507 0.209961 0.423492
0.423462 0.209900 0.423462
0.528046 0.209869 0.423462
0.627319 0.209900 0.423492
0.710388 0.210022 0.423645
0.774689 0.210297 0.423920
0.001648 0.313446 0.423462
0.106934 0.313477 0.423462
0.209961 0.313507 0.423492
0.313538 0.313538 0.423492
0.423462 0.313507 0.423462
0.528046 0.313538 0.423462
0.627228 0.313599 0.423492
0.710175 0.313782 0.423645
0.774353 0.314087 0.423950
0.001862 0.423431 0.423431
0.106873 0.423431 0.423431
0.209900 0.423462 0.423462
0.313507 0.423462 0.423462
0.423431 0.423431 0.423431
0.527985 0.423431 0.423431
0.627136 0.423462 0.423462
0.709930 0.423615 0.423615
0.773987 0.423920 0.423920
0.002106 0.528046 0.423431
0.106873 0.528046 0.423431
0.209869 0.528046 0.423462
0.313538 0.528046 0.423462
0.423431 0.527985 0.423431
0.527954 0.527954 0.423431
0.627045 0.527985 0.423462
0.709717 0.528137 0.423615
0.773651 0.528381 0.423920
0.002411 0.627441 0.423462
0.106934 0.627380 0.423462
0.209900 0.627319 0.423492
0.313599 0.627228 0.423492
0.423462 0.627136 0.423462
0.527985 0.627045 0.423462
0.627014 0.627014 0.423523
0.709534 0.627075 0.423676
0.773346 0.627289 0.423950
0.002808 0.710815 0.423615
0.107056 0.710602 0.423615
0.210022 0.710388 0.423645
0.313782 0.710175 0.423645
0.423615 0.709930 0.423615
0.528137 0.709717 0.423615
0.627075 0.709534 0.423676
0.709473 0.709473 0.423828
0.773163 0.709534 0.424103
0.003326 0.775330 0.423889
0.107361 0.774994 0.423920
0.210297 0.774689 0.423920
0.314087 0.774353 0.423950
0.423920 0.773987 0.423920
0.528381 0.773651 0.423920
0.627289 0.773346 0.423950
0.709534 0.773163 0.424103
0.773102 0.773102 0.424408
0.001129 0.001129 0.528137
0.106903 0.001373 0.528107
0.209991 0.001617 0.528107
0.313477 0.001892 0.528107
0.423431 0.002106 0.528046
0.528046 0.002350 0.528046
0.627380 0.002655 0.528046
0.710602 0.003052 0.528198
0.774994 0.003571 0.528442
0.001373 0.106903 0.528107
0.106903 0.106903 0.528076
0.209961 0.106903 0.528076
0.313477 0.106934 0.528076
0.423431 0.106873 0.528046
0.528015 0.106873 0.528015
0.627289 0.106934 0.528046
0.710388 0.107086 0.528198
0.774658 0.107361 0.528442
0.001617 0.209991 0.528107
0.106903 0.209961 0.528076
0.209961 0.209961 0.528076
0.313507 0.209930 0.528076
0.423462 0.209869 0.528046
0.528015 0.209869 0.528015
0.627228 0.209869 0.528046
0.710175 0.210022 0.528198
0.774353 0.210266 0.528442
0.001892 0.313477 0.528107
0.106934 0.313477 0.528076
0.209930 0.313507 0.528076
0.313538 0.313538 0.528076
0.423462 0.313538 0.528046
0.528015 0.313568 0.528015
0.627167 0.313629 0.528046
0.709961 0.313812 0.528168
0.774017 0.314117 0.528442
0.002106 0.423431 0.528046
0.106873 0.423431 0.528046
0.209869 0.423462 0.528046
0.313538 0.423462 0.528046
0.423431 0.423431 0.527985
0.527954 0.423431 0.527954
0.627045 0.423462 0.527985
0.709717 0.423615 0.528137
0.773651 0.423920 0.528381
0.002350 0.528046 0.528046
0.106873 0.528015 0.528015
0.209869 0.528015 0.528015
0.313568 0.528015 0.528015
0.423431 0.527954 0.527954
0.527954 0.527954 0.527954
0.626984 0.527985 0.527985
0.709503 0.528107 0.528107
0.773315 0.528381 0.528381
0.002655 0.627380 0.528046
0.106934 0.627289 0.528046
0.209869 0.627228 0.528046
0.313629 0.627167 0.528046
0.423462 0.627045 0.527985
0.527985 0.626984 0.527985
0.626923 0.626923 0.528015
0.709320 0.627014 0.528137
0.773010 0.627197 0.528412
0.003052 0.710602 0.528198
0.107086 0.710388 0.528198
0.210022 0.710175 0.528198
0.313812 0.709961 0.528168
0.423615 0.709717 0.528137
0.528107 0.709503 0.528107
0.627014 0.709320 0.528137
0.709259 0.709259 0.528290
0.772827 0.709320 0.528534
0.003571 0.774994 0.528442
0.107361 0.774658 0.528442
0.210266 0.774353 0.528442
0.314117 0.774017 0.528442
0.423920 0.773651 0.528381
0.528381 0.773315 0.528381
0.627197 0.773010 0.528412
0.709320 0.772827 0.528534
0.772797 0.772797 0.528809
0.001434 0.001434 0.627777
0.106934 0.001648 0.627716
0.209991 0.001923 0.627625
0.313507 0.002197 0.627563
0.423462 0.002411 0.627441
0.528046 0.002655 0.627380
0.627319 0.002930 0.627319
0.710419 0.003326 0.627411
0.774689 0.003845 0.627594
0.001648 0.106934 0.627716
0.106934 0.106934 0.627625
0.209961 0.106964 0.627563
0.313538 0.106964 0.627502
0.423462 0.106934 0.627380
0.528046 0.106934 0.627289
0.627258 0.106964 0.627258
0.710205 0.107117 0.627319
0.774384 0.107391 0.627533
0.001923 0.209991 0.627625
0.106964 0.209961 0.627563
0.209961 0.209961 0.627502
0.313568 0.209961 0.627441
0.423492 0.209900 0.627319
0.528046 0.209869 0.627228
0.627197 0.209900 0.627197
0.709991 0.210022 0.627258
0.774048 0.210297 0.627472
0.002197 0.313507 0.627563
0.106964 0.313538 0.627502
0.209961 0.313568 0.627441
0.313599 0.313599 0.627350
0.423492 0.313599 0.627228
0.528046 0.313629 0.627167
0.627136 0.313690 0.627136
0.709778 0.313873 0.627197
0.773712 0.314178 0.627411
0.002411 0.423462 0.627441
0.106934 0.423462 0.627380
0.209900 0.423492 0.627319
0.313599 0.423492 0.627228
0.423462 0.423462 0.627136
0.527985 0.423462 0.627045
0.627014 0.423523 0.627014
0.709534 0.423676 0.627075
0.773346 0.423950 0.627289
0.002655 0.528046 0.627380
0.106934 0.528046 0.627289
0.209869 0.528046 0.627228
0.313629 0.528046 0.627167
0.423462 0.527985 0.627045
0.527985 0.527985 0.626984
0.626923 0.528015 0.626923
0.709320 0.528137 0.627014
0.773010 0.528412 0.627197
0.002930 0.627319 0.627319
0.106964 0.627258 0.627258
0.209900 0.627197 0.627197
0.313690 0.627136 0.627136
0.423523 0.627014 0.627014
0.528015 0.626923 0.626923
0.626892 0.626892 0.626892
0.709137 0.626953 0.626953
0.772705 0.627167 0.627167
0.003326 0.710419 0.627411
0.107117 0.710205 0.627319
0.210022 0.709991 0.627258
0.313873 0.709778 0.627197
0.423676 0.709534 0.627075
0.528137 0.709320 0.627014
0.626953 0.709137 0.626953
0.709076 0.709076 0.627045
0.772552 0.709137 0.627228
0.003845 0.774689 0.627594
0.107391 0.774384 0.627533
0.210297 0.774048 0.627472
0.314178 0.773712 0.627411
0.423950 0.773346 0.627289
0.528412 0.773010 0.627197
0.627167 0.772705 0.627167
0.709137 0.772552 0.627228
0.772491 0.772491 0.627441
0.001801 0.001801 0.711700
0.107086 0.002045 0.711487
0.210114 0.002319 0.711273
0.313690 0.002563 0.711060
0.423615 0.002808 0.710815
0.528198 0.003052 0.710602
0.627411 0.003326 0.710419
0.710358 0.003723 0.710358
0.774506 0.004242 0.710419
0.002045 0.107086 0.711487
0.107086 0.107086 0.711273
0.210114 0.107086 0.711060
0.313721 0.107117 0.710846
0.423615 0.107056 0.710602
0.528198 0.107086 0.710388
0.627319 0.107117 0.710205
0.710144 0.107269 0.710144
0.774200 0.107544 0.710205
0.002319 0.210114 0.711273
0.107086 0.210114 0.711060
0.210083 0.210083 0.710846
0.313751 0.210083 0.710663
0.423645 0.210022 0.710388
0.528198 0.210022 0.710175
0.627258 0.210022 0.709991
0.709930 0.210175 0.709930
0.773865 0.210419 0.709991
0.002563 0.313690 0.711060
0.107117 0.313721 0.710846
0.210083 0.313751 0.710663
0.313782 0.313782 0.710449
0.423645 0.313782 0.710175
0.528168 0.313812 0.709961
0.627197 0.313873 0.709778
0.709717 0.314056 0.709717
0.773529 0.314362 0.709778
0.002808 0.423615 0.710815
0.107056 0.423615 0.710602
0.210022 0.423645 0.710388
0.313782 0.423645 0.710175
0.423615 0.423615 0.709930
0.528137 0.423615 0.709717
0.627075 0.423676 0.709534
0.709473 0.423828 0.709473
0.773163 0.424103 0.709534
0.003052 0.528198 0.710602
0.107086 0.528198 0.710388
0.210022 0.528198 0.710175
0.313812 0.528168 0.709961
0.423615 0.528137 0.709717
0.528107 0.528107 0.709503
0.627014 0.528137 0.709320
0.709259 0.528290 0.709259
0.772827 0.528534 0.709320
0.003326 0.627411 0.710419
0.107117 0.627319 0.710205
0.210022 0.627258 0.709991
0.313873 0.627197 0.709778
0.423676 0.627075 0.709534
0.528137 0.627014 0.709320
0.626953 0.626953 0.709137
0.709076 0.627045 0.709076
0.772552 0.627228 0.709137
0.003723 0.710358 0.710358
0.107269 0.710144 0.710144
0.210175 0.709930 0.709930
0.314056 0.709717 0.709717
0.423828 0.709473 0.709473
0.528290 0.709259 0.709259
0.627045 0.709076 0.709076
0.709015 0.709015 0.709015
0.772369 0.709076 0.709076
0.004242 0.774506 0.710419
0.107544 0.774200 0.710205
0.210419 0.773865 0.709991
0.314362 0.773529 0.709778
0.424103 0.773163 0.709534
0.528534 0.772827 0.709320
0.627228 0.772552 0.709137
0.709076 0.772369 0.709076
0.772308 0.772308 0.709137
0.002319 0.002319 0.776672
0.107361 0.002594 0.776367
0.210358 0.002838 0.776031
0.313995 0.003113 0.775696
0.423889 0.003326 0.775330
0.528442 0.003571 0.774994
0.627594 0.003845 0.774689
0.710419 0.004242 0.774506
0.774445 0.004761 0.774445
0.002594 0.107361 0.776367
0.107361 0.107361 0.776031
0.210358 0.107361 0.775696
0.314026 0.107391 0.775391
0.423920 0.107361 0.774994
0.528442 0.107361 0.774658
0.627533 0.107391 0.774384
0.710205 0.107544 0.774200
0.774139 0.107849 0.774139
0.002838 0.210358 0.776031
0.107361 0.210358 0.775696
0.210358 0.210358 0.775391
0.314056 0.210327 0.775055
0.423920 0.210297 0.774689
0.528442 0.210266 0.774353
0.627472 0.210297 0.774048
0.709991 0.210419 0.773865
0.773804 0.210693 0.773804
0.003113 0.313995 0.775696
0.107391 0.314026 0.775391
0.210327 0.314056 0.775055
0.314087 0.314087 0.774719
0.423950 0.314087 0.774353
0.528442 0.314117 0.774017
0.627411 0.314178 0.773712
0.709778 0.314362 0.773529
0.773468 0.314667 0.773468
0.003326 0.423889 0.775330
0.107361 0.423920 0.774994
0.210297 0.423920 0.774689
0.314087 0.423950 0.774353
0.423920 0.423920 0.773987
0.528381 0.423920 0.773651
0.627289 0.423950 0.773346
0.709534 0.424103 0.773163
0.773102 0.424408 0.773102
0.003571 0.528442 0.774994
0.107361 0.528442 0.774658
0.210266 0.528442 0.774353
0.314117 0.528442 0.774017
0.423920 0.528381 0.773651
0.528381 0.528381 0.773315
0.627197 0.528412 0.773010
0.709320 0.528534 0.772827
0.772797 0.528809 0.772797
0.003845 0.627594 0.774689
0.107391 0.627533 0.774384
0.210297 0.627472 0.774048
0.314178 0.627411 0.773712
0.423950 0.627289 0.773346
0.528412 0.627197 0.773010
0.627167 0.627167 0.772705
0.709137 0.627228 0.772552
0.772491 0.627441 0.772491
0.004242 0.710419 0.774506
0.107544 0.710205 0.774200
0.210419 0.709991 0.773865
0.314362 0.709778 0.773529
0.424103 0.709534 0.773163
0.528534 0.709320 0.772827
0.627228 0.709137 0.772552
0.709076 0.709076 0.772369
0.772308 0.709137 0.772308
0.004761 0.774445 0.774445
0.107849 0.774139 0.774139
0.210693 0.773804 0.773804
0.314667 0.773468 0.773468
0.424408 0.773102 0.773102
0.528809 0.772797 0.772797
0.627441 0.772491 0.772491
0.709137 0.772308 0.772308
0.772278 0.772278 0.772278
