Kodak Vision2 500T (5218) - Only color.cube
# Created by Benjamin (IWLTBAP) : http://luts.iwltbap.com
# Copyright: (C) Copyright 2010-2017 Triune Films and IWLTBAP SAS
# Cannot be resold, shared or otherwise redistributed
TITLE "Film Print Emulation LUTs Pack (Rec.709, sRGB, DCI-P3)"
LUT_3D_SIZE 33
0.002350 0.001556 0.001556
0.028625 0.001007 0.001312
0.060730 0.001648 0.001007
0.094147 0.003693 0.000702
0.123810 0.006683 0.000427
0.151031 0.010101 0.000183
0.175964 0.013672 0.000000
0.199310 0.014893 0.000000
0.221588 0.017181 0.000000
0.242767 0.017242 0.000000
0.263092 0.018311 0.000000
0.283081 0.020233 0.000305
0.301849 0.021088 0.000885
0.320160 0.023621 0.002625
0.337799 0.025330 0.003723
0.355103 0.026184 0.004913
0.371887 0.027893 0.006195
0.388214 0.027893 0.006287
0.404297 0.029572 0.006348
0.420227 0.029572 0.006378
0.436127 0.030426 0.006439
0.451904 0.030426 0.006500
0.467896 0.032135 0.006561
0.484100 0.032135 0.006622
0.500183 0.032959 0.006683
0.516327 0.034668 0.006775
0.532440 0.035492 0.006836
0.548004 0.037201 0.006897
0.562775 0.038879 0.006958
0.577026 0.038849 0.006989
0.590515 0.039703 0.007050
0.603333 0.041382 0.007111
0.615814 0.041351 0.007141
0.002045 0.027496 0.015045
0.024231 0.030151 0.009735
0.053680 0.032806 0.005096
0.086578 0.037109 0.002441
0.117432 0.039673 0.000732
0.147064 0.042236 0.000275
0.174103 0.045471 0.000000
0.199829 0.047791 0.000000
0.224091 0.049316 0.000000
0.247162 0.050812 0.000000
0.269165 0.051514 0.000000
0.290161 0.052948 0.000885
0.310120 0.054382 0.002655
0.329041 0.055756 0.003754
0.347260 0.057129 0.004974
0.364868 0.057129 0.005035
0.381836 0.057129 0.005096
0.398590 0.057129 0.006409
0.415070 0.057098 0.006470
0.431366 0.055725 0.006531
0.447662 0.055725 0.006592
0.463959 0.054352 0.006653
0.480499 0.054321 0.006714
0.497162 0.052917 0.006775
0.513641 0.052917 0.006836
0.530334 0.052917 0.005554
0.546417 0.054321 0.005615
0.561920 0.054321 0.005676
0.576721 0.054321 0.005737
0.590942 0.055695 0.005768
0.604370 0.055695 0.005829
0.617371 0.057068 0.005859
0.630005 0.057037 0.005920
0.001617 0.056763 0.037537
0.019745 0.060791 0.031067
0.046875 0.063446 0.024597
0.078125 0.067902 0.017334
0.110779 0.071533 0.010559
0.141479 0.073914 0.004456
0.170898 0.077362 0.002533
0.198639 0.080139 0.000366
0.225311 0.082306 0.000305
0.250641 0.084412 0.000244
0.274506 0.087036 0.000854
0.296844 0.088043 0.000854
0.317810 0.089050 0.002716
0.337555 0.090057 0.003876
0.356476 0.091064 0.005096
0.374390 0.091064 0.005188
0.391998 0.090057 0.005219
0.409058 0.089050 0.005280
0.425873 0.088043 0.005341
0.442657 0.085449 0.005371
0.459381 0.083344 0.005432
0.476318 0.081207 0.005493
0.493317 0.080139 0.005524
0.510284 0.077362 0.005585
0.527466 0.076233 0.005646
0.544098 0.075104 0.005707
0.560181 0.073944 0.005737
0.575714 0.073944 0.005798
0.590576 0.073944 0.005859
0.604767 0.073944 0.005890
0.618317 0.073944 0.005920
0.631256 0.073914 0.005981
0.643829 0.073914 0.006012
0.001221 0.086548 0.059509
0.013519 0.090637 0.049591
0.040100 0.094147 0.040497
0.068909 0.098022 0.032196
0.100739 0.102203 0.024841
0.132751 0.106232 0.017853
0.164948 0.109680 0.009674
0.195221 0.113464 0.004730
0.224365 0.116699 0.003693
0.252228 0.119446 0.002686
0.278564 0.121765 0.002716
0.302856 0.123291 0.002747
0.325104 0.124786 0.003906
0.346069 0.125519 0.003967
0.365601 0.126251 0.005249
0.384186 0.125519 0.005310
0.402191 0.124756 0.005371
0.419800 0.123260 0.005432
0.437103 0.120972 0.005493
0.454193 0.118652 0.005524
0.471527 0.115082 0.005585
0.488800 0.112640 0.005646
0.506317 0.108887 0.005676
0.523743 0.106323 0.005737
0.541168 0.103271 0.005798
0.557800 0.100555 0.005829
0.573944 0.098267 0.005890
0.589478 0.097321 0.005920
0.604279 0.096375 0.005981
0.618408 0.095428 0.004700
0.631897 0.094452 0.004730
0.644989 0.093475 0.004761
0.657745 0.093475 0.004791
0.000854 0.113831 0.079590
0.005981 0.118256 0.069214
0.031891 0.122925 0.059631
0.056305 0.127075 0.048859
0.088501 0.131500 0.038788
0.121918 0.135742 0.030487
0.155365 0.139862 0.021912
0.188416 0.143860 0.015594
0.220581 0.148376 0.008759
0.251373 0.151825 0.005005
0.280701 0.154572 0.003906
0.307312 0.156952 0.003967
0.331573 0.159027 0.004028
0.353943 0.160187 0.005310
0.374390 0.160767 0.005402
0.393860 0.160187 0.005463
0.412415 0.158997 0.005524
0.430542 0.157532 0.005585
0.448395 0.155151 0.005646
0.466248 0.152405 0.005707
0.483917 0.148682 0.005737
0.501770 0.145172 0.005798
0.519745 0.141266 0.005859
0.537598 0.137238 0.005890
0.554779 0.133789 0.005951
0.571533 0.130249 0.005981
0.587677 0.127319 0.006042
0.603149 0.123993 0.004730
0.617828 0.121704 0.004791
0.631897 0.120178 0.004822
0.645508 0.118622 0.004852
0.658661 0.116638 0.004883
0.671539 0.115021 0.004913
0.000549 0.138824 0.097839
0.001373 0.142853 0.088745
0.023834 0.147064 0.078461
0.045197 0.152100 0.067230
0.072723 0.156708 0.054962
0.107147 0.161194 0.043518
0.141968 0.166382 0.032410
0.177643 0.170837 0.024109
0.212585 0.175690 0.017212
0.246857 0.180115 0.010406
0.279510 0.184692 0.006470
0.309509 0.187653 0.005280
0.336456 0.190552 0.005371
0.360565 0.191986 0.005463
0.382538 0.192932 0.005554
0.403198 0.193146 0.005615
0.422638 0.192444 0.005676
0.441437 0.190765 0.005737
0.459991 0.188843 0.005829
0.478333 0.185883 0.005859
0.496674 0.182373 0.005920
0.514923 0.178284 0.005981
0.533325 0.174072 0.006042
0.551117 0.169769 0.006073
0.568512 0.165894 0.006134
0.585327 0.161591 0.006165
0.601318 0.157501 0.004852
0.616638 0.154205 0.004883
0.631348 0.150513 0.004944
0.645355 0.147369 0.004974
0.659058 0.144470 0.005005
0.672272 0.141876 0.005035
0.685303 0.139191 0.005066
0.000275 0.159760 0.113892
0.000244 0.164093 0.105286
0.013580 0.168579 0.095917
0.033447 0.173523 0.086060
0.057404 0.178589 0.072815
0.090485 0.183502 0.059875
0.125671 0.188995 0.047272
0.163239 0.194763 0.035278
0.201202 0.200745 0.025085
0.238373 0.206085 0.017456
0.274780 0.211060 0.012085
0.308411 0.215240 0.006683
0.338593 0.218689 0.005493
0.365417 0.221497 0.005585
0.389435 0.223083 0.005676
0.411469 0.223877 0.005768
0.432220 0.223663 0.005859
0.451965 0.222870 0.005920
0.471252 0.220886 0.005981
0.490356 0.218445 0.006042
0.509155 0.215179 0.006104
0.528168 0.211609 0.006165
0.546631 0.207764 0.006226
0.564697 0.203400 0.006256
0.582184 0.198914 0.006317
0.598816 0.194275 0.006348
0.614807 0.189514 0.005035
0.630188 0.185089 0.005066
0.644745 0.180542 0.005096
0.658966 0.176422 0.005127
0.672546 0.172424 0.005157
0.685883 0.168335 0.005188
0.699036 0.164703 0.005188
0.000000 0.178436 0.128662
0.000031 0.182770 0.120728
0.003510 0.187531 0.112671
0.023712 0.192596 0.102142
0.043640 0.197540 0.090424
0.071533 0.203247 0.076752
0.107849 0.209198 0.062256
0.146179 0.215576 0.047333
0.185852 0.221893 0.035339
0.225555 0.228363 0.025146
0.265564 0.234222 0.017670
0.303375 0.239929 0.010956
0.337250 0.244568 0.006897
0.367371 0.248383 0.005707
0.393982 0.250793 0.005829
0.418060 0.252472 0.005920
0.440552 0.252960 0.006012
0.461487 0.252472 0.006104
0.481873 0.251251 0.006165
0.501709 0.249207 0.006226
0.521362 0.246765 0.006317
0.540802 0.243774 0.006378
0.559509 0.240204 0.006409
0.577789 0.236176 0.006470
0.595398 0.231506 0.006500
0.612183 0.226898 0.006561
0.628204 0.221802 0.006561
0.643463 0.216736 0.006592
0.658203 0.211975 0.006622
0.672363 0.206848 0.006653
0.686157 0.201782 0.006683
0.699615 0.196533 0.006714
0.712921 0.191620 0.006744
0.000000 0.195587 0.142426
0.000000 0.199738 0.135406
0.000000 0.203979 0.127228
0.013611 0.209015 0.118011
0.031586 0.214294 0.106262
0.054382 0.220093 0.092499
0.088287 0.226288 0.077423
0.126312 0.233215 0.062317
0.167267 0.240234 0.046478
0.209137 0.247711 0.032593
0.251892 0.254700 0.024261
0.293640 0.261444 0.016571
0.331604 0.267334 0.011169
0.365540 0.272430 0.007141
0.395569 0.276062 0.005951
0.422394 0.278717 0.006042
0.446960 0.280029 0.006165
0.469727 0.280457 0.006256
0.491455 0.280029 0.006348
0.512390 0.278839 0.006409
0.532776 0.276733 0.006500
0.552551 0.274170 0.006561
0.571655 0.270935 0.006622
0.590302 0.267365 0.006653
0.607941 0.263245 0.006714
0.624939 0.258514 0.006744
0.641144 0.253540 0.006775
0.656494 0.248230 0.006805
0.671387 0.242615 0.006836
0.685760 0.237213 0.006866
0.699799 0.231415 0.008270
0.713501 0.225281 0.008301
0.727112 0.219330 0.008331
0.000000 0.210907 0.153870
0.000000 0.214874 0.148468
0.000000 0.219147 0.140472
0.002045 0.223572 0.131958
0.022369 0.229034 0.120789
0.041107 0.234924 0.108032
0.068542 0.241364 0.092560
0.105927 0.248474 0.076843
0.146118 0.255981 0.060059
0.189545 0.264008 0.043732
0.233856 0.272156 0.031708
0.278839 0.280090 0.022430
0.321289 0.287323 0.014069
0.359772 0.293579 0.010040
0.393524 0.298615 0.007385
0.423798 0.302307 0.006165
0.451111 0.304932 0.006287
0.476257 0.306213 0.007782
0.499664 0.306580 0.007904
0.521820 0.306030 0.007965
0.543182 0.304871 0.008057
0.563324 0.302734 0.008118
0.582886 0.300201 0.008209
0.601715 0.296967 0.008240
0.619751 0.293274 0.008301
0.637024 0.288971 0.008331
0.653442 0.283966 0.008392
0.669189 0.278839 0.011230
0.684357 0.273285 0.011261
0.699097 0.267273 0.011292
0.713379 0.260895 0.011292
0.727539 0.254456 0.011322
0.741333 0.247650 0.011353
0.000000 0.225525 0.164551
0.000000 0.228973 0.159058
0.000000 0.232971 0.152679
0.000000 0.237244 0.144714
0.010864 0.242310 0.134766
0.029114 0.248138 0.122345
0.051697 0.254669 0.107208
0.084808 0.261963 0.091553
0.124115 0.269745 0.074341
0.167236 0.278290 0.056915
0.213013 0.287323 0.041016
0.259857 0.296082 0.028961
0.306488 0.304596 0.020477
0.349274 0.312256 0.012939
0.387299 0.318817 0.010284
0.421570 0.323761 0.007629
0.452393 0.327545 0.007812
0.480438 0.329987 0.007935
0.506195 0.331238 0.008057
0.530029 0.331451 0.010986
0.552277 0.330841 0.011078
0.573151 0.329529 0.011139
0.593201 0.327637 0.011200
0.612396 0.324921 0.011261
0.630768 0.321533 0.012695
0.648376 0.317383 0.012726
0.665161 0.313141 0.012787
0.681335 0.308075 0.012817
0.696991 0.302612 0.012817
0.712128 0.296448 0.014191
0.727020 0.290131 0.014191
0.741608 0.283295 0.014221
0.755890 0.276367 0.014221
0.000000 0.238861 0.174438
0.000000 0.241943 0.169342
0.000000 0.245453 0.163208
0.000000 0.249786 0.155914
0.001984 0.254578 0.147247
0.020416 0.260193 0.135468
0.038025 0.266632 0.121613
0.065887 0.273956 0.106354
0.102325 0.281921 0.088989
0.144165 0.290924 0.071075
0.189514 0.300385 0.052795
0.237335 0.310028 0.038269
0.287079 0.319580 0.027130
0.334229 0.328400 0.019470
0.377014 0.336456 0.013184
0.415558 0.343048 0.010559
0.450348 0.348145 0.010742
0.481842 0.351746 0.010895
0.510529 0.353943 0.011017
0.536621 0.355072 0.012543
0.560059 0.355164 0.012634
0.582001 0.354401 0.012695
0.602417 0.352997 0.014130
0.622192 0.350647 0.014160
0.640930 0.347839 0.014221
0.658875 0.344360 0.015533
0.676147 0.340363 0.015533
0.692871 0.335724 0.015564
0.709106 0.330536 0.017883
0.724915 0.324768 0.017883
0.740326 0.318481 0.017883
0.755402 0.311920 0.017883
0.770477 0.304871 0.018890
0.000000 0.251678 0.183228
0.000000 0.254547 0.178162
0.000000 0.257874 0.173187
0.000000 0.261780 0.166443
0.000000 0.266418 0.158783
0.010925 0.271698 0.148468
0.027802 0.278076 0.136169
0.048981 0.285156 0.120850
0.081573 0.293365 0.104126
0.120209 0.302185 0.086304
0.164703 0.311890 0.067627
0.213013 0.322266 0.050232
0.263794 0.332733 0.035522
0.315247 0.342987 0.024384
0.362793 0.352234 0.018433
0.405701 0.360352 0.013428
0.444763 0.366821 0.012207
0.480377 0.371948 0.012390
0.512512 0.375244 0.013916
0.541290 0.377350 0.014038
0.566681 0.378082 0.015411
0.589722 0.377960 0.015472
0.611115 0.376953 0.017883
0.631226 0.375092 0.017914
0.650421 0.372742 0.017944
0.668793 0.369568 0.018951
0.686676 0.365845 0.018951
0.703888 0.361694 0.019867
0.720734 0.356934 0.019867
0.737244 0.351685 0.019867
0.753235 0.345764 0.020782
0.769104 0.339600 0.020782
0.784698 0.333008 0.020782
0.000000 0.264191 0.191925
0.000000 0.266876 0.187164
0.000000 0.269684 0.182037
0.000000 0.273376 0.176208
0.000000 0.277588 0.168823
0.001923 0.283051 0.160187
0.019104 0.288910 0.149414
0.036896 0.295868 0.135498
0.061584 0.303802 0.119324
0.097534 0.312714 0.101410
0.140472 0.322601 0.082977
0.187408 0.333313 0.064026
0.238861 0.344452 0.046661
0.292694 0.355652 0.032776
0.344635 0.366364 0.024445
0.392151 0.375885 0.018585
0.435608 0.384125 0.015015
0.475494 0.390564 0.015198
0.511688 0.395325 0.015320
0.543762 0.398560 0.017853
0.571564 0.400238 0.018951
0.596283 0.400757 0.018982
0.618744 0.400177 0.019928
0.639618 0.398895 0.019928
0.659271 0.396606 0.020844
0.678223 0.393951 0.020844
0.696503 0.390594 0.022705
0.714355 0.386841 0.022705
0.731934 0.382385 0.022705
0.748993 0.377563 0.023651
0.765747 0.372223 0.023621
0.782227 0.366333 0.023621
0.798676 0.360352 0.023621
0.000000 0.276428 0.199493
0.000000 0.278778 0.195221
0.000000 0.281586 0.190796
0.000000 0.284912 0.185333
0.000000 0.288879 0.179138
0.000000 0.293884 0.171143
0.008057 0.299744 0.161865
0.026520 0.306458 0.150024
0.046173 0.314270 0.134857
0.076538 0.322876 0.118164
0.116211 0.332703 0.099091
0.162140 0.343536 0.080078
0.212524 0.355164 0.061035
0.267303 0.367218 0.043945
0.322998 0.379120 0.031891
0.375061 0.390228 0.024475
0.422882 0.399994 0.019806
0.467041 0.408173 0.018829
0.507660 0.414490 0.018921
0.543793 0.418854 0.019928
0.574646 0.421631 0.020874
0.601593 0.422852 0.020874
0.625519 0.422913 0.022766
0.647308 0.421967 0.023682
0.667816 0.420166 0.023682
0.687225 0.417755 0.023682
0.706024 0.414886 0.024628
0.724487 0.411316 0.024628
0.742554 0.407440 0.025543
0.760193 0.402985 0.025543
0.777740 0.398224 0.025543
0.794922 0.393005 0.025543
0.812012 0.387512 0.025543
0.000000 0.288330 0.207123
0.000000 0.290710 0.202850
0.000000 0.293213 0.198639
0.000000 0.296234 0.193695
0.000000 0.300110 0.188538
0.000000 0.304871 0.181549
0.001892 0.310425 0.173462
0.019043 0.316803 0.163239
0.034149 0.324463 0.150055
0.058685 0.332855 0.134186
0.094330 0.342499 0.115784
0.137146 0.353333 0.096191
0.186157 0.365112 0.077057
0.240509 0.377716 0.057129
0.298706 0.390839 0.042114
0.354889 0.403351 0.031006
0.406799 0.414825 0.024536
0.455292 0.424561 0.022705
0.500336 0.432617 0.020874
0.540924 0.438385 0.022766
0.575500 0.442383 0.022766
0.605194 0.444611 0.023712
0.631256 0.445465 0.024658
0.654388 0.445038 0.025574
0.675720 0.443756 0.025574
0.695801 0.441620 0.027435
0.715179 0.439087 0.027435
0.734131 0.436005 0.027435
0.752777 0.432434 0.027435
0.771149 0.428467 0.027435
0.789154 0.424072 0.027435
0.807068 0.419312 0.027435
0.824677 0.414429 0.027435
0.000000 0.300262 0.214020
0.000000 0.302521 0.210327
0.000000 0.304871 0.206116
0.000000 0.307739 0.201813
0.000000 0.311432 0.196930
0.000000 0.315918 0.191010
0.000000 0.321198 0.184174
0.008148 0.327637 0.175232
0.026459 0.334717 0.164337
0.044678 0.342957 0.150085
0.073730 0.352325 0.132812
0.113892 0.362823 0.113770
0.160553 0.374786 0.093750
0.213501 0.387695 0.073914
0.272003 0.401520 0.054688
0.331696 0.415283 0.041260
0.387726 0.428284 0.032013
0.440216 0.440063 0.027374
0.489532 0.449890 0.024628
0.534882 0.457397 0.024628
0.573853 0.462860 0.024658
0.606995 0.466278 0.025604
0.635590 0.468018 0.027466
0.660522 0.468292 0.027466
0.683075 0.467529 0.028412
0.704071 0.465973 0.028412
0.724091 0.463745 0.028412
0.743591 0.460876 0.028412
0.762604 0.457825 0.028412
0.781525 0.454132 0.028412
0.800140 0.450256 0.027496
0.818542 0.446106 0.027496
0.836823 0.441772 0.027496
0.000000 0.312195 0.221375
0.000000 0.314331 0.217255
0.000000 0.316559 0.213440
0.000000 0.319366 0.209320
0.000000 0.322754 0.204895
0.000000 0.327148 0.200134
0.000000 0.332397 0.194122
0.001892 0.338348 0.186951
0.018982 0.345428 0.176971
0.034058 0.353302 0.164642
0.057007 0.362366 0.149506
0.092255 0.372589 0.131439
0.135803 0.384369 0.110413
0.187042 0.397461 0.090179
0.244232 0.411682 0.069946
0.305969 0.426392 0.053040
0.365845 0.440979 0.039429
0.422058 0.454498 0.032043
0.475311 0.466309 0.028381
0.525269 0.475647 0.027466
0.569153 0.482758 0.027466
0.606384 0.487610 0.028412
0.637970 0.490509 0.028442
0.665344 0.491699 0.029388
0.689575 0.491608 0.029388
0.711792 0.490509 0.029388
0.732574 0.488617 0.029388
0.752686 0.486328 0.028442
0.772369 0.483551 0.028442
0.791595 0.480347 0.028473
0.810883 0.476990 0.027527
0.829712 0.473328 0.025665
0.848450 0.469452 0.025696
0.000000 0.324432 0.228210
0.000000 0.326202 0.224304
0.000000 0.328461 0.220459
0.000000 0.331146 0.216705
0.000000 0.334595 0.212860
0.000000 0.338562 0.208740
0.000000 0.343781 0.203461
0.000000 0.349670 0.197388
0.011078 0.356323 0.189240
0.026398 0.364136 0.178711
0.043182 0.372833 0.165741
0.072266 0.382904 0.148926
0.112823 0.394226 0.129669
0.160950 0.407318 0.108307
0.216248 0.421631 0.087006
0.278290 0.437134 0.067871
0.341278 0.452850 0.052216
0.400940 0.468140 0.039490
0.457611 0.481781 0.033020
0.511963 0.493256 0.029358
0.561218 0.502228 0.029388
0.602966 0.508545 0.029388
0.638397 0.512756 0.029388
0.668610 0.514984 0.029419
0.694916 0.515656 0.029419
0.718750 0.515228 0.029419
0.740784 0.513916 0.029419
0.761627 0.511993 0.028473
0.781860 0.509644 0.027557
0.801758 0.506927 0.027557
0.821381 0.503937 0.025696
0.840790 0.500763 0.024780
0.859863 0.497375 0.023865
0.000000 0.336517 0.234772
0.000000 0.338440 0.231201
0.000000 0.340576 0.227692
0.000000 0.343231 0.223938
0.000000 0.346527 0.220459
0.000000 0.350494 0.216888
0.000000 0.355469 0.212463
0.000000 0.361267 0.207550
0.001892 0.367828 0.200592
0.018921 0.375305 0.191925
0.032867 0.383972 0.180420
0.055695 0.393524 0.166290
0.091309 0.404602 0.148651
0.135773 0.417267 0.126770
0.189148 0.431732 0.104767
0.249084 0.447662 0.084259
0.313904 0.464447 0.065002
0.376892 0.481140 0.050507
0.436890 0.496704 0.039520
0.495026 0.510040 0.034943
0.549500 0.521027 0.031250
0.596405 0.529053 0.031281
0.636108 0.534637 0.029419
0.669830 0.538086 0.029419
0.698975 0.539612 0.029419
0.724854 0.539978 0.029449
0.748383 0.539185 0.028503
0.770477 0.537628 0.027588
0.791473 0.535675 0.025726
0.812103 0.533417 0.024811
0.832184 0.530853 0.023865
0.851929 0.528107 0.022949
0.871368 0.524994 0.021118
0.000000 0.349213 0.242218
0.000000 0.351044 0.238312
0.000000 0.353058 0.234619
0.000000 0.355560 0.231354
0.000000 0.358887 0.228210
0.000000 0.362885 0.225189
0.000000 0.367798 0.221558
0.000000 0.373352 0.217255
0.000000 0.379822 0.211700
0.011139 0.387207 0.204102
0.026306 0.395569 0.194366
0.043091 0.405060 0.182098
0.072205 0.415741 0.166321
0.112793 0.428040 0.147461
0.162109 0.442322 0.124939
0.219604 0.458466 0.102509
0.284424 0.475952 0.081421
0.350372 0.493866 0.064301
0.413452 0.511108 0.049683
0.474945 0.526367 0.039581
0.534271 0.539032 0.034973
0.586700 0.549011 0.032227
0.631256 0.556183 0.031311
0.668884 0.560852 0.029449
0.701263 0.563477 0.029449
0.729858 0.564575 0.028534
0.755493 0.564392 0.027618
0.779114 0.563354 0.025757
0.801331 0.561768 0.024811
0.822632 0.559784 0.022980
0.843262 0.557495 0.021118
0.863281 0.554993 0.020203
0.883026 0.552338 0.018341
0.000000 0.362274 0.249603
0.000000 0.364105 0.245880
0.000000 0.366211 0.242218
0.000000 0.368713 0.238953
0.000000 0.371979 0.236145
0.000000 0.375763 0.233582
0.000000 0.380676 0.230835
0.000000 0.386169 0.227325
0.000000 0.392700 0.222839
0.003601 0.399902 0.216705
0.018860 0.408264 0.208557
0.032776 0.417480 0.198059
0.055603 0.427979 0.184265
0.091248 0.440063 0.167145
0.136414 0.454224 0.146240
0.191040 0.470245 0.122681
0.253845 0.488129 0.099701
0.321930 0.506989 0.079041
0.388153 0.525452 0.061310
0.452484 0.542389 0.049744
0.515930 0.556976 0.039642
0.574249 0.568695 0.035950
0.623962 0.577301 0.032257
0.666046 0.583313 0.031342
0.702057 0.587006 0.028564
0.733734 0.588959 0.027618
0.761902 0.589417 0.025787
0.787567 0.588776 0.024841
0.811371 0.587494 0.022980
0.833588 0.585785 0.021149
0.854736 0.583649 0.019287
0.875153 0.581360 0.018372
0.895142 0.578918 0.015594
0.000000 0.376160 0.257721
0.000000 0.377899 0.253998
0.000000 0.380005 0.250366
0.000000 0.382507 0.247284
0.000000 0.385803 0.244629
0.000000 0.389648 0.242371
0.000000 0.394440 0.240417
0.000000 0.400177 0.237640
0.000000 0.406494 0.234100
0.000000 0.413940 0.229279
0.011200 0.422028 0.222473
0.026245 0.431244 0.213867
0.042999 0.441772 0.201874
0.072144 0.453674 0.187073
0.112732 0.467560 0.168213
0.164032 0.483673 0.145630
0.224335 0.501709 0.121124
0.292816 0.521088 0.098267
0.362305 0.540680 0.077850
0.429749 0.559143 0.061371
0.496704 0.575256 0.049774
0.560181 0.588409 0.041534
0.615173 0.598511 0.036011
0.661774 0.606018 0.032288
0.701569 0.610840 0.029510
0.736633 0.613617 0.028595
0.767761 0.614746 0.025818
0.795776 0.614624 0.023956
0.821381 0.613556 0.021179
0.844940 0.611969 0.019318
0.866699 0.609894 0.018402
0.887360 0.607635 0.015625
0.907684 0.605133 0.013519
0.000000 0.391052 0.266693
0.000000 0.392883 0.262878
0.000000 0.394806 0.259460
0.000000 0.397461 0.256378
0.000000 0.400696 0.254150
0.000000 0.404816 0.252655
0.000000 0.409576 0.250977
0.000000 0.415314 0.249146
0.000000 0.421875 0.246490
0.000000 0.429230 0.243011
0.003662 0.437622 0.237640
0.018768 0.446930 0.230316
0.033783 0.457581 0.220490
0.055542 0.469391 0.207214
0.092072 0.483154 0.190491
0.140320 0.499237 0.169556
0.198090 0.517487 0.146271
0.265442 0.537323 0.121124
0.338013 0.557709 0.098267
0.408386 0.577118 0.079071
0.478149 0.594513 0.064453
0.546387 0.609222 0.053345
0.606232 0.620789 0.045288
0.657043 0.629486 0.038818
0.700623 0.635468 0.035126
0.738922 0.639099 0.031403
0.773041 0.640900 0.028625
0.803833 0.641174 0.024933
0.831299 0.640320 0.023071
0.856232 0.638672 0.020294
0.878784 0.636566 0.016571
0.899963 0.634125 0.014679
0.920624 0.631439 0.011261
0.000000 0.407318 0.276642
0.000000 0.408966 0.273071
0.000000 0.411072 0.269562
0.000000 0.413666 0.266663
0.000000 0.417114 0.264862
0.000000 0.421448 0.263580
0.000000 0.426483 0.262878
0.000000 0.432373 0.261749
0.000000 0.439056 0.260315
0.000000 0.446686 0.257690
0.000366 0.455383 0.253693
0.013672 0.464966 0.248047
0.026123 0.475708 0.239929
0.044342 0.487854 0.228607
0.076233 0.501709 0.213531
0.120697 0.517944 0.194916
0.177063 0.536285 0.173401
0.243713 0.556335 0.149048
0.317841 0.577209 0.124969
0.391418 0.597412 0.102509
0.463257 0.615906 0.085419
0.534790 0.631744 0.071533
0.598816 0.644531 0.060730
0.653229 0.654327 0.050812
0.699890 0.661224 0.044403
0.741119 0.665619 0.038879
0.778137 0.667969 0.035156
0.811401 0.668579 0.031464
0.841034 0.667938 0.027771
0.867340 0.666290 0.023132
0.890717 0.663971 0.019440
0.912506 0.661102 0.015747
0.933899 0.658051 0.011444
0.000000 0.425262 0.288116
0.000000 0.427002 0.284515
0.000000 0.429169 0.281250
0.000000 0.432037 0.278687
0.000000 0.435669 0.277283
0.000000 0.440125 0.276489
0.000000 0.445496 0.276489
0.000000 0.451691 0.276215
0.000000 0.458801 0.275696
0.000000 0.466736 0.274231
0.000000 0.475800 0.271698
0.006622 0.485687 0.267334
0.021759 0.496796 0.260712
0.037354 0.509308 0.251282
0.065399 0.523621 0.238342
0.108459 0.539856 0.221649
0.163971 0.558563 0.201965
0.229950 0.578888 0.179810
0.305237 0.599915 0.156708
0.380829 0.620728 0.133667
0.454285 0.639954 0.113861
0.527924 0.656525 0.096313
0.594574 0.670135 0.083191
0.651337 0.680603 0.072876
0.700287 0.688385 0.063080
0.743835 0.693573 0.055145
0.783081 0.696533 0.048157
0.818481 0.697510 0.042633
0.850128 0.696960 0.038025
0.877808 0.695129 0.031555
0.902313 0.692383 0.026001
0.924805 0.688965 0.020447
0.946747 0.685364 0.014923
0.000000 0.445129 0.301331
0.000000 0.447205 0.297821
0.000000 0.449646 0.294861
0.000000 0.452728 0.292725
0.000000 0.456635 0.291748
0.000000 0.461609 0.291748
0.000000 0.467438 0.292236
0.000000 0.473999 0.293182
0.000000 0.481506 0.293427
0.000000 0.489929 0.293182
0.000000 0.499359 0.291595
0.002014 0.509705 0.288452
0.018585 0.521240 0.283081
0.035156 0.534180 0.275269
0.061096 0.548889 0.264435
0.104675 0.565674 0.250397
0.160828 0.584473 0.232819
0.226868 0.604919 0.212982
0.302826 0.626282 0.192230
0.378998 0.647400 0.170990
0.453125 0.666809 0.150757
