Kodak Eastman EXR 100T (5248) - Only color.cube
# Created by Benjamin (IWLTBAP) : http://luts.iwltbap.com
# Copyright: (C) Copyright 2010-2017 Triune Films and IWLTBAP SAS
# Cannot be resold, shared or otherwise redistributed
TITLE "Film Print Emulation LUTs Pack (Rec.709, sRGB, DCI-P3)"
LUT_3D_SIZE 33
0.004517 0.002777 0.021332
0.021973 0.002594 0.021088
0.044891 0.002411 0.020844
0.068451 0.002197 0.020569
0.094849 0.001984 0.020294
0.125336 0.001740 0.019989
0.156677 0.001495 0.019653
0.188782 0.001251 0.019348
0.221771 0.000977 0.019012
0.254059 0.000732 0.018707
0.285522 0.000488 0.018402
0.318390 0.000244 0.018097
0.350800 0.000000 0.017792
0.383087 0.000000 0.017487
0.415070 0.000000 0.017212
0.447052 0.000000 0.016907
0.479645 0.000000 0.016632
0.511993 0.000000 0.016327
0.544098 0.000000 0.016052
0.575684 0.000000 0.015808
0.607300 0.000000 0.015533
0.639526 0.000000 0.015289
0.671997 0.000000 0.015045
0.703949 0.000000 0.014801
0.734802 0.000000 0.014557
0.765442 0.000000 0.014343
0.796417 0.000000 0.014130
0.827301 0.000000 0.013947
0.858398 0.000000 0.013733
0.891113 0.000000 0.013519
0.923798 0.000000 0.013336
0.959167 0.000000 0.013153
0.999023 0.000000 0.012909
0.004364 0.015289 0.021118
0.022064 0.015350 0.020905
0.044952 0.015381 0.020630
0.068542 0.015411 0.020386
0.094971 0.015442 0.020081
0.125458 0.015411 0.019775
0.156830 0.015381 0.019470
0.188934 0.015350 0.019135
0.221924 0.015320 0.018829
0.254181 0.015320 0.018524
0.285675 0.015289 0.018219
0.318512 0.015259 0.017914
0.350922 0.015259 0.017609
0.383179 0.015228 0.017303
0.415192 0.015198 0.017029
0.447174 0.015198 0.016724
0.479767 0.015167 0.016449
0.512115 0.015167 0.016174
0.544220 0.015167 0.015900
0.575806 0.015137 0.015656
0.607391 0.015137 0.015381
0.639648 0.015137 0.015137
0.672119 0.015137 0.014893
0.704071 0.015106 0.014648
0.734894 0.015137 0.014435
0.765533 0.015137 0.014221
0.796509 0.015137 0.014008
0.827393 0.015137 0.013824
0.858490 0.015137 0.013641
0.891205 0.015137 0.013428
0.923889 0.015137 0.013245
0.959290 0.015137 0.013062
0.999115 0.015076 0.012848
0.004089 0.049622 0.020782
0.022003 0.049713 0.020569
0.044891 0.049774 0.020294
0.068481 0.049835 0.020050
0.094940 0.049896 0.019745
0.125458 0.049896 0.019440
0.156799 0.049896 0.019135
0.188904 0.049896 0.018829
0.221893 0.049896 0.018494
0.254150 0.049896 0.018188
0.285645 0.049896 0.017883
0.318481 0.049896 0.017578
0.350891 0.049896 0.017303
0.383179 0.049896 0.016998
0.415161 0.049896 0.016724
0.447144 0.049896 0.016449
0.479767 0.049896 0.016144
0.512085 0.049896 0.015900
0.544189 0.049896 0.015625
0.575775 0.049896 0.015381
0.607361 0.049896 0.015106
0.639618 0.049896 0.014862
0.672089 0.049896 0.014648
0.704041 0.049896 0.014404
0.734863 0.049896 0.014191
0.765503 0.049896 0.013977
0.796478 0.049927 0.013794
0.827362 0.049927 0.013611
0.858490 0.049927 0.013428
0.891174 0.049927 0.013245
0.923889 0.049927 0.013062
0.959320 0.049896 0.012878
0.999146 0.049835 0.012665
0.003815 0.080963 0.020477
0.021973 0.081055 0.020233
0.044830 0.081116 0.019989
0.068420 0.081146 0.019714
0.094910 0.081177 0.019440
0.125458 0.081177 0.019135
0.156799 0.081177 0.018829
0.188934 0.081146 0.018524
0.221924 0.081146 0.018188
0.254150 0.081116 0.017883
0.285675 0.081116 0.017609
0.318512 0.081085 0.017303
0.350891 0.081085 0.016998
0.383179 0.081055 0.016724
0.415192 0.081055 0.016449
0.447174 0.081024 0.016174
0.479767 0.081024 0.015900
0.512115 0.080994 0.015625
0.544220 0.080994 0.015381
0.575775 0.080994 0.015137
0.607391 0.080963 0.014893
0.639648 0.080963 0.014648
0.672089 0.080933 0.014404
0.704041 0.080933 0.014191
0.734863 0.080933 0.013977
0.765503 0.080902 0.013794
0.796478 0.080902 0.013611
0.827362 0.080902 0.013428
0.858490 0.080902 0.013245
0.891205 0.080872 0.013092
0.923920 0.080872 0.012909
0.959381 0.080811 0.012726
0.999207 0.080750 0.012543
0.003540 0.110443 0.020172
0.021942 0.110504 0.019928
0.044800 0.110565 0.019684
0.068390 0.110596 0.019409
0.094910 0.110626 0.019135
0.125458 0.110596 0.018829
0.156830 0.110596 0.018524
0.188934 0.110565 0.018219
0.221954 0.110535 0.017914
0.254150 0.110535 0.017609
0.285675 0.110504 0.017334
0.318512 0.110474 0.017029
0.350922 0.110474 0.016754
0.383209 0.110443 0.016449
0.415192 0.110413 0.016174
0.447174 0.110413 0.015930
0.479797 0.110382 0.015656
0.512115 0.110352 0.015381
0.544220 0.110352 0.015137
0.575775 0.110321 0.014893
0.607391 0.110291 0.014679
0.639679 0.110291 0.014435
0.672119 0.110260 0.014221
0.704041 0.110229 0.014008
0.734863 0.110229 0.013794
0.765533 0.110229 0.013611
0.796478 0.110199 0.013428
0.827362 0.110199 0.013275
0.858521 0.110168 0.013092
0.891235 0.110168 0.012939
0.923950 0.110138 0.012787
0.959442 0.110077 0.012604
0.999237 0.110016 0.012451
0.003296 0.139587 0.019867
0.021912 0.139648 0.019623
0.044739 0.139709 0.019379
0.068359 0.139740 0.019135
0.094940 0.139771 0.018860
0.125488 0.139771 0.018555
0.156830 0.139771 0.018250
0.188965 0.139740 0.017944
0.221985 0.139740 0.017639
0.254150 0.139709 0.017334
0.285706 0.139709 0.017059
0.318542 0.139679 0.016754
0.350952 0.139679 0.016479
0.383240 0.139648 0.016205
0.415222 0.139648 0.015930
0.447205 0.139648 0.015686
0.479828 0.139618 0.015411
0.512146 0.139618 0.015167
0.544250 0.139587 0.014923
0.575806 0.139587 0.014679
0.607422 0.139587 0.014465
0.639679 0.139557 0.014221
0.672150 0.139557 0.014008
0.704071 0.139526 0.013824
0.734894 0.139526 0.013611
0.765533 0.139526 0.013458
0.796509 0.139526 0.013275
0.827362 0.139526 0.013123
0.858551 0.139496 0.012970
0.891235 0.139496 0.012817
0.923981 0.139465 0.012665
0.959503 0.139435 0.012512
0.999298 0.139374 0.012329
0.003021 0.169800 0.019562
0.021881 0.169861 0.019318
0.044708 0.169922 0.019073
0.068298 0.169952 0.018829
0.094940 0.169983 0.018555
0.125488 0.169983 0.018250
0.156860 0.169983 0.017944
0.188995 0.169952 0.017670
0.222015 0.169952 0.017365
0.254181 0.169922 0.017059
0.285736 0.169922 0.016785
0.318573 0.169891 0.016510
0.350983 0.169891 0.016205
0.383240 0.169861 0.015961
0.415222 0.169861 0.015686
0.447235 0.169861 0.015442
0.479828 0.169830 0.015167
0.512177 0.169830 0.014923
0.544250 0.169800 0.014679
0.575806 0.169800 0.014465
0.607422 0.169769 0.014252
0.639709 0.169769 0.014038
0.672150 0.169739 0.013824
0.704071 0.169739 0.013641
0.734894 0.169739 0.013458
0.765533 0.169739 0.013275
0.796509 0.169708 0.013123
0.827393 0.169708 0.012970
0.858551 0.169708 0.012817
0.891266 0.169678 0.012665
0.923981 0.169678 0.012543
0.959564 0.169617 0.012390
0.999329 0.169556 0.012238
0.002777 0.199432 0.019257
0.021851 0.199493 0.019043
0.044647 0.199554 0.018768
0.068268 0.199585 0.018524
0.094940 0.199615 0.018250
0.125488 0.199615 0.017975
0.156860 0.199615 0.017670
0.188995 0.199585 0.017365
0.222046 0.199585 0.017090
0.254181 0.199554 0.016785
0.285767 0.199554 0.016510
0.318573 0.199524 0.016235
0.350983 0.199524 0.015961
0.383270 0.199493 0.015686
0.415222 0.199493 0.015442
0.447266 0.199463 0.015198
0.479858 0.199463 0.014954
0.512177 0.199432 0.014709
0.544281 0.199432 0.014465
0.575836 0.199402 0.014252
0.607452 0.199402 0.014038
0.639740 0.199371 0.013855
0.672180 0.199371 0.013641
0.704102 0.199371 0.013458
0.734894 0.199341 0.013275
0.765564 0.199341 0.013123
0.796509 0.199341 0.012970
0.827393 0.199341 0.012848
0.858582 0.199341 0.012695
0.891296 0.199310 0.012573
0.924011 0.199280 0.012451
0.959625 0.199249 0.012299
0.999390 0.199188 0.012177
0.002502 0.229828 0.018951
0.021820 0.229919 0.018738
0.044617 0.229980 0.018494
0.068237 0.230011 0.018250
0.094910 0.230042 0.017975
0.125488 0.230072 0.017670
0.156891 0.230042 0.017395
0.189026 0.230042 0.017090
0.222046 0.230042 0.016815
0.254181 0.230011 0.016541
0.285767 0.230011 0.016266
0.318604 0.230011 0.015991
0.351013 0.230011 0.015717
0.383270 0.229980 0.015442
0.415253 0.229980 0.015198
0.447266 0.229980 0.014954
0.479858 0.229950 0.014709
0.512207 0.229950 0.014496
0.544281 0.229950 0.014282
0.575836 0.229950 0.014069
0.607452 0.229950 0.013855
0.639740 0.229919 0.013672
0.672211 0.229919 0.013458
0.704102 0.229919 0.013275
0.734894 0.229919 0.013123
0.765564 0.229919 0.012970
0.796509 0.229919 0.012848
0.827393 0.229919 0.012695
0.858582 0.229919 0.012573
0.891296 0.229889 0.012451
0.924042 0.229889 0.012360
0.959686 0.229858 0.012238
0.999420 0.229797 0.012085
0.002258 0.260223 0.018646
0.021790 0.260315 0.018433
0.044556 0.260345 0.018188
0.068176 0.260406 0.017944
0.094910 0.260437 0.017670
0.125519 0.260437 0.017395
0.156891 0.260437 0.017120
0.189056 0.260406 0.016815
0.222076 0.260406 0.016541
0.254181 0.260376 0.016266
0.285797 0.260376 0.015991
0.318604 0.260376 0.015717
0.351013 0.260345 0.015472
0.383301 0.260345 0.015228
0.415253 0.260345 0.014984
0.447296 0.260315 0.014740
0.479889 0.260315 0.014496
0.512207 0.260284 0.014282
0.544312 0.260284 0.014069
0.575836 0.260284 0.013855
0.607483 0.260284 0.013672
0.639771 0.260254 0.013489
0.672211 0.260254 0.013306
0.704102 0.260223 0.013123
0.734894 0.260223 0.012970
0.765564 0.260223 0.012848
0.796509 0.260223 0.012695
0.827393 0.260223 0.012573
0.858612 0.260223 0.012482
0.891327 0.260193 0.012360
0.924072 0.260193 0.012268
0.959747 0.260162 0.012146
0.999451 0.260101 0.012024
0.001984 0.290558 0.018372
0.021729 0.290649 0.018127
0.044525 0.290680 0.017883
0.068146 0.290741 0.017670
0.094910 0.290771 0.017395
0.125519 0.290771 0.017120
0.156891 0.290771 0.016846
0.189056 0.290741 0.016571
0.222107 0.290741 0.016266
0.254181 0.290710 0.015991
0.285828 0.290710 0.015747
0.318634 0.290680 0.015472
0.351044 0.290680 0.015228
0.383301 0.290680 0.014984
0.415253 0.290649 0.014740
0.447296 0.290649 0.014526
0.479889 0.290619 0.014282
0.512238 0.290619 0.014069
0.544312 0.290588 0.013885
0.575867 0.290588 0.013672
0.607483 0.290588 0.013489
0.639771 0.290558 0.013306
0.672211 0.290558 0.013153
0.704102 0.290558 0.012970
0.734894 0.290527 0.012848
0.765564 0.290527 0.012726
0.796539 0.290527 0.012604
0.827393 0.290527 0.012482
0.858612 0.290527 0.012390
0.891327 0.290497 0.012268
0.924103 0.290497 0.012177
0.959808 0.290436 0.012085
0.999512 0.290375 0.011993
0.001709 0.320709 0.018066
0.021698 0.320770 0.017853
0.044464 0.320831 0.017609
0.068115 0.320892 0.017365
0.094910 0.320892 0.017120
0.125519 0.320892 0.016846
0.156921 0.320892 0.016571
0.189087 0.320892 0.016296
0.222137 0.320862 0.016022
0.254181 0.320862 0.015747
0.285828 0.320862 0.015503
0.318665 0.320831 0.015259
0.351044 0.320831 0.014984
0.383331 0.320801 0.014771
0.415283 0.320801 0.014526
0.447327 0.320801 0.014313
0.479919 0.320770 0.014099
0.512238 0.320770 0.013885
0.544312 0.320740 0.013702
0.575867 0.320740 0.013519
0.607483 0.320740 0.013336
0.639801 0.320709 0.013153
0.672241 0.320709 0.013000
0.704132 0.320679 0.012848
0.734894 0.320679 0.012726
0.765564 0.320679 0.012604
0.796539 0.320679 0.012482
0.827393 0.320679 0.012390
0.858643 0.320679 0.012299
0.891357 0.320648 0.012207
0.924103 0.320648 0.012146
0.959869 0.320587 0.012054
0.999542 0.320526 0.011932
0.001465 0.350952 0.017792
0.021667 0.351044 0.017548
0.044403 0.351105 0.017334
0.068054 0.351135 0.017090
0.094910 0.351166 0.016846
0.125519 0.351166 0.016571
0.156921 0.351166 0.016296
0.189087 0.351135 0.016052
0.222137 0.351135 0.015778
0.254211 0.351105 0.015503
0.285858 0.351105 0.015259
0.318665 0.351105 0.015015
0.351074 0.351074 0.014771
0.383331 0.351074 0.014557
0.415283 0.351074 0.014313
0.447357 0.351044 0.014099
0.479919 0.351044 0.013885
0.512268 0.351013 0.013702
0.544342 0.351013 0.013519
0.575867 0.351013 0.013336
0.607513 0.350983 0.013184
0.639832 0.350983 0.013000
0.672241 0.350952 0.012848
0.704132 0.350952 0.012726
0.734894 0.350952 0.012604
0.765594 0.350952 0.012482
0.796539 0.350952 0.012390
0.827423 0.350952 0.012299
0.858643 0.350922 0.012238
0.891357 0.350922 0.012146
0.924133 0.350891 0.012085
0.959930 0.350861 0.012024
0.999603 0.350800 0.011932
0.001190 0.381165 0.017487
0.021637 0.381226 0.017273
0.044373 0.381287 0.017059
0.068024 0.381348 0.016815
0.094910 0.381348 0.016571
0.125549 0.381348 0.016327
0.156952 0.381348 0.016052
0.189117 0.381348 0.015778
0.222168 0.381317 0.015533
0.254211 0.381317 0.015259
0.285889 0.381317 0.015045
0.318695 0.381287 0.014801
0.351074 0.381287 0.014557
0.383362 0.381256 0.014343
0.415283 0.381256 0.014130
0.447357 0.381256 0.013916
0.479950 0.381226 0.013702
0.512268 0.381226 0.013519
0.544342 0.381195 0.013336
0.575897 0.381195 0.013184
0.607513 0.381195 0.013031
0.639832 0.381195 0.012878
0.672272 0.381165 0.012726
0.704132 0.381165 0.012604
0.734894 0.381165 0.012482
0.765594 0.381165 0.012390
0.796539 0.381165 0.012299
0.827423 0.381134 0.012238
0.858673 0.381134 0.012177
0.891388 0.381134 0.012115
0.924164 0.381104 0.012054
0.959991 0.381073 0.011993
0.999664 0.381012 0.011902
0.000946 0.411743 0.017212
0.021606 0.411835 0.016998
0.044312 0.411896 0.016785
0.067963 0.411926 0.016541
0.094910 0.411957 0.016327
0.125549 0.411957 0.016052
0.156952 0.411957 0.015808
0.189117 0.411957 0.015533
0.222198 0.411926 0.015289
0.254211 0.411926 0.015045
0.285889 0.411926 0.014801
0.318695 0.411926 0.014557
0.351105 0.411896 0.014343
0.383362 0.411896 0.014130
0.415314 0.411896 0.013916
0.447388 0.411865 0.013733
0.479950 0.411865 0.013550
0.512299 0.411865 0.013367
0.544373 0.411835 0.013184
0.575897 0.411835 0.013031
0.607513 0.411835 0.012878
0.639862 0.411835 0.012756
0.672272 0.411804 0.012604
0.704132 0.411804 0.012482
0.734894 0.411804 0.012390
0.765594 0.411804 0.012299
0.796539 0.411804 0.012238
0.827423 0.411804 0.012177
0.858673 0.411804 0.012115
0.891388 0.411804 0.012054
0.924194 0.411774 0.012024
0.960052 0.411743 0.011963
0.999695 0.411682 0.011902
0.000702 0.442352 0.016937
0.021545 0.442444 0.016724
0.044281 0.442474 0.016510
0.067932 0.442535 0.016296
0.094910 0.442566 0.016052
0.125549 0.442566 0.015808
0.156952 0.442566 0.015564
0.189148 0.442566 0.015289
0.222198 0.442535 0.015045
0.254211 0.442535 0.014801
0.285919 0.442535 0.014587
0.318726 0.442505 0.014343
0.351105 0.442505 0.014130
0.383392 0.442505 0.013947
0.415314 0.442474 0.013733
0.447388 0.442474 0.013550
0.479980 0.442474 0.013367
0.512299 0.442444 0.013184
0.544373 0.442444 0.013031
0.575897 0.442444 0.012878
0.607544 0.442444 0.012756
0.639862 0.442413 0.012634
0.672302 0.442413 0.012512
0.704163 0.442413 0.012390
0.734894 0.442413 0.012299
0.765594 0.442413 0.012238
0.796539 0.442413 0.012177
0.827423 0.442413 0.012115
0.858704 0.442383 0.012085
0.891418 0.442383 0.012054
0.924225 0.442352 0.012024
0.960114 0.442322 0.011963
0.999725 0.442261 0.011932
0.000427 0.473053 0.016663
0.021515 0.473145 0.016449
0.044220 0.473175 0.016235
0.067902 0.473236 0.016022
0.094910 0.473267 0.015808
0.125549 0.473267 0.015564
0.156982 0.473267 0.015320
0.189148 0.473267 0.015076
0.222229 0.473236 0.014832
0.254211 0.473236 0.014587
0.285919 0.473236 0.014374
0.318726 0.473206 0.014160
0.351135 0.473206 0.013947
0.383392 0.473206 0.013733
0.415314 0.473206 0.013550
0.447418 0.473175 0.013367
0.479980 0.473175 0.013214
0.512329 0.473175 0.013062
0.544373 0.473145 0.012909
0.575897 0.473145 0.012756
0.607544 0.473145 0.012634
0.639893 0.473145 0.012512
0.672302 0.473114 0.012421
0.704163 0.473114 0.012299
0.734894 0.473114 0.012238
0.765594 0.473114 0.012177
0.796539 0.473114 0.012115
0.827423 0.473114 0.012085
0.858704 0.473114 0.012054
0.891418 0.473083 0.012024
0.924225 0.473083 0.012024
0.960175 0.473053 0.011993
0.999786 0.472992 0.011932
0.000183 0.503845 0.016388
0.021484 0.503906 0.016174
0.044159 0.503967 0.015991
0.067841 0.503998 0.015778
0.094879 0.504028 0.015564
0.125549 0.504028 0.015320
0.156982 0.504028 0.015076
0.189178 0.504028 0.014832
0.222260 0.503998 0.014587
0.254211 0.503998 0.014374
0.285950 0.503998 0.014160
0.318726 0.503998 0.013947
0.351135 0.503967 0.013763
0.383423 0.503967 0.013580
0.415314 0.503967 0.013397
0.447418 0.503937 0.013214
0.479980 0.503937 0.013062
0.512329 0.503937 0.012909
0.544373 0.503906 0.012756
0.575928 0.503906 0.012634
0.607544 0.503906 0.012512
0.639893 0.503906 0.012421
0.672302 0.503876 0.012329
0.704163 0.503876 0.012238
0.734894 0.503876 0.012177
0.765594 0.503876 0.012115
0.796539 0.503876 0.012085
0.827423 0.503876 0.012054
0.858734 0.503876 0.012054
0.891449 0.503845 0.012024
0.924255 0.503845 0.012024
0.960236 0.503815 0.011993
0.999817 0.503754 0.011932
0.000000 0.534485 0.016113
0.021423 0.534546 0.015930
0.044128 0.534607 0.015717
0.067810 0.534668 0.015533
0.094879 0.534698 0.015320
0.125549 0.534698 0.015076
0.156982 0.534698 0.014862
0.189178 0.534668 0.014618
0.222260 0.534668 0.014374
0.254211 0.534668 0.014160
0.285950 0.534637 0.013977
0.318756 0.534637 0.013763
0.351135 0.534637 0.013580
0.383423 0.534607 0.013397
0.415314 0.534607 0.013245
0.447449 0.534607 0.013062
0.480011 0.534576 0.012909
0.512329 0.534576 0.012787
0.544403 0.534576 0.012634
0.575928 0.534576 0.012543
0.607574 0.534546 0.012421
0.639923 0.534546 0.012329
0.672333 0.534546 0.012238
0.704163 0.534515 0.012177
0.734894 0.534515 0.012115
0.765594 0.534515 0.012085
0.796570 0.534515 0.012054
0.827423 0.534515 0.012054
0.858734 0.534515 0.012054
0.891449 0.534515 0.012024
0.924286 0.534485 0.012024
0.960297 0.534454 0.011993
0.999847 0.534393 0.011963
0.000000 0.565216 0.015869
0.021393 0.565277 0.015686
0.044067 0.565338 0.015472
0.067749 0.565399 0.015289
0.094879 0.565399 0.015076
0.125549 0.565399 0.014862
0.157013 0.565399 0.014618
0.189209 0.565399 0.014404
0.222290 0.565399 0.014191
0.254211 0.565369 0.013977
0.285980 0.565369 0.013794
0.318756 0.565369 0.013580
0.351166 0.565338 0.013397
0.383423 0.565338 0.013245
0.415344 0.565338 0.013092
0.447449 0.565308 0.012939
0.480011 0.565308 0.012787
0.512360 0.565308 0.012665
0.544403 0.565277 0.012543
0.575928 0.565277 0.012421
0.607574 0.565277 0.012329
0.639923 0.565277 0.012268
0.672333 0.565247 0.012177
0.704163 0.565247 0.012115
0.734894 0.565247 0.012085
0.765594 0.565247 0.012054
0.796570 0.565247 0.012054
0.827423 0.565247 0.012054
0.858734 0.565247 0.012054
0.891449 0.565216 0.012054
0.924286 0.565216 0.012054
0.960358 0.565186 0.012024
0.999878 0.565125 0.011993
0.000000 0.595764 0.015625
0.021362 0.595825 0.015442
0.044006 0.595886 0.015228
0.067719 0.595917 0.015045
0.094879 0.595947 0.014862
0.125580 0.595947 0.014618
0.157013 0.595947 0.014404
0.189209 0.595947 0.014191
0.222321 0.595917 0.013977
0.254211 0.595917 0.013794
0.286011 0.595886 0.013611
0.318787 0.595886 0.013428
0.351166 0.595856 0.013245
0.383453 0.595856 0.013092
0.415344 0.595856 0.012939
0.447479 0.595825 0.012787
0.480042 0.595825 0.012665
0.512360 0.595795 0.012543
0.544403 0.595795 0.012451
0.575928 0.595795 0.012360
0.607574 0.595795 0.012268
0.639923 0.595764 0.012207
0.672363 0.595764 0.012146
0.704163 0.595734 0.012085
0.734894 0.595734 0.012054
0.765594 0.595734 0.012054
0.796570 0.595734 0.012054
0.827423 0.595734 0.012054
0.858765 0.595734 0.012054
0.891479 0.595703 0.012054
0.924316 0.595703 0.012054
0.960419 0.595642 0.012054
0.999939 0.595581 0.012024
0.000000 0.626160 0.015381
0.021301 0.626221 0.015198
0.043976 0.626282 0.015015
0.067688 0.626343 0.014832
0.094879 0.626343 0.014648
0.125580 0.626343 0.014435
0.157013 0.626343 0.014221
0.189240 0.626343 0.014008
0.222321 0.626312 0.013794
0.254211 0.626312 0.013611
0.286011 0.626312 0.013428
0.318787 0.626282 0.013275
0.351196 0.626282 0.013092
0.383453 0.626251 0.012939
0.415344 0.626251 0.012817
0.447479 0.626251 0.012695
0.480042 0.626221 0.012573
0.512390 0.626221 0.012451
0.544434 0.626221 0.012360
0.575928 0.626190 0.012268
0.607605 0.626190 0.012207
0.639954 0.626190 0.012146
0.672363 0.626160 0.012085
0.704193 0.626160 0.012054
0.734894 0.626160 0.012054
0.765625 0.626160 0.012054
0.796570 0.626160 0.012054
0.827423 0.626160 0.012054
0.858765 0.626129 0.012085
0.891479 0.626129 0.012085
0.924347 0.626099 0.012085
0.960480 0.626068 0.012085
0.999969 0.626007 0.012054
0.000000 0.656647 0.015137
0.021271 0.656708 0.014954
0.043915 0.656769 0.014771
0.067627 0.656830 0.014618
0.094879 0.656830 0.014435
0.125580 0.656830 0.014221
0.157043 0.656830 0.014008
0.189240 0.656830 0.013824
0.222351 0.656799 0.013611
0.254211 0.656799 0.013458
0.286041 0.656799 0.013275
0.318817 0.656769 0.013123
0.351196 0.656769 0.012970
0.383484 0.656769 0.012817
0.415344 0.656738 0.012695
0.447510 0.656738 0.012573
0.480072 0.656738 0.012451
0.512390 0.656708 0.012360
0.544434 0.656708 0.012299
0.575958 0.656708 0.012207
0.607605 0.656677 0.012146
0.639954 0.656677 0.012115
0.672363 0.656677 0.012085
0.704193 0.656647 0.012054
0.734894 0.656647 0.012054
0.765625 0.656647 0.012054
0.796570 0.656647 0.012054
0.827423 0.656647 0.012085
0.858795 0.656647 0.012085
0.891510 0.656616 0.012115
0.924377 0.656616 0.012115
0.960541 0.656586 0.012115
1.000000 0.656525 0.012085
0.000000 0.687256 0.014893
0.021210 0.687317 0.014740
0.043854 0.687378 0.014557
0.067596 0.687439 0.014404
0.094879 0.687439 0.014221
0.125580 0.687469 0.014038
0.157043 0.687439 0.013824
0.189270 0.687439 0.013641
0.222382 0.687439 0.013458
0.254211 0.687408 0.013275
0.286041 0.687408 0.013123
0.318817 0.687408 0.012970
0.351227 0.687408 0.012848
0.383484 0.687378 0.012695
0.415375 0.687378 0.012573
0.447510 0.687378 0.012482
0.480072 0.687347 0.012390
0.512390 0.687347 0.012299
0.544434 0.687347 0.012207
0.575958 0.687347 0.012177
0.607605 0.687317 0.012115
0.639984 0.687317 0.012085
0.672394 0.687317 0.012054
0.704193 0.687286 0.012054
0.734863 0.687286 0.012054
0.765625 0.687317 0.012054
0.796570 0.687286 0.012085
0.827423 0.687286 0.012085
0.858795 0.687286 0.012115
0.891510 0.687286 0.012115
0.924377 0.687256 0.012146
0.960602 0.687225 0.012146
1.000000 0.687164 0.012115
0.000000 0.717773 0.014679
0.021179 0.717834 0.014526
0.043823 0.717865 0.014343
0.067566 0.717926 0.014191
0.094879 0.717957 0.014038
0.125580 0.717957 0.013824
0.157074 0.717926 0.013641
0.189270 0.717926 0.013489
0.222382 0.717896 0.013306
0.254211 0.717896 0.013153
0.286072 0.717896 0.013000
0.318848 0.717865 0.012848
0.351227 0.717865 0.012726
0.383514 0.717834 0.012604
0.415375 0.717834 0.012482
0.447540 0.717804 0.012390
0.480103 0.717804 0.012299
0.512421 0.717773 0.012238
0.544464 0.717773 0.012177
0.575958 0.717773 0.012115
0.607605 0.717743 0.012085
0.639984 0.717743 0.012085
0.672394 0.717712 0.012054
0.704193 0.717712 0.012054
0.734863 0.717712 0.012054
0.765625 0.717712 0.012085
0.796570 0.717712 0.012085
0.827423 0.717712 0.012115
0.858826 0.717682 0.012146
0.891541 0.717682 0.012177
0.924408 0.717651 0.012177
0.960663 0.717621 0.012177
1.000000 0.717560 0.012177
0.000000 0.747955 0.014465
0.021149 0.748016 0.014313
0.043762 0.748077 0.014160
0.067505 0.748108 0.014008
0.094879 0.748138 0.013855
0.125610 0.748138 0.013672
0.157074 0.748138 0.013489
0.189301 0.748108 0.013306
0.222412 0.748108 0.013153
0.254211 0.748077 0.013000
0.286102 0.748077 0.012878
0.318848 0.748047 0.012726
0.351257 0.748047 0.012604
0.383514 0.748016 0.012512
0.415375 0.748016 0.012421
0.447540 0.748016 0.012329
0.480103 0.747986 0.012238
0.512421 0.747986 0.012177
0.544464 0.747955 0.012146
0.575989 0.747955 0.012115
0.607635 0.747955 0.012085
0.640015 0.747925 0.012085
0.672424 0.747925 0.012085
0.704193 0.747894 0.012085
0.734863 0.747894 0.012085
0.765625 0.747894 0.012115
0.796570 0.747894 0.012115
0.827423 0.747894 0.012146
0.858826 0.747864 0.012177
0.891541 0.747864 0.012207
0.924438 0.747833 0.012238
0.960724 0.747803 0.012238
1.000000 0.747742 0.012238
0.000000 0.778290 0.014252
0.021088 0.778351 0.014099
0.043732 0.778412 0.013947
0.067474 0.778473 0.013824
0.094849 0.778503 0.013672
0.125610 0.778503 0.013489
0.157074 0.778503 0.013336
0.189301 0.778473 0.013184
0.222443 0.778473 0.013000
0.254242 0.778473 0.012878
0.286102 0.778442 0.012756
0.318878 0.778442 0.012634
0.351257 0.778442 0.012512
0.383545 0.778412 0.012421
0.415375 0.778412 0.012329
0.447571 0.778412 0.012268
0.480103 0.778412 0.012207
0.512451 0.778381 0.012146
0.544464 0.778381 0.012115
0.575989 0.778381 0.012085
0.607635 0.778381 0.012085
