Kodak Vision2 250D (5205) - Only contrast.cube
# Created by Benjamin (IWLTBAP) : http://luts.iwltbap.com
# Copyright: (C) Copyright 2010-2017 Triune Films and IWLTBAP SAS
# Cannot be resold, shared or otherwise redistributed
TITLE "Film Print Emulation LUTs Pack (Rec.709, sRGB, DCI-P3)"
LUT_3D_SIZE 5
0.000610 0.000610 0.000610
0.201172 0.000000 0.000000
0.431244 0.000000 0.000000
0.649139 0.000000 0.000000
0.915833 0.000000 0.000000
0.000000 0.201172 0.000000
0.201447 0.201447 0.000000
0.431335 0.201538 0.000000
0.649384 0.201691 0.000000
0.916443 0.201538 0.000000
0.000000 0.431244 0.000000
0.201538 0.431335 0.000000
0.431244 0.431244 0.000000
0.649445 0.431244 0.000000
0.916870 0.430908 0.000000
0.000000 0.649139 0.000000
0.201691 0.649384 0.000000
0.431244 0.649445 0.000000
0.649597 0.649597 0.000000
0.917358 0.649414 0.000000
0.000000 0.915833 0.000000
0.201538 0.916443 0.000000
0.430908 0.916870 0.000000
0.649414 0.917358 0.000000
0.917633 0.917450 0.002716
0.000000 0.000000 0.201172
0.201447 0.000000 0.201447
0.431335 0.000000 0.201538
0.649384 0.000000 0.201691
0.916443 0.000000 0.201538
0.000000 0.201447 0.201447
0.201721 0.201721 0.201721
0.431427 0.201782 0.201782
0.649628 0.201935 0.201935
0.917023 0.201752 0.201752
0.000000 0.431335 0.201538
0.201782 0.431427 0.201782
0.431335 0.431335 0.201874
0.649689 0.431305 0.202026
0.917450 0.430939 0.201843
0.000000 0.649384 0.201691
0.201935 0.649628 0.201935
0.431305 0.649689 0.202026
0.649811 0.649811 0.202179
0.917938 0.649628 0.201965
0.000000 0.916443 0.201538
0.201752 0.917023 0.201752
0.430939 0.917450 0.201843
0.649628 0.917938 0.201965
0.918060 0.918060 0.201782
0.000000 0.000000 0.431244
0.201538 0.000000 0.431335
0.431244 0.000000 0.431244
0.649445 0.000000 0.431244
0.916870 0.000000 0.430908
0.000000 0.201538 0.431335
0.201782 0.201782 0.431427
0.431335 0.201874 0.431335
0.649689 0.202026 0.431305
0.917450 0.201843 0.430939
0.000000 0.431244 0.431244
0.201874 0.431335 0.431335
0.431244 0.431244 0.431244
0.649750 0.431213 0.431213
0.917847 0.430817 0.430817
0.000000 0.649445 0.431244
0.202026 0.649689 0.431305
0.431213 0.649750 0.431213
0.649902 0.649902 0.431152
0.918335 0.649719 0.430756
0.000000 0.916870 0.430908
0.201843 0.917450 0.430939
0.430817 0.917847 0.430817
0.649719 0.918335 0.430756
0.918488 0.918488 0.430328
0.000000 0.000000 0.649139
0.201691 0.000000 0.649384
0.431244 0.000000 0.649445
0.649597 0.000000 0.649597
0.917358 0.000000 0.649414
0.000000 0.201691 0.649384
0.201935 0.201935 0.649628
0.431305 0.202026 0.649689
0.649811 0.202179 0.649811
0.917938 0.201965 0.649628
0.000000 0.431244 0.649445
0.202026 0.431305 0.649689
0.431213 0.431213 0.649750
0.649902 0.431152 0.649902
0.918335 0.430756 0.649719
0.000000 0.649597 0.649597
0.202179 0.649811 0.649811
0.431152 0.649902 0.649902
0.650055 0.650055 0.650055
0.918823 0.649872 0.649872
0.000000 0.917358 0.649414
0.201965 0.917938 0.649628
0.430756 0.918335 0.649719
0.649872 0.918823 0.649872
0.918976 0.918976 0.649719
0.000000 0.000000 0.915741
0.201538 0.000000 0.916443
0.430908 0.000000 0.916870
0.649414 0.000000 0.917358
0.917511 0.000000 0.917511
0.000000 0.201538 0.916443
0.201752 0.201752 0.917023
0.430939 0.201843 0.917450
0.649628 0.201965 0.917938
0.918060 0.201782 0.918060
0.000000 0.430908 0.916870
0.201843 0.430939 0.917450
0.430817 0.430817 0.917847
0.649719 0.430756 0.918335
0.918488 0.430328 0.918488
0.000000 0.649414 0.917358
0.201965 0.649628 0.917938
0.430756 0.649719 0.918335
0.649872 0.649872 0.918823
0.918976 0.649719 0.918976
0.000000 0.917511 0.917511
0.201782 0.918060 0.918060
0.430328 0.918488 0.918488
0.649719 0.918976 0.918976
0.919128 0.919128 0.919128
