Kodak Vision2 200T (5217) - Only contrast.cube
# Created by Benjamin (IWLTBAP) : http://luts.iwltbap.com
# Copyright: (C) Copyright 2010-2017 Triune Films and IWLTBAP SAS
# Cannot be resold, shared or otherwise redistributed
TITLE "Film Print Emulation LUTs Pack (Rec.709, sRGB, DCI-P3)"
LUT_3D_SIZE 9
0.000366 0.000366 0.000366
0.108490 0.000305 0.000305
0.228485 0.000153 0.000153
0.350861 0.000000 0.000000
0.482025 0.000000 0.000000
0.601410 0.000000 0.000000
0.710724 0.000000 0.000000
0.840973 0.000000 0.000000
0.937439 0.000000 0.000000
0.000305 0.108490 0.000305
0.108551 0.108551 0.000244
0.228607 0.108521 0.000061
0.351013 0.108490 0.000000
0.482147 0.108398 0.000000
0.601410 0.108368 0.000000
0.710754 0.108429 0.000000
0.841187 0.108337 0.000000
0.937073 0.108490 0.000000
0.000153 0.228485 0.000153
0.108521 0.228607 0.000061
0.228638 0.228638 0.000000
0.351074 0.228668 0.000000
0.482208 0.228607 0.000000
0.601349 0.228638 0.000000
0.710693 0.228729 0.000000
0.841309 0.228668 0.000000
0.936584 0.228851 0.000000
0.000000 0.350861 0.000000
0.108490 0.351013 0.000000
0.228668 0.351074 0.000000
0.351135 0.351135 0.000000
0.482239 0.351105 0.000000
0.601288 0.351196 0.000000
0.710632 0.351349 0.000000
0.841431 0.351349 0.000000
0.936096 0.351624 0.000000
0.000000 0.482025 0.000000
0.108398 0.482147 0.000000
0.228607 0.482208 0.000000
0.351105 0.482239 0.000000
0.482208 0.482208 0.000000
0.601135 0.482269 0.000000
0.710510 0.482391 0.000000
0.841461 0.482361 0.000000
0.935577 0.482605 0.000000
0.000000 0.601410 0.000000
0.108368 0.601410 0.000000
0.228638 0.601349 0.000000
0.351196 0.601288 0.000000
0.482269 0.601135 0.000000
0.601074 0.601074 0.000000
0.710480 0.601074 0.000000
0.841614 0.600952 0.000000
0.935089 0.601074 0.000000
0.000000 0.710724 0.000000
0.108429 0.710754 0.000000
0.228729 0.710693 0.000000
0.351349 0.710632 0.000000
0.482391 0.710510 0.000000
0.601074 0.710480 0.000000
0.710510 0.710510 0.000000
0.841797 0.710388 0.000000
0.934692 0.710541 0.000000
0.000000 0.840973 0.000000
0.108337 0.841187 0.000000
0.228668 0.841309 0.000000
0.351349 0.841431 0.000000
0.482361 0.841461 0.000000
0.600952 0.841614 0.000000
0.710388 0.841797 0.000000
0.841827 0.841827 0.000000
0.934143 0.842133 0.000000
0.000000 0.937439 0.000000
0.108490 0.937073 0.000000
0.228851 0.936584 0.000000
0.351624 0.936096 0.000000
0.482605 0.935577 0.000000
0.601074 0.935089 0.000000
0.710541 0.934692 0.000000
0.842133 0.934143 0.000000
0.933807 0.933746 0.016876
0.000305 0.000305 0.108490
0.108551 0.000244 0.108551
0.228607 0.000061 0.108521
0.351013 0.000000 0.108490
0.482147 0.000000 0.108398
0.601410 0.000000 0.108368
0.710754 0.000000 0.108429
0.841187 0.000000 0.108337
0.937073 0.000000 0.108490
0.000244 0.108551 0.108551
0.108612 0.108612 0.108612
0.228729 0.108582 0.108582
0.351166 0.108551 0.108551
0.482269 0.108429 0.108429
0.601440 0.108429 0.108429
0.710785 0.108490 0.108490
0.841400 0.108398 0.108398
0.936676 0.108551 0.108551
0.000061 0.228607 0.108521
0.108582 0.228729 0.108582
0.228760 0.228760 0.108551
0.351227 0.228760 0.108521
0.482330 0.228729 0.108429
0.601379 0.228729 0.108398
0.710724 0.228821 0.108459
0.841522 0.228729 0.108368
0.936188 0.228912 0.108521
0.000000 0.351013 0.108490
0.108551 0.351166 0.108551
0.228760 0.351227 0.108521
0.351257 0.351257 0.108490
0.482361 0.351257 0.108368
0.601288 0.351349 0.108368
0.710663 0.351501 0.108429
0.841614 0.351501 0.108337
0.935699 0.351807 0.108490
0.000000 0.482147 0.108398
0.108429 0.482269 0.108429
0.228729 0.482330 0.108429
0.351257 0.482361 0.108368
0.482330 0.482330 0.108276
0.601135 0.482391 0.108276
0.710541 0.482513 0.108337
0.841675 0.482483 0.108246
0.935150 0.482727 0.108398
0.000000 0.601410 0.108368
0.108429 0.601440 0.108429
0.228729 0.601379 0.108398
0.351349 0.601288 0.108368
0.482391 0.601135 0.108276
0.601074 0.601074 0.108276
0.710510 0.601105 0.108337
0.841797 0.600952 0.108246
0.934692 0.601074 0.108398
0.000000 0.710754 0.108429
0.108490 0.710785 0.108490
0.228821 0.710724 0.108459
0.351501 0.710663 0.108429
0.482513 0.710541 0.108337
0.601105 0.710510 0.108337
0.710541 0.710541 0.108398
0.841980 0.710419 0.108307
0.934296 0.710571 0.108459
0.000000 0.841187 0.108337
0.108398 0.841400 0.108398
0.228729 0.841522 0.108368
0.351501 0.841614 0.108337
0.482483 0.841675 0.108246
0.600952 0.841797 0.108246
0.710419 0.841980 0.108307
0.842010 0.842010 0.108185
0.933746 0.842316 0.108368
0.000000 0.937073 0.108490
0.108551 0.936676 0.108551
0.228912 0.936188 0.108521
0.351807 0.935699 0.108490
0.482727 0.935150 0.108398
0.601074 0.934692 0.108398
0.710571 0.934296 0.108459
0.842316 0.933746 0.108368
0.933472 0.933472 0.108582
0.000153 0.000153 0.228485
0.108521 0.000061 0.228607
0.228638 0.000000 0.228638
0.351074 0.000000 0.228668
0.482208 0.000000 0.228607
0.601349 0.000000 0.228638
0.710693 0.000000 0.228729
0.841309 0.000000 0.228668
0.936584 0.000000 0.228851
0.000061 0.108521 0.228607
0.108582 0.108582 0.228729
0.228760 0.108551 0.228760
0.351227 0.108521 0.228760
0.482330 0.108429 0.228729
0.601379 0.108398 0.228729
0.710724 0.108459 0.228821
0.841522 0.108368 0.228729
0.936188 0.108521 0.228912
0.000000 0.228638 0.228638
0.108551 0.228760 0.228760
0.228790 0.228790 0.228790
0.351288 0.228790 0.228790
0.482361 0.228729 0.228729
0.601288 0.228729 0.228729
0.710693 0.228821 0.228821
0.841644 0.228729 0.228729
0.935730 0.228882 0.228882
0.000000 0.351074 0.228668
0.108521 0.351227 0.228760
0.228790 0.351288 0.228790
0.351349 0.351349 0.228790
0.482391 0.351318 0.228729
0.601227 0.351410 0.228729
0.710602 0.351593 0.228790
0.841736 0.351624 0.228668
0.935242 0.351929 0.228821
0.000000 0.482208 0.228607
0.108429 0.482330 0.228729
0.228729 0.482361 0.228729
0.351318 0.482391 0.228729
0.482361 0.482361 0.228638
0.601074 0.482452 0.228638
0.710510 0.482574 0.228668
0.841766 0.482544 0.228577
0.934692 0.482819 0.228729
0.000000 0.601349 0.228638
0.108398 0.601379 0.228729
0.228729 0.601288 0.228729
0.351410 0.601227 0.228729
0.482452 0.601074 0.228638
0.601013 0.601013 0.228607
0.710480 0.601013 0.228668
0.841919 0.600891 0.228546
0.934235 0.601013 0.228699
0.000000 0.710693 0.228729
0.108459 0.710724 0.228821
0.228821 0.710693 0.228821
0.351593 0.710602 0.228790
0.482574 0.710510 0.228668
0.601013 0.710480 0.228668
0.710510 0.710510 0.228699
0.842102 0.710388 0.228577
0.933807 0.710541 0.228729
0.000000 0.841309 0.228668
0.108368 0.841522 0.228729
0.228729 0.841644 0.228729
0.351624 0.841736 0.228668
0.482544 0.841766 0.228577
0.600891 0.841919 0.228546
0.710388 0.842102 0.228577
0.842133 0.842133 0.228455
0.933258 0.842438 0.228607
0.000000 0.936584 0.228851
0.108521 0.936188 0.228912
0.228882 0.935730 0.228882
0.351929 0.935242 0.228821
0.482819 0.934692 0.228729
0.601013 0.934235 0.228699
0.710541 0.933807 0.228729
0.842438 0.933258 0.228607
0.932983 0.932983 0.228760
0.000000 0.000000 0.350861
0.108490 0.000000 0.351013
0.228668 0.000000 0.351074
0.351135 0.000000 0.351135
0.482239 0.000000 0.351105
0.601288 0.000000 0.351196
0.710632 0.000000 0.351349
0.841431 0.000000 0.351349
0.936096 0.000000 0.351624
0.000000 0.108490 0.351013
0.108551 0.108551 0.351166
0.228760 0.108521 0.351227
0.351257 0.108490 0.351257
0.482361 0.108368 0.351257
0.601288 0.108368 0.351349
0.710663 0.108429 0.351501
0.841614 0.108337 0.351501
0.935699 0.108490 0.351807
0.000000 0.228668 0.351074
0.108521 0.228760 0.351227
0.228790 0.228790 0.351288
0.351349 0.228790 0.351349
0.482391 0.228729 0.351318
0.601227 0.228729 0.351410
0.710602 0.228790 0.351593
0.841736 0.228668 0.351624
0.935242 0.228821 0.351929
0.000000 0.351135 0.351135
0.108490 0.351257 0.351257
0.228790 0.351349 0.351349
0.351379 0.351379 0.351379
0.482422 0.351379 0.351379
0.601135 0.351501 0.351501
0.710541 0.351685 0.351685
0.841827 0.351715 0.351715
0.934723 0.352051 0.352051
0.000000 0.482239 0.351105
0.108368 0.482361 0.351257
0.228729 0.482391 0.351318
0.351379 0.482422 0.351379
0.482422 0.482422 0.351410
0.600983 0.482483 0.351532
0.710449 0.482605 0.351715
0.841888 0.482605 0.351776
0.934174 0.482880 0.352112
0.000000 0.601288 0.351196
0.108368 0.601288 0.351349
0.228729 0.601227 0.351410
0.351501 0.601135 0.351501
0.482483 0.600983 0.351532
0.600922 0.600922 0.351654
0.710419 0.600922 0.351868
0.842010 0.600800 0.351929
0.933716 0.600922 0.352295
0.000000 0.710632 0.351349
0.108429 0.710663 0.351501
0.228790 0.710602 0.351593
0.351685 0.710541 0.351685
0.482605 0.710449 0.351715
0.600922 0.710419 0.351868
0.710419 0.710419 0.352081
0.842194 0.710297 0.352173
0.933319 0.710480 0.352539
0.000000 0.841431 0.351349
0.108337 0.841614 0.351501
0.228668 0.841736 0.351624
0.351715 0.841827 0.351715
0.482605 0.841888 0.351776
0.600800 0.842010 0.351929
0.710297 0.842194 0.352173
0.842194 0.842194 0.352264
0.932770 0.842499 0.352631
0.000000 0.936096 0.351624
0.108490 0.935699 0.351807
0.228821 0.935242 0.351929
0.352051 0.934723 0.352051
0.482880 0.934174 0.352112
0.600922 0.933716 0.352295
0.710480 0.933319 0.352539
0.842499 0.932770 0.352631
0.932495 0.932495 0.353027
0.000000 0.000000 0.482025
0.108398 0.000000 0.482147
0.228607 0.000000 0.482208
0.351105 0.000000 0.482239
0.482208 0.000000 0.482208
0.601135 0.000000 0.482269
0.710510 0.000000 0.482391
0.841461 0.000000 0.482361
0.935577 0.000000 0.482605
0.000000 0.108398 0.482147
0.108429 0.108429 0.482269
0.228729 0.108429 0.482330
0.351257 0.108368 0.482361
0.482330 0.108276 0.482330
0.601135 0.108276 0.482391
0.710541 0.108337 0.482513
0.841675 0.108246 0.482483
0.935150 0.108398 0.482727
0.000000 0.228607 0.482208
0.108429 0.228729 0.482330
0.228729 0.228729 0.482361
0.351318 0.228729 0.482391
0.482361 0.228638 0.482361
0.601074 0.228638 0.482452
0.710510 0.228668 0.482574
0.841766 0.228577 0.482544
0.934692 0.228729 0.482819
0.000000 0.351105 0.482239
0.108368 0.351257 0.482361
0.228729 0.351318 0.482391
0.351379 0.351379 0.482422
0.482422 0.351410 0.482422
0.600983 0.351532 0.482483
0.710449 0.351715 0.482605
0.841888 0.351776 0.482605
0.934174 0.352112 0.482880
0.000000 0.482208 0.482208
0.108276 0.482330 0.482330
0.228638 0.482361 0.482361
0.351410 0.482422 0.482422
0.482391 0.482391 0.482391
0.600830 0.482452 0.482452
0.710327 0.482605 0.482605
0.841919 0.482605 0.482605
0.933624 0.482880 0.482880
0.000000 0.601135 0.482269
0.108276 0.601135 0.482391
0.228638 0.601074 0.482452
0.351532 0.600983 0.482483
0.482452 0.600830 0.482452
0.600800 0.600800 0.482544
0.710297 0.600800 0.482697
0.842041 0.600647 0.482697
0.933167 0.600769 0.483002
0.000000 0.710510 0.482391
0.108337 0.710541 0.482513
0.228668 0.710510 0.482574
0.351715 0.710449 0.482605
0.482605 0.710327 0.482605
0.600800 0.710297 0.482697
0.710327 0.710327 0.482849
0.842224 0.710205 0.482880
0.932770 0.710358 0.483185
0.000000 0.841461 0.482361
0.108246 0.841675 0.482483
0.228577 0.841766 0.482544
0.351776 0.841888 0.482605
0.482605 0.841919 0.482605
0.600647 0.842041 0.482697
0.710205 0.842224 0.482880
0.842224 0.842224 0.482880
0.932190 0.842529 0.483215
0.000000 0.935577 0.482605
0.108398 0.935150 0.482727
0.228729 0.934692 0.482819
0.352112 0.934174 0.482880
0.482880 0.933624 0.482880
0.600769 0.933167 0.483002
0.710358 0.932770 0.483185
0.842529 0.932190 0.483215
0.931946 0.931946 0.483521
0.000000 0.000000 0.601410
0.108368 0.000000 0.601410
0.228638 0.000000 0.601349
0.351196 0.000000 0.601288
0.482269 0.000000 0.601135
0.601074 0.000000 0.601074
0.710480 0.000000 0.601074
0.841614 0.000000 0.600952
0.935089 0.000000 0.601074
0.000000 0.108368 0.601410
0.108429 0.108429 0.601440
0.228729 0.108398 0.601379
0.351349 0.108368 0.601288
0.482391 0.108276 0.601135
0.601074 0.108276 0.601074
0.710510 0.108337 0.601105
0.841797 0.108246 0.600952
0.934692 0.108398 0.601074
0.000000 0.228638 0.601349
0.108398 0.228729 0.601379
0.228729 0.228729 0.601288
0.351410 0.228729 0.601227
0.482452 0.228638 0.601074
0.601013 0.228607 0.601013
0.710480 0.228668 0.601013
0.841919 0.228546 0.600891
0.934235 0.228699 0.601013
0.000000 0.351196 0.601288
0.108368 0.351349 0.601288
0.228729 0.351410 0.601227
0.351501 0.351501 0.601135
0.482483 0.351532 0.600983
0.600922 0.351654 0.600922
0.710419 0.351868 0.600922
0.842010 0.351929 0.600800
0.933716 0.352295 0.600922
0.000000 0.482269 0.601135
0.108276 0.482391 0.601135
0.228638 0.482452 0.601074
0.351532 0.482483 0.600983
0.482452 0.482452 0.600830
0.600800 0.482544 0.600800
0.710297 0.482697 0.600800
0.842041 0.482697 0.600647
0.933167 0.483002 0.600769
0.000000 0.601074 0.601074
0.108276 0.601074 0.601074
0.228607 0.601013 0.601013
0.351654 0.600922 0.600922
0.482544 0.600800 0.600800
0.600739 0.600739 0.600739
0.710266 0.600739 0.600739
0.842163 0.600586 0.600586
0.932709 0.600739 0.600739
0.000000 0.710480 0.601074
0.108337 0.710510 0.601105
0.228668 0.710480 0.601013
0.351868 0.710419 0.600922
0.482697 0.710297 0.600800
0.600739 0.710266 0.600739
0.710297 0.710297 0.600739
0.842346 0.710175 0.600616
0.932312 0.710327 0.600739
0.000000 0.841614 0.600952
0.108246 0.841797 0.600952
0.228546 0.841919 0.600891
0.351929 0.842010 0.600800
0.482697 0.842041 0.600647
0.600586 0.842163 0.600586
0.710175 0.842346 0.600616
0.842346 0.842346 0.600464
0.931732 0.842651 0.600586
0.000000 0.935089 0.601074
0.108398 0.934692 0.601074
0.228699 0.934235 0.601013
0.352295 0.933716 0.600922
0.483002 0.933167 0.600769
0.600739 0.932709 0.600739
0.710327 0.932312 0.600739
0.842651 0.931732 0.600586
0.931488 0.931488 0.600739
0.000000 0.000000 0.710724
0.108429 0.000000 0.710754
0.228729 0.000000 0.710693
0.351349 0.000000 0.710632
0.482391 0.000000 0.710510
0.601074 0.000000 0.710480
0.710510 0.000000 0.710510
0.841797 0.000000 0.710388
0.934692 0.000000 0.710541
0.000000 0.108429 0.710754
0.108490 0.108490 0.710785
0.228821 0.108459 0.710724
0.351501 0.108429 0.710663
0.482513 0.108337 0.710541
0.601105 0.108337 0.710510
0.710541 0.108398 0.710541
0.841980 0.108307 0.710419
0.934296 0.108459 0.710571
0.000000 0.228729 0.710693
0.108459 0.228821 0.710724
0.228821 0.228821 0.710693
0.351593 0.228790 0.710602
0.482574 0.228668 0.710510
0.601013 0.228668 0.710480
0.710510 0.228699 0.710510
0.842102 0.228577 0.710388
0.933807 0.228729 0.710541
0.000000 0.351349 0.710632
0.108429 0.351501 0.710663
0.228790 0.351593 0.710602
0.351685 0.351685 0.710541
0.482605 0.351715 0.710449
0.600922 0.351868 0.710419
0.710419 0.352081 0.710419
0.842194 0.352173 0.710297
0.933319 0.352539 0.710480
0.000000 0.482391 0.710510
0.108337 0.482513 0.710541
0.228668 0.482574 0.710510
0.351715 0.482605 0.710449
0.482605 0.482605 0.710327
0.600800 0.482697 0.710297
0.710327 0.482849 0.710327
0.842224 0.482880 0.710205
0.932770 0.483185 0.710358
0.000000 0.601074 0.710480
0.108337 0.601105 0.710510
0.228668 0.601013 0.710480
0.351868 0.600922 0.710419
0.482697 0.600800 0.710297
0.600739 0.600739 0.710266
0.710297 0.600739 0.710297
0.842346 0.600616 0.710175
0.932312 0.600739 0.710327
0.000000 0.710510 0.710510
0.108398 0.710541 0.710541
0.228699 0.710510 0.710510
0.352081 0.710419 0.710419
0.482849 0.710327 0.710327
0.600739 0.710297 0.710297
0.710327 0.710327 0.710327
0.842499 0.710205 0.710205
0.931885 0.710358 0.710358
0.000000 0.841797 0.710388
0.108307 0.841980 0.710419
0.228577 0.842102 0.710388
0.352173 0.842194 0.710297
0.482880 0.842224 0.710205
0.600616 0.842346 0.710175
0.710205 0.842499 0.710205
0.842499 0.842499 0.710083
0.931335 0.842804 0.710266
0.000000 0.934692 0.710541
0.108459 0.934296 0.710571
0.228729 0.933807 0.710541
0.352539 0.933319 0.710480
0.483185 0.932770 0.710358
0.600739 0.932312 0.710327
0.710358 0.931885 0.710358
0.842804 0.931335 0.710266
0.931061 0.931061 0.710449
0.000000 0.000000 0.840973
0.108337 0.000000 0.841187
0.228668 0.000000 0.841309
0.351349 0.000000 0.841431
0.482361 0.000000 0.841461
0.600952 0.000000 0.841614
0.710388 0.000000 0.841797
0.841827 0.000000 0.841827
0.934143 0.000000 0.842133
0.000000 0.108337 0.841187
0.108398 0.108398 0.841400
0.228729 0.108368 0.841522
0.351501 0.108337 0.841614
0.482483 0.108246 0.841675
0.600952 0.108246 0.841797
0.710419 0.108307 0.841980
0.842010 0.108185 0.842010
0.933746 0.108368 0.842316
0.000000 0.228668 0.841309
0.108368 0.228729 0.841522
0.228729 0.228729 0.841644
0.351624 0.228668 0.841736
0.482544 0.228577 0.841766
0.600891 0.228546 0.841919
0.710388 0.228577 0.842102
0.842133 0.228455 0.842133
0.933258 0.228607 0.842438
0.000000 0.351349 0.841431
0.108337 0.351501 0.841614
0.228668 0.351624 0.841736
0.351715 0.351715 0.841827
0.482605 0.351776 0.841888
0.600800 0.351929 0.842010
0.710297 0.352173 0.842194
0.842194 0.352264 0.842194
0.932770 0.352631 0.842499
0.000000 0.482361 0.841461
0.108246 0.482483 0.841675
0.228577 0.482544 0.841766
0.351776 0.482605 0.841888
0.482605 0.482605 0.841919
0.600647 0.482697 0.842041
0.710205 0.482880 0.842224
0.842224 0.482880 0.842224
0.932190 0.483215 0.842529
0.000000 0.600952 0.841614
0.108246 0.600952 0.841797
0.228546 0.600891 0.841919
0.351929 0.600800 0.842010
0.482697 0.600647 0.842041
0.600586 0.600586 0.842163
0.710175 0.600616 0.842346
0.842346 0.600464 0.842346
0.931732 0.600586 0.842651
0.000000 0.710388 0.841797
0.108307 0.710419 0.841980
0.228577 0.710388 0.842102
0.352173 0.710297 0.842194
0.482880 0.710205 0.842224
0.600616 0.710175 0.842346
0.710205 0.710205 0.842499
0.842499 0.710083 0.842499
0.931335 0.710266 0.842804
0.000000 0.841827 0.841827
0.108185 0.842010 0.842010
0.228455 0.842133 0.842133
0.352264 0.842194 0.842194
0.482880 0.842224 0.842224
0.600464 0.842346 0.842346
0.710083 0.842499 0.842499
0.842529 0.842529 0.842529
0.930756 0.842804 0.842804
0.000000 0.934143 0.842133
0.108368 0.933746 0.842316
0.228607 0.933258 0.842438
0.352631 0.932770 0.842499
0.483215 0.932190 0.842529
0.600586 0.931732 0.842651
0.710266 0.931335 0.842804
0.842804 0.930756 0.842804
0.930511 0.930511 0.843109
0.000000 0.000000 0.937408
0.108490 0.000000 0.937073
0.228851 0.000000 0.936584
0.351624 0.000000 0.936096
0.482605 0.000000 0.935577
0.601074 0.000000 0.935089
0.710541 0.000000 0.934692
0.842133 0.000000 0.934143
0.933868 0.000000 0.933868
0.000000 0.108490 0.937073
0.108551 0.108551 0.936676
0.228912 0.108521 0.936188
0.351807 0.108490 0.935699
0.482727 0.108398 0.935150
0.601074 0.108398 0.934692
0.710571 0.108459 0.934296
0.842316 0.108368 0.933746
0.933472 0.108582 0.933472
0.000000 0.228851 0.936584
0.108521 0.228912 0.936188
0.228882 0.228882 0.935730
0.351929 0.228821 0.935242
0.482819 0.228729 0.934692
0.601013 0.228699 0.934235
0.710541 0.228729 0.933807
0.842438 0.228607 0.933258
0.932983 0.228760 0.932983
0.000000 0.351624 0.936096
0.108490 0.351807 0.935699
0.228821 0.351929 0.935242
0.352051 0.352051 0.934723
0.482880 0.352112 0.934174
0.600922 0.352295 0.933716
0.710480 0.352539 0.933319
0.842499 0.352631 0.932770
0.932495 0.353027 0.932495
0.000000 0.482605 0.935577
0.108398 0.482727 0.935150
0.228729 0.482819 0.934692
0.352112 0.482880 0.934174
0.482880 0.482880 0.933624
0.600769 0.483002 0.933167
0.710358 0.483185 0.932770
0.842529 0.483215 0.932190
0.931946 0.483521 0.931946
0.000000 0.601074 0.935089
0.108398 0.601074 0.934692
0.228699 0.601013 0.934235
0.352295 0.600922 0.933716
0.483002 0.600769 0.933167
0.600739 0.600739 0.932709
0.710327 0.600739 0.932312
0.842651 0.600586 0.931732
0.931488 0.600739 0.931488
0.000000 0.710541 0.934692
0.108459 0.710571 0.934296
0.228729 0.710541 0.933807
0.352539 0.710480 0.933319
0.483185 0.710358 0.932770
0.600739 0.710327 0.932312
0.710358 0.710358 0.931885
0.842804 0.710266 0.931335
0.931061 0.710449 0.931061
0.000000 0.842133 0.934143
0.108368 0.842316 0.933746
0.228607 0.842438 0.933258
0.352631 0.842499 0.932770
0.483215 0.842529 0.932190
0.600586 0.842651 0.931732
0.710266 0.842804 0.931335
0.842804 0.842804 0.930756
0.930511 0.843109 0.930511
0.000000 0.933868 0.933868
0.108582 0.933472 0.933472
0.228760 0.932983 0.932983
0.353027 0.932495 0.932495
0.483521 0.931946 0.931946
0.600739 0.931488 0.931488
0.710449 0.931061 0.931061
0.843109 0.930511 0.930511
0.930267 0.930267 0.930267
