Kodak Vision3 250D (5207) - Only contrast.cube
# Created by Benjamin (IWLTBAP) : http://luts.iwltbap.com
# Copyright: (C) Copyright 2010-2017 Triune Films and IWLTBAP SAS
# Cannot be resold, shared or otherwise redistributed
TITLE "Film Print Emulation LUTs Pack (Rec.709, sRGB, DCI-P3)"
LUT_3D_SIZE 9
0.000305 0.000305 0.000305
0.054565 0.000183 0.000183
0.150726 0.000000 0.000000
0.256226 0.000000 0.000000
0.370056 0.000000 0.000000
0.498474 0.000000 0.000000
0.641449 0.000000 0.000000
0.791412 0.000000 0.000000
0.929138 0.000000 0.000000
0.000183 0.054565 0.000183
0.054779 0.054779 0.000061
0.151031 0.054718 0.000000
0.256622 0.054565 0.000000
0.370483 0.054382 0.000000
0.499054 0.054077 0.000000
0.642059 0.053711 0.000000
0.792023 0.053253 0.000000
0.929840 0.052917 0.000000
0.000000 0.150726 0.000000
0.054718 0.151031 0.000000
0.151093 0.151093 0.000000
0.256714 0.151062 0.000000
0.370636 0.150970 0.000000
0.499359 0.150818 0.000000
0.642426 0.150513 0.000000
0.792358 0.150208 0.000000
0.930298 0.149963 0.000000
0.000000 0.256226 0.000000
0.054565 0.256622 0.000000
0.151062 0.256714 0.000000
0.256744 0.256744 0.000000
0.370728 0.256714 0.000000
0.499603 0.256592 0.000000
0.642700 0.256378 0.000000
0.792603 0.256104 0.000000
0.930664 0.255920 0.000000
0.000000 0.370056 0.000000
0.054382 0.370483 0.000000
0.150970 0.370636 0.000000
0.256714 0.370728 0.000000
0.370758 0.370758 0.000000
0.499786 0.370697 0.000000
0.642914 0.370544 0.000000
0.792816 0.370331 0.000000
0.931000 0.370178 0.000000
0.000000 0.498474 0.000000
0.054077 0.499054 0.000000
0.150818 0.499359 0.000000
0.256592 0.499603 0.000000
0.370697 0.499786 0.000000
0.499847 0.499847 0.000000
0.643036 0.499847 0.000000
0.792908 0.499786 0.000000
0.931213 0.499817 0.000000
0.000000 0.641449 0.000000
0.053711 0.642059 0.000000
0.150513 0.642426 0.000000
0.256378 0.642700 0.000000
0.370544 0.642914 0.000000
0.499847 0.643036 0.000000
0.643066 0.643066 0.000000
0.792908 0.643066 0.000000
0.931335 0.643127 0.000000
0.000000 0.791412 0.000000
0.053253 0.792023 0.000000
0.150208 0.792358 0.000000
0.256104 0.792603 0.000000
0.370331 0.792816 0.000000
0.499786 0.792908 0.000000
0.643066 0.792908 0.000000
0.792877 0.792877 0.000000
0.931396 0.792908 0.000000
0.000000 0.929138 0.000000
0.052917 0.929840 0.000000
0.149963 0.930298 0.000000
0.255920 0.930664 0.000000
0.370178 0.931000 0.000000
0.499817 0.931213 0.000000
0.643127 0.931335 0.000000
0.792908 0.931396 0.000000
0.931702 0.931488 0.000000
0.000183 0.000183 0.054565
0.054779 0.000061 0.054779
0.151031 0.000000 0.054718
0.256622 0.000000 0.054565
0.370483 0.000000 0.054382
0.499054 0.000000 0.054077
0.642059 0.000000 0.053711
0.792023 0.000000 0.053253
0.929840 0.000000 0.052917
0.000061 0.054779 0.054779
0.054993 0.054993 0.054993
0.151367 0.054932 0.054932
0.256989 0.054779 0.054779
0.370911 0.054596 0.054596
0.499634 0.054291 0.054291
0.642670 0.053894 0.053894
0.792633 0.053467 0.053467
0.930573 0.053101 0.053101
0.000000 0.151031 0.054718
0.054932 0.151367 0.054932
0.151398 0.151398 0.054840
0.257080 0.151367 0.054718
0.371063 0.151306 0.054504
0.499939 0.151123 0.054230
0.643036 0.150818 0.053833
0.792938 0.150513 0.053375
0.931000 0.150269 0.053040
0.000000 0.256622 0.054565
0.054779 0.256989 0.054779
0.151367 0.257080 0.054718
0.257111 0.257111 0.054565
0.371155 0.257080 0.054382
0.500183 0.256958 0.054077
0.643311 0.256744 0.053680
0.793213 0.256470 0.053253
0.931366 0.256287 0.052887
0.000000 0.370483 0.054382
0.054596 0.370911 0.054596
0.151306 0.371063 0.054504
0.257080 0.371155 0.054382
0.371185 0.371185 0.054169
0.500366 0.371124 0.053894
0.643524 0.370941 0.053497
0.793396 0.370728 0.053040
0.931702 0.370605 0.052704
0.000000 0.499054 0.054077
0.054291 0.499634 0.054291
0.151123 0.499939 0.054230
0.256958 0.500183 0.054077
0.371124 0.500366 0.053894
0.500427 0.500427 0.053589
0.643646 0.500427 0.053192
0.793488 0.500336 0.052765
0.931915 0.500366 0.052399
0.000000 0.642059 0.053711
0.053894 0.642670 0.053894
0.150818 0.643036 0.053833
0.256744 0.643311 0.053680
0.370941 0.643524 0.053497
0.500427 0.643646 0.053192
0.643677 0.643677 0.052795
0.793488 0.643646 0.052368
0.932007 0.643707 0.052002
0.000000 0.792023 0.053253
0.053467 0.792633 0.053467
0.150513 0.792938 0.053375
0.256470 0.793213 0.053253
0.370728 0.793396 0.053040
0.500336 0.793488 0.052765
0.643646 0.793488 0.052368
0.793457 0.793457 0.051941
0.932098 0.793457 0.051575
0.000000 0.929840 0.052917
0.053101 0.930573 0.053101
0.150269 0.931000 0.053040
0.256287 0.931366 0.052887
0.370605 0.931702 0.052704
0.500366 0.931915 0.052399
0.643707 0.932007 0.052002
0.793457 0.932098 0.051575
0.932251 0.932251 0.051208
0.000000 0.000000 0.150726
0.054718 0.000000 0.151031
0.151093 0.000000 0.151093
0.256714 0.000000 0.151062
0.370636 0.000000 0.150970
0.499359 0.000000 0.150818
0.642426 0.000000 0.150513
0.792358 0.000000 0.150208
0.930298 0.000000 0.149963
0.000000 0.054718 0.151031
0.054932 0.054932 0.151367
0.151398 0.054840 0.151398
0.257080 0.054718 0.151367
0.371063 0.054504 0.151306
0.499939 0.054230 0.151123
0.643036 0.053833 0.150818
0.792938 0.053375 0.150513
0.931000 0.053040 0.150269
0.000000 0.151093 0.151093
0.054840 0.151398 0.151398
0.151428 0.151428 0.151428
0.257172 0.151428 0.151428
0.371216 0.151337 0.151337
0.500244 0.151154 0.151154
0.643372 0.150879 0.150879
0.793274 0.150543 0.150543
0.931427 0.150299 0.150299
0.000000 0.256714 0.151062
0.054718 0.257080 0.151367
0.151428 0.257172 0.151428
0.257202 0.257202 0.151398
0.371307 0.257172 0.151306
0.500458 0.257050 0.151123
0.643646 0.256836 0.150848
0.793518 0.256561 0.150513
0.931793 0.256348 0.150269
0.000000 0.370636 0.150970
0.054504 0.371063 0.151306
0.151337 0.371216 0.151337
0.257172 0.371307 0.151306
0.371338 0.371338 0.151215
0.500641 0.371277 0.151031
0.643860 0.371094 0.150757
0.793732 0.370880 0.150421
0.932129 0.370758 0.150177
0.000000 0.499359 0.150818
0.054230 0.499939 0.151123
0.151154 0.500244 0.151154
0.257050 0.500458 0.151123
0.371277 0.500641 0.151031
0.500732 0.500732 0.150848
0.643982 0.500702 0.150574
0.793823 0.500641 0.150238
0.932343 0.500671 0.149994
0.000000 0.642426 0.150513
0.053833 0.643036 0.150818
0.150879 0.643372 0.150879
0.256836 0.643646 0.150848
0.371094 0.643860 0.150757
0.500702 0.643982 0.150574
0.644012 0.644012 0.150269
0.793793 0.643982 0.149933
0.932434 0.644043 0.149689
0.000000 0.792358 0.150208
0.053375 0.792938 0.150513
0.150543 0.793274 0.150543
0.256561 0.793518 0.150513
0.370880 0.793732 0.150421
0.500641 0.793823 0.150238
0.643982 0.793793 0.149933
0.793762 0.793762 0.149628
0.932526 0.793762 0.149353
0.000000 0.930298 0.149963
0.053040 0.931000 0.150269
0.150299 0.931427 0.150299
0.256348 0.931793 0.150269
0.370758 0.932129 0.150177
0.500671 0.932343 0.149994
0.644043 0.932434 0.149689
0.793762 0.932526 0.149353
0.932678 0.932678 0.149109
0.000000 0.000000 0.256226
0.054565 0.000000 0.256622
0.151062 0.000000 0.256714
0.256744 0.000000 0.256744
0.370728 0.000000 0.256714
0.499603 0.000000 0.256592
0.642700 0.000000 0.256378
0.792603 0.000000 0.256104
0.930664 0.000000 0.255920
0.000000 0.054565 0.256622
0.054779 0.054779 0.256989
0.151367 0.054718 0.257080
0.257111 0.054565 0.257111
0.371155 0.054382 0.257080
0.500183 0.054077 0.256958
0.643311 0.053680 0.256744
0.793213 0.053253 0.256470
0.931366 0.052887 0.256287
0.000000 0.151062 0.256714
0.054718 0.151367 0.257080
0.151428 0.151428 0.257172
0.257202 0.151398 0.257202
0.371307 0.151306 0.257172
0.500458 0.151123 0.257050
0.643646 0.150848 0.256836
0.793518 0.150513 0.256561
0.931793 0.150269 0.256348
0.000000 0.256744 0.256744
0.054565 0.257111 0.257111
0.151398 0.257202 0.257202
0.257233 0.257233 0.257233
0.371399 0.257202 0.257202
0.500702 0.257080 0.257080
0.643921 0.256866 0.256866
0.793793 0.256592 0.256592
0.932190 0.256378 0.256378
0.000000 0.370728 0.256714
0.054382 0.371155 0.257080
0.151306 0.371307 0.257172
0.257202 0.371399 0.257202
0.371429 0.371429 0.257172
0.500885 0.371338 0.257050
0.644165 0.371185 0.256836
0.793976 0.370972 0.256561
0.932495 0.370819 0.256348
0.000000 0.499603 0.256592
0.054077 0.500183 0.256958
0.151123 0.500458 0.257050
0.257080 0.500702 0.257080
0.371338 0.500885 0.257050
0.500977 0.500977 0.256927
0.644257 0.500946 0.256683
0.794067 0.500885 0.256409
0.932709 0.500916 0.256226
0.000000 0.642700 0.256378
0.053680 0.643311 0.256744
0.150848 0.643646 0.256836
0.256866 0.643921 0.256866
0.371185 0.644165 0.256836
0.500946 0.644257 0.256683
0.644287 0.644287 0.256470
0.794037 0.644287 0.256195
0.932831 0.644318 0.256012
0.000000 0.792603 0.256104
0.053253 0.793213 0.256470
0.150513 0.793518 0.256561
0.256592 0.793793 0.256592
0.370972 0.793976 0.256561
0.500885 0.794067 0.256409
0.644287 0.794037 0.256195
0.794006 0.794006 0.255920
0.932892 0.794006 0.255737
0.000000 0.930664 0.255920
0.052887 0.931366 0.256287
0.150269 0.931793 0.256348
0.256378 0.932190 0.256378
0.370819 0.932495 0.256348
0.500916 0.932709 0.256226
0.644318 0.932831 0.256012
0.794006 0.932892 0.255737
0.933014 0.933014 0.255524
0.000000 0.000000 0.370056
0.054382 0.000000 0.370483
0.150970 0.000000 0.370636
0.256714 0.000000 0.370728
0.370758 0.000000 0.370758
0.499786 0.000000 0.370697
0.642914 0.000000 0.370544
0.792816 0.000000 0.370331
0.931000 0.000000 0.370178
0.000000 0.054382 0.370483
0.054596 0.054596 0.370911
0.151306 0.054504 0.371063
0.257080 0.054382 0.371155
0.371185 0.054169 0.371185
0.500366 0.053894 0.371124
0.643524 0.053497 0.370941
0.793396 0.053040 0.370728
0.931702 0.052704 0.370605
0.000000 0.150970 0.370636
0.054504 0.151306 0.371063
0.151337 0.151337 0.371216
0.257172 0.151306 0.371307
0.371338 0.151215 0.371338
0.500641 0.151031 0.371277
0.643860 0.150757 0.371094
0.793732 0.150421 0.370880
0.932129 0.150177 0.370758
0.000000 0.256714 0.370728
0.054382 0.257080 0.371155
0.151306 0.257172 0.371307
0.257202 0.257202 0.371399
0.371429 0.257172 0.371429
0.500885 0.257050 0.371338
0.644165 0.256836 0.371185
0.793976 0.256561 0.370972
0.932495 0.256348 0.370819
0.000000 0.370758 0.370758
0.054169 0.371185 0.371185
0.151215 0.371338 0.371338
0.257172 0.371429 0.371429
0.371460 0.371460 0.371460
0.501068 0.371368 0.371368
0.644379 0.371216 0.371216
0.794159 0.371002 0.371002
0.932800 0.370850 0.370850
0.000000 0.499786 0.370697
0.053894 0.500366 0.371124
0.151031 0.500641 0.371277
0.257050 0.500885 0.371338
0.371368 0.501068 0.371368
0.501160 0.501160 0.371307
0.644501 0.501129 0.371124
0.794250 0.501068 0.370911
0.933014 0.501099 0.370789
0.000000 0.642914 0.370544
0.053497 0.643524 0.370941
0.150757 0.643860 0.371094
0.256836 0.644165 0.371185
0.371216 0.644379 0.371216
0.501129 0.644501 0.371124
0.644531 0.644531 0.370972
0.794250 0.644501 0.370758
0.933136 0.644562 0.370605
0.000000 0.792816 0.370331
0.053040 0.793396 0.370728
0.150421 0.793732 0.370880
0.256561 0.793976 0.370972
0.371002 0.794159 0.371002
0.501068 0.794250 0.370911
0.644501 0.794250 0.370758
0.794189 0.794189 0.370544
0.933197 0.794189 0.370392
0.000000 0.931000 0.370178
0.052704 0.931702 0.370605
0.150177 0.932129 0.370758
0.256348 0.932495 0.370819
0.370850 0.932800 0.370850
0.501099 0.933014 0.370789
0.644562 0.933136 0.370605
0.794189 0.933197 0.370392
0.933319 0.933319 0.370270
0.000000 0.000000 0.498474
0.054077 0.000000 0.499054
0.150818 0.000000 0.499359
0.256592 0.000000 0.499603
0.370697 0.000000 0.499786
0.499847 0.000000 0.499847
0.643036 0.000000 0.499847
0.792908 0.000000 0.499786
0.931213 0.000000 0.499817
0.000000 0.054077 0.499054
0.054291 0.054291 0.499634
0.151123 0.054230 0.499939
0.256958 0.054077 0.500183
0.371124 0.053894 0.500366
0.500427 0.053589 0.500427
0.643646 0.053192 0.500427
0.793488 0.052765 0.500336
0.931915 0.052399 0.500366
0.000000 0.150818 0.499359
0.054230 0.151123 0.499939
0.151154 0.151154 0.500244
0.257050 0.151123 0.500458
0.371277 0.151031 0.500641
0.500732 0.150848 0.500732
0.643982 0.150574 0.500702
0.793823 0.150238 0.500641
0.932343 0.149994 0.500671
0.000000 0.256592 0.499603
0.054077 0.256958 0.500183
0.151123 0.257050 0.500458
0.257080 0.257080 0.500702
0.371338 0.257050 0.500885
0.500977 0.256927 0.500977
0.644257 0.256683 0.500946
0.794067 0.256409 0.500885
0.932709 0.256226 0.500916
0.000000 0.370697 0.499786
0.053894 0.371124 0.500366
0.151031 0.371277 0.500641
0.257050 0.371338 0.500885
0.371368 0.371368 0.501068
0.501160 0.371307 0.501160
0.644501 0.371124 0.501129
0.794250 0.370911 0.501068
0.933014 0.370789 0.501099
0.000000 0.499847 0.499847
0.053589 0.500427 0.500427
0.150848 0.500732 0.500732
0.256927 0.500977 0.500977
0.371307 0.501160 0.501160
0.501221 0.501221 0.501221
0.644592 0.501190 0.501190
0.794312 0.501129 0.501129
0.933228 0.501160 0.501160
0.000000 0.643036 0.499847
0.053192 0.643646 0.500427
0.150574 0.643982 0.500702
0.256683 0.644257 0.500946
0.371124 0.644501 0.501129
0.501190 0.644592 0.501190
0.644623 0.644623 0.501190
0.794312 0.644623 0.501129
0.933319 0.644653 0.501129
0.000000 0.792908 0.499786
0.052765 0.793488 0.500336
0.150238 0.793823 0.500641
0.256409 0.794067 0.500885
0.370911 0.794250 0.501068
0.501129 0.794312 0.501129
0.644623 0.794312 0.501129
0.794250 0.794250 0.501068
0.933380 0.794281 0.501068
0.000000 0.931213 0.499817
0.052399 0.931915 0.500366
0.149994 0.932343 0.500671
0.256226 0.932709 0.500916
0.370789 0.933014 0.501099
0.501160 0.933228 0.501160
0.644653 0.933319 0.501129
0.794281 0.933380 0.501068
0.933533 0.933533 0.501099
0.000000 0.000000 0.641449
0.053711 0.000000 0.642059
0.150513 0.000000 0.642426
0.256378 0.000000 0.642700
0.370544 0.000000 0.642914
0.499847 0.000000 0.643036
0.643066 0.000000 0.643066
0.792908 0.000000 0.643066
0.931335 0.000000 0.643127
0.000000 0.053711 0.642059
0.053894 0.053894 0.642670
0.150818 0.053833 0.643036
0.256744 0.053680 0.643311
0.370941 0.053497 0.643524
0.500427 0.053192 0.643646
0.643677 0.052795 0.643677
0.793488 0.052368 0.643646
0.932007 0.052002 0.643707
0.000000 0.150513 0.642426
0.053833 0.150818 0.643036
0.150879 0.150879 0.643372
0.256836 0.150848 0.643646
0.371094 0.150757 0.643860
0.500702 0.150574 0.643982
0.644012 0.150269 0.644012
0.793793 0.149933 0.643982
0.932434 0.149689 0.644043
0.000000 0.256378 0.642700
0.053680 0.256744 0.643311
0.150848 0.256836 0.643646
0.256866 0.256866 0.643921
0.371185 0.256836 0.644165
0.500946 0.256683 0.644257
0.644287 0.256470 0.644287
0.794037 0.256195 0.644287
0.932831 0.256012 0.644318
0.000000 0.370544 0.642914
0.053497 0.370941 0.643524
0.150757 0.371094 0.643860
0.256836 0.371185 0.644165
0.371216 0.371216 0.644379
0.501129 0.371124 0.644501
0.644531 0.370972 0.644531
0.794250 0.370758 0.644501
0.933136 0.370605 0.644562
0.000000 0.499847 0.643036
0.053192 0.500427 0.643646
0.150574 0.500702 0.643982
0.256683 0.500946 0.644257
0.371124 0.501129 0.644501
0.501190 0.501190 0.644592
0.644623 0.501190 0.644623
0.794312 0.501129 0.644623
0.933319 0.501129 0.644653
0.000000 0.643066 0.643066
0.052795 0.643677 0.643677
0.150269 0.644012 0.644012
0.256470 0.644287 0.644287
0.370972 0.644531 0.644531
0.501190 0.644623 0.644623
0.644653 0.644653 0.644653
0.794312 0.644623 0.644623
0.933441 0.644684 0.644684
0.000000 0.792908 0.643066
0.052368 0.793488 0.643646
0.149933 0.793793 0.643982
0.256195 0.794037 0.644287
0.370758 0.794250 0.644501
0.501129 0.794312 0.644623
0.644623 0.794312 0.644623
0.794250 0.794250 0.644623
0.933502 0.794250 0.644653
0.000000 0.931335 0.643127
0.052002 0.932007 0.643707
0.149689 0.932434 0.644043
0.256012 0.932831 0.644318
0.370605 0.933136 0.644562
0.501129 0.933319 0.644653
0.644684 0.933441 0.644684
0.794250 0.933502 0.644653
0.933624 0.933624 0.644714
0.000000 0.000000 0.791412
0.053253 0.000000 0.792023
0.150208 0.000000 0.792358
0.256104 0.000000 0.792603
0.370331 0.000000 0.792816
0.499786 0.000000 0.792908
0.643066 0.000000 0.792908
0.792877 0.000000 0.792877
0.931396 0.000000 0.792908
0.000000 0.053253 0.792023
0.053467 0.053467 0.792633
0.150513 0.053375 0.792938
0.256470 0.053253 0.793213
0.370728 0.053040 0.793396
0.500336 0.052765 0.793488
0.643646 0.052368 0.793488
0.793457 0.051941 0.793457
0.932098 0.051575 0.793457
0.000000 0.150208 0.792358
0.053375 0.150513 0.792938
0.150543 0.150543 0.793274
0.256561 0.150513 0.793518
0.370880 0.150421 0.793732
0.500641 0.150238 0.793823
0.643982 0.149933 0.793793
0.793762 0.149628 0.793762
0.932526 0.149353 0.793762
0.000000 0.256104 0.792603
0.053253 0.256470 0.793213
0.150513 0.256561 0.793518
0.256592 0.256592 0.793793
0.370972 0.256561 0.793976
0.500885 0.256409 0.794067
0.644287 0.256195 0.794037
0.794006 0.255920 0.794006
0.932892 0.255737 0.794006
0.000000 0.370331 0.792816
0.053040 0.370728 0.793396
0.150421 0.370880 0.793732
0.256561 0.370972 0.793976
0.371002 0.371002 0.794159
0.501068 0.370911 0.794250
0.644501 0.370758 0.794250
0.794189 0.370544 0.794189
0.933197 0.370392 0.794189
0.000000 0.499786 0.792908
0.052765 0.500336 0.793488
0.150238 0.500641 0.793823
0.256409 0.500885 0.794067
0.370911 0.501068 0.794250
0.501129 0.501129 0.794312
0.644623 0.501129 0.794312
0.794250 0.501068 0.794250
0.933380 0.501068 0.794281
0.000000 0.643066 0.792908
0.052368 0.643646 0.793488
0.149933 0.643982 0.793793
0.256195 0.644287 0.794037
0.370758 0.644501 0.794250
0.501129 0.644623 0.794312
0.644623 0.644623 0.794312
0.794250 0.644623 0.794250
0.933502 0.644653 0.794250
0.000000 0.792877 0.792877
0.051941 0.793457 0.793457
0.149628 0.793762 0.793762
0.255920 0.794006 0.794006
0.370544 0.794189 0.794189
0.501068 0.794250 0.794250
0.644623 0.794250 0.794250
0.794189 0.794189 0.794189
0.933563 0.794189 0.794189
0.000000 0.931396 0.792908
0.051575 0.932098 0.793457
0.149353 0.932526 0.793762
0.255737 0.932892 0.794006
0.370392 0.933197 0.794189
0.501068 0.933380 0.794281
0.644653 0.933502 0.794250
0.794189 0.933563 0.794189
0.933685 0.933685 0.794189
0.000000 0.000000 0.929047
0.052917 0.000000 0.929840
0.149963 0.000000 0.930298
0.255920 0.000000 0.930664
0.370178 0.000000 0.931000
0.499817 0.000000 0.931213
0.643127 0.000000 0.931335
0.792908 0.000000 0.931396
0.931549 0.000000 0.931549
0.000000 0.052917 0.929840
0.053101 0.053101 0.930573
0.150269 0.053040 0.931000
0.256287 0.052887 0.931366
0.370605 0.052704 0.931702
0.500366 0.052399 0.931915
0.643707 0.052002 0.932007
0.793457 0.051575 0.932098
0.932251 0.051208 0.932251
0.000000 0.149963 0.930298
0.053040 0.150269 0.931000
0.150299 0.150299 0.931427
0.256348 0.150269 0.931793
0.370758 0.150177 0.932129
0.500671 0.149994 0.932343
0.644043 0.149689 0.932434
0.793762 0.149353 0.932526
0.932678 0.149109 0.932678
0.000000 0.255920 0.930664
0.052887 0.256287 0.931366
0.150269 0.256348 0.931793
0.256378 0.256378 0.932190
0.370819 0.256348 0.932495
0.500916 0.256226 0.932709
0.644318 0.256012 0.932831
0.794006 0.255737 0.932892
0.933014 0.255524 0.933014
0.000000 0.370178 0.931000
0.052704 0.370605 0.931702
0.150177 0.370758 0.932129
0.256348 0.370819 0.932495
0.370850 0.370850 0.932800
0.501099 0.370789 0.933014
0.644562 0.370605 0.933136
0.794189 0.370392 0.933197
0.933319 0.370270 0.933319
0.000000 0.499817 0.931213
0.052399 0.500366 0.931915
0.149994 0.500671 0.932343
0.256226 0.500916 0.932709
0.370789 0.501099 0.933014
0.501160 0.501160 0.933228
0.644653 0.501129 0.933319
0.794281 0.501068 0.933380
0.933533 0.501099 0.933533
0.000000 0.643127 0.931335
0.052002 0.643707 0.932007
0.149689 0.644043 0.932434
0.256012 0.644318 0.932831
0.370605 0.644562 0.933136
0.501129 0.644653 0.933319
0.644684 0.644684 0.933441
0.794250 0.644653 0.933502
0.933624 0.644714 0.933624
0.000000 0.792908 0.931396
0.051575 0.793457 0.932098
0.149353 0.793762 0.932526
0.255737 0.794006 0.932892
0.370392 0.794189 0.933197
0.501068 0.794281 0.933380
0.644653 0.794250 0.933502
0.794189 0.794189 0.933563
0.933685 0.794189 0.933685
0.000000 0.931549 0.931549
0.051208 0.932251 0.932251
0.149109 0.932678 0.932678
0.255524 0.933014 0.933014
0.370270 0.933319 0.933319
0.501099 0.933533 0.933533
0.644714 0.933624 0.933624
0.794189 0.933685 0.933685
0.933807 0.933807 0.933807
