Kodak Vision2 200T (5217) - Only color.cube
# Created by Benjamin (IWLTBAP) : http://luts.iwltbap.com
# Copyright: (C) Copyright 2010-2017 Triune Films and IWLTBAP SAS
# Cannot be resold, shared or otherwise redistributed
TITLE "Film Print Emulation LUTs Pack (Rec.709, sRGB, DCI-P3)"
LUT_3D_SIZE 9
0.000000 0.000000 0.001160
0.118103 0.015869 0.020355
0.230530 0.032593 0.037445
0.339417 0.041656 0.045197
0.440979 0.047150 0.050537
0.543427 0.054779 0.058075
0.665070 0.071716 0.073456
0.788666 0.101044 0.105164
0.880951 0.146973 0.153473
0.000000 0.065094 0.000641
0.116821 0.112671 0.028656
0.236664 0.124603 0.044373
0.352020 0.126953 0.053436
0.450928 0.132568 0.058746
0.561523 0.139709 0.066101
0.685791 0.156860 0.084808
0.810242 0.195618 0.126740
0.901581 0.237701 0.166473
0.000000 0.129028 0.000092
0.054169 0.154816 0.000000
0.230804 0.222778 0.052795
0.351471 0.235229 0.057617
0.458710 0.228149 0.065033
0.577484 0.230743 0.077942
0.707886 0.249756 0.100708
0.827057 0.294647 0.149200
0.920135 0.325562 0.183075
0.000000 0.198181 0.000000
0.000000 0.208588 0.000000
0.192719 0.282745 0.006256
0.347260 0.333618 0.070312
0.462769 0.346924 0.075287
0.591553 0.350159 0.091003
0.733948 0.359711 0.120300
0.849548 0.403625 0.181091
0.937866 0.425568 0.216003
0.000000 0.265778 0.000000
0.000000 0.269379 0.000000
0.082336 0.312408 0.000000
0.313293 0.404236 0.059570
0.462860 0.445374 0.089966
0.600586 0.470154 0.104950
0.751862 0.488556 0.140625
0.870148 0.520813 0.198975
0.941833 0.540497 0.240509
0.000000 0.328796 0.000000
0.000000 0.333496 0.000000
0.023499 0.362030 0.000000
0.261047 0.452332 0.019592
0.443817 0.538879 0.089386
0.609222 0.585022 0.123108
0.764709 0.621582 0.163025
0.885620 0.650757 0.222046
0.939240 0.660858 0.260590
0.000000 0.383575 0.010254
0.000000 0.389191 0.013611
0.000000 0.410553 0.021942
0.198395 0.489075 0.018524
0.410950 0.618927 0.047668
0.593231 0.691010 0.130402
0.766205 0.737671 0.181915
0.893585 0.766785 0.252625
0.938141 0.770203 0.292053
0.000000 0.440369 0.046783
0.000000 0.447235 0.050537
0.000000 0.460663 0.053406
0.109100 0.524719 0.018341
0.373718 0.682922 0.049835
0.555023 0.774109 0.092010
0.750153 0.819000 0.188080
0.897552 0.865662 0.271637
0.936981 0.873016 0.330261
0.000000 0.501221 0.083496
0.000000 0.508270 0.088074
0.000000 0.522125 0.091034
0.061218 0.582306 0.091492
0.313507 0.722076 0.048370
0.494171 0.829376 0.075867
0.698456 0.905212 0.159882
0.871490 0.945831 0.267242
0.936218 0.941254 0.348694
0.015076 0.025604 0.165161
0.136414 0.045013 0.141663
0.235107 0.038635 0.126892
0.341644 0.045105 0.130280
0.442749 0.050354 0.135406
0.549713 0.057678 0.141541
0.670135 0.075043 0.156769
0.796295 0.107971 0.187805
0.888092 0.149506 0.229645
0.000000 0.117462 0.133301
0.120850 0.119720 0.134644
0.243530 0.123383 0.131439
0.356445 0.129211 0.137787
0.454895 0.134430 0.143768
0.567902 0.142090 0.151306
0.694641 0.162262 0.170746
0.819183 0.204407 0.211395
0.910309 0.245209 0.251770
0.000000 0.152893 0.073822
0.025818 0.163361 0.059875
0.233246 0.227600 0.124054
0.357666 0.236267 0.142120
0.464447 0.229553 0.151062
0.584717 0.233246 0.162231
0.718353 0.253845 0.184204
0.837036 0.313263 0.246155
0.931427 0.340149 0.274597
0.000000 0.198853 0.000000
0.000000 0.213715 0.000000
0.171967 0.280548 0.057526
0.355164 0.339996 0.142639
0.471802 0.352417 0.160339
0.600586 0.352966 0.174866
0.745300 0.366089 0.205261
0.853058 0.408783 0.264160
0.939362 0.430786 0.296875
0.000000 0.266968 0.000000
0.000000 0.272858 0.000000
0.050354 0.317047 0.031494
0.307281 0.406921 0.103302
0.470825 0.455444 0.161377
0.612274 0.479736 0.187225
0.760956 0.496277 0.225586
0.873138 0.525330 0.280487
0.941498 0.543335 0.315552
0.000000 0.329437 0.000000
0.000000 0.335541 0.000000
0.021698 0.363586 0.009155
0.237518 0.448944 0.059509
0.446136 0.547058 0.146057
0.614441 0.593811 0.192413
0.769135 0.627533 0.240448
0.889038 0.655243 0.300720
0.938660 0.663513 0.334259
0.000000 0.383728 0.000000
0.000000 0.391632 0.000000
0.000000 0.412842 0.010345
0.142853 0.476349 0.048401
0.404297 0.623016 0.096710
0.592041 0.696381 0.186340
0.765686 0.739594 0.247375
0.894012 0.768707 0.317810
0.937561 0.772430 0.359711
0.000000 0.441223 0.029785
0.000000 0.449158 0.035889
0.000000 0.464752 0.043579
0.074860 0.526062 0.074463
0.357147 0.674316 0.087280
0.545563 0.775024 0.140472
0.745667 0.821259 0.244202
0.895660 0.866547 0.330475
0.936462 0.874451 0.391022
0.000000 0.503479 0.068359
0.000000 0.511932 0.073395
0.000000 0.528503 0.079285
0.060028 0.586670 0.106079
0.289551 0.703857 0.076172
0.480438 0.826019 0.122040
0.687653 0.906799 0.181641
0.865601 0.945526 0.316528
0.935760 0.940796 0.404541
0.000000 0.000000 0.311218
0.139130 0.000000 0.313416
0.279480 0.070068 0.283844
0.373413 0.069580 0.250824
0.455475 0.062164 0.233704
0.561340 0.066437 0.229462
0.683807 0.083038 0.240936
0.806061 0.115234 0.270416
0.896484 0.155914 0.311432
0.000000 0.126190 0.309998
0.000000 0.067474 0.322113
0.281189 0.110382 0.299194
0.381744 0.134277 0.260010
0.468414 0.140900 0.240143
0.578369 0.149078 0.238922
0.708740 0.170593 0.255585
0.827942 0.219666 0.300568
0.920807 0.253113 0.332581
0.000000 0.234833 0.271576
0.000000 0.239563 0.282715
0.234375 0.230347 0.285126
0.381134 0.236603 0.257385
0.477600 0.229431 0.238495
0.593872 0.237457 0.245728
0.732727 0.263214 0.269714
0.845398 0.328491 0.333771
0.936523 0.349152 0.357117
0.000000 0.283569 0.213959
0.000000 0.292999 0.216064
0.092590 0.317322 0.204132
0.370300 0.351776 0.216888
0.488708 0.352570 0.243195
0.613861 0.358215 0.260071
0.754669 0.370911 0.291412
0.858612 0.414978 0.345917
0.940826 0.436462 0.374817
0.000000 0.315247 0.153259
0.000000 0.314911 0.139771
0.051605 0.337616 0.130280
0.293304 0.410461 0.133972
0.483002 0.469147 0.232544
0.624298 0.490387 0.267242
0.771057 0.502930 0.310089
0.878296 0.530029 0.357697
0.940643 0.546844 0.389221
0.000000 0.342926 0.078247
0.000000 0.340759 0.039307
0.020721 0.367859 0.036743
0.192139 0.436737 0.101288
0.444916 0.556976 0.199371
0.621582 0.604218 0.262115
0.776367 0.635193 0.315216
0.893311 0.660370 0.375916
0.938049 0.667023 0.406555
0.000000 0.387848 0.000000
0.000000 0.394531 0.000000
0.000000 0.416687 0.004028
0.094147 0.476440 0.075592
0.390656 0.622681 0.146362
0.588928 0.702057 0.242767
0.768860 0.745697 0.312164
0.897644 0.773102 0.385620
0.937042 0.774963 0.424072
0.000000 0.444305 0.000427
0.000000 0.452026 0.018066
0.000000 0.469391 0.033264
0.073883 0.532043 0.087067
0.324249 0.657043 0.124481
0.531372 0.775085 0.179138
0.739288 0.823883 0.294861
0.896515 0.869934 0.389984
0.936005 0.877502 0.443573
0.000000 0.506897 0.054077
0.000000 0.518616 0.059326
0.000000 0.532898 0.067169
0.060608 0.592682 0.111511
0.249725 0.679840 0.105988
0.462250 0.818939 0.162292
0.674591 0.906738 0.226227
0.859985 0.945099 0.363464
0.935364 0.940369 0.453705
0.000000 0.000000 0.432648
0.123444 0.000000 0.438812
0.276764 0.000000 0.435211
0.400909 0.084351 0.412872
0.495667 0.091187 0.379578
0.600647 0.094971 0.362152
0.714203 0.104187 0.356506
0.822906 0.136810 0.376678
0.912109 0.166443 0.392090
0.000000 0.118286 0.438629
0.000000 0.063171 0.453186
0.261139 0.009247 0.450348
0.409088 0.114807 0.427063
0.510223 0.147827 0.389801
0.621429 0.169281 0.373627
0.740326 0.193481 0.373840
0.841919 0.244446 0.402222
0.931152 0.266205 0.416565
0.000000 0.236298 0.426910
0.000000 0.235474 0.441711
0.174408 0.195038 0.443756
0.401855 0.205139 0.432983
0.523132 0.227478 0.391815
0.636353 0.243652 0.376740
0.759155 0.280609 0.384186
0.852020 0.332397 0.413391
0.938171 0.355530 0.431702
0.000000 0.336639 0.394012
0.000000 0.344360 0.407532
0.033264 0.348663 0.414093
0.358459 0.352448 0.415253
0.518341 0.364105 0.395874
0.645813 0.362152 0.377472
0.775604 0.378784 0.388702
0.868744 0.421295 0.424744
0.941193 0.442780 0.444000
0.000000 0.391144 0.342926
0.000000 0.400787 0.347931
0.033264 0.417114 0.351349
0.227692 0.454254 0.339630
0.507629 0.488770 0.357544
0.652557 0.496613 0.384216
0.787933 0.510132 0.398743
0.884399 0.533936 0.430359
0.939301 0.550201 0.456116
0.000000 0.428009 0.295410
0.000000 0.434540 0.293976
0.024963 0.453796 0.297943
0.131775 0.486633 0.298828
0.423340 0.578796 0.283783
0.641052 0.618622 0.337585
0.784088 0.640350 0.393188
0.897003 0.664734 0.441559
0.937500 0.669159 0.471069
0.000000 0.458069 0.253784
0.000000 0.460876 0.246490
0.000336 0.472168 0.233185
0.097565 0.506104 0.230652
0.368195 0.617798 0.192017
0.583862 0.710449 0.296448
0.773010 0.752014 0.375366
0.901550 0.777069 0.443573
0.936462 0.778564 0.487762
0.000000 0.488678 0.218781
0.000000 0.490326 0.204865
0.000000 0.494934 0.179169
0.076111 0.540070 0.162048
0.292053 0.638092 0.159882
0.517609 0.774506 0.228699
0.735016 0.828217 0.345490
0.897675 0.873108 0.439819
0.935486 0.880859 0.505676
0.000000 0.529236 0.190063
0.000000 0.529541 0.164246
0.000000 0.538513 0.116302
0.061737 0.598236 0.122711
0.191956 0.656891 0.135742
0.445648 0.811096 0.202240
0.662506 0.907135 0.268097
0.856628 0.944550 0.409790
0.934875 0.939850 0.511993
0.000000 0.000000 0.533478
0.117126 0.000000 0.544708
0.265625 0.000000 0.564484
0.405945 0.072174 0.551727
0.530365 0.109863 0.527374
0.634857 0.124329 0.501282
0.752625 0.142914 0.487885
0.855347 0.187500 0.497406
0.927338 0.195679 0.493774
0.000000 0.118958 0.546631
0.000000 0.060608 0.570923
0.244873 0.000000 0.585541
0.410217 0.028625 0.572601
0.550171 0.148956 0.545502
0.659424 0.189758 0.518555
0.779327 0.230438 0.512238
0.871796 0.275055 0.517456
0.936371 0.298889 0.522034
0.000000 0.237274 0.543182
0.000000 0.236084 0.565643
0.135132 0.182373 0.589020
0.383636 0.187561 0.579651
0.558411 0.208649 0.559174
0.683075 0.256134 0.531036
0.799072 0.310059 0.527100
0.882507 0.351776 0.526245
0.939728 0.381226 0.535278
0.000000 0.342987 0.522675
0.000000 0.351135 0.540009
0.000000 0.351929 0.557068
0.303772 0.327332 0.556366
0.542694 0.343597 0.556366
0.687256 0.368164 0.529083
0.809875 0.396423 0.527039
0.893707 0.432831 0.533508
0.940369 0.462311 0.547180
0.000000 0.427612 0.481903
0.000000 0.438934 0.496063
0.000000 0.453461 0.506683
0.179626 0.465271 0.516418
0.491211 0.490631 0.518890
0.677216 0.507416 0.518158
0.810699 0.525970 0.521606
0.906006 0.548309 0.539032
0.937805 0.566010 0.558014
0.000000 0.480011 0.441254
0.000000 0.491791 0.448242
0.000000 0.507324 0.457031
0.088623 0.536224 0.465149
0.409851 0.597290 0.462158
0.657562 0.640106 0.487274
0.796478 0.658569 0.518250
0.913635 0.677704 0.545868
0.936615 0.678040 0.566193
0.000000 0.523163 0.413788
0.000000 0.532288 0.418732
0.001831 0.550903 0.420410
0.093140 0.587708 0.430878
0.299835 0.662384 0.414368
0.551880 0.734558 0.423676
0.789185 0.765717 0.478546
0.907959 0.784515 0.538452
0.935638 0.783478 0.579834
0.000000 0.560577 0.391571
0.000000 0.570068 0.393555
0.000000 0.585480 0.391663
0.081024 0.624237 0.397186
0.191986 0.700287 0.366699
0.423706 0.796448 0.285431
0.708466 0.849701 0.388214
0.902679 0.880310 0.513855
0.934814 0.885284 0.579132
0.000000 0.601105 0.377777
0.000000 0.605225 0.370819
0.000000 0.614349 0.361877
0.063660 0.651550 0.356598
0.153717 0.694489 0.347412
0.386841 0.826996 0.243317
0.637421 0.931732 0.306885
0.852386 0.942139 0.448730
0.934326 0.939301 0.572968
0.014740 0.000000 0.658417
0.121643 0.000000 0.676056
0.262604 0.000000 0.702332
0.415466 0.000000 0.707947
0.558624 0.130249 0.694122
0.683746 0.175537 0.675873
0.777679 0.195770 0.648865
0.872620 0.238922 0.642517
0.936371 0.270508 0.632935
0.000000 0.126007 0.678802
0.000000 0.063507 0.703217
0.240051 0.000000 0.725922
0.419922 0.002899 0.731018
0.580048 0.154663 0.717133
0.713776 0.232758 0.704071
0.801483 0.272614 0.683380
0.894409 0.328247 0.674835
0.939026 0.356476 0.664124
0.000000 0.248901 0.681427
0.000000 0.251099 0.705963
0.069000 0.183197 0.739044
0.381073 0.159149 0.741486
0.577240 0.203674 0.732574
0.731873 0.282043 0.724030
0.823608 0.343414 0.705566
0.903809 0.394897 0.688843
0.939667 0.427673 0.682983
0.000000 0.355804 0.663269
0.000000 0.367584 0.684265
0.000000 0.367889 0.707611
0.272003 0.328003 0.722412
0.533112 0.330719 0.725983
0.727478 0.375336 0.724609
0.830902 0.420563 0.711487
0.912628 0.466125 0.696503
0.938599 0.496796 0.690063
0.000000 0.446259 0.617310
0.000000 0.461823 0.639465
0.000000 0.475220 0.656708
0.076172 0.469635 0.669434
0.441956 0.452271 0.683258
0.694824 0.489319 0.701172
0.826599 0.527283 0.691589
0.920563 0.567413 0.698242
0.936584 0.588776 0.696960
0.000000 0.518311 0.560059
0.000000 0.533844 0.574280
0.000000 0.549072 0.590881
0.049438 0.566254 0.600433
0.382355 0.597260 0.636871
0.619751 0.644348 0.611053
0.803162 0.667084 0.656097
0.924164 0.687866 0.693939
0.935333 0.693939 0.705750
0.000000 0.564941 0.530029
0.000000 0.576111 0.536530
0.000000 0.590546 0.542236
0.054443 0.615784 0.550201
0.153412 0.673706 0.561890
0.540497 0.735474 0.578217
0.786255 0.773560 0.621613
0.920013 0.791779 0.686646
0.934479 0.789398 0.715607
0.000000 0.604279 0.507935
0.000000 0.614471 0.512878
0.000000 0.625702 0.513458
0.060944 0.659821 0.522797
0.149902 0.704681 0.533386
0.439240 0.793365 0.537689
0.681305 0.863281 0.536926
0.910522 0.890259 0.644287
0.933655 0.889252 0.715973
0.000000 0.641052 0.493286
0.000000 0.647614 0.493225
0.000000 0.659210 0.490540
0.065826 0.697052 0.499451
0.153931 0.734283 0.503815
0.285065 0.854889 0.496735
0.537750 0.946198 0.453796
0.841278 0.940216 0.567902
0.933350 0.938263 0.693573
0.021912 0.000000 0.770355
0.127991 0.000000 0.788300
0.257080 0.000000 0.812531
0.417511 0.000000 0.827820
0.576691 0.133514 0.819000
0.724854 0.229492 0.812073
0.818909 0.278564 0.810608
0.891144 0.311554 0.794769
0.936951 0.339325 0.766632
0.000000 0.138672 0.794006
0.000000 0.086243 0.816010
0.238098 0.000000 0.835052
0.417725 0.000000 0.847046
0.602386 0.122559 0.841095
0.756500 0.276276 0.835785
0.845215 0.344757 0.833008
0.912323 0.383728 0.813324
0.938507 0.411987 0.788513
0.000000 0.268188 0.800690
0.000000 0.269501 0.821777
0.000000 0.204102 0.847015
0.362061 0.000000 0.861084
0.584137 0.146698 0.850800
0.763062 0.307434 0.847321
0.856812 0.396271 0.848755
0.920746 0.445190 0.825867
0.938538 0.475891 0.805664
0.000000 0.375702 0.782074
0.000000 0.386932 0.802704
0.000000 0.387024 0.822937
0.165527 0.322998 0.843597
0.515564 0.297607 0.850647
0.743622 0.375641 0.843842
0.857605 0.457947 0.851501
0.925598 0.509613 0.832428
0.937469 0.536957 0.810272
0.000000 0.466156 0.740906
0.000000 0.484222 0.761292
0.000000 0.494171 0.777069
0.016235 0.480896 0.792633
0.400085 0.434448 0.814728
0.677032 0.461578 0.829346
0.843262 0.538300 0.836456
0.928345 0.596375 0.833038
0.935760 0.618652 0.814117
0.000000 0.560760 0.678314
0.000000 0.578064 0.689301
0.000000 0.592834 0.701843
0.022858 0.599854 0.709167
0.308258 0.584137 0.760925
0.574310 0.589966 0.783447
0.808167 0.641571 0.811951
0.928619 0.692719 0.824188
0.934326 0.709717 0.816071
0.000000 0.601013 0.649597
0.000000 0.613159 0.659119
0.000000 0.627380 0.668213
0.026123 0.641693 0.675293
0.102539 0.671417 0.708710
0.503143 0.718811 0.753540
0.742340 0.770325 0.736664
0.922119 0.791077 0.811462
0.933533 0.798462 0.822601
0.000000 0.636932 0.620728
0.000000 0.646332 0.629089
0.000000 0.652924 0.629913
0.030243 0.673370 0.640320
0.103546 0.702881 0.658600
0.376556 0.781403 0.702209
0.665833 0.850464 0.726929
0.905731 0.890350 0.787781
0.932739 0.893799 0.823761
0.000000 0.662872 0.594055
0.000000 0.667389 0.596466
0.000000 0.669586 0.590088
0.035889 0.696899 0.599030
0.109161 0.729553 0.608276
0.206482 0.845520 0.633392
0.519073 0.931946 0.666992
0.811249 0.939331 0.699829
0.932404 0.937317 0.809601
0.027710 0.000000 0.859406
0.132172 0.000000 0.873962
0.249542 0.000000 0.889679
0.394104 0.000000 0.902191
0.562683 0.017761 0.913513
0.733582 0.245422 0.909210
0.838928 0.339172 0.907990
0.922241 0.390137 0.906036
0.937134 0.406494 0.869720
0.000000 0.149200 0.876678
0.000000 0.112244 0.882568
0.232269 0.000000 0.886658
0.391418 0.000000 0.899506
0.571991 0.008698 0.917969
0.751831 0.275879 0.923981
0.858826 0.388947 0.920319
0.928589 0.450714 0.914856
0.937622 0.468445 0.889160
0.000000 0.280182 0.878296
0.000000 0.281738 0.877014
0.000000 0.227905 0.879761
0.320251 0.062836 0.895111
0.544220 0.078186 0.912811
0.755890 0.298035 0.925690
0.872894 0.429230 0.924988
0.930298 0.506592 0.918396
0.937592 0.517212 0.903503
0.000000 0.385803 0.872253
0.000000 0.392029 0.874603
0.000000 0.387238 0.870575
0.032013 0.313507 0.883759
0.467438 0.284332 0.901062
0.716156 0.347321 0.921112
0.862122 0.466461 0.925690
0.930786 0.556061 0.919617
0.936981 0.569031 0.905853
0.000000 0.477814 0.835846
0.000000 0.493866 0.849792
0.000000 0.509186 0.852936
0.000000 0.476685 0.867706
0.342468 0.408051 0.889740
0.631744 0.420807 0.914398
0.836456 0.512726 0.923615
0.931030 0.622589 0.920776
0.935852 0.643860 0.911316
0.000000 0.593323 0.763611
0.000000 0.610168 0.772827
0.000000 0.619965 0.779816
0.000000 0.620087 0.785248
0.071106 0.561371 0.851868
0.507446 0.531921 0.894379
0.785583 0.589142 0.915283
0.931396 0.696014 0.920898
0.934814 0.724121 0.911133
0.000000 0.636719 0.729889
0.000000 0.647430 0.738159
0.000000 0.655823 0.745087
0.000000 0.661163 0.749634
0.065430 0.678650 0.781647
0.414825 0.687134 0.840790
0.703522 0.706909 0.891846
0.918427 0.771484 0.915649
0.933624 0.801697 0.912018
0.000000 0.660919 0.703247
0.000000 0.667969 0.709808
0.000000 0.672516 0.710785
0.000000 0.681763 0.716736
0.068054 0.703033 0.738831
0.172180 0.772308 0.814362
0.601105 0.822357 0.856018
0.871674 0.876312 0.878204
0.932007 0.895111 0.910614
0.000000 0.679565 0.676453
0.000000 0.683167 0.674408
0.000000 0.685272 0.670898
0.002441 0.697601 0.676849
0.072021 0.725342 0.697815
0.152008 0.808990 0.773346
0.317627 0.895142 0.813843
0.792786 0.941223 0.843781
0.931671 0.936554 0.901428
0.051483 0.000000 0.875458
0.128143 0.000000 0.877319
0.243622 0.076935 0.883942
0.375580 0.177216 0.892181
0.516602 0.221436 0.907867
0.679077 0.283630 0.924103
0.813293 0.360992 0.931549
0.926819 0.446442 0.931580
0.937042 0.485779 0.929718
0.027740 0.144226 0.875854
0.109436 0.149048 0.876556
0.277100 0.194489 0.882080
0.380890 0.213959 0.890625
0.524323 0.228638 0.907684
0.695953 0.299316 0.925507
0.829834 0.395630 0.932159
0.932800 0.494904 0.932068
0.937225 0.528015 0.930969
0.000000 0.261353 0.873291
0.032867 0.264618 0.872192
0.160583 0.245361 0.873169
0.329285 0.223694 0.881683
0.504395 0.225677 0.904236
0.702637 0.304108 0.926147
0.842010 0.422638 0.932678
0.934631 0.540344 0.932373
0.936890 0.567535 0.931946
0.000000 0.366791 0.865234
0.000000 0.377563 0.860229
0.000000 0.376221 0.857147
0.044678 0.321686 0.868744
0.440399 0.285736 0.893677
0.669952 0.339844 0.922821
0.835052 0.449829 0.932068
0.935760 0.577606 0.932220
0.936035 0.611633 0.931976
0.000000 0.481842 0.859680
0.000000 0.509735 0.854980
0.000000 0.531403 0.847443
0.000000 0.469452 0.853088
0.302490 0.406677 0.880432
0.591187 0.406860 0.913391
0.809235 0.489502 0.931091
0.933716 0.616302 0.931976
0.935516 0.671722 0.931580
0.000000 0.597168 0.818085
0.000000 0.610565 0.806580
0.000000 0.618896 0.799072
0.000000 0.618103 0.797424
0.034363 0.546234 0.869629
0.468170 0.505493 0.901672
0.752472 0.553528 0.928223
0.925720 0.666962 0.931641
0.934906 0.737976 0.931061
0.000000 0.646790 0.776886
0.000000 0.652985 0.771942
0.000000 0.657928 0.765594
0.000000 0.659058 0.761993
0.036713 0.670074 0.789703
0.321716 0.649170 0.883575
0.645294 0.655151 0.922302
0.877838 0.731506 0.931122
0.934296 0.802155 0.930573
0.000000 0.669159 0.749786
0.000000 0.673370 0.744232
0.000000 0.676147 0.739655
0.000000 0.677460 0.736389
0.039886 0.694061 0.759247
0.108276 0.746307 0.845093
0.517181 0.770996 0.913635
0.831970 0.811127 0.930054
0.933228 0.883087 0.929810
0.000000 0.685455 0.721771
0.000000 0.689209 0.718933
0.000000 0.692108 0.717285
0.000000 0.693726 0.715332
0.042206 0.717804 0.739960
0.112152 0.793793 0.815765
0.226135 0.875916 0.893707
0.754181 0.938599 0.928558
0.931366 0.936218 0.927582
