Kodak Vision3 500T (5219) - Look variant 2.cube
# Created by Benjamin (IWLTBAP) : http://luts.iwltbap.com
# Copyright: (C) Copyright 2010-2017 Triune Films and IWLTBAP SAS
# Cannot be resold, shared or otherwise redistributed
TITLE "Film Print Emulation LUTs Pack (Rec.709, sRGB, DCI-P3)"
LUT_3D_SIZE 5
0.000244 0.000244 0.000244
0.144775 0.040314 0.000000
0.301086 0.086761 0.000000
0.471069 0.152985 0.000000
0.643219 0.239349 0.000000
0.090912 0.161194 0.000000
0.178833 0.166901 0.000000
0.375641 0.200897 0.000000
0.530975 0.225800 0.000000
0.690704 0.295441 0.000000
0.206238 0.352142 0.049744
0.259674 0.356415 0.017639
0.381287 0.370819 0.000000
0.638641 0.433014 0.000000
0.810486 0.449188 0.000000
0.400177 0.566956 0.235779
0.431793 0.570984 0.232849
0.502838 0.589325 0.141205
0.625793 0.617218 0.000000
0.878265 0.658752 0.000000
0.621979 0.788391 0.454712
0.641449 0.793030 0.455933
0.694641 0.810852 0.435791
0.784393 0.846985 0.340942
0.945648 0.919495 0.147705
0.003876 0.023071 0.089630
0.102325 0.074738 0.107666
0.255646 0.124420 0.140656
0.507782 0.110046 0.073364
0.662476 0.222260 0.096100
0.000000 0.173340 0.156464
0.170288 0.170380 0.170380
0.364227 0.175507 0.135498
0.565735 0.176483 0.076599
0.731384 0.252350 0.087189
0.159790 0.360992 0.144806
0.248657 0.359833 0.179962
0.373779 0.376373 0.107788
0.648010 0.425568 0.139160
0.820160 0.438293 0.151367
0.369781 0.574951 0.259003
0.406525 0.578186 0.265747
0.497009 0.591797 0.241119
0.625275 0.620392 0.000000
0.894012 0.661743 0.086029
0.600037 0.795929 0.461365
0.621185 0.800201 0.465454
0.678802 0.817352 0.444183
0.780762 0.850311 0.364899
0.943573 0.925140 0.176025
0.097626 0.073608 0.126892
0.136536 0.102814 0.149689
0.213623 0.168976 0.209015
0.325592 0.255798 0.296692
0.581451 0.299774 0.302185
0.000000 0.186920 0.267609
0.150726 0.190979 0.264954
0.260773 0.231873 0.268707
0.366608 0.300140 0.336823
0.671661 0.307526 0.287170
0.000000 0.376190 0.321655
0.000000 0.388641 0.328094
0.376343 0.376343 0.376343
0.580658 0.399689 0.356049
0.815735 0.412598 0.313385
0.291321 0.593231 0.340698
0.343079 0.595306 0.357117
0.481873 0.598114 0.412109
0.628937 0.622375 0.363739
0.922150 0.679810 0.417206
0.536438 0.816620 0.480347
0.562286 0.820465 0.485565
0.642334 0.832275 0.503143
0.766876 0.859375 0.494690
0.964355 0.933289 0.388397
0.155701 0.125885 0.191284
0.186523 0.144470 0.205902
0.254700 0.200043 0.254456
0.341064 0.283051 0.331543
0.468964 0.378357 0.428467
0.160095 0.207855 0.302948
0.204407 0.220459 0.294037
0.293793 0.256378 0.309631
0.377380 0.325500 0.371582
0.496094 0.417297 0.464966
0.069092 0.381165 0.407928
0.046722 0.381378 0.467834
0.325134 0.404572 0.505188
0.476868 0.447845 0.488708
0.586151 0.521515 0.562683
0.000000 0.619019 0.530029
0.116913 0.623749 0.539764
0.320770 0.634155 0.573822
0.625122 0.625122 0.625122
0.846191 0.652100 0.612549
0.425110 0.846008 0.564819
0.459229 0.849426 0.574249
0.571594 0.857605 0.610291
0.755493 0.874176 0.688202
0.978271 0.950714 0.687561
0.237457 0.186096 0.261078
0.257263 0.201538 0.274750
0.312347 0.245697 0.313629
0.389801 0.317413 0.378113
0.496429 0.414154 0.470551
0.248779 0.251892 0.338135
0.273987 0.262726 0.343903
0.343506 0.294037 0.364532
0.423187 0.357727 0.418396
0.524689 0.449585 0.504913
0.184448 0.410461 0.559784
0.259003 0.413177 0.561523
0.390747 0.432251 0.531921
0.513428 0.475220 0.534637
0.606354 0.549408 0.600464
0.241669 0.631531 0.617371
0.297485 0.634003 0.629608
0.333710 0.635559 0.691833
0.569702 0.657715 0.767609
0.734100 0.701263 0.745422
0.356628 0.867523 0.778290
0.389130 0.872284 0.784882
0.497375 0.885468 0.807770
0.669952 0.920013 0.869293
0.981842 0.981842 0.981842
