Kodak Vision3 500T (5219) - Look.cube
# Created by Benjamin (IWLTBAP) : http://luts.iwltbap.com
# Copyright: (C) Copyright 2010-2017 Triune Films and IWLTBAP SAS
# Cannot be resold, shared or otherwise redistributed
TITLE "Film Print Emulation LUTs Pack (Rec.709, sRGB, DCI-P3)"
LUT_3D_SIZE 5
0.001587 0.001587 0.000000
0.204285 0.012634 0.004944
0.413971 0.040314 0.000793
0.623596 0.070160 0.000000
0.810486 0.126801 0.000793
0.000000 0.092346 0.000000
0.199524 0.139160 0.007385
0.448364 0.175293 0.000000
0.656982 0.225616 0.000000
0.811981 0.285309 0.000000
0.039490 0.243256 0.000000
0.181549 0.327545 0.000000
0.469879 0.336761 0.000000
0.659027 0.408325 0.000000
0.804993 0.471375 0.000000
0.140900 0.459106 0.000000
0.261658 0.536438 0.000000
0.505280 0.634613 0.000000
0.650726 0.609589 0.000000
0.808502 0.640137 0.000793
0.372681 0.689667 0.000000
0.489838 0.752167 0.000000
0.550323 0.804871 0.000000
0.687683 0.846527 0.000000
0.807220 0.821503 0.000000
0.038177 0.047394 0.125549
0.086792 0.050507 0.147308
0.377380 0.000793 0.111572
0.619171 0.031616 0.083954
0.824097 0.136841 0.000793
0.067261 0.121735 0.169678
0.114807 0.171082 0.209686
0.455688 0.230103 0.182953
0.667816 0.252411 0.104034
0.831879 0.302185 0.000000
0.044983 0.346466 0.262726
0.114075 0.347870 0.159363
0.436005 0.390472 0.136902
0.669464 0.448669 0.109253
0.829437 0.502930 0.000000
0.188385 0.535797 0.187561
0.206329 0.546570 0.108063
0.465729 0.645905 0.062927
0.660034 0.661011 0.080597
0.830536 0.679260 0.038208
0.379089 0.727539 0.000000
0.483185 0.769928 0.000000
0.563080 0.826599 0.000000
0.705292 0.870270 0.000000
0.839661 0.849396 0.000000
0.047516 0.122314 0.263763
0.046295 0.127655 0.247375
0.209229 0.083069 0.281006
0.600861 0.000000 0.233643
0.805756 0.072723 0.217834
0.033356 0.199036 0.345093
0.046875 0.249084 0.411285
0.273956 0.248016 0.382019
0.668365 0.265167 0.316711
0.847839 0.318085 0.318542
0.155762 0.292236 0.367950
0.185303 0.350861 0.430511
0.355652 0.425629 0.454071
0.703705 0.507782 0.444794
0.863556 0.515503 0.384491
0.051758 0.577728 0.537598
0.106384 0.617950 0.575470
0.455688 0.653687 0.379944
0.684723 0.694000 0.353424
0.859650 0.709900 0.397949
0.502045 0.784515 0.356323
0.546021 0.798126 0.239532
0.596222 0.839508 0.192139
0.716705 0.882294 0.297302
0.850189 0.871277 0.245728
0.021118 0.237061 0.465851
0.024139 0.237091 0.440399
0.050751 0.233734 0.456757
0.516693 0.128937 0.350250
0.797729 0.096008 0.372620
0.007477 0.310059 0.549561
0.030975 0.361359 0.617126
0.101410 0.370117 0.630096
0.614868 0.317505 0.483765
0.840454 0.316193 0.497131
0.059143 0.394104 0.607147
0.081879 0.442657 0.657806
0.222687 0.493469 0.688995
0.673859 0.502686 0.581207
0.866699 0.507538 0.573273
0.008911 0.538483 0.637207
0.000000 0.581482 0.679382
0.289825 0.622284 0.693726
0.701660 0.715515 0.658020
0.902283 0.729309 0.660004
0.000000 0.749146 0.706696
0.000000 0.774139 0.724976
0.275543 0.811279 0.736694
0.753479 0.882507 0.540375
0.876068 0.886658 0.535217
0.021637 0.377167 0.675323
0.026733 0.379822 0.658905
0.033752 0.379242 0.641937
0.215363 0.400909 0.691223
0.771545 0.252991 0.537079
0.051453 0.430145 0.744934
0.100189 0.467865 0.785065
0.134949 0.480438 0.787354
0.424072 0.509674 0.770996
0.829712 0.386719 0.642212
0.087158 0.499512 0.788605
0.140717 0.533356 0.818359
0.234528 0.567474 0.834503
0.587860 0.614136 0.794495
0.854034 0.530823 0.714630
0.061615 0.607941 0.823547
0.142395 0.635681 0.842682
0.263367 0.667633 0.850922
0.674133 0.727325 0.800323
0.865448 0.703796 0.774384
0.018463 0.737457 0.831512
0.128723 0.754608 0.844727
0.270447 0.776123 0.845367
0.687469 0.814240 0.801025
0.882843 0.885529 0.784149
