Kodak Vision 800T (5289) - Look.cube
# Created by Benjamin (IWLTBAP) : http://luts.iwltbap.com
# Copyright: (C) Copyright 2010-2017 Triune Films and IWLTBAP SAS
# Cannot be resold, shared or otherwise redistributed
TITLE "Film Print Emulation LUTs Pack (Rec.709, sRGB, DCI-P3)"
LUT_3D_SIZE 33
0.000000 0.000000 0.000000
0.024750 0.001038 0.048767
0.059021 0.007782 0.044464
0.081360 0.015350 0.043732
0.102692 0.022186 0.044037
0.125671 0.028656 0.045776
0.153259 0.030182 0.048798
0.180359 0.030701 0.051788
0.204529 0.030243 0.054474
0.231293 0.026520 0.058746
0.259155 0.020142 0.062561
0.284882 0.020691 0.068481
0.310883 0.022858 0.075409
0.338684 0.024780 0.084137
0.365570 0.026917 0.091980
0.392700 0.028687 0.100433
0.420258 0.030670 0.108917
0.447418 0.032684 0.117279
0.473877 0.035065 0.125092
0.502289 0.036835 0.133972
0.530914 0.039154 0.142273
0.560608 0.041168 0.151062
0.590668 0.043579 0.159027
0.621277 0.045654 0.167725
0.651794 0.047943 0.176086
0.682739 0.050323 0.184174
0.714081 0.052612 0.192261
0.745667 0.055115 0.200317
0.778259 0.057404 0.208557
0.811859 0.059631 0.216858
0.840240 0.073517 0.224213
0.866364 0.093079 0.232452
0.892883 0.112335 0.241455
0.002502 0.031067 0.024750
0.017914 0.035461 0.042511
0.045349 0.041809 0.048737
0.076233 0.044861 0.049744
0.100616 0.048676 0.050110
0.126221 0.051239 0.052155
0.152679 0.052734 0.054901
0.178436 0.052582 0.055695
0.205994 0.050354 0.060638
0.233856 0.044373 0.063568
0.263733 0.035645 0.067932
0.295074 0.026184 0.072296
0.319916 0.030975 0.079010
0.348419 0.029266 0.086426
0.375732 0.030640 0.094391
0.401947 0.032501 0.101898
0.427887 0.034454 0.110260
0.455444 0.036346 0.118042
0.482697 0.038208 0.126373
0.510437 0.040131 0.134735
0.539368 0.041931 0.143280
0.569031 0.043823 0.151794
0.598755 0.046265 0.159424
0.629974 0.048035 0.168457
0.660309 0.050598 0.176514
0.690857 0.053284 0.185059
0.721832 0.056213 0.193390
0.754395 0.057617 0.201752
0.786774 0.059814 0.209290
0.817383 0.071259 0.217468
0.844025 0.091187 0.225616
0.870575 0.110199 0.234070
0.897552 0.129211 0.243469
0.007690 0.055176 0.044037
0.025726 0.058197 0.051697
0.039093 0.061157 0.052979
0.072693 0.062561 0.054047
0.099365 0.066742 0.055573
0.125488 0.069519 0.056427
0.151001 0.071930 0.057465
0.176727 0.073273 0.060425
0.204926 0.070587 0.066071
0.234619 0.064850 0.069977
0.265564 0.057983 0.073669
0.296906 0.049194 0.077637
0.327393 0.042908 0.082245
0.357788 0.035828 0.088348
0.385193 0.035156 0.095978
0.411774 0.036469 0.103119
0.438171 0.038208 0.111023
0.465240 0.039856 0.119110
0.491913 0.041779 0.127350
0.519897 0.043671 0.135742
0.549255 0.045593 0.143921
0.579132 0.047394 0.151794
0.608643 0.049164 0.160034
0.638672 0.051208 0.168121
0.668579 0.055817 0.176910
0.698456 0.060944 0.185730
0.730835 0.061951 0.194611
0.763733 0.061035 0.202637
0.793396 0.075134 0.210358
0.820465 0.094879 0.218384
0.848419 0.113281 0.227753
0.876221 0.131927 0.236511
0.903259 0.148315 0.245911
0.014221 0.074493 0.054688
0.033264 0.076904 0.058105
0.049408 0.079010 0.058990
0.067108 0.082367 0.060486
0.097717 0.084717 0.062286
0.122742 0.088531 0.064056
0.147827 0.091431 0.064911
0.173065 0.093414 0.068298
0.202759 0.091980 0.072052
0.233521 0.088715 0.075989
0.264404 0.083282 0.078644
0.297333 0.076080 0.082520
0.329803 0.065186 0.086273
0.361542 0.060150 0.092346
0.393005 0.050995 0.097992
0.421082 0.047882 0.104706
0.449829 0.042572 0.111755
0.475555 0.045837 0.119659
0.502625 0.047882 0.128235
0.531311 0.047974 0.135742
0.560333 0.049622 0.143677
0.589813 0.051086 0.151825
0.617615 0.054291 0.159485
0.645996 0.063416 0.167908
0.675842 0.068817 0.176910
0.706573 0.071533 0.185913
0.739655 0.070007 0.194824
0.768829 0.085022 0.203857
0.796326 0.105255 0.211517
0.824585 0.122467 0.220490
0.852905 0.139465 0.229553
0.881287 0.153870 0.238770
0.908356 0.169250 0.248505
0.021545 0.095490 0.060944
0.036987 0.097504 0.064117
0.054504 0.099365 0.066467
0.071655 0.101868 0.068024
0.092896 0.104034 0.069855
0.118164 0.107727 0.070953
0.143616 0.111206 0.073212
0.169708 0.114349 0.076904
0.198669 0.114655 0.080139
0.230499 0.112854 0.082031
0.262970 0.109467 0.083649
0.295410 0.104279 0.087036
0.329773 0.096649 0.091095
0.362244 0.092285 0.096039
0.394073 0.081909 0.101532
0.424652 0.074982 0.107330
0.454254 0.069275 0.113312
0.480194 0.073883 0.121399
0.511749 0.060516 0.128052
0.541595 0.057526 0.135651
0.569611 0.060394 0.143311
0.596710 0.070923 0.151733
0.623810 0.080017 0.160370
0.652863 0.084991 0.168396
0.683350 0.085907 0.177124
0.712982 0.093292 0.186188
0.742859 0.106384 0.195923
0.771545 0.120392 0.204987
0.799561 0.138214 0.213318
0.828186 0.150574 0.222198
0.856995 0.162720 0.231750
0.885834 0.177399 0.241455
0.912415 0.192902 0.250641
0.017059 0.117554 0.065338
0.031067 0.119110 0.067841
0.045013 0.122009 0.071869
0.066193 0.123718 0.074005
0.088287 0.125549 0.076202
0.113983 0.127655 0.080109
0.137695 0.132294 0.083252
0.165710 0.135193 0.087921
0.196472 0.137024 0.088257
0.228210 0.136322 0.088409
0.260590 0.134521 0.088806
0.293793 0.132050 0.092163
0.327484 0.127502 0.095917
0.361420 0.123016 0.101013
0.392242 0.120880 0.106537
0.423096 0.115845 0.112122
0.453552 0.112122 0.117676
0.484406 0.105560 0.123932
0.514160 0.095367 0.130096
0.544922 0.093048 0.137085
0.572723 0.097382 0.144470
0.600525 0.105377 0.152588
0.629333 0.110046 0.160889
0.658203 0.114471 0.169769
0.686646 0.120972 0.178619
0.716400 0.131470 0.187958
0.746521 0.145782 0.198090
0.774841 0.157532 0.207397
0.803101 0.167603 0.215942
0.831909 0.177582 0.225006
0.860596 0.190033 0.234436
0.889038 0.204132 0.243927
0.915649 0.215790 0.253082
0.014343 0.138550 0.069458
0.020416 0.142120 0.072723
0.032318 0.144836 0.076447
0.049927 0.147278 0.080719
0.076019 0.148987 0.084900
0.104340 0.150879 0.088867
0.133179 0.153351 0.093170
0.161133 0.157043 0.098480
0.191589 0.159332 0.101105
0.225159 0.160217 0.095917
0.257050 0.159668 0.095367
0.290100 0.158264 0.097717
0.324493 0.156769 0.102966
0.358551 0.154602 0.107483
0.390717 0.152100 0.113159
0.421387 0.150818 0.118164
0.451813 0.148132 0.123260
0.482422 0.144196 0.128693
0.513397 0.142365 0.134399
0.545715 0.137909 0.140350
0.575592 0.137695 0.147278
0.604279 0.140930 0.155182
0.632416 0.145660 0.163513
0.660919 0.152069 0.171875
0.690308 0.161072 0.181091
0.720337 0.169006 0.190613
0.750488 0.177307 0.200806
0.778656 0.186371 0.209930
0.806671 0.196533 0.218964
0.835663 0.207031 0.227966
0.864044 0.216858 0.237549
0.891663 0.227325 0.246521
0.918640 0.239532 0.255737
0.013458 0.160034 0.081299
0.019714 0.163147 0.084045
0.026367 0.166595 0.087067
0.039825 0.169617 0.089966
0.060303 0.172241 0.092896
0.094299 0.174316 0.096771
0.127075 0.176605 0.100220
0.157898 0.178833 0.104584
0.186951 0.181946 0.109863
0.219055 0.183746 0.109985
0.253021 0.184875 0.106323
0.285156 0.185333 0.107239
0.320709 0.184540 0.109955
0.355316 0.183777 0.114899
0.387451 0.182770 0.119446
0.419128 0.181519 0.124390
0.450226 0.181030 0.129730
0.481445 0.180206 0.134491
0.513031 0.177704 0.140076
0.545288 0.175354 0.145569
0.577759 0.173859 0.151703
0.607758 0.176697 0.159698
0.636749 0.180206 0.167267
0.665558 0.185272 0.175293
0.694244 0.191681 0.183929
0.724548 0.198883 0.193420
0.754669 0.207916 0.203705
0.783325 0.215576 0.212891
0.811615 0.224152 0.221893
0.839935 0.233307 0.231323
0.868378 0.243408 0.240906
0.895508 0.254120 0.249878
0.922638 0.265686 0.259338
0.011780 0.182739 0.093353
0.019562 0.184662 0.094391
0.025696 0.188232 0.096527
0.033173 0.191803 0.098267
0.043854 0.195740 0.099762
0.081635 0.198303 0.103058
0.119965 0.200317 0.106079
0.152466 0.202606 0.109863
0.183624 0.204468 0.114044
0.212219 0.207306 0.120972
0.245697 0.209259 0.122101
0.279877 0.211090 0.120239
0.314911 0.211853 0.119293
0.349976 0.211609 0.121948
0.382874 0.211426 0.126282
0.415985 0.210602 0.130798
0.448425 0.210266 0.136078
0.480347 0.210632 0.140930
0.512909 0.210602 0.145966
0.545593 0.209381 0.151703
0.578217 0.209167 0.158051
0.610809 0.209625 0.165070
0.641022 0.212646 0.172546
0.671173 0.217346 0.180359
0.699799 0.222504 0.188843
0.729340 0.228638 0.197845
0.759033 0.235748 0.207001
0.788147 0.243347 0.216187
0.816711 0.252289 0.225433
0.845154 0.261566 0.234985
0.873596 0.272156 0.244812
0.900360 0.282135 0.254089
0.926788 0.293335 0.263519
0.010590 0.205566 0.104279
0.015991 0.207886 0.105377
0.024841 0.210266 0.105988
0.032928 0.214264 0.107117
0.040039 0.218750 0.108063
0.065857 0.221985 0.109131
0.108185 0.224579 0.112854
0.145752 0.227020 0.116913
0.178040 0.229187 0.120819
0.209137 0.230804 0.125061
0.239502 0.233643 0.132751
0.273468 0.235687 0.134521
0.308838 0.237488 0.132812
0.344391 0.238617 0.131073
0.378174 0.239258 0.133698
0.411957 0.239166 0.138245
0.445984 0.239380 0.143066
0.479614 0.239746 0.148315
0.512543 0.240936 0.153168
0.546204 0.242065 0.158936
0.579285 0.242889 0.165161
0.612366 0.243958 0.171906
0.644104 0.246246 0.178619
0.675903 0.248993 0.186066
0.704773 0.253204 0.194427
0.735260 0.259155 0.203003
0.765289 0.266052 0.211700
0.794464 0.273346 0.220642
0.823151 0.281769 0.229828
0.851624 0.291382 0.239441
0.879486 0.301483 0.249268
0.906677 0.311462 0.259064
0.931976 0.321808 0.268524
0.008423 0.230499 0.116638
0.015778 0.231689 0.117645
0.023010 0.234039 0.118286
0.032410 0.237854 0.118591
0.040070 0.242401 0.118835
0.054810 0.246368 0.119049
0.091492 0.249786 0.121887
0.135315 0.252228 0.125732
0.172241 0.254639 0.129242
0.204071 0.256256 0.132385
0.236267 0.258026 0.136169
0.267456 0.260986 0.144043
0.303070 0.263641 0.145844
0.338013 0.265747 0.145477
0.373413 0.267700 0.142151
0.408295 0.268036 0.145691
0.443176 0.268585 0.151001
0.477997 0.269958 0.156555
0.512848 0.271484 0.162292
0.546722 0.273743 0.167877
0.580231 0.275848 0.173157
0.613068 0.278137 0.179108
0.645416 0.280365 0.185608
0.677734 0.282837 0.192444
0.709869 0.284698 0.199585
0.741516 0.289734 0.207764
0.772339 0.296722 0.216583
0.801270 0.303680 0.225586
0.830109 0.311371 0.235016
0.858063 0.320679 0.244385
0.885559 0.329987 0.254150
0.912537 0.339752 0.263519
0.937378 0.350220 0.273346
0.008728 0.255981 0.130035
0.014526 0.257843 0.131256
0.023102 0.259033 0.132263
0.030945 0.262909 0.132782
0.040100 0.266693 0.132172
0.047882 0.271393 0.131378
0.074921 0.275604 0.132050
0.123871 0.278351 0.135284
0.163300 0.280884 0.138275
0.198853 0.282776 0.140686
0.231903 0.284637 0.143707
0.265167 0.286957 0.147766
0.298065 0.290497 0.155853
0.332642 0.293457 0.158600
0.367157 0.296539 0.159180
0.403503 0.298492 0.155121
0.439392 0.299805 0.159363
0.475250 0.301788 0.165253
0.511261 0.303741 0.171173
0.546417 0.306061 0.176849
0.580475 0.308441 0.182037
0.613403 0.310455 0.187225
0.645966 0.313385 0.193420
0.678833 0.315521 0.199707
0.711792 0.317505 0.206329
0.745972 0.321045 0.213776
0.778046 0.327240 0.222626
0.807953 0.334412 0.231842
0.836426 0.342346 0.240753
0.864227 0.350800 0.249695
0.891632 0.360046 0.259338
0.918304 0.369507 0.268646
0.942688 0.380951 0.279358
0.007843 0.282715 0.143219
0.012085 0.284241 0.144226
0.019226 0.286133 0.145874
0.029175 0.289093 0.146362
0.038910 0.293457 0.145477
0.047485 0.298218 0.143677
0.068726 0.302734 0.142822
0.108429 0.305756 0.144135
0.154449 0.308563 0.147034
0.192169 0.310699 0.149506
0.228333 0.312561 0.152466
0.262421 0.315155 0.156036
0.296661 0.317902 0.160309
0.329041 0.321777 0.168091
0.362762 0.325073 0.171600
0.398468 0.328247 0.173553
0.435455 0.330841 0.169220
0.471802 0.332977 0.173004
0.508301 0.335388 0.178040
0.544281 0.337128 0.184723
0.579865 0.339417 0.190369
0.612946 0.341888 0.195099
0.646088 0.344849 0.200531
0.679688 0.347809 0.206451
0.713806 0.350830 0.213226
0.748535 0.354675 0.221100
0.781494 0.360626 0.230133
0.814056 0.366302 0.238800
0.842468 0.373932 0.247528
0.870209 0.382477 0.256195
0.897766 0.391541 0.265747
0.924347 0.402222 0.275757
0.946503 0.412628 0.286316
0.008881 0.310303 0.155731
0.010620 0.311768 0.157135
0.017029 0.313538 0.158875
0.026520 0.315887 0.160248
0.038116 0.319702 0.158539
0.046844 0.324768 0.156494
0.062744 0.328979 0.154144
0.094391 0.333099 0.153351
0.146332 0.335541 0.156036
0.186249 0.338409 0.159058
0.223297 0.340363 0.161774
0.260803 0.342712 0.164734
0.295715 0.345795 0.168427
0.328552 0.348358 0.172546
0.360748 0.352570 0.180084
0.395996 0.356171 0.185059
0.431824 0.359558 0.188324
0.468506 0.362854 0.183807
0.505127 0.365753 0.186584
0.541290 0.368561 0.191406
0.577637 0.370453 0.197693
0.613159 0.372833 0.203644
0.646484 0.376190 0.208740
0.680206 0.379791 0.214630
0.714752 0.384186 0.221588
0.749176 0.389526 0.229645
0.782990 0.395020 0.238251
0.815552 0.400482 0.246552
0.846466 0.406128 0.254486
0.875580 0.414032 0.263000
0.902832 0.423645 0.272400
0.928894 0.434082 0.282654
0.949615 0.443268 0.292511
0.008331 0.336670 0.167938
0.013092 0.337799 0.169098
0.019501 0.340240 0.171082
0.026978 0.342285 0.172699
0.037231 0.344910 0.171753
0.046173 0.350128 0.169373
0.055817 0.355072 0.165100
0.076019 0.360352 0.162994
0.137909 0.363281 0.165466
0.179596 0.366028 0.168549
0.219086 0.368347 0.171600
0.257355 0.370789 0.174164
0.294647 0.373749 0.177338
0.328125 0.376984 0.181152
0.361176 0.379639 0.185181
0.394714 0.383759 0.192780
0.429810 0.387543 0.200012
0.464935 0.391296 0.203430
0.501923 0.395203 0.198730
0.538116 0.398773 0.199341
0.574463 0.401825 0.203156
0.610565 0.404663 0.209503
0.646210 0.408081 0.216431
0.681274 0.412354 0.223480
0.716339 0.417297 0.230896
0.750000 0.422577 0.238403
0.783295 0.428650 0.246613
0.815796 0.434296 0.254303
0.847321 0.440063 0.262451
0.878052 0.447266 0.271454
0.906616 0.456055 0.280365
0.932037 0.465363 0.289520
0.952118 0.473480 0.298462
0.010010 0.363800 0.180023
0.011780 0.365509 0.181915
0.016663 0.367279 0.183655
0.023468 0.369110 0.185577
0.034973 0.371674 0.185120
0.045563 0.376221 0.182526
0.054810 0.381744 0.177490
0.067322 0.387115 0.172729
0.126862 0.391083 0.175049
0.175415 0.393677 0.177460
0.215759 0.396759 0.180756
0.255249 0.399872 0.184296
0.292419 0.402771 0.187531
0.327820 0.405823 0.190918
0.361694 0.408691 0.194611
0.394501 0.411133 0.198273
0.428436 0.415497 0.205719
0.463043 0.419708 0.213776
0.498932 0.423828 0.216309
0.536407 0.428101 0.213287
0.572693 0.432068 0.211975
0.608307 0.436371 0.216339
0.644318 0.440643 0.224030
0.680634 0.445435 0.231964
0.717468 0.450439 0.240234
0.750763 0.455597 0.247742
0.783813 0.461151 0.255188
0.816437 0.467896 0.263214
0.847321 0.474487 0.271149
0.877655 0.481506 0.279999
0.906494 0.489746 0.289093
0.932465 0.497467 0.297119
0.952576 0.504181 0.305695
0.011871 0.391815 0.192566
0.014313 0.393250 0.193848
0.015961 0.395050 0.195984
0.021942 0.396393 0.197754
0.032288 0.398621 0.198425
0.044342 0.402802 0.196289
0.055298 0.408295 0.190491
0.062744 0.414459 0.185608
0.118835 0.418427 0.185486
0.170654 0.421875 0.187927
0.215057 0.424957 0.190948
0.254974 0.428650 0.194641
0.292114 0.431946 0.198029
0.327789 0.434998 0.201233
0.362579 0.437500 0.204193
0.396057 0.440033 0.207214
0.428802 0.443237 0.210968
0.463287 0.448456 0.218140
0.498810 0.453064 0.226227
0.534576 0.457306 0.228882
0.571320 0.462006 0.229126
0.607941 0.467194 0.226990
0.644043 0.472260 0.232605
0.681000 0.477661 0.240143
0.716858 0.483276 0.248260
0.750763 0.488129 0.255554
0.784393 0.494263 0.263519
0.816833 0.501190 0.271484
0.847290 0.508026 0.279877
0.876129 0.514740 0.287750
0.905060 0.521942 0.297028
0.931458 0.527710 0.305267
0.951324 0.534515 0.313812
0.013763 0.419220 0.203003
0.013916 0.421417 0.204926
0.017059 0.422882 0.206512
0.023987 0.424500 0.208984
0.033417 0.425842 0.209595
0.043091 0.429474 0.208466
0.052246 0.435730 0.204651
0.063782 0.441833 0.197327
0.107697 0.446594 0.195953
0.167999 0.450165 0.198090
0.214996 0.453796 0.201202
0.256165 0.457397 0.204315
0.292969 0.460938 0.207458
0.329376 0.464050 0.210327
0.365021 0.466919 0.213287
0.399109 0.469696 0.216217
0.431885 0.473175 0.219666
0.465576 0.477844 0.225067
0.500092 0.483032 0.232086
0.535400 0.487701 0.240051
0.570709 0.492279 0.244507
0.607239 0.497620 0.246735
0.644562 0.502991 0.244415
0.681976 0.508423 0.249268
0.717285 0.514252 0.255920
0.750763 0.519867 0.263031
0.785126 0.526123 0.270996
0.817444 0.532776 0.279663
0.847504 0.539490 0.288208
0.875946 0.545410 0.296448
0.904266 0.551239 0.305725
0.930023 0.556366 0.314331
0.950043 0.562500 0.323792
0.015594 0.447540 0.212799
0.015472 0.449310 0.214447
0.016998 0.450409 0.215790
0.020020 0.451935 0.217651
0.027893 0.453278 0.219727
0.039490 0.456421 0.220215
0.051544 0.463287 0.216156
0.062469 0.469360 0.209869
0.100952 0.474976 0.205505
0.165527 0.479218 0.206818
0.217743 0.483032 0.210510
0.258881 0.486847 0.213257
0.296021 0.490204 0.216125
0.332306 0.493286 0.218658
0.368042 0.496399 0.221222
0.402039 0.499634 0.224579
0.435516 0.503448 0.228821
0.469025 0.507996 0.233856
0.503143 0.513000 0.240234
0.537476 0.517792 0.247406
0.572052 0.522461 0.256165
0.608276 0.527802 0.262085
0.644958 0.533081 0.264343
0.682861 0.539124 0.262817
0.717987 0.544830 0.264893
0.752106 0.550293 0.270172
0.785583 0.556091 0.278198
0.817108 0.561829 0.286835
0.846802 0.568176 0.295746
0.875519 0.573761 0.304810
0.903473 0.578918 0.313995
0.929047 0.584198 0.323456
0.947296 0.590149 0.333221
0.016754 0.476288 0.222839
0.017273 0.477081 0.223816
0.018555 0.478180 0.225128
0.019318 0.479980 0.227142
0.024078 0.481201 0.228607
0.036011 0.484192 0.229065
0.049622 0.490143 0.226349
0.062012 0.496887 0.219482
0.088654 0.503235 0.213867
0.167603 0.508240 0.214569
0.220978 0.512360 0.217712
0.262817 0.516327 0.220642
0.300903 0.519989 0.223633
0.337036 0.523163 0.227173
0.371765 0.526184 0.230286
0.404999 0.529694 0.234314
0.438629 0.533447 0.238861
0.472961 0.537903 0.244476
0.506897 0.542419 0.250580
0.540985 0.547180 0.257080
0.575134 0.551849 0.264404
0.610077 0.556885 0.272308
0.647095 0.563019 0.278259
0.683502 0.568512 0.281677
0.719269 0.574554 0.278992
0.753357 0.579803 0.278839
0.785400 0.584900 0.285248
0.815704 0.590210 0.293488
0.845795 0.596039 0.303162
0.873627 0.601166 0.312134
0.901886 0.606812 0.322632
0.926788 0.612274 0.332367
0.943146 0.617645 0.341125
0.019318 0.503784 0.231964
0.018951 0.504822 0.233398
0.020508 0.505737 0.234589
0.021271 0.507904 0.236816
0.029572 0.509460 0.238281
0.036285 0.513031 0.239532
0.046753 0.517365 0.237946
0.058655 0.523834 0.232788
0.082489 0.531097 0.224030
0.158722 0.536926 0.224854
0.220825 0.541656 0.227905
0.263947 0.545380 0.230865
0.304230 0.549072 0.234131
0.340820 0.552673 0.238098
0.376709 0.556183 0.242615
0.409760 0.559570 0.246796
0.443817 0.563232 0.251740
0.477875 0.567230 0.256897
0.512390 0.571472 0.262024
0.546143 0.575775 0.267334
0.580200 0.580902 0.273071
0.614410 0.586334 0.279358
0.650238 0.591705 0.287018
0.686157 0.597870 0.295959
0.719666 0.603333 0.297760
0.752777 0.607819 0.296051
0.784607 0.612915 0.295502
0.814148 0.617706 0.302979
0.843689 0.622711 0.311249
0.872040 0.627716 0.320984
0.898895 0.633728 0.330933
0.922882 0.639557 0.340485
0.938110 0.644440 0.349030
0.020355 0.531921 0.240540
0.021698 0.532349 0.241272
0.023132 0.533417 0.242615
0.023346 0.535797 0.244751
0.024841 0.537842 0.246582
0.031830 0.540009 0.248810
0.045044 0.544403 0.248077
0.059753 0.551361 0.241852
0.076691 0.558807 0.234497
0.157104 0.565002 0.235840
0.219757 0.569550 0.239136
0.267029 0.573792 0.242584
0.307312 0.577515 0.246277
0.345642 0.581757 0.250549
0.381317 0.585754 0.255463
0.416962 0.589661 0.260010
0.450684 0.593201 0.264587
0.485168 0.597382 0.268829
0.519409 0.601471 0.273315
0.552826 0.605499 0.276917
0.586487 0.610474 0.281555
0.620819 0.616302 0.286865
0.655975 0.621002 0.293701
0.690094 0.626129 0.301880
0.720947 0.631134 0.312134
0.752045 0.635681 0.315582
0.782654 0.640503 0.316711
0.811737 0.645203 0.318115
0.840637 0.649902 0.323212
0.868500 0.654572 0.330292
0.894592 0.659943 0.339111
0.917664 0.665253 0.348511
0.932709 0.670349 0.357300
0.022858 0.559662 0.249847
0.023407 0.560577 0.251007
0.025055 0.561462 0.251770
0.025635 0.563477 0.253937
0.026489 0.565430 0.255829
0.030609 0.567444 0.258057
0.043274 0.571136 0.258636
0.058197 0.578339 0.253021
0.078735 0.586060 0.247467
0.148773 0.592804 0.248810
0.220856 0.597961 0.253021
0.268707 0.602448 0.257019
0.312134 0.607086 0.261047
0.350647 0.611725 0.265289
0.387543 0.615753 0.269348
0.423187 0.619507 0.273193
0.459900 0.623413 0.276764
0.493652 0.627655 0.280060
0.528046 0.632019 0.283997
0.560883 0.636169 0.287262
0.593750 0.640564 0.291687
0.626373 0.645020 0.296661
0.660553 0.649902 0.304138
0.691833 0.654205 0.312256
0.722321 0.658997 0.321808
0.751099 0.662964 0.332764
0.779816 0.666870 0.337372
0.808624 0.671112 0.339813
0.837524 0.675140 0.339661
0.864685 0.679413 0.342316
0.890381 0.684021 0.348236
0.912933 0.688629 0.355835
0.928162 0.693420 0.364594
0.024811 0.588379 0.263123
0.026031 0.588989 0.263763
0.027435 0.589813 0.264404
0.027649 0.591431 0.265869
0.028748 0.593353 0.267731
0.036865 0.595520 0.269348
0.044281 0.599426 0.268616
0.055023 0.605072 0.266388
0.069885 0.613007 0.259094
0.141266 0.620667 0.262329
0.217712 0.627075 0.267334
0.273560 0.632751 0.270721
0.317139 0.637878 0.274567
0.358032 0.642975 0.277802
0.394653 0.647186 0.281525
0.431549 0.650452 0.283936
0.467957 0.654480 0.287048
0.504517 0.658630 0.289642
0.537323 0.662262 0.293335
0.569458 0.665710 0.297089
0.601013 0.669098 0.302216
0.633026 0.673218 0.308960
0.664276 0.676849 0.315857
0.694092 0.680298 0.323425
0.723236 0.683624 0.332092
0.751678 0.687195 0.341492
0.778625 0.690826 0.351349
0.806244 0.694702 0.356812
0.833649 0.698303 0.358887
0.860504 0.702484 0.359497
0.885742 0.706818 0.361023
0.907928 0.710907 0.366119
0.924225 0.715118 0.372314
0.028046 0.616882 0.275116
0.028107 0.617950 0.276001
0.029449 0.618774 0.276550
0.030548 0.619690 0.277588
0.031494 0.621521 0.279297
0.033112 0.623810 0.280945
0.040497 0.626923 0.281281
0.054657 0.633423 0.276550
0.069305 0.641541 0.269501
0.136261 0.649200 0.274292
0.220337 0.656281 0.280151
0.277344 0.662476 0.283508
0.325897 0.667725 0.286743
0.365784 0.671906 0.290161
0.404205 0.675720 0.293671
0.440582 0.679077 0.296783
0.476837 0.682587 0.300140
0.512299 0.686218 0.303223
0.545258 0.689056 0.307129
0.576050 0.691772 0.311829
0.606628 0.694824 0.317413
0.637970 0.698242 0.324097
0.667816 0.701263 0.330353
0.696442 0.704346 0.336548
0.724823 0.707214 0.343018
0.752899 0.710449 0.351013
0.779480 0.713562 0.358459
0.805389 0.716888 0.367676
0.831482 0.720367 0.372986
0.856140 0.724396 0.378113
0.881042 0.728699 0.378204
0.903168 0.732025 0.379822
0.919373 0.735626 0.385040
0.029968 0.645721 0.287048
0.030243 0.646881 0.287750
0.031860 0.647766 0.287994
0.031952 0.649109 0.288971
0.033936 0.650055 0.289764
0.035858 0.652374 0.291168
0.041870 0.655914 0.290894
0.054962 0.662048 0.285919
0.069427 0.668945 0.279144
0.154663 0.676453 0.284821
0.228973 0.683044 0.290924
0.287292 0.688812 0.294403
0.334229 0.693787 0.298065
0.376709 0.698425 0.302368
0.414673 0.702332 0.306763
0.451508 0.705658 0.311584
0.486023 0.708679 0.315186
0.519470 0.711792 0.319336
0.550751 0.714325 0.323090
0.582214 0.716980 0.327637
0.612000 0.719452 0.332947
0.643005 0.722198 0.338287
0.672333 0.725067 0.343323
0.700043 0.727844 0.348083
0.727051 0.730255 0.351776
0.754211 0.733032 0.357391
0.780426 0.735626 0.364441
0.805817 0.738373 0.372498
0.830231 0.741394 0.381836
0.853760 0.744873 0.389984
0.876068 0.748383 0.395630
0.898651 0.751556 0.395935
0.914093 0.754547 0.399506
0.032654 0.674225 0.296692
0.032776 0.675232 0.297394
0.034119 0.675781 0.297363
0.035339 0.676910 0.297791
0.035950 0.678864 0.298706
0.040771 0.681183 0.298981
0.048309 0.685760 0.297211
0.056519 0.690430 0.293274
0.074799 0.695709 0.289795
0.171906 0.703033 0.296295
0.240967 0.708862 0.303040
0.296509 0.714325 0.307281
0.343445 0.719604 0.313507
0.385376 0.724213 0.319153
0.424622 0.728027 0.324799
0.460327 0.731445 0.330139
0.494049 0.734436 0.334869
0.525085 0.736938 0.338562
0.556305 0.739136 0.341705
0.586975 0.741150 0.344910
0.618530 0.743408 0.347870
