Kodak Vision2 500T Expression (5229) - Only color.cube
# Created by Benjamin (IWLTBAP) : http://luts.iwltbap.com
# Copyright: (C) Copyright 2010-2017 Triune Films and IWLTBAP SAS
# Cannot be resold, shared or otherwise redistributed
TITLE "Film Print Emulation LUTs Pack (Rec.709, sRGB, DCI-P3)"
LUT_3D_SIZE 33
0.000763 0.002350 0.003143
0.029144 0.002106 0.002899
0.062988 0.001678 0.002625
0.095825 0.001434 0.002350
0.131012 0.001831 0.002075
0.161804 0.001099 0.001831
0.191986 0.001648 0.001617
0.223907 0.002228 0.001343
0.254791 0.001526 0.001129
0.280396 0.001465 0.000946
0.303253 0.002197 0.000763
0.325989 0.004303 0.000610
0.350525 0.004395 0.000427
0.371979 0.008362 0.000244
0.392151 0.011200 0.000092
0.410706 0.011292 0.000000
0.425934 0.011353 0.000000
0.442780 0.011444 0.000000
0.457916 0.008850 0.000000
0.473846 0.008942 0.000000
0.492096 0.014069 0.000000
0.512787 0.014160 0.000000
0.536377 0.015991 0.000000
0.552643 0.016022 0.000000
0.571930 0.016876 0.000000
0.591095 0.018555 0.000000
0.615082 0.016937 0.000000
0.637543 0.020996 0.000000
0.660797 0.024200 0.000000
0.682556 0.028259 0.000000
0.705200 0.030701 0.000000
0.722229 0.034058 0.000000
0.738220 0.036591 0.000000
0.000336 0.052368 0.002625
0.038849 0.041260 0.004303
0.065857 0.038727 0.002319
0.117462 0.045441 0.001831
0.148956 0.043793 0.001617
0.176575 0.041260 0.001434
0.205414 0.040436 0.001221
0.238525 0.041260 0.000946
0.268341 0.039581 0.000763
0.292053 0.042114 0.000580
0.313721 0.040436 0.000427
0.336639 0.041290 0.000275
0.359894 0.041321 0.000122
0.382111 0.041351 0.000000
0.400757 0.041382 0.000000
0.420624 0.041382 0.000000
0.439789 0.039703 0.000000
0.455994 0.038025 0.000000
0.470581 0.037201 0.000000
0.486328 0.037231 0.000000
0.506836 0.037262 0.000000
0.528748 0.038086 0.000000
0.547577 0.039795 0.000000
0.566467 0.041534 0.000000
0.586517 0.041565 0.000000
0.612305 0.042450 0.000000
0.636444 0.042450 0.000000
0.660583 0.044159 0.000000
0.682220 0.046600 0.000000
0.705231 0.049744 0.000000
0.722015 0.051270 0.000000
0.737061 0.052734 0.000000
0.753143 0.054932 0.000000
0.000000 0.092346 0.014221
0.055328 0.090057 0.010223
0.070892 0.076477 0.011322
0.098724 0.069641 0.003540
0.157349 0.081238 0.001251
0.188568 0.080688 0.001038
0.218811 0.077515 0.000824
0.250885 0.075317 0.000610
0.280060 0.073059 0.000427
0.304749 0.074219 0.000244
0.326599 0.072510 0.000122
0.349060 0.071381 0.000000
0.369354 0.070801 0.000000
0.391205 0.069641 0.000000
0.412292 0.068451 0.000000
0.431213 0.067230 0.000000
0.449921 0.067261 0.000000
0.467316 0.066040 0.000000
0.482147 0.063538 0.000000
0.503326 0.060303 0.000000
0.522034 0.061615 0.000000
0.542755 0.060974 0.000000
0.558685 0.062317 0.000000
0.579987 0.063660 0.000000
0.605286 0.063690 0.000000
0.631531 0.063049 0.000000
0.658112 0.064331 0.000000
0.680450 0.065582 0.000000
0.703522 0.067444 0.000000
0.720642 0.068665 0.000000
0.736969 0.070435 0.000000
0.751801 0.071014 0.000000
0.765778 0.073334 0.000000
0.018585 0.128571 0.023376
0.060333 0.125885 0.018188
0.091278 0.121735 0.012482
0.108673 0.100250 0.017426
0.143036 0.093719 0.005219
0.185364 0.103546 0.000885
0.230743 0.115906 0.000488
0.261719 0.110260 0.000305
0.288818 0.107910 0.000153
0.313904 0.106720 0.000000
0.337677 0.103516 0.000000
0.359772 0.100616 0.000000
0.381256 0.098083 0.000000
0.401520 0.095459 0.000000
0.422729 0.093689 0.000000
0.443359 0.092346 0.000000
0.460541 0.091888 0.000000
0.476868 0.090088 0.000000
0.497772 0.087250 0.000000
0.517212 0.084351 0.000000
0.538879 0.082855 0.000000
0.554810 0.083862 0.000000
0.573608 0.083893 0.000000
0.596710 0.084442 0.000000
0.623871 0.085419 0.000000
0.652130 0.085419 0.000000
0.675232 0.085907 0.000000
0.699707 0.086853 0.000000
0.718201 0.088287 0.000000
0.734863 0.089691 0.000000
0.750732 0.090637 0.000000
0.765717 0.091064 0.000000
0.782196 0.091064 0.000000
0.030823 0.162567 0.030060
0.064789 0.157990 0.024811
0.097107 0.155212 0.020386
0.133636 0.152954 0.015137
0.149811 0.125183 0.020325
0.183044 0.123444 0.008453
0.222137 0.124481 0.000671
0.267578 0.145355 0.000031
0.297333 0.147736 0.000000
0.323547 0.145081 0.000000
0.349030 0.140900 0.000000
0.371429 0.136902 0.000000
0.392731 0.133118 0.000000
0.414520 0.129211 0.000000
0.435883 0.124817 0.000000
0.453827 0.120300 0.000000
0.471466 0.117798 0.000000
0.492798 0.113770 0.000000
0.513214 0.109955 0.000000
0.536407 0.106018 0.000000
0.551910 0.104034 0.000000
0.570007 0.103638 0.000000
0.589996 0.104889 0.000000
0.617096 0.104523 0.000000
0.646729 0.104919 0.000000
0.669373 0.105316 0.000000
0.695496 0.105713 0.000000
0.714844 0.106110 0.000000
0.732697 0.108093 0.000000
0.749908 0.109253 0.000000
0.766144 0.109650 0.000000
0.783966 0.110413 0.000000
0.797241 0.110779 0.000000
0.039642 0.194672 0.041412
0.070801 0.189423 0.032349
0.101166 0.186615 0.028503
0.139221 0.184174 0.021790
0.168762 0.182587 0.015869
0.187256 0.154358 0.025482
0.225616 0.154053 0.012634
0.267120 0.153778 0.001831
0.299957 0.169495 0.000000
0.328308 0.183868 0.000000
0.355560 0.179108 0.000000
0.380035 0.174194 0.000000
0.404541 0.170288 0.000000
0.425659 0.164673 0.000000
0.447357 0.156891 0.000000
0.465881 0.151855 0.000000
0.484192 0.148132 0.000000
0.507690 0.144897 0.000000
0.531830 0.140991 0.000000
0.549500 0.136993 0.000000
0.567596 0.135468 0.000000
0.587280 0.134216 0.000000
0.613373 0.133606 0.000000
0.640381 0.131653 0.000000
0.665344 0.131653 0.000000
0.691925 0.131653 0.000000
0.712097 0.131622 0.000000
0.729523 0.132599 0.000000
0.748718 0.133881 0.000000
0.765930 0.134521 0.000000
0.785004 0.135468 0.000000
0.799408 0.135132 0.000000
0.814362 0.135437 0.000000
0.050293 0.227264 0.048370
0.076324 0.221039 0.043610
0.106781 0.215302 0.036896
0.143066 0.212524 0.029236
0.173737 0.211395 0.022522
0.203156 0.210815 0.019501
0.226868 0.185425 0.031464
0.267151 0.182281 0.016479
0.300812 0.182739 0.003571
0.332275 0.190369 0.000000
0.359619 0.206055 0.000000
0.385254 0.210205 0.000000
0.412384 0.206421 0.000000
0.436951 0.200592 0.000000
0.459351 0.193512 0.000000
0.477356 0.186981 0.000000
0.501190 0.182800 0.000000
0.525726 0.177765 0.000000
0.545715 0.173523 0.000000
0.565094 0.170380 0.000000
0.584808 0.167908 0.000000
0.609863 0.165619 0.000000
0.636047 0.163544 0.000000
0.661743 0.161438 0.000000
0.688751 0.159790 0.000000
0.709747 0.159241 0.000000
0.728394 0.160339 0.000000
0.748138 0.160858 0.000000
0.766876 0.161377 0.000000
0.786957 0.162170 0.000000
0.801910 0.162170 0.000000
0.818237 0.161377 0.000000
0.830963 0.160828 0.000000
0.058136 0.264465 0.059052
0.082703 0.254944 0.051666
0.113525 0.246246 0.046356
0.146240 0.241211 0.039154
0.176697 0.239258 0.029205
0.206482 0.238129 0.026154
0.240021 0.235809 0.023163
0.266388 0.211304 0.031433
0.299683 0.207947 0.018677
0.334534 0.208893 0.005737
0.369751 0.208527 0.000000
0.395081 0.227814 0.000000
0.419037 0.241913 0.000000
0.444641 0.235962 0.000000
0.467621 0.230011 0.000000
0.492310 0.222473 0.000000
0.517761 0.217010 0.000000
0.539978 0.211517 0.000000
0.560425 0.207031 0.000000
0.582153 0.203217 0.000000
0.607605 0.199890 0.000000
0.633026 0.196655 0.000000
0.659149 0.194214 0.000000
0.685852 0.191071 0.000000
0.708435 0.189148 0.000000
0.727203 0.187653 0.000000
0.747864 0.188904 0.000000
0.767639 0.189972 0.000000
0.788391 0.190796 0.000000
0.804474 0.190582 0.000000
0.820984 0.189728 0.000000
0.833618 0.187347 0.000000
0.848145 0.186066 0.000000
0.066071 0.300537 0.064880
0.090942 0.289795 0.060883
0.122559 0.279724 0.053558
0.150177 0.271301 0.047028
0.178162 0.266876 0.037628
0.208649 0.264130 0.030701
0.242462 0.264069 0.025391
0.271759 0.259705 0.023132
0.296692 0.235443 0.032928
0.332581 0.233154 0.021637
0.370117 0.234161 0.005920
0.403748 0.237091 0.000000
0.430908 0.251343 0.000000
0.453491 0.263641 0.000000
0.475281 0.266846 0.000000
0.504120 0.261047 0.000000
0.530548 0.254395 0.000000
0.553253 0.247864 0.000000
0.575439 0.242279 0.000000
0.602966 0.236847 0.000000
0.632812 0.231903 0.000000
0.655945 0.228394 0.000000
0.685547 0.226654 0.000000
0.707703 0.223358 0.000000
0.727448 0.219482 0.000000
0.747620 0.217865 0.000000
0.769348 0.218567 0.000000
0.788940 0.219452 0.000000
0.806122 0.218903 0.000000
0.823456 0.217651 0.000000
0.836853 0.215302 0.000000
0.852539 0.212555 0.000000
0.865326 0.211060 0.000000
0.078186 0.330688 0.068756
0.103302 0.321167 0.066010
0.131836 0.311859 0.060852
0.157440 0.301178 0.052277
0.181274 0.295410 0.045624
0.211487 0.289062 0.038361
0.243622 0.287689 0.029144
0.273651 0.288635 0.024597
0.299072 0.282440 0.025330
0.329193 0.259979 0.032959
0.367218 0.258667 0.021637
0.403473 0.261475 0.012726
0.437958 0.265381 0.002045
0.466400 0.272247 0.000000
0.489105 0.285187 0.000000
0.511292 0.294403 0.000000
0.540619 0.292145 0.000000
0.563690 0.286896 0.000000
0.592773 0.279572 0.000000
0.625031 0.272797 0.000000
0.653168 0.267944 0.000000
0.682159 0.263855 0.000000
0.707062 0.261078 0.000000
0.728851 0.257538 0.000000
0.746979 0.254242 0.000000
0.769867 0.252258 0.000000
0.787720 0.250885 0.000000
0.806152 0.250580 0.000000
0.823944 0.249939 0.000000
0.838867 0.248260 0.000000
0.856415 0.246399 0.000000
0.870270 0.243561 0.000000
0.882538 0.241028 0.000000
0.092224 0.358551 0.071411
0.119324 0.348328 0.068207
0.143707 0.338257 0.063171
0.164276 0.329559 0.057861
0.187378 0.321716 0.048981
0.214905 0.315308 0.042053
0.245667 0.312622 0.033722
0.274506 0.312988 0.028351
0.301147 0.314911 0.024597
0.329163 0.305359 0.026093
0.362335 0.285248 0.032959
0.401093 0.285522 0.029877
0.435516 0.286896 0.016418
0.469543 0.291687 0.006348
0.510071 0.294006 0.002258
0.530365 0.305817 0.000000
0.549438 0.316223 0.000000
0.572632 0.322601 0.000000
0.606659 0.317932 0.000000
0.641510 0.312561 0.000000
0.674683 0.306030 0.000000
0.702576 0.301300 0.000000
0.726807 0.296875 0.000000
0.745758 0.292633 0.000000
0.768738 0.288544 0.000000
0.787262 0.285675 0.000000
0.805237 0.283295 0.000000
0.821808 0.281494 0.000000
0.838562 0.280487 0.000000
0.856720 0.278809 0.000000
0.872101 0.276978 0.000000
0.887390 0.273987 0.000000
0.899384 0.270416 0.000000
0.107758 0.387024 0.075470
0.132538 0.376495 0.069275
0.153992 0.364807 0.064880
0.173859 0.353760 0.059631
0.195557 0.345490 0.051605
0.220551 0.338776 0.045593
0.249542 0.335754 0.040558
0.276855 0.335083 0.031403
0.302979 0.336639 0.028351
0.330048 0.338959 0.023834
0.359741 0.329132 0.026825
0.393188 0.310944 0.035980
0.431671 0.309967 0.033691
0.465881 0.312317 0.023804
0.509552 0.317017 0.013428
0.546997 0.317139 0.004486
0.567566 0.324097 0.000000
0.589661 0.336914 0.000000
0.617920 0.345642 0.000000
0.653046 0.344971 0.000000
0.686798 0.339661 0.000000
0.717590 0.335327 0.000000
0.739441 0.329712 0.000000
0.763306 0.325012 0.000000
0.783722 0.321167 0.000000
0.803070 0.317505 0.000000
0.819092 0.314392 0.000000
0.834717 0.311737 0.000000
0.854279 0.310150 0.000000
0.871429 0.308533 0.000000
0.888000 0.306061 0.000000
0.901093 0.302673 0.000000
0.912872 0.298828 0.001038
0.129944 0.413696 0.078369
0.148804 0.403198 0.071381
0.166077 0.392731 0.066528
0.183929 0.381378 0.060822
0.203552 0.370605 0.054108
0.229431 0.363586 0.047607
0.255463 0.360352 0.043427
0.279724 0.359039 0.039032
0.305176 0.359711 0.032166
0.331451 0.361664 0.028320
0.359436 0.364258 0.023804
0.388458 0.351471 0.029846
0.425446 0.332977 0.040527
0.461884 0.331757 0.036743
0.501465 0.335144 0.028351
0.546997 0.338715 0.018585
0.580200 0.337891 0.013458
0.617462 0.344208 0.011963
0.644470 0.356873 0.004913
0.664764 0.364960 0.000000
0.695496 0.372620 0.000000
0.725220 0.367615 0.000000
0.752106 0.363007 0.000000
0.776306 0.357483 0.000000
0.798279 0.352112 0.000000
0.815796 0.347565 0.000000
0.831299 0.343262 0.000000
0.850433 0.340057 0.000000
0.868347 0.337372 0.000000
0.886841 0.335144 0.002106
0.900513 0.332336 0.004272
0.913422 0.329742 0.008026
0.926849 0.326904 0.011017
0.147980 0.441681 0.080719
0.165344 0.429565 0.074951
0.181824 0.418091 0.068176
0.197845 0.407135 0.063141
0.215820 0.397125 0.057800
0.237152 0.389435 0.050232
0.261780 0.385315 0.046204
0.284119 0.383270 0.041992
0.307922 0.383484 0.039764
0.333618 0.384460 0.032135
0.361420 0.386383 0.027557
0.387146 0.388977 0.025299
0.419464 0.373230 0.034424
0.456421 0.354706 0.043427
0.494141 0.352997 0.039795
0.537079 0.355530 0.032135
0.579163 0.359192 0.030670
0.623901 0.362488 0.030670
0.666168 0.363800 0.026825
0.686401 0.373840 0.017059
0.710663 0.384247 0.010376
0.734619 0.393158 0.004089
0.761475 0.395447 0.004150
0.789520 0.391388 0.005219
0.810486 0.387054 0.004211
0.829987 0.380310 0.003174
0.847046 0.375244 0.002106
0.865082 0.370728 0.004272
0.884277 0.366852 0.006287
0.899170 0.363464 0.011719
0.912811 0.359802 0.013214
0.926727 0.357086 0.019135
0.937775 0.353241 0.020630
0.163544 0.474609 0.084778
0.181366 0.460480 0.079773
0.197662 0.445557 0.072937
0.213745 0.433533 0.065979
0.229095 0.422791 0.060791
0.247253 0.413147 0.054688
0.267395 0.407959 0.049561
0.287811 0.403656 0.046204
0.310425 0.402771 0.043427
0.335663 0.403046 0.039001
0.362457 0.405273 0.031372
0.388245 0.408051 0.028320
0.416809 0.410309 0.026794
0.450562 0.393005 0.039001
0.486115 0.376068 0.048920
0.528076 0.373016 0.041260
0.567505 0.378052 0.039795
0.619720 0.381744 0.038300
0.667389 0.384644 0.036774
0.706757 0.384064 0.036743
0.728577 0.391327 0.031372
0.749176 0.402130 0.023712
0.774109 0.411377 0.018463
0.798096 0.420319 0.014740
0.822632 0.417023 0.014709
0.842407 0.412109 0.015442
0.861572 0.405426 0.016174
0.880768 0.400391 0.017639
0.897339 0.396423 0.019104
0.912109 0.392670 0.021362
0.926300 0.389404 0.024384
0.937958 0.386505 0.027435
0.949463 0.383148 0.029724
0.177582 0.505890 0.089050
0.196106 0.493744 0.083862
0.213379 0.478912 0.078339
0.229156 0.463409 0.070312
0.243042 0.449677 0.064270
0.256561 0.438568 0.060181
0.273346 0.430237 0.052795
0.290771 0.424744 0.048889
0.311707 0.422821 0.046875
0.336395 0.422577 0.042694
0.362823 0.424042 0.037476
0.388611 0.426422 0.032898
0.416809 0.430145 0.031342
0.447144 0.429901 0.032104
0.477570 0.411621 0.044128
0.518890 0.393127 0.050262
0.557220 0.393646 0.047607
0.603638 0.398529 0.048981
0.662109 0.401215 0.044891
0.708496 0.403046 0.044861
0.740326 0.403564 0.046234
0.766693 0.406891 0.042694
0.787872 0.419617 0.035889
0.809296 0.431030 0.031311
0.829834 0.440552 0.024414
0.853790 0.444275 0.022125
0.875000 0.437897 0.022858
0.892914 0.430511 0.025146
0.910400 0.425293 0.028198
0.924652 0.420837 0.030487
0.937469 0.417236 0.033539
0.950806 0.413971 0.036621
0.960907 0.410736 0.040436
0.189117 0.536652 0.093079
0.208496 0.523560 0.086884
0.226624 0.508881 0.081116
0.241974 0.493866 0.073914
0.254700 0.479950 0.067596
0.266022 0.466583 0.062531
0.278870 0.454926 0.058380
0.294495 0.447357 0.052155
0.313934 0.442444 0.048248
0.337372 0.441833 0.045532
0.363190 0.444122 0.041992
0.388550 0.446533 0.038269
0.416504 0.449860 0.037476
0.445648 0.452789 0.035919
0.472809 0.451416 0.039001
0.510101 0.430603 0.046906
0.549316 0.410797 0.052856
0.589844 0.412903 0.056061
0.649078 0.417389 0.053558
0.702606 0.419586 0.050293
0.740204 0.422089 0.053528
0.773590 0.423157 0.053497
0.800293 0.424561 0.054749
0.819519 0.437927 0.048889
0.837677 0.451080 0.041168
0.860046 0.462250 0.035858
0.882935 0.471252 0.029724
0.903656 0.468475 0.031250
0.920563 0.460999 0.034302
0.934967 0.455322 0.038147
0.949310 0.450562 0.044067
0.960510 0.445953 0.048889
0.970062 0.441711 0.053528
0.197754 0.566925 0.096497
0.217468 0.553772 0.091827
0.235413 0.538574 0.083801
0.251526 0.522736 0.078278
0.264282 0.507568 0.071320
0.275543 0.494141 0.065369
0.286987 0.482910 0.061371
0.300720 0.474670 0.055328
0.317871 0.468262 0.051514
0.340424 0.466644 0.048248
0.364594 0.467499 0.044830
0.390076 0.469147 0.042694
0.416748 0.473236 0.041962
0.444641 0.476501 0.041199
0.470581 0.479736 0.039734
0.505585 0.474365 0.043396
0.542694 0.451355 0.048950
0.579346 0.431488 0.057922
0.633575 0.430634 0.059753
0.690277 0.434357 0.056091
0.731812 0.438629 0.058502
0.768860 0.442047 0.060913
0.801239 0.444611 0.059692
0.826630 0.446960 0.062042
0.847290 0.456970 0.058472
0.866547 0.471649 0.054108
0.888245 0.483032 0.050201
0.908142 0.492462 0.046814
0.929901 0.498962 0.042603
0.945007 0.494598 0.046814
0.957916 0.489349 0.051544
0.969238 0.484375 0.056671
0.973755 0.479797 0.060944
0.207916 0.598450 0.101196
0.227478 0.583801 0.094940
0.245026 0.568176 0.086853
0.260559 0.553192 0.081085
0.273468 0.537231 0.073883
0.284210 0.522461 0.068665
0.295593 0.509644 0.063690
0.308960 0.501160 0.060181
0.324768 0.494659 0.055328
0.344910 0.492584 0.051514
0.367462 0.492462 0.048889
0.392181 0.493042 0.046204
0.418274 0.494751 0.045502
0.445251 0.496887 0.044800
0.469696 0.500977 0.043396
0.503082 0.504944 0.042694
0.538971 0.494965 0.046204
0.571167 0.473969 0.051605
0.616943 0.452179 0.061554
0.675354 0.449005 0.060944
0.723267 0.452942 0.060913
0.761414 0.458252 0.065491
0.798065 0.465240 0.064362
0.826904 0.469574 0.069275
0.851807 0.471649 0.071381
0.872803 0.475220 0.073914
0.892303 0.489807 0.069275
0.911713 0.502167 0.063782
0.930786 0.514069 0.059692
0.950104 0.525208 0.054749
0.966034 0.526215 0.057281
0.972900 0.521454 0.064423
0.974365 0.515289 0.068329
0.214844 0.632965 0.107605
0.237762 0.617249 0.099731
0.255157 0.599884 0.092957
0.269104 0.583374 0.085114
0.281250 0.567871 0.078735
0.291748 0.553131 0.071320
0.303375 0.540222 0.066498
0.316467 0.531403 0.062531
0.333252 0.523468 0.060181
0.352081 0.519989 0.057190
0.371735 0.518494 0.053436
0.395508 0.517883 0.050201
0.420807 0.519104 0.050201
0.447205 0.520477 0.047546
0.470215 0.522614 0.046204
0.501984 0.526825 0.045502
0.535736 0.530151 0.043396
0.566589 0.515930 0.048279
0.601807 0.492920 0.056091
0.655640 0.472076 0.063873
0.709961 0.469208 0.065521
0.750519 0.474487 0.069336
0.790955 0.480621 0.071381
0.824005 0.486359 0.073425
0.851166 0.491241 0.077789
0.874847 0.492615 0.080597
0.895020 0.493103 0.085449
0.914154 0.507416 0.081024
0.931519 0.523376 0.076813
0.951141 0.537140 0.075867
0.967560 0.548889 0.072418
0.973969 0.558899 0.067230
0.973816 0.554321 0.071014
0.221771 0.669586 0.111877
0.244934 0.653870 0.106018
0.263550 0.635895 0.097504
0.276764 0.617340 0.090546
0.288635 0.600433 0.082886
0.300415 0.584961 0.076843
0.311890 0.571075 0.069733
0.324860 0.561523 0.065948
0.340820 0.553314 0.063110
0.357880 0.548706 0.060791
0.377899 0.545288 0.058411
0.399567 0.543427 0.054718
0.424164 0.544281 0.053436
0.449402 0.545593 0.051514
0.471954 0.547333 0.049561
0.502472 0.550446 0.048920
0.534637 0.552246 0.046875
0.562286 0.554413 0.043427
0.597137 0.536804 0.048981
0.641205 0.511963 0.058563
0.691315 0.489288 0.066650
0.736023 0.488129 0.072449
0.780701 0.495178 0.075439
0.817627 0.501404 0.076874
0.847748 0.506927 0.080597
0.871674 0.511505 0.084167
0.895386 0.513672 0.089630
0.915649 0.516083 0.093536
0.932648 0.527679 0.097626
0.951416 0.544861 0.094666
0.967834 0.559296 0.091583
0.973633 0.571838 0.085083
0.973358 0.583710 0.077484
0.229828 0.702911 0.116272
0.251556 0.689270 0.110687
0.270721 0.673401 0.102448
0.285095 0.655121 0.094879
0.297058 0.636108 0.086823
0.308655 0.619568 0.081085
0.319427 0.604340 0.075378
0.331909 0.591400 0.069214
0.347229 0.581451 0.065948
0.364044 0.574280 0.063141
0.382446 0.570862 0.060822
0.404816 0.569611 0.059021
0.427368 0.569427 0.058411
0.451874 0.569611 0.054718
0.473724 0.570374 0.052185
0.503937 0.573730 0.052185
0.534515 0.575745 0.049561
0.561371 0.577362 0.046906
0.594727 0.579620 0.042725
0.636597 0.556000 0.050964
0.680481 0.532471 0.060944
0.722351 0.508728 0.070923
0.763763 0.507782 0.076416
0.805847 0.516205 0.079712
0.837708 0.523163 0.083313
0.867523 0.527344 0.087585
0.894379 0.530640 0.092010
0.917786 0.536713 0.098328
0.936646 0.540741 0.104797
0.950775 0.546967 0.110016
0.966797 0.565186 0.106812
0.973236 0.581055 0.100983
0.973267 0.595764 0.095154
0.244354 0.736572 0.119202
0.260712 0.721588 0.113983
0.275940 0.706573 0.108337
0.290558 0.690186 0.098938
0.303223 0.672974 0.092133
0.315033 0.655426 0.083771
0.327057 0.639618 0.079681
0.339630 0.623810 0.072876
0.353394 0.611450 0.068695
0.368439 0.601929 0.065979
0.386475 0.597900 0.063721
0.408478 0.596802 0.061981
0.432098 0.596252 0.060822
0.454132 0.596008 0.059021
0.476013 0.596588 0.055359
0.505524 0.598877 0.054749
0.536133 0.599823 0.052185
0.561615 0.600616 0.048920
0.594482 0.602844 0.045563
0.634369 0.605927 0.043457
0.676086 0.577393 0.053558
0.714630 0.553162 0.063812
0.749390 0.530731 0.074951
0.791992 0.528076 0.082428
0.828156 0.538757 0.086761
0.861359 0.545654 0.090027
0.891266 0.549347 0.094696
0.917358 0.553711 0.102295
0.938538 0.558868 0.107147
0.952820 0.565460 0.113953
0.965698 0.568573 0.119934
0.972656 0.585327 0.115662
0.973267 0.603790 0.111176
0.261078 0.774170 0.118591
0.272308 0.758514 0.115021
0.283386 0.741150 0.111725
0.296295 0.722260 0.104034
0.309021 0.703735 0.095612
0.321442 0.687286 0.086365
0.334259 0.672638 0.081970
0.346893 0.659668 0.077789
0.359375 0.644562 0.071350
0.374268 0.633057 0.068695
0.391876 0.626587 0.065979
0.412018 0.623840 0.064301
0.435120 0.622864 0.062561
0.456970 0.622498 0.060822
0.478973 0.623535 0.059052
0.507812 0.626495 0.058472
0.537964 0.628082 0.056641
0.562988 0.628540 0.052887
0.594910 0.629883 0.048309
0.634033 0.631165 0.044861
0.675293 0.630157 0.046906
0.713104 0.601410 0.057892
0.742218 0.574188 0.066071
0.779205 0.552551 0.079712
0.816223 0.550201 0.089233
0.849731 0.560150 0.093201
0.885406 0.567566 0.096924
0.914673 0.571411 0.102936
0.937347 0.576965 0.108856
0.953369 0.581787 0.115936
0.966705 0.586578 0.123108
0.972504 0.592072 0.131622
0.973267 0.604248 0.131134
0.274994 0.801941 0.118561
0.284180 0.792816 0.115814
0.292999 0.778046 0.113037
0.301880 0.760071 0.108826
0.313629 0.737152 0.100342
0.326385 0.718262 0.091736
0.339630 0.702850 0.084656
0.352875 0.689880 0.080139
0.365875 0.679352 0.076355
0.380127 0.667816 0.071350
0.396790 0.659058 0.068176
0.416809 0.655304 0.066528
0.437805 0.652985 0.064301
0.459381 0.651978 0.062012
0.481201 0.653015 0.060852
0.510071 0.654419 0.060272
0.539673 0.656067 0.059082
0.565765 0.657288 0.055420
0.596588 0.659027 0.050964
0.635010 0.660553 0.048279
0.675232 0.663818 0.048279
0.712860 0.657990 0.050934
0.739410 0.627014 0.059723
0.770905 0.597626 0.070374
0.802368 0.572144 0.084625
0.834595 0.573914 0.095459
0.869781 0.583069 0.101044
0.907104 0.588501 0.104767
0.932220 0.595490 0.110260
0.952301 0.600647 0.117035
0.966736 0.605743 0.127533
0.972656 0.609680 0.135559
0.973145 0.612762 0.141907
0.286194 0.824371 0.119385
0.295563 0.815094 0.116882
0.302765 0.805237 0.113312
0.310577 0.793610 0.110779
0.320648 0.776031 0.105804
0.332855 0.755157 0.096710
0.345764 0.735413 0.087646
0.358673 0.719940 0.082886
0.371948 0.708160 0.079712
0.387054 0.700073 0.075897
0.403320 0.691071 0.070831
0.421173 0.686096 0.068176
0.440857 0.681915 0.065430
0.461090 0.678894 0.063171
0.484039 0.679993 0.062042
0.512268 0.681946 0.061462
0.541138 0.683838 0.060883
0.567444 0.685638 0.057922
0.599365 0.686768 0.052277
0.637543 0.687439 0.050293
0.675751 0.688873 0.049622
0.711792 0.692963 0.050262
0.740204 0.684906 0.053528
0.770508 0.652222 0.063232
0.799225 0.623108 0.076843
0.824249 0.596069 0.092010
0.857391 0.599579 0.103577
0.895050 0.606384 0.105957
0.925842 0.611237 0.111938
0.948303 0.615479 0.119049
0.965454 0.624176 0.131836
0.972504 0.629700 0.139618
0.972961 0.633026 0.145569
0.295837 0.851471 0.121033
0.305450 0.839630 0.118805
0.312958 0.828613 0.114380
0.320923 0.817047 0.111877
0.328857 0.805206 0.108734
0.339508 0.792358 0.102295
0.351959 0.774048 0.094452
0.364563 0.756470 0.086365
0.378265 0.741577 0.082458
0.393097 0.729675 0.078766
0.408875 0.721222 0.074402
0.425751 0.713593 0.070831
0.445435 0.708130 0.067657
0.463104 0.705078 0.065460
0.486786 0.704834 0.063782
0.514221 0.705566 0.063202
0.542725 0.707550 0.061493
0.569153 0.709747 0.059753
0.602814 0.711609 0.054230
0.639313 0.713348 0.052948
0.677429 0.715210 0.053558
