Kodak Eastman Color Negative 50T (5251) - Only contrast.cube
# Created by Benjamin (IWLTBAP) : http://luts.iwltbap.com
# Copyright: (C) Copyright 2010-2017 Triune Films and IWLTBAP SAS
# Cannot be resold, shared or otherwise redistributed
TITLE "Film Print Emulation LUTs Pack (Rec.709, sRGB, DCI-P3)"
LUT_3D_SIZE 9
0.000000 0.000000 0.000000
0.070770 0.000000 0.000000
0.142059 0.000000 0.000000
0.209381 0.000000 0.000000
0.270935 0.000000 0.000000
0.329132 0.000000 0.000000
0.389557 0.000000 0.000000
0.454803 0.000000 0.000000
0.524902 0.000000 0.000000
0.000000 0.072357 0.001251
0.081818 0.076965 0.001770
0.163879 0.078888 0.000458
0.236877 0.075317 0.000000
0.300873 0.068420 0.000000
0.361633 0.061676 0.000000
0.423431 0.055939 0.000000
0.488159 0.051758 0.000000
0.553711 0.048706 0.000000
0.000000 0.154388 0.005188
0.097565 0.168396 0.006012
0.194366 0.179047 0.003845
0.280487 0.182343 0.000000
0.353302 0.177124 0.000000
0.416901 0.166779 0.000000
0.476685 0.155548 0.000000
0.535461 0.146149 0.000000
0.593292 0.139465 0.000000
0.002747 0.243286 0.012054
0.114380 0.270111 0.017303
0.232788 0.293945 0.028320
0.340515 0.306885 0.031097
0.424927 0.304199 0.012360
0.490814 0.290192 0.000000
0.546448 0.272736 0.000000
0.597504 0.256073 0.000000
0.646759 0.242218 0.000000
0.002655 0.339966 0.025665
0.128448 0.369812 0.040894
0.266266 0.398468 0.059937
0.392242 0.421204 0.066589
0.489532 0.424713 0.053619
0.564636 0.415558 0.020905
0.622467 0.399414 0.000000
0.671844 0.379974 0.000000
0.719757 0.360352 0.000000
0.011444 0.431549 0.045715
0.141571 0.456512 0.060303
0.287323 0.485504 0.078766
0.424103 0.515594 0.092133
0.543335 0.533234 0.098755
0.652435 0.537384 0.101440
0.737274 0.528229 0.091888
0.799255 0.509857 0.067841
0.849915 0.487671 0.022919
0.028870 0.516083 0.062775
0.159027 0.536835 0.074158
0.301575 0.564301 0.095123
0.443085 0.602997 0.118103
0.593658 0.640137 0.147461
0.751251 0.658936 0.171600
0.864502 0.658051 0.173950
0.929016 0.642975 0.159180
0.984436 0.622101 0.136261
0.073029 0.601501 0.077789
0.185822 0.618652 0.089233
0.320679 0.643372 0.112122
0.462463 0.687622 0.145752
0.637573 0.741119 0.195587
0.812744 0.774689 0.236877
0.874878 0.782898 0.251282
0.931610 0.772400 0.244415
0.990387 0.753845 0.227722
0.122681 0.684296 0.093170
0.226166 0.697998 0.105438
0.352264 0.721924 0.132812
0.488464 0.774780 0.179901
0.678223 0.843384 0.242889
0.812500 0.884552 0.286255
0.878265 0.897827 0.303619
0.937195 0.896576 0.307159
0.996490 0.888306 0.303467
0.000000 0.000000 0.068146
0.071381 0.000000 0.069824
0.145081 0.000000 0.071075
0.215210 0.000000 0.069153
0.278748 0.000061 0.062164
0.339478 0.000000 0.050232
0.401703 0.000000 0.045776
0.469482 0.000000 0.043518
0.539490 0.000000 0.044037
0.000000 0.078186 0.078918
0.080719 0.080719 0.080719
0.165497 0.079926 0.080902
0.241791 0.074615 0.075134
0.308380 0.066040 0.062134
0.370453 0.058807 0.048553
0.433197 0.053192 0.044342
0.498566 0.047913 0.043823
0.564026 0.046722 0.043640
0.000000 0.166656 0.092987
0.092194 0.175964 0.094849
0.191956 0.183075 0.095428
0.282471 0.184174 0.089294
0.359467 0.177490 0.073273
0.424591 0.165405 0.052826
0.483795 0.152771 0.042725
0.542267 0.143097 0.043274
0.599823 0.136505 0.042786
0.001038 0.263733 0.108673
0.103943 0.282043 0.111725
0.223267 0.299164 0.116425
0.337524 0.310791 0.115814
0.427521 0.308289 0.102570
0.496246 0.293427 0.070374
0.552094 0.273682 0.044037
0.602600 0.255554 0.043610
0.651917 0.240540 0.042786
0.004456 0.362823 0.123505
0.114624 0.382172 0.127075
0.251617 0.403900 0.134918
0.384857 0.425842 0.139343
0.489288 0.431458 0.130951
0.568939 0.422638 0.109711
0.629120 0.405914 0.071869
0.679504 0.384827 0.045807
0.727661 0.363678 0.043335
0.008057 0.452484 0.135986
0.127625 0.469269 0.138336
0.271515 0.491272 0.148346
0.416138 0.520477 0.161377
0.541412 0.541351 0.169861
0.658844 0.547394 0.175323
0.749023 0.538544 0.166077
0.814331 0.519714 0.144684
0.866333 0.497101 0.111603
0.024109 0.535767 0.144928
0.147339 0.549957 0.147522
0.287933 0.571533 0.162415
0.435852 0.608002 0.186249
0.590179 0.648529 0.220825
0.755035 0.669708 0.250763
0.868042 0.669952 0.255707
0.931885 0.655823 0.240601
0.990387 0.635742 0.216827
0.071136 0.619324 0.155029
0.176025 0.631195 0.160522
0.308075 0.650909 0.179199
0.454193 0.692261 0.215515
0.630432 0.749329 0.271881
0.810852 0.786224 0.319824
0.873108 0.796753 0.336884
0.931519 0.788940 0.334167
0.990814 0.773590 0.321289
0.120056 0.698578 0.168365
0.216980 0.708771 0.176514
0.339600 0.728333 0.200653
0.476532 0.777679 0.250732
0.665680 0.850861 0.319366
0.809113 0.895325 0.364044
0.876709 0.910370 0.383545
0.936554 0.913025 0.390778
0.996063 0.909485 0.391418
0.000000 0.000000 0.141724
0.069244 0.000000 0.146240
0.147949 0.000000 0.150909
0.222778 0.000000 0.152985
0.291809 0.000000 0.150146
0.356262 0.000000 0.141907
0.421570 0.000000 0.128448
0.489532 0.000000 0.108429
0.558075 0.000000 0.088867
0.000000 0.082031 0.158875
0.075745 0.082336 0.162384
0.165710 0.079407 0.165710
0.248383 0.071716 0.165192
0.320587 0.061188 0.157379
0.385681 0.053589 0.142853
0.449066 0.047974 0.122711
0.514038 0.044800 0.098053
0.577972 0.044647 0.088898
0.000000 0.179321 0.181671
0.081055 0.184235 0.183929
0.186615 0.186615 0.186615
0.284363 0.183960 0.184113
0.367584 0.175751 0.171997
0.434784 0.162994 0.150482
0.494904 0.149414 0.120270
0.552429 0.139557 0.092560
0.609436 0.133209 0.089966
0.001282 0.285980 0.205597
0.085083 0.295898 0.206543
0.208649 0.306091 0.209045
0.330231 0.313934 0.207092
0.428314 0.311554 0.194427
0.501129 0.295715 0.169769
0.558624 0.274841 0.131622
0.609741 0.255585 0.098969
0.659515 0.239563 0.090393
0.003998 0.387756 0.226624
0.091003 0.398468 0.225098
0.227661 0.413055 0.227509
0.371399 0.430817 0.229095
0.484863 0.438873 0.220306
0.570343 0.430786 0.201538
0.634857 0.413849 0.174591
0.687897 0.391663 0.137360
0.737976 0.368958 0.092438
0.008545 0.477264 0.241272
0.102386 0.486603 0.237061
0.244568 0.501617 0.239044
0.400665 0.526367 0.249115
0.533478 0.550507 0.258514
0.659515 0.558716 0.266602
0.757965 0.551147 0.257568
0.829041 0.532745 0.234558
0.883759 0.510071 0.204987
0.015686 0.560364 0.249115
0.126282 0.568146 0.244446
0.261719 0.583008 0.249878
0.420471 0.613556 0.272461
0.576050 0.657623 0.310181
0.750366 0.682465 0.345764
0.870331 0.684509 0.353302
0.930908 0.671539 0.339691
0.985840 0.652710 0.316467
0.058472 0.641541 0.258392
0.157562 0.648102 0.256409
0.283447 0.661774 0.266205
0.437012 0.696350 0.301178
0.610229 0.758179 0.359314
0.805145 0.800446 0.406769
0.870819 0.813660 0.424377
0.930573 0.809265 0.425140
0.990784 0.797882 0.418701
0.108154 0.717041 0.273590
0.198212 0.723572 0.274994
0.315491 0.738251 0.289642
0.454651 0.779144 0.334015
0.637756 0.857147 0.399200
0.808380 0.907379 0.441925
0.873749 0.924316 0.462280
0.935455 0.929810 0.472076
0.995483 0.931000 0.476227
0.000000 0.000000 0.219238
0.063660 0.000000 0.226227
0.149567 0.000000 0.234497
0.233154 0.000000 0.241821
0.310608 0.000000 0.244415
0.381195 0.000000 0.240143
0.447479 0.000000 0.230743
0.514252 0.000000 0.215271
0.579498 0.000000 0.193024
0.000000 0.082367 0.242981
0.066742 0.080048 0.248108
0.163635 0.075043 0.254883
0.255768 0.064545 0.260223
0.337677 0.051300 0.257507
0.407837 0.044495 0.246796
0.471649 0.041901 0.231201
0.534088 0.041412 0.210541
0.595825 0.041656 0.183594
0.000000 0.187378 0.275543
0.064362 0.188446 0.278625
0.177216 0.187286 0.283783
0.284180 0.181427 0.286102
0.377136 0.171783 0.277161
0.448730 0.158966 0.258209
0.510101 0.145538 0.233551
0.567383 0.134857 0.206360
0.623413 0.128937 0.175262
0.000092 0.303162 0.312683
0.065399 0.308411 0.313416
0.188324 0.313934 0.316681
0.316650 0.316650 0.316650
0.426056 0.313782 0.303436
0.505768 0.298523 0.277649
0.566803 0.276123 0.246674
0.619507 0.255371 0.212921
0.670410 0.237915 0.174622
0.002319 0.410706 0.346619
0.064789 0.417297 0.344269
0.196228 0.427124 0.345673
0.347321 0.438904 0.346130
0.475128 0.447937 0.334900
0.568665 0.441589 0.313751
0.638672 0.424103 0.286133
0.696472 0.401337 0.255554
0.750763 0.376404 0.220551
0.005402 0.504242 0.370514
0.073029 0.509796 0.365295
0.207550 0.520203 0.363037
0.373962 0.537018 0.364624
0.517792 0.561401 0.368011
0.650726 0.572327 0.375153
0.761963 0.566162 0.368317
0.841309 0.549255 0.345734
0.900177 0.526917 0.315155
0.008179 0.590271 0.384125
0.098328 0.594666 0.377441
0.226532 0.603973 0.373627
0.394806 0.624359 0.381317
0.552826 0.668243 0.411194
0.733978 0.697784 0.446320
0.871338 0.702759 0.456512
0.926025 0.691284 0.446320
0.983765 0.673706 0.426086
0.034912 0.670349 0.397583
0.134399 0.674133 0.392456
0.252014 0.682709 0.390320
0.410706 0.705933 0.403809
0.577423 0.766846 0.452728
0.784698 0.817352 0.495117
0.867065 0.833893 0.513336
0.928833 0.833679 0.516907
0.990265 0.827698 0.515015
0.091431 0.746033 0.418365
0.179840 0.750580 0.415527
0.289948 0.759674 0.414368
0.427582 0.786560 0.430511
0.596802 0.862305 0.483704
0.801147 0.922394 0.522034
0.869446 0.939209 0.541595
0.933289 0.947540 0.554230
0.994873 0.952545 0.561432
0.000000 0.000427 0.302795
0.057434 0.000275 0.311218
0.148315 0.000000 0.322662
0.241150 0.000000 0.335358
0.327911 0.000000 0.342896
0.403961 0.000000 0.341919
0.471985 0.000000 0.333740
0.537048 0.000000 0.320282
0.600372 0.000000 0.302765
0.000000 0.076355 0.330933
0.058319 0.072113 0.336243
0.157043 0.065613 0.345215
0.257782 0.054382 0.356232
0.350006 0.047089 0.359955
0.426575 0.044159 0.352631
0.492737 0.043335 0.338196
0.554565 0.042175 0.320129
0.614594 0.040619 0.300171
0.000000 0.186707 0.368622
0.052307 0.185181 0.371185
0.162750 0.183258 0.378113
0.276703 0.176575 0.385529
0.381042 0.165955 0.384003
0.461548 0.153992 0.369171
0.526489 0.140961 0.346771
0.583557 0.129364 0.322723
0.638367 0.120728 0.299438
0.000000 0.309235 0.413239
0.055023 0.312103 0.414124
0.164612 0.317200 0.419006
0.294373 0.319092 0.424316
0.419128 0.315155 0.417725
0.508972 0.300903 0.394470
0.575043 0.278076 0.365356
0.629852 0.254150 0.336182
0.682373 0.234863 0.308472
0.000336 0.426361 0.456879
0.058502 0.431335 0.456573
0.165161 0.441284 0.461792
0.310974 0.451630 0.467194
0.458344 0.458252 0.458344
0.562592 0.454468 0.436249
0.640442 0.437164 0.408600
0.702728 0.412354 0.377899
0.760803 0.384949 0.346649
0.002014 0.528961 0.493896
0.060211 0.534119 0.492432
0.177612 0.544891 0.495392
0.336639 0.557281 0.496338
0.496185 0.574463 0.489014
0.631958 0.586975 0.488068
0.752899 0.581635 0.480438
0.843201 0.564972 0.459015
0.908447 0.543518 0.430267
0.002716 0.622803 0.520172
0.083923 0.627869 0.518616
0.206055 0.637939 0.520111
0.364044 0.650940 0.516479
0.523987 0.680176 0.519928
0.697021 0.711823 0.541809
0.857300 0.718903 0.551575
0.926086 0.710083 0.545715
0.980804 0.694397 0.531494
0.040802 0.708649 0.543335
0.138275 0.715057 0.544312
0.247223 0.724396 0.545441
0.386658 0.736237 0.537567
0.540405 0.776154 0.548492
0.738464 0.828796 0.578217
0.866547 0.847412 0.595520
0.926605 0.850647 0.602020
0.989258 0.849365 0.603180
0.111603 0.790253 0.565430
0.198578 0.799011 0.567749
0.295929 0.807922 0.566193
0.410767 0.819214 0.556274
0.555481 0.868835 0.570801
0.759613 0.930420 0.601044
0.864960 0.949951 0.622833
0.930756 0.959259 0.640320
0.994202 0.966095 0.653107
0.000000 0.000763 0.385406
0.053558 0.000000 0.393311
0.143860 0.000000 0.405243
0.242340 0.000000 0.420929
0.335571 0.000000 0.432190
0.416199 0.000000 0.433929
0.487396 0.000000 0.428253
0.553802 0.000000 0.417358
0.616516 0.000000 0.403717
0.000000 0.067902 0.412445
0.053253 0.062164 0.416931
0.146149 0.055634 0.425995
0.250763 0.049438 0.439789
0.350220 0.047852 0.449066
0.435059 0.045624 0.447296
0.506226 0.044098 0.436768
0.569855 0.042908 0.421753
0.629486 0.041718 0.405640
0.000000 0.180817 0.450867
0.051788 0.177185 0.452209
0.144470 0.175049 0.458740
0.259674 0.170471 0.469696
0.373077 0.161316 0.475616
0.465729 0.149933 0.467957
0.537018 0.137512 0.450226
0.596344 0.125366 0.430176
0.651550 0.112915 0.410339
0.000000 0.304932 0.496979
0.053894 0.305878 0.497345
0.138306 0.311371 0.502838
0.263062 0.318237 0.512207
0.399384 0.316864 0.514862
0.506195 0.303741 0.499481
0.580017 0.281158 0.474792
0.638306 0.255554 0.449219
0.692810 0.232605 0.424652
0.000000 0.433228 0.547577
0.056183 0.437958 0.549042
0.137634 0.448700 0.557129
0.269867 0.462585 0.568604
0.429565 0.469543 0.568695
0.549866 0.466797 0.549622
0.635345 0.451141 0.523865
0.703827 0.425018 0.494873
0.766815 0.394470 0.464050
0.000000 0.547180 0.595001
0.059570 0.555023 0.598602
0.165741 0.568481 0.608246
0.305969 0.584198 0.618500
0.467133 0.593750 0.613037
0.601349 0.601349 0.601349
0.722534 0.595978 0.589813
0.822693 0.578583 0.568787
0.899963 0.556244 0.540375
0.004333 0.653320 0.632202
0.114563 0.665680 0.639801
0.227692 0.682159 0.651703
0.355042 0.697021 0.656494
0.493774 0.704895 0.642914
0.641449 0.722046 0.640015
0.800690 0.728790 0.642944
0.920227 0.720642 0.636627
0.985474 0.707031 0.623901
0.093750 0.751343 0.663269
0.186707 0.768097 0.674042
0.284149 0.786774 0.684937
0.387573 0.797180 0.680847
0.508911 0.802429 0.664551
0.663391 0.828888 0.668732
0.842133 0.847626 0.681580
0.928253 0.851776 0.688934
0.987915 0.850739 0.691101
0.156799 0.843140 0.686920
0.242371 0.862091 0.697449
0.325928 0.880219 0.704712
0.413361 0.888214 0.698914
0.522156 0.895264 0.685913
0.677124 0.926239 0.692444
0.858856 0.948944 0.709930
0.929718 0.960999 0.728577
0.993683 0.967712 0.743164
0.000000 0.000458 0.461761
0.051483 0.000000 0.468597
0.136078 0.000000 0.479492
0.236420 0.000000 0.495117
0.332214 0.000000 0.507904
0.417847 0.000000 0.512238
0.493622 0.000000 0.509796
0.562256 0.000000 0.502533
0.625580 0.000000 0.492859
0.000000 0.060211 0.486359
0.049896 0.053680 0.489563
0.132324 0.048828 0.497162
0.237396 0.047638 0.510803
0.339813 0.047333 0.522736
0.432220 0.045074 0.525665
0.510010 0.044189 0.519989
0.576813 0.042999 0.509583
0.637787 0.041809 0.497681
0.000000 0.171356 0.520386
0.050995 0.166656 0.520691
0.124451 0.164276 0.526062
0.237244 0.162994 0.537781
0.353271 0.158722 0.548370
0.458893 0.147980 0.547546
0.539551 0.136841 0.536377
0.602966 0.124634 0.521423
0.660187 0.111145 0.505951
0.000000 0.295135 0.563873
0.052185 0.293884 0.563477
0.113098 0.299225 0.568848
0.230713 0.311157 0.581268
0.365082 0.318146 0.590973
0.493683 0.308167 0.583344
0.579865 0.286804 0.563812
0.643127 0.261108 0.543579
0.701111 0.235474 0.523102
0.000000 0.434204 0.619781
0.054169 0.438965 0.622162
0.115936 0.450073 0.631378
0.238708 0.466644 0.646637
0.389801 0.478058 0.654694
0.529907 0.476654 0.642395
0.625397 0.464020 0.619263
0.699921 0.439850 0.592712
0.768707 0.409210 0.564819
0.000000 0.557373 0.676178
0.058472 0.568695 0.683624
0.170532 0.585388 0.698425
0.296448 0.604370 0.715637
0.440338 0.614685 0.718506
0.571350 0.615326 0.703613
0.686432 0.609650 0.687866
0.789642 0.593048 0.668396
0.879639 0.571106 0.643158
0.045258 0.674316 0.725403
0.153473 0.694275 0.741058
0.259338 0.717651 0.761627
0.365997 0.737610 0.775879
0.476715 0.740143 0.765747
0.600006 0.738220 0.748230
0.740387 0.740295 0.740295
0.870087 0.732178 0.730835
0.966064 0.718567 0.717316
0.129944 0.784210 0.764587
0.224213 0.810547 0.785034
0.314087 0.837128 0.806610
0.401459 0.853638 0.815796
0.498016 0.846985 0.797516
0.617096 0.844757 0.780090
0.771088 0.854187 0.777679
0.913513 0.856720 0.778900
0.995087 0.854340 0.779053
0.188568 0.885803 0.792603
0.273132 0.915558 0.816772
0.350525 0.942200 0.842560
0.427734 0.953308 0.850983
0.517853 0.944702 0.829773
0.633087 0.943665 0.807800
0.789581 0.956207 0.804565
0.933441 0.967377 0.812500
0.993622 0.974640 0.823181
0.000000 0.000519 0.529633
0.049072 0.000000 0.535156
0.125519 0.000000 0.544464
0.225281 0.000000 0.558441
0.321320 0.000000 0.571014
0.410858 0.000000 0.576782
0.491241 0.000000 0.576813
0.562653 0.000000 0.572845
0.627441 0.000000 0.566650
0.000000 0.055603 0.550537
0.049713 0.049713 0.552765
0.118225 0.046356 0.558777
0.220825 0.046173 0.570953
0.322571 0.046570 0.584045
0.420868 0.045258 0.589630
0.505676 0.044373 0.587585
0.576813 0.043518 0.581207
0.640015 0.042297 0.572876
0.000000 0.161591 0.579224
0.050201 0.156036 0.578857
0.106140 0.153534 0.583130
0.214264 0.154785 0.595032
0.325806 0.155945 0.608917
0.443604 0.148071 0.613281
0.535492 0.138458 0.605957
0.604431 0.127594 0.594727
0.664551 0.114471 0.583160
0.000000 0.284882 0.621460
0.051117 0.281738 0.620453
0.101379 0.285645 0.625488
0.202972 0.300415 0.639771
0.325928 0.316010 0.655029
0.472473 0.312683 0.654907
0.574249 0.295807 0.638580
0.644989 0.272125 0.620209
0.707764 0.247925 0.603149
0.000000 0.432312 0.681152
0.052460 0.437164 0.683624
0.105835 0.448151 0.692566
0.214142 0.466187 0.708466
0.350098 0.481720 0.721313
0.507812 0.487000 0.718811
0.611938 0.475189 0.698547
0.694702 0.457489 0.677765
0.771851 0.431610 0.653381
0.000000 0.560211 0.740631
0.061737 0.574707 0.751740
0.172272 0.593903 0.769775
0.290253 0.614716 0.791168
0.421082 0.627563 0.801239
0.547485 0.627625 0.790344
0.657410 0.621918 0.772034
0.760712 0.609711 0.754547
0.860016 0.592743 0.735474
0.063904 0.683807 0.800690
0.172699 0.709961 0.823914
0.275177 0.737152 0.852539
0.372711 0.757721 0.873993
0.472229 0.761658 0.869659
0.580048 0.757019 0.850525
0.698090 0.755005 0.834656
0.826050 0.748688 0.821899
0.931183 0.739166 0.810547
0.151123 0.803589 0.853058
0.246155 0.835663 0.887024
0.332977 0.863159 0.922333
0.416351 0.876556 0.937469
0.505463 0.872040 0.918732
0.604767 0.867310 0.894257
0.728699 0.870239 0.878876
0.870941 0.870941 0.870941
0.986420 0.869293 0.867401
0.212219 0.915131 0.898041
0.295837 0.947296 0.943756
0.372345 0.968536 0.971985
0.451630 0.972778 0.973846
0.537354 0.968323 0.954956
0.632507 0.967255 0.922760
0.758575 0.973541 0.905609
0.901825 0.980957 0.902802
0.998596 0.987457 0.907959
0.000000 0.000610 0.590118
0.048920 0.000000 0.594574
0.113281 0.000000 0.602325
0.211609 0.000000 0.615082
0.306183 0.000000 0.628265
0.398590 0.000000 0.635223
0.483643 0.000000 0.636627
0.557983 0.000000 0.634644
0.624603 0.000000 0.630432
0.000000 0.052704 0.607941
0.049561 0.049255 0.609650
0.103851 0.046234 0.614532
0.203003 0.046051 0.625916
0.302460 0.046112 0.640289
0.405151 0.045502 0.647888
0.496857 0.044922 0.647736
0.572571 0.044037 0.643677
0.638062 0.043182 0.637756
0.000000 0.153687 0.633423
0.049744 0.147461 0.632721
0.099457 0.144348 0.636108
0.191711 0.146667 0.647797
0.298065 0.152161 0.664276
0.423035 0.149017 0.673431
0.527283 0.141968 0.669098
0.602905 0.134064 0.659729
0.665985 0.122986 0.650177
0.000000 0.276764 0.675415
0.050049 0.272369 0.673767
0.101074 0.274506 0.677643
0.178711 0.288910 0.691620
0.293762 0.310303 0.709839
0.446472 0.316559 0.716492
0.565521 0.306824 0.705566
0.645203 0.290222 0.690155
0.713898 0.268463 0.675049
0.000000 0.429108 0.733917
0.050751 0.434296 0.736481
0.103302 0.445282 0.744598
0.193085 0.463867 0.760620
0.317108 0.482300 0.776550
0.477661 0.489014 0.778900
0.596924 0.485443 0.766785
0.687073 0.476410 0.751984
0.774811 0.460541 0.735687
0.000000 0.559204 0.794495
0.062744 0.576050 0.808655
0.168701 0.597382 0.830048
0.281799 0.619781 0.856140
0.405151 0.633881 0.871765
0.528961 0.636200 0.866028
0.634796 0.633392 0.849701
0.736023 0.627747 0.834747
0.840637 0.619904 0.822449
0.069672 0.687347 0.867493
0.180298 0.717865 0.900452
0.281799 0.747803 0.939636
0.376709 0.767242 0.964172
0.472626 0.770752 0.959869
0.572144 0.769287 0.943695
0.676361 0.770782 0.928375
0.792023 0.766968 0.912140
0.905701 0.764526 0.903168
0.164062 0.815857 0.944061
0.260864 0.850403 0.989075
0.347626 0.875397 0.999451
0.431671 0.883270 0.999298
0.518738 0.880707 0.999176
0.608826 0.882599 0.994843
0.716766 0.888123 0.979645
0.846985 0.887970 0.966034
0.961853 0.888855 0.960022
0.230988 0.934357 0.999542
0.314728 0.962891 0.999390
0.393738 0.976959 0.999268
0.477966 0.978210 0.999146
0.560974 0.980774 0.998993
0.647125 0.986084 0.998871
0.757812 0.991272 0.998718
0.888000 0.995972 0.998169
0.998505 0.998505 0.998505
