Kodak Vision2 100T (5212) - Only contrast.cube
# Created by Benjamin (IWLTBAP) : http://luts.iwltbap.com
# Copyright: (C) Copyright 2010-2017 Triune Films and IWLTBAP SAS
# Cannot be resold, shared or otherwise redistributed
TITLE "Film Print Emulation LUTs Pack (Rec.709, sRGB, DCI-P3)"
LUT_3D_SIZE 33
0.000000 0.000000 0.000000
0.022034 0.000000 0.000000
0.043762 0.000000 0.000000
0.066467 0.000000 0.000000
0.089142 0.000000 0.000000
0.112640 0.000000 0.000000
0.137146 0.000000 0.000000
0.163849 0.000000 0.000000
0.192810 0.000000 0.000000
0.223633 0.000000 0.000000
0.255737 0.000000 0.000000
0.288422 0.000000 0.000000
0.321838 0.000000 0.000000
0.356171 0.000000 0.000000
0.390900 0.000000 0.000000
0.425354 0.000000 0.000000
0.459686 0.000000 0.000000
0.493561 0.000000 0.000000
0.527039 0.000000 0.000000
0.560455 0.000000 0.000000
0.593781 0.000000 0.000000
0.627075 0.000000 0.000000
0.660370 0.000000 0.000000
0.693665 0.000000 0.000000
0.727020 0.000000 0.000000
0.760498 0.000000 0.000000
0.794067 0.000000 0.000000
0.827667 0.000000 0.000000
0.861328 0.000000 0.000000
0.895020 0.000000 0.000000
0.928680 0.000000 0.000000
0.962280 0.000000 0.000000
0.995758 0.000000 0.000000
0.000000 0.022034 0.000000
0.022034 0.022034 0.000000
0.043762 0.022034 0.000000
0.066498 0.022034 0.000000
0.089142 0.022034 0.000000
0.112671 0.022034 0.000000
0.137146 0.022003 0.000000
0.163910 0.021973 0.000000
0.192871 0.021942 0.000000
0.223694 0.021851 0.000000
0.255829 0.021790 0.000000
0.288513 0.021729 0.000000
0.321930 0.021637 0.000000
0.356232 0.021545 0.000000
0.390991 0.021454 0.000000
0.425446 0.021393 0.000000
0.459778 0.021301 0.000000
0.493652 0.021210 0.000000
0.527130 0.021149 0.000000
0.560547 0.021057 0.000000
0.593872 0.020966 0.000000
0.627136 0.020905 0.000000
0.660461 0.020813 0.000000
0.693726 0.020752 0.000000
0.727112 0.020660 0.000000
0.760590 0.020599 0.000000
0.794159 0.020508 0.000000
0.827759 0.020416 0.000000
0.861389 0.020355 0.000000
0.895111 0.020264 0.000000
0.928772 0.020172 0.000000
0.962372 0.020111 0.000000
0.995850 0.020020 0.000000
0.000000 0.043762 0.000000
0.022034 0.043762 0.000000
0.043762 0.043762 0.000000
0.066498 0.043762 0.000000
0.089142 0.043762 0.000000
0.112671 0.043762 0.000000
0.137177 0.043732 0.000000
0.163940 0.043701 0.000000
0.192902 0.043671 0.000000
0.223755 0.043610 0.000000
0.255890 0.043549 0.000000
0.288574 0.043457 0.000000
0.321991 0.043396 0.000000
0.356323 0.043304 0.000000
0.391052 0.043213 0.000000
0.425507 0.043121 0.000000
0.459869 0.043060 0.000000
0.493713 0.042969 0.000000
0.527191 0.042908 0.000000
0.560608 0.042816 0.000000
0.593933 0.042755 0.000000
0.627228 0.042664 0.000000
0.660522 0.042603 0.000000
0.693817 0.042511 0.000000
0.727203 0.042450 0.000000
0.760651 0.042358 0.000000
0.794220 0.042297 0.000000
0.827850 0.042206 0.000000
0.861481 0.042145 0.000000
0.895203 0.042053 0.000000
0.928833 0.041962 0.000000
0.962433 0.041901 0.000000
0.995911 0.041809 0.000000
0.000000 0.066467 0.000000
0.022034 0.066498 0.000000
0.043762 0.066498 0.000000
0.066498 0.066498 0.000000
0.089142 0.066498 0.000000
0.112671 0.066467 0.000000
0.137207 0.066467 0.000000
0.164001 0.066437 0.000000
0.192963 0.066406 0.000000
0.223816 0.066345 0.000000
0.255951 0.066284 0.000000
0.288635 0.066193 0.000000
0.322083 0.066132 0.000000
0.356415 0.066040 0.000000
0.391144 0.065948 0.000000
0.425598 0.065887 0.000000
0.459930 0.065796 0.000000
0.493805 0.065735 0.000000
0.527283 0.065643 0.000000
0.560699 0.065582 0.000000
0.594025 0.065491 0.000000
0.627289 0.065430 0.000000
0.660614 0.065338 0.000000
0.693878 0.065277 0.000000
0.727264 0.065186 0.000000
0.760742 0.065125 0.000000
0.794312 0.065063 0.000000
0.827911 0.064972 0.000000
0.861572 0.064911 0.000000
0.895264 0.064819 0.000000
0.928925 0.064758 0.000000
0.962524 0.064667 0.000000
0.996002 0.064606 0.000000
0.000000 0.089142 0.000000
0.022034 0.089142 0.000000
0.043762 0.089142 0.000000
0.066498 0.089142 0.000000
0.089142 0.089142 0.000000
0.112701 0.089142 0.000000
0.137207 0.089142 0.000000
0.164032 0.089111 0.000000
0.193024 0.089081 0.000000
0.223877 0.089020 0.000000
0.256042 0.088959 0.000000
0.288727 0.088898 0.000000
0.322174 0.088806 0.000000
0.356506 0.088745 0.000000
0.391235 0.088654 0.000000
0.425690 0.088562 0.000000
0.460022 0.088501 0.000000
0.493866 0.088409 0.000000
0.527344 0.088348 0.000000
0.560760 0.088287 0.000000
0.594086 0.088196 0.000000
0.627380 0.088135 0.000000
0.660675 0.088074 0.000000
0.693970 0.088013 0.000000
0.727356 0.087921 0.000000
0.760803 0.087860 0.000000
0.794373 0.087799 0.000000
0.828003 0.087708 0.000000
0.861633 0.087646 0.000000
0.895355 0.087555 0.000000
0.928986 0.087494 0.000000
0.962585 0.087433 0.000000
0.996063 0.087341 0.000000
0.000000 0.112640 0.000000
0.022034 0.112671 0.000000
0.043762 0.112671 0.000000
0.066467 0.112671 0.000000
0.089142 0.112701 0.000000
0.112701 0.112701 0.000000
0.137238 0.112701 0.000000
0.164062 0.112671 0.000000
0.193054 0.112640 0.000000
0.223938 0.112579 0.000000
0.256104 0.112518 0.000000
0.288788 0.112457 0.000000
0.322235 0.112396 0.000000
0.356567 0.112335 0.000000
0.391296 0.112244 0.000000
0.425751 0.112183 0.000000
0.460083 0.112091 0.000000
0.493958 0.112030 0.000000
0.527405 0.111969 0.000000
0.560822 0.111908 0.000000
0.594147 0.111847 0.000000
0.627441 0.111786 0.000000
0.660736 0.111725 0.000000
0.694031 0.111633 0.000000
0.727417 0.111572 0.000000
0.760864 0.111511 0.000000
0.794464 0.111450 0.000000
0.828064 0.111389 0.000000
0.861694 0.111328 0.000000
0.895416 0.111237 0.000000
0.929077 0.111176 0.000000
0.962677 0.111115 0.000000
0.996155 0.111053 0.000000
0.000000 0.137146 0.000000
0.022003 0.137146 0.000000
0.043732 0.137177 0.000000
0.066467 0.137207 0.000000
0.089142 0.137207 0.000000
0.112701 0.137238 0.000000
0.137238 0.137238 0.000000
0.164093 0.137207 0.000000
0.193115 0.137207 0.000000
0.223999 0.137146 0.000000
0.256134 0.137115 0.000000
0.288849 0.137054 0.000000
0.322296 0.136993 0.000000
0.356659 0.136932 0.000000
0.391388 0.136871 0.000000
0.425812 0.136810 0.000000
0.460144 0.136749 0.000000
0.494019 0.136688 0.000000
0.527466 0.136627 0.000000
0.560883 0.136597 0.000000
0.594208 0.136536 0.000000
0.627502 0.136475 0.000000
0.660797 0.136414 0.000000
0.694092 0.136383 0.000000
0.727478 0.136322 0.000000
0.760956 0.136261 0.000000
0.794525 0.136200 0.000000
0.828125 0.136169 0.000000
0.861755 0.136108 0.000000
0.895477 0.136047 0.000000
0.929138 0.135986 0.000000
0.962738 0.135956 0.000000
0.996216 0.135895 0.000000
0.000000 0.163849 0.000000
0.021973 0.163910 0.000000
0.043701 0.163940 0.000000
0.066437 0.164001 0.000000
0.089111 0.164032 0.000000
0.112671 0.164062 0.000000
0.137207 0.164093 0.000000
0.164093 0.164093 0.000000
0.193115 0.164093 0.000000
0.224030 0.164062 0.000000
0.256195 0.164032 0.000000
0.288879 0.164001 0.000000
0.322357 0.163971 0.000000
0.356689 0.163940 0.000000
0.391418 0.163879 0.000000
0.425873 0.163849 0.000000
0.460205 0.163788 0.000000
0.494049 0.163757 0.000000
0.527527 0.163727 0.000000
0.560944 0.163696 0.000000
0.594269 0.163666 0.000000
0.627533 0.163605 0.000000
0.660858 0.163574 0.000000
0.694122 0.163544 0.000000
0.727509 0.163513 0.000000
0.760986 0.163483 0.000000
0.794556 0.163452 0.000000
0.828186 0.163391 0.000000
0.861816 0.163361 0.000000
0.895508 0.163330 0.000000
0.929169 0.163300 0.000000
0.962769 0.163269 0.000000
0.996246 0.163208 0.000000
0.000000 0.192810 0.000000
0.021942 0.192871 0.000000
0.043671 0.192902 0.000000
0.066406 0.192963 0.000000
0.089081 0.193024 0.000000
0.112640 0.193054 0.000000
0.137207 0.193115 0.000000
0.164093 0.193115 0.000000
0.193146 0.193146 0.000000
0.224060 0.193146 0.000000
0.256195 0.193115 0.000000
0.288910 0.193115 0.000000
0.322388 0.193085 0.000000
0.356750 0.193054 0.000000
0.391479 0.193024 0.000000
0.425903 0.192993 0.000000
0.460236 0.192963 0.000000
0.494080 0.192963 0.000000
0.527557 0.192932 0.000000
0.560974 0.192902 0.000000
0.594299 0.192902 0.000000
0.627563 0.192871 0.000000
0.660858 0.192841 0.000000
0.694153 0.192841 0.000000
0.727539 0.192810 0.000000
0.761017 0.192780 0.000000
0.794586 0.192780 0.000000
0.828217 0.192749 0.000000
0.861847 0.192719 0.000000
0.895538 0.192719 0.000000
0.929199 0.192688 0.000000
0.962799 0.192657 0.000000
0.996277 0.192657 0.000000
0.000000 0.223633 0.000000
0.021851 0.223694 0.000000
0.043610 0.223755 0.000000
0.066345 0.223816 0.000000
0.089020 0.223877 0.000000
0.112579 0.223938 0.000000
0.137146 0.223999 0.000000
0.164062 0.224030 0.000000
0.193146 0.224060 0.000000
0.224060 0.224060 0.000000
0.256226 0.224060 0.000000
0.288940 0.224060 0.000000
0.322418 0.224030 0.000000
0.356750 0.224030 0.000000
0.391510 0.223999 0.000000
0.425934 0.223969 0.000000
0.460266 0.223969 0.000000
0.494110 0.223938 0.000000
0.527557 0.223938 0.000000
0.560974 0.223938 0.000000
0.594299 0.223907 0.000000
0.627594 0.223907 0.000000
0.660889 0.223907 0.000000
0.694183 0.223907 0.000000
0.727570 0.223877 0.000000
0.761017 0.223877 0.000000
0.794617 0.223877 0.000000
0.828217 0.223846 0.000000
0.861847 0.223846 0.000000
0.895569 0.223816 0.000000
0.929230 0.223816 0.000000
0.962799 0.223816 0.000000
0.996277 0.223785 0.000000
0.000000 0.255737 0.000000
0.021790 0.255829 0.000000
0.043549 0.255890 0.000000
0.066284 0.255951 0.000000
0.088959 0.256042 0.000000
0.112518 0.256104 0.000000
0.137115 0.256134 0.000000
0.164032 0.256195 0.000000
0.193115 0.256195 0.000000
0.224060 0.256226 0.000000
0.256226 0.256226 0.000000
0.288940 0.256226 0.000000
0.322418 0.256226 0.000000
0.356781 0.256195 0.000000
0.391510 0.256195 0.000000
0.425964 0.256165 0.000000
0.460266 0.256165 0.000000
0.494110 0.256165 0.000000
0.527588 0.256134 0.000000
0.561005 0.256134 0.000000
0.594299 0.256134 0.000000
0.627594 0.256134 0.000000
0.660889 0.256134 0.000000
0.694183 0.256134 0.000000
0.727570 0.256104 0.000000
0.761047 0.256104 0.000000
0.794617 0.256104 0.000000
0.828217 0.256104 0.000000
0.861877 0.256073 0.000000
0.895569 0.256073 0.000000
0.929230 0.256073 0.000000
0.962830 0.256073 0.000000
0.996307 0.256073 0.000000
0.000000 0.288422 0.000000
0.021729 0.288513 0.000000
0.043457 0.288574 0.000000
0.066193 0.288635 0.000000
0.088898 0.288727 0.000000
0.112457 0.288788 0.000000
0.137054 0.288849 0.000000
0.164001 0.288879 0.000000
0.193115 0.288910 0.000000
0.224060 0.288940 0.000000
0.256226 0.288940 0.000000
0.288940 0.288940 0.000000
0.322449 0.288940 0.000000
0.356781 0.288940 0.000000
0.391541 0.288910 0.000000
0.425964 0.288910 0.000000
0.460297 0.288910 0.000000
0.494110 0.288910 0.000000
0.527588 0.288910 0.000000
0.561005 0.288879 0.000000
0.594299 0.288879 0.000000
0.627594 0.288879 0.000000
0.660889 0.288879 0.000000
0.694183 0.288879 0.000000
0.727570 0.288879 0.000000
0.761047 0.288879 0.000000
0.794617 0.288879 0.000000
0.828247 0.288879 0.000000
0.861877 0.288879 0.000000
0.895599 0.288879 0.000000
0.929230 0.288879 0.000000
0.962830 0.288879 0.000000
0.996307 0.288879 0.000000
0.000000 0.321838 0.000000
0.021637 0.321930 0.000000
0.043396 0.321991 0.000000
0.066132 0.322083 0.000000
0.088806 0.322174 0.000000
0.112396 0.322235 0.000000
0.136993 0.322296 0.000000
0.163971 0.322357 0.000000
0.193085 0.322388 0.000000
0.224030 0.322418 0.000000
0.256226 0.322418 0.000000
0.288940 0.322449 0.000000
0.322449 0.322449 0.000000
0.356812 0.322449 0.000000
0.391541 0.322449 0.000000
0.425964 0.322418 0.000000
0.460297 0.322418 0.000000
0.494110 0.322449 0.000000
0.527588 0.322449 0.000000
0.561005 0.322449 0.000000
0.594299 0.322449 0.000000
0.627594 0.322449 0.000000
0.660889 0.322479 0.000000
0.694183 0.322479 0.000000
0.727570 0.322479 0.000000
0.761047 0.322479 0.000000
0.794617 0.322479 0.000000
0.828247 0.322510 0.000000
0.861877 0.322510 0.000000
0.895599 0.322510 0.000000
0.929230 0.322510 0.000000
0.962830 0.322510 0.000000
0.996307 0.322510 0.000000
0.000000 0.356171 0.000000
0.021545 0.356232 0.000000
0.043304 0.356323 0.000000
0.066040 0.356415 0.000000
0.088745 0.356506 0.000000
0.112335 0.356567 0.000000
0.136932 0.356659 0.000000
0.163940 0.356689 0.000000
0.193054 0.356750 0.000000
0.224030 0.356750 0.000000
0.256195 0.356781 0.000000
0.288940 0.356781 0.000000
0.322449 0.356812 0.000000
0.356812 0.356812 0.000000
0.391541 0.356812 0.000000
0.425964 0.356812 0.000000
0.460297 0.356812 0.000000
0.494110 0.356812 0.000000
0.527588 0.356812 0.000000
0.560974 0.356842 0.000000
0.594299 0.356842 0.000000
0.627594 0.356842 0.000000
0.660889 0.356873 0.000000
0.694183 0.356873 0.000000
0.727570 0.356873 0.000000
0.761047 0.356873 0.000000
0.794617 0.356903 0.000000
0.828247 0.356903 0.000000
0.861877 0.356903 0.000000
0.895569 0.356903 0.000000
0.929230 0.356934 0.000000
0.962830 0.356934 0.000000
0.996307 0.356934 0.000000
0.000000 0.390900 0.000000
0.021454 0.390991 0.000000
0.043213 0.391052 0.000000
0.065948 0.391144 0.000000
0.088654 0.391235 0.000000
0.112244 0.391296 0.000000
0.136871 0.391388 0.000000
0.163879 0.391418 0.000000
0.193024 0.391479 0.000000
0.223999 0.391510 0.000000
0.256195 0.391510 0.000000
0.288910 0.391541 0.000000
0.322449 0.391541 0.000000
0.356812 0.391541 0.000000
0.391541 0.391541 0.000000
0.425964 0.391541 0.000000
0.460266 0.391541 0.000000
0.494110 0.391541 0.000000
0.527557 0.391571 0.000000
0.560974 0.391571 0.000000
0.594299 0.391571 0.000000
0.627594 0.391602 0.000000
0.660889 0.391602 0.000000
0.694183 0.391602 0.000000
0.727570 0.391602 0.000000
0.761047 0.391632 0.000000
0.794617 0.391632 0.000000
0.828217 0.391632 0.000000
0.861877 0.391632 0.000000
0.895569 0.391663 0.000000
0.929230 0.391663 0.000000
0.962830 0.391663 0.000000
0.996277 0.391663 0.000000
0.000000 0.425354 0.000000
0.021393 0.425446 0.000000
0.043121 0.425507 0.000000
0.065887 0.425598 0.000000
0.088562 0.425690 0.000000
0.112183 0.425751 0.000000
0.136810 0.425812 0.000000
0.163849 0.425873 0.000000
0.192993 0.425903 0.000000
0.223969 0.425934 0.000000
0.256165 0.425964 0.000000
0.288910 0.425964 0.000000
0.322418 0.425964 0.000000
0.356812 0.425964 0.000000
0.391541 0.425964 0.000000
0.425964 0.425964 0.000000
0.460266 0.425964 0.000000
0.494110 0.425995 0.000000
0.527557 0.425995 0.000000
0.560974 0.425995 0.000000
0.594299 0.425995 0.000000
0.627563 0.426025 0.000000
0.660858 0.426025 0.000000
0.694153 0.426025 0.000000
0.727539 0.426025 0.000000
0.761017 0.426056 0.000000
0.794617 0.426056 0.000000
0.828217 0.426056 0.000000
0.861847 0.426056 0.000000
0.895569 0.426056 0.000000
0.929230 0.426086 0.000000
0.962799 0.426086 0.000000
0.996277 0.426086 0.000000
0.000000 0.459686 0.000000
0.021301 0.459778 0.000000
0.043060 0.459869 0.000000
0.065796 0.459930 0.000000
0.088501 0.460022 0.000000
0.112091 0.460083 0.000000
0.136749 0.460144 0.000000
0.163788 0.460205 0.000000
0.192963 0.460236 0.000000
0.223969 0.460266 0.000000
0.256165 0.460266 0.000000
0.288910 0.460297 0.000000
0.322418 0.460297 0.000000
0.356812 0.460297 0.000000
0.391541 0.460266 0.000000
0.425964 0.460266 0.000000
0.460266 0.460266 0.000000
0.494110 0.460266 0.000000
0.527557 0.460297 0.000000
0.560974 0.460297 0.000000
0.594269 0.460297 0.000000
0.627563 0.460297 0.000000
0.660858 0.460297 0.000000
0.694153 0.460297 0.000000
0.727539 0.460327 0.000000
0.761017 0.460327 0.000000
0.794617 0.460327 0.000000
0.828217 0.460327 0.000000
0.861847 0.460327 0.000000
0.895569 0.460327 0.000000
0.929230 0.460327 0.000000
0.962799 0.460327 0.000000
0.996277 0.460358 0.000000
0.000000 0.493561 0.000000
0.021210 0.493652 0.000000
0.042969 0.493713 0.000000
0.065735 0.493805 0.000000
0.088409 0.493866 0.000000
0.112030 0.493958 0.000000
0.136688 0.494019 0.000000
0.163757 0.494049 0.000000
0.192963 0.494080 0.000000
0.223938 0.494110 0.000000
0.256165 0.494110 0.000000
0.288910 0.494110 0.000000
0.322449 0.494110 0.000000
0.356812 0.494110 0.000000
0.391541 0.494110 0.000000
0.425995 0.494110 0.000000
0.460266 0.494110 0.000000
0.494110 0.494110 0.000000
0.527557 0.494110 0.000000
0.560974 0.494110 0.000000
0.594269 0.494110 0.000000
0.627563 0.494110 0.000000
0.660858 0.494110 0.000000
0.694153 0.494110 0.000000
0.727539 0.494110 0.000000
0.761017 0.494110 0.000000
0.794586 0.494110 0.000000
0.828217 0.494110 0.000000
0.861847 0.494110 0.000000
0.895569 0.494110 0.000000
0.929230 0.494110 0.000000
0.962799 0.494110 0.000000
0.996277 0.494110 0.000000
0.000000 0.527039 0.000000
0.021149 0.527130 0.000000
0.042908 0.527191 0.000000
0.065643 0.527283 0.000000
0.088348 0.527344 0.000000
0.111969 0.527405 0.000000
0.136627 0.527466 0.000000
0.163727 0.527527 0.000000
0.192932 0.527557 0.000000
0.223938 0.527557 0.000000
0.256134 0.527588 0.000000
0.288910 0.527588 0.000000
0.322449 0.527588 0.000000
0.356812 0.527588 0.000000
0.391571 0.527557 0.000000
0.425995 0.527557 0.000000
0.460297 0.527557 0.000000
0.494110 0.527557 0.000000
0.527557 0.527557 0.000000
0.560974 0.527557 0.000000
0.594269 0.527557 0.000000
0.627563 0.527557 0.000000
0.660858 0.527557 0.000000
0.694153 0.527557 0.000000
0.727539 0.527557 0.000000
0.761017 0.527557 0.000000
0.794617 0.527557 0.000000
0.828217 0.527557 0.000000
0.861847 0.527557 0.000000
0.895569 0.527557 0.000000
0.929230 0.527557 0.000000
0.962799 0.527557 0.000000
0.996277 0.527557 0.000000
0.000000 0.560455 0.000000
0.021057 0.560547 0.000000
0.042816 0.560608 0.000000
0.065582 0.560699 0.000000
0.088287 0.560760 0.000000
0.111908 0.560822 0.000000
0.136597 0.560883 0.000000
0.163696 0.560944 0.000000
0.192902 0.560974 0.000000
0.223938 0.560974 0.000000
0.256134 0.561005 0.000000
0.288879 0.561005 0.000000
0.322449 0.561005 0.000000
0.356842 0.560974 0.000000
0.391571 0.560974 0.000000
0.425995 0.560974 0.000000
0.460297 0.560974 0.000000
0.494110 0.560974 0.000000
0.527557 0.560974 0.000000
0.560974 0.560974 0.000000
0.594269 0.560974 0.000000
0.627563 0.560974 0.000000
0.660858 0.560974 0.000000
0.694153 0.560974 0.000000
0.727539 0.560974 0.000000
0.761017 0.560974 0.000000
0.794617 0.560974 0.000000
0.828217 0.560974 0.000000
0.861877 0.560974 0.000000
0.895569 0.560944 0.000000
0.929230 0.560944 0.000000
0.962799 0.560944 0.000000
0.996277 0.560944 0.000000
0.000000 0.593781 0.000000
0.020966 0.593872 0.000000
0.042755 0.593933 0.000000
0.065491 0.594025 0.000000
0.088196 0.594086 0.000000
0.111847 0.594147 0.000000
0.136536 0.594208 0.000000
0.163666 0.594269 0.000000
0.192902 0.594299 0.000000
0.223907 0.594299 0.000000
0.256134 0.594299 0.000000
0.288879 0.594299 0.000000
0.322449 0.594299 0.000000
0.356842 0.594299 0.000000
0.391571 0.594299 0.000000
0.425995 0.594299 0.000000
0.460297 0.594269 0.000000
0.494110 0.594269 0.000000
0.527557 0.594269 0.000000
0.560974 0.594269 0.000000
0.594269 0.594269 0.000000
0.627563 0.594269 0.000000
0.660858 0.594269 0.000000
0.694153 0.594269 0.000000
0.727539 0.594269 0.000000
0.761017 0.594269 0.000000
0.794617 0.594269 0.000000
0.828217 0.594269 0.000000
0.861877 0.594269 0.000000
0.895569 0.594269 0.000000
0.929230 0.594269 0.000000
0.962799 0.594269 0.000000
0.996277 0.594269 0.000000
0.000000 0.627075 0.000000
0.020905 0.627136 0.000000
0.042664 0.627228 0.000000
0.065430 0.627289 0.000000
0.088135 0.627380 0.000000
0.111786 0.627441 0.000000
0.136475 0.627502 0.000000
0.163605 0.627533 0.000000
0.192871 0.627563 0.000000
0.223907 0.627594 0.000000
0.256134 0.627594 0.000000
0.288879 0.627594 0.000000
0.322449 0.627594 0.000000
0.356842 0.627594 0.000000
0.391602 0.627594 0.000000
0.426025 0.627563 0.000000
0.460297 0.627563 0.000000
0.494110 0.627563 0.000000
0.527557 0.627563 0.000000
0.560974 0.627563 0.000000
0.594269 0.627563 0.000000
0.627563 0.627563 0.000000
0.660858 0.627563 0.000000
0.694153 0.627563 0.000000
0.727539 0.627563 0.000000
0.761017 0.627563 0.000000
0.794617 0.627563 0.000000
0.828217 0.627563 0.000000
0.861877 0.627563 0.000000
0.895569 0.627563 0.000000
0.929230 0.627563 0.000000
0.962799 0.627563 0.000000
0.996277 0.627563 0.000000
0.000000 0.660370 0.000000
0.020813 0.660461 0.000000
0.042603 0.660522 0.000000
0.065338 0.660614 0.000000
0.088074 0.660675 0.000000
0.111725 0.660736 0.000000
0.136414 0.660797 0.000000
0.163574 0.660858 0.000000
0.192841 0.660858 0.000000
0.223907 0.660889 0.000000
0.256134 0.660889 0.000000
0.288879 0.660889 0.000000
0.322479 0.660889 0.000000
0.356873 0.660889 0.000000
0.391602 0.660889 0.000000
0.426025 0.660858 0.000000
0.460297 0.660858 0.000000
0.494110 0.660858 0.000000
0.527557 0.660858 0.000000
0.560974 0.660858 0.000000
0.594269 0.660858 0.000000
0.627563 0.660858 0.000000
0.660858 0.660858 0.000000
0.694153 0.660858 0.000000
0.727539 0.660858 0.000000
0.761017 0.660858 0.000000
0.794617 0.660858 0.000000
0.828217 0.660858 0.000000
0.861877 0.660858 0.000000
0.895569 0.660858 0.000000
0.929230 0.660858 0.000000
0.962799 0.660858 0.000000
0.996277 0.660858 0.000000
0.000000 0.693665 0.000000
0.020752 0.693726 0.000000
0.042511 0.693817 0.000000
0.065277 0.693878 0.000000
0.088013 0.693970 0.000000
0.111633 0.694031 0.000000
0.136383 0.694092 0.000000
0.163544 0.694122 0.000000
0.192841 0.694153 0.000000
0.223907 0.694183 0.000000
0.256134 0.694183 0.000000
0.288879 0.694183 0.000000
0.322479 0.694183 0.000000
0.356873 0.694183 0.000000
0.391602 0.694183 0.000000
0.426025 0.694153 0.000000
0.460297 0.694153 0.000000
0.494110 0.694153 0.000000
0.527557 0.694153 0.000000
0.560974 0.694153 0.000000
0.594269 0.694153 0.000000
0.627563 0.694153 0.000000
0.660858 0.694153 0.000000
0.694153 0.694153 0.000000
0.727570 0.694153 0.000000
0.761047 0.694153 0.000000
0.794617 0.694153 0.000000
0.828247 0.694153 0.000000
0.861877 0.694153 0.000000
0.895599 0.694153 0.000000
0.929230 0.694153 0.000000
0.962799 0.694153 0.000000
0.996277 0.694153 0.000000
0.000000 0.727020 0.000000
0.020660 0.727112 0.000000
0.042450 0.727203 0.000000
0.065186 0.727264 0.000000
0.087921 0.727356 0.000000
0.111572 0.727417 0.000000
0.136322 0.727478 0.000000
0.163513 0.727509 0.000000
0.192810 0.727539 0.000000
0.223877 0.727570 0.000000
0.256104 0.727570 0.000000
0.288879 0.727570 0.000000
0.322479 0.727570 0.000000
0.356873 0.727570 0.000000
0.391602 0.727570 0.000000
0.426025 0.727539 0.000000
0.460327 0.727539 0.000000
0.494110 0.727539 0.000000
0.527557 0.727539 0.000000
0.560974 0.727539 0.000000
0.594269 0.727539 0.000000
0.627563 0.727539 0.000000
0.660858 0.727539 0.000000
0.694153 0.727570 0.000000
0.727570 0.727570 0.000000
0.761047 0.727570 0.000000
0.794617 0.727570 0.000000
0.828247 0.727570 0.000000
0.861877 0.727570 0.000000
0.895599 0.727539 0.000000
0.929230 0.727539 0.000000
0.962799 0.727539 0.000000
0.996277 0.727539 0.000000
0.000000 0.760498 0.000000
0.020599 0.760590 0.000000
0.042358 0.760651 0.000000
0.065125 0.760742 0.000000
0.087860 0.760803 0.000000
0.111511 0.760864 0.000000
0.136261 0.760956 0.000000
0.163483 0.760986 0.000000
0.192780 0.761017 0.000000
0.223877 0.761017 0.000000
0.256104 0.761047 0.000000
0.288879 0.761047 0.000000
0.322479 0.761047 0.000000
0.356873 0.761047 0.000000
0.391632 0.761047 0.000000
0.426056 0.761017 0.000000
0.460327 0.761017 0.000000
0.494110 0.761017 0.000000
0.527557 0.761017 0.000000
0.560974 0.761017 0.000000
0.594269 0.761017 0.000000
0.627563 0.761017 0.000000
0.660858 0.761017 0.000000
0.694153 0.761047 0.000000
0.727570 0.761047 0.000000
0.761047 0.761047 0.000000
0.794617 0.761047 0.000000
0.828247 0.761047 0.000000
0.861877 0.761047 0.000000
0.895599 0.761047 0.000000
0.929230 0.761047 0.000000
0.962830 0.761047 0.000000
0.996277 0.761047 0.000000
0.000000 0.794067 0.000000
0.020508 0.794159 0.000000
0.042297 0.794220 0.000000
0.065063 0.794312 0.000000
0.087799 0.794373 0.000000
0.111450 0.794464 0.000000
0.136200 0.794525 0.000000
0.163452 0.794556 0.000000
0.192780 0.794586 0.000000
0.223877 0.794617 0.000000
0.256104 0.794617 0.000000
0.288879 0.794617 0.000000
0.322479 0.794617 0.000000
0.356903 0.794617 0.000000
0.391632 0.794617 0.000000
0.426056 0.794617 0.000000
0.460327 0.794617 0.000000
0.494110 0.794586 0.000000
0.527557 0.794617 0.000000
0.560974 0.794617 0.000000
0.594269 0.794617 0.000000
