Kodak Vision3 500T (5230) - Only color.cube
# Created by Benjamin (IWLTBAP) : http://luts.iwltbap.com
# Copyright: (C) Copyright 2010-2017 Triune Films and IWLTBAP SAS
# Cannot be resold, shared or otherwise redistributed
TITLE "Film Print Emulation LUTs Pack (Rec.709, sRGB, DCI-P3)"
LUT_3D_SIZE 9
0.001587 0.000000 0.000000
0.142670 0.000000 0.000000
0.257965 0.013092 0.000000
0.356659 0.028229 0.000000
0.446503 0.041962 0.000000
0.533325 0.054718 0.000000
0.627441 0.063232 0.000000
0.733063 0.069702 0.000000
0.841492 0.075928 0.000000
0.000793 0.098602 0.000000
0.107269 0.111603 0.000000
0.267639 0.146027 0.000000
0.372589 0.155853 0.000000
0.462738 0.163361 0.000000
0.550049 0.169952 0.000000
0.647736 0.174286 0.000000
0.753235 0.177032 0.000000
0.864136 0.181702 0.000000
0.027344 0.169586 0.000000
0.093384 0.182495 0.000000
0.225769 0.209869 0.000000
0.373413 0.257843 0.000000
0.477325 0.270447 0.000000
0.574463 0.277344 0.000000
0.679291 0.281982 0.000000
0.792725 0.282227 0.000000
0.905640 0.283722 0.000000
0.061218 0.245483 0.000000
0.140686 0.258118 0.000000
0.246399 0.278168 0.000000
0.347778 0.305481 0.000000
0.472656 0.350037 0.000000
0.589966 0.369934 0.000000
0.710785 0.379974 0.000000
0.834045 0.383240 0.000000
0.949707 0.384369 0.002228
0.132568 0.320343 0.000000
0.198792 0.335907 0.000000
0.295715 0.354553 0.000000
0.383484 0.375854 0.000000
0.464783 0.401184 0.000000
0.576569 0.438507 0.000000
0.718292 0.465363 0.000000
0.855042 0.478302 0.011780
0.988373 0.485657 0.023895
0.179932 0.396088 0.000000
0.257874 0.413513 0.000000
0.351135 0.432495 0.000000
0.431793 0.455994 0.000000
0.513214 0.475159 0.000000
0.587524 0.500580 0.000000
0.686310 0.529236 0.000000
0.845245 0.562256 0.012024
0.990387 0.576721 0.033112
0.246429 0.471436 0.000000
0.323334 0.492462 0.000000
0.396667 0.517700 0.000000
0.476990 0.540833 0.000000
0.557922 0.562683 0.000000
0.630493 0.574860 0.033478
0.704254 0.599426 0.039276
0.810211 0.636383 0.035248
0.957092 0.666260 0.033051
0.310028 0.555267 0.000000
0.372131 0.578094 0.000000
0.445892 0.607605 0.016571
0.523926 0.632904 0.037567
0.598846 0.648682 0.052673
0.674530 0.662109 0.083923
0.741180 0.666687 0.101898
0.811890 0.696716 0.101135
0.921570 0.745148 0.093048
0.368927 0.649872 0.055908
0.422791 0.672729 0.065338
0.492737 0.704895 0.070801
0.563965 0.722137 0.085541
0.632050 0.736267 0.102631
0.708282 0.745972 0.125610
0.778870 0.753876 0.138458
0.830505 0.756042 0.164642
0.905640 0.789917 0.162964
0.000641 0.004578 0.111115
0.082245 0.006866 0.091827
0.243011 0.007263 0.123383
0.347717 0.018982 0.118835
0.441498 0.027344 0.112061
0.532776 0.036102 0.110931
0.634521 0.052704 0.111938
0.745880 0.063446 0.111572
0.856384 0.071564 0.111908
0.000000 0.100922 0.116180
0.119751 0.126007 0.127625
0.271362 0.147919 0.128784
0.373962 0.153870 0.120636
0.468903 0.160065 0.117004
0.561493 0.165649 0.116608
0.663055 0.173126 0.115601
0.771393 0.174835 0.114258
0.887756 0.180786 0.114227
0.000000 0.171051 0.101532
0.129059 0.196075 0.102448
0.245972 0.218231 0.082520
0.384827 0.264374 0.115082
0.488403 0.274109 0.115936
0.589142 0.280334 0.116547
0.698029 0.284088 0.117798
0.812744 0.285278 0.119659
0.926727 0.285431 0.119690
0.053284 0.243469 0.097412
0.156067 0.269073 0.097565
0.261871 0.288116 0.064606
0.365692 0.316315 0.033447
0.490173 0.361542 0.094757
0.609802 0.381500 0.115173
0.730896 0.388672 0.122345
0.856049 0.390808 0.129547
0.973602 0.389832 0.132141
0.128510 0.317566 0.105133
0.197144 0.345886 0.096191
0.306702 0.370514 0.051086
0.401855 0.393188 0.006042
0.484924 0.414520 0.007538
0.597412 0.451447 0.074799
0.736633 0.477936 0.121674
0.882812 0.490997 0.144409
1.000000 0.498566 0.156647
0.187012 0.399323 0.111542
0.249176 0.423889 0.084656
0.362335 0.454163 0.048309
0.445312 0.475281 0.017334
0.532288 0.495270 0.032562
0.605225 0.517487 0.053345
0.704376 0.541016 0.092682
0.865051 0.574402 0.135925
0.999420 0.591370 0.156555
0.235168 0.472992 0.108246
0.310760 0.500854 0.096741
0.401642 0.535980 0.103577
0.487976 0.562469 0.077820
0.573761 0.580566 0.097534
0.647766 0.590240 0.103424
0.720612 0.614044 0.113647
0.823029 0.648987 0.135895
0.971069 0.676910 0.152649
0.293793 0.560364 0.135345
0.358124 0.580353 0.143738
0.444855 0.620331 0.160248
0.528137 0.647156 0.163879
0.604370 0.663086 0.169617
0.682098 0.673889 0.174042
0.750671 0.678772 0.176300
0.820740 0.708710 0.177185
0.928101 0.755402 0.183441
0.357941 0.651611 0.190918
0.411346 0.672516 0.201263
0.483521 0.707214 0.215057
0.562256 0.730042 0.226044
0.630188 0.743347 0.229675
0.707672 0.753876 0.231628
0.779724 0.761902 0.242157
0.831909 0.765289 0.251190
0.906128 0.798096 0.243317
0.000061 0.028320 0.158966
0.019897 0.027557 0.194946
0.182068 0.032990 0.169769
0.303314 0.042084 0.187775
0.436462 0.024109 0.222443
0.529022 0.026611 0.221222
0.630646 0.026611 0.219269
0.745850 0.029602 0.213806
0.861145 0.039703 0.212067
0.000000 0.105133 0.188721
0.009857 0.128784 0.225952
0.227509 0.140625 0.196808
0.350769 0.152985 0.211304
0.462006 0.156219 0.231262
0.558624 0.160767 0.231750
0.661652 0.163055 0.229645
0.776215 0.162354 0.223480
0.898315 0.167542 0.222717
0.000000 0.171082 0.194000
0.000000 0.201080 0.217804
0.269653 0.247864 0.231659
0.386169 0.265411 0.226990
0.490112 0.277191 0.246246
0.591492 0.282257 0.246490
0.702820 0.285553 0.247131
0.820526 0.286407 0.245361
0.938049 0.284302 0.239502
0.000000 0.242798 0.191956
0.078339 0.267059 0.200256
0.275360 0.304138 0.203705
0.377441 0.329376 0.203156
0.504089 0.376190 0.247314
0.617920 0.388824 0.256897
0.738647 0.394501 0.262238
0.864410 0.394867 0.263336
0.984772 0.393005 0.262268
0.068665 0.314636 0.193939
0.176880 0.339111 0.198639
0.315155 0.383331 0.207855
0.413635 0.406281 0.204681
0.490540 0.425476 0.204193
0.617279 0.473297 0.249237
0.761963 0.497040 0.272858
0.901520 0.506439 0.281891
1.000000 0.505829 0.281982
0.176941 0.388062 0.197266
0.223755 0.414734 0.203644
0.358490 0.461884 0.216736
0.453094 0.491089 0.232513
0.535004 0.505768 0.228546
0.604950 0.525604 0.230621
0.722198 0.559296 0.255829
0.889954 0.598175 0.278931
1.000000 0.614532 0.289490
0.227325 0.460938 0.208649
0.271667 0.490601 0.212341
0.393799 0.541534 0.248749
0.489136 0.574829 0.269653
0.571350 0.589203 0.269775
0.640747 0.597382 0.264832
0.714874 0.621460 0.263397
0.819885 0.655487 0.270477
0.987946 0.703064 0.287476
0.250610 0.538025 0.229034
0.312561 0.572754 0.239990
0.433502 0.626373 0.281677
0.523804 0.657684 0.298218
0.601929 0.673309 0.302673
0.675049 0.681915 0.301208
0.745270 0.687531 0.299500
0.814423 0.715942 0.298187
0.924103 0.764038 0.305450
0.300385 0.633057 0.254944
0.385345 0.667419 0.282867
0.470825 0.710236 0.308716
0.552734 0.738617 0.328705
0.626465 0.755676 0.336945
0.701630 0.761993 0.335815
0.771423 0.767151 0.337524
0.825439 0.771332 0.343719
0.902893 0.806946 0.340424
0.000000 0.052765 0.217346
0.000000 0.054962 0.247009
0.143768 0.058014 0.268127
0.264893 0.061401 0.239594
0.362823 0.084045 0.235168
0.493073 0.062225 0.292877
0.634735 0.034698 0.317261
0.752014 0.030365 0.313843
0.870636 0.038300 0.310822
0.000000 0.122803 0.245850
0.000000 0.145294 0.283661
0.151154 0.150665 0.297729
0.314178 0.159912 0.270325
0.407257 0.176361 0.270599
0.528717 0.167603 0.310364
0.664337 0.168060 0.327332
0.784271 0.167358 0.324829
0.903687 0.167847 0.320831
0.000000 0.185669 0.253510
0.000000 0.214600 0.287140
0.196655 0.250793 0.331055
0.362152 0.270386 0.301270
0.472595 0.278778 0.309509
0.576691 0.284393 0.327026
0.700806 0.285675 0.340179
0.820190 0.286255 0.338440
0.939484 0.282043 0.332916
0.000000 0.244843 0.264282
0.000000 0.265289 0.281708
0.158203 0.306213 0.311127
0.413269 0.372742 0.339203
0.520142 0.385040 0.332275
0.618927 0.396210 0.349579
0.736877 0.396362 0.360901
0.861725 0.396088 0.360168
0.984436 0.391937 0.355011
0.000000 0.310028 0.271851
0.000000 0.332214 0.282379
0.237640 0.379517 0.303589
0.419128 0.418121 0.308624
0.504761 0.445679 0.321259
0.631348 0.491821 0.361603
0.763489 0.505127 0.375916
0.898926 0.510284 0.380371
1.000000 0.506592 0.377960
0.044434 0.384521 0.282593
0.150543 0.406372 0.293152
0.304169 0.454376 0.301453
0.451691 0.500977 0.334351
0.530701 0.514984 0.337555
0.595856 0.530609 0.339386
0.743073 0.587891 0.373413
0.904358 0.622192 0.388916
1.000000 0.635071 0.396271
0.179504 0.453400 0.287781
0.236908 0.478577 0.296295
0.345642 0.530945 0.319855
0.480316 0.579010 0.354462
0.563904 0.597839 0.365143
0.632324 0.606720 0.365662
0.704010 0.627441 0.364075
0.835785 0.679688 0.378845
0.999054 0.728851 0.394867
0.235535 0.525940 0.299683
0.276001 0.558533 0.309174
0.392548 0.609253 0.340149
0.511078 0.660034 0.377350
0.592194 0.680939 0.389435
0.666321 0.690948 0.392975
0.734406 0.695251 0.391235
0.809021 0.723541 0.390289
0.916870 0.770081 0.392090
0.271027 0.613373 0.322693
0.320251 0.646362 0.335602
0.439331 0.695343 0.369080
0.537811 0.739655 0.399078
0.615387 0.761108 0.413208
0.693512 0.771088 0.419495
0.764160 0.776611 0.421417
0.821350 0.780212 0.420807
0.899963 0.817261 0.419434
0.000000 0.092926 0.275604
0.000000 0.099152 0.294312
0.027863 0.088104 0.340637
0.245026 0.099030 0.337738
0.348755 0.095276 0.308655
0.441895 0.101898 0.302429
0.556793 0.099518 0.345428
0.707123 0.075684 0.384735
0.890442 0.041412 0.404572
0.000000 0.145294 0.297668
0.000000 0.161163 0.321320
0.028900 0.165924 0.361908
0.269379 0.175537 0.363861
0.391632 0.183594 0.339935
0.484009 0.199341 0.336182
0.595215 0.205078 0.371490
0.744385 0.191681 0.405701
0.917511 0.175842 0.415344
0.000000 0.205414 0.317169
0.000000 0.233215 0.346832
0.106964 0.263367 0.390961
0.307404 0.273499 0.393188
0.448273 0.291199 0.372528
0.545654 0.309570 0.379150
0.643677 0.307434 0.408295
0.799652 0.295654 0.419739
0.951843 0.287781 0.428467
0.000000 0.255890 0.315399
0.000000 0.279755 0.339478
0.072479 0.317383 0.379791
0.358643 0.373596 0.423096
0.498535 0.399475 0.412323
0.616394 0.407227 0.423706
0.717133 0.407928 0.432617
0.839813 0.402191 0.443787
0.986328 0.392609 0.446472
0.000000 0.318359 0.334015
0.000000 0.339081 0.350250
0.063446 0.373077 0.376709
0.362061 0.427399 0.407440
0.551086 0.502167 0.447998
0.653259 0.515839 0.452545
0.759644 0.523590 0.468628
0.878754 0.517944 0.475281
1.000000 0.508301 0.473846
0.000000 0.380829 0.348022
0.000000 0.398193 0.358337
0.097473 0.437286 0.378326
0.420593 0.502502 0.406189
0.526642 0.523834 0.415710
0.609802 0.554535 0.432770
0.764771 0.619141 0.479645
0.899872 0.637756 0.495392
1.000000 0.639435 0.496429
0.000000 0.448364 0.358521
0.072235 0.470734 0.373383
0.229431 0.514679 0.392670
0.455627 0.576050 0.416962
0.556458 0.605194 0.440155
0.622101 0.613892 0.442169
0.692139 0.634705 0.446045
0.863586 0.715363 0.487274
1.000000 0.759338 0.505188
0.126129 0.516357 0.371796
0.203857 0.539734 0.381653
0.318512 0.590881 0.402802
0.478302 0.650482 0.433624
0.578094 0.681976 0.460236
0.652618 0.696472 0.468750
0.725800 0.705994 0.471497
0.800507 0.733612 0.472504
0.935974 0.795898 0.487030
0.211761 0.591949 0.386475
0.258362 0.625916 0.398071
0.393616 0.677338 0.416962
0.508179 0.726624 0.452484
0.602051 0.762299 0.481293
0.679321 0.774841 0.493896
0.754486 0.783600 0.501190
0.814484 0.785645 0.500366
0.894775 0.824890 0.499573
0.000000 0.123474 0.325653
0.000000 0.127075 0.337036
0.000000 0.113861 0.383911
0.211212 0.126678 0.413879
0.337494 0.126495 0.403168
0.424805 0.114777 0.378601
0.518402 0.125671 0.371063
0.616058 0.119843 0.392426
0.777161 0.108490 0.437408
0.000000 0.167053 0.343750
0.000000 0.178711 0.364319
0.000000 0.190765 0.404999
0.230408 0.197266 0.435242
0.369415 0.207397 0.428589
0.466492 0.206909 0.404846
0.570709 0.227295 0.402008
0.668396 0.229309 0.420868
0.816498 0.217438 0.459290
0.000000 0.227081 0.369202
0.000000 0.244354 0.395874
0.055115 0.277893 0.438904
0.264465 0.289429 0.470367
0.415405 0.302063 0.459076
0.532532 0.314697 0.441010
0.629181 0.327332 0.442291
0.723877 0.327026 0.460724
0.863495 0.316681 0.492096
0.000000 0.274048 0.374268
0.000000 0.295593 0.394257
0.056183 0.335175 0.439545
0.322632 0.388977 0.507477
0.457123 0.399109 0.488647
0.589111 0.420410 0.483887
0.686737 0.432800 0.499451
0.777496 0.430389 0.517273
0.921448 0.407440 0.529663
0.000000 0.323822 0.376984
0.000000 0.345184 0.397247
0.021973 0.378326 0.430298
0.317078 0.434296 0.482941
0.509857 0.504486 0.529541
0.625610 0.529053 0.541840
0.749603 0.535248 0.553162
0.840118 0.535980 0.558472
0.956421 0.518860 0.563416
0.000000 0.388977 0.400177
0.000000 0.409851 0.416565
0.076599 0.444641 0.442932
0.335419 0.486389 0.474426
0.509857 0.544220 0.512299
0.668976 0.630859 0.575256
0.782196 0.648651 0.587616
0.879242 0.658600 0.599854
0.990723 0.653137 0.605347
0.000000 0.448944 0.413452
0.000000 0.465698 0.424866
0.140747 0.501099 0.448059
0.382477 0.561096 0.483124
0.536285 0.605804 0.507996
0.615692 0.622345 0.518829
0.721283 0.669250 0.552643
0.882141 0.750946 0.613159
0.999237 0.776306 0.630188
0.000000 0.502777 0.420624
0.000000 0.525909 0.433350
0.203552 0.569580 0.462036
0.420746 0.635529 0.498199
0.558563 0.679749 0.524048
0.643646 0.703217 0.542877
0.718628 0.712311 0.546722
0.785950 0.731354 0.554962
0.975464 0.843781 0.616455
0.055969 0.574585 0.437561
0.182587 0.603058 0.453827
0.304016 0.652435 0.479034
0.465851 0.714752 0.511230
0.575562 0.753418 0.539795
0.664978 0.775909 0.564392
0.742065 0.785004 0.574768
0.807129 0.789581 0.577393
0.887573 0.829956 0.582397
0.000000 0.147858 0.377075
0.000000 0.148376 0.379120
0.000000 0.152069 0.418976
0.161407 0.145996 0.474243
0.324554 0.161377 0.491791
0.419647 0.154724 0.476044
0.502625 0.142487 0.447021
0.599182 0.147247 0.440186
0.686554 0.158600 0.437897
0.000000 0.190094 0.390869
0.000000 0.194397 0.401611
0.000000 0.221985 0.458893
0.185883 0.215820 0.497375
0.350586 0.232971 0.514832
0.456055 0.236023 0.505798
0.546936 0.233765 0.479431
0.649994 0.244934 0.472321
0.735443 0.247437 0.467255
0.000000 0.243652 0.416382
0.000000 0.254181 0.433289
0.000000 0.288666 0.485626
0.225464 0.306549 0.537598
0.383728 0.316101 0.547180
0.508545 0.326355 0.537781
0.608917 0.330322 0.518036
0.719452 0.342194 0.511963
0.793945 0.342102 0.511536
0.000000 0.295410 0.429749
0.000000 0.313812 0.451782
0.052094 0.349457 0.497742
0.285919 0.403351 0.584534
0.423889 0.408112 0.585388
0.550354 0.420380 0.571655
0.664246 0.432953 0.568268
0.774170 0.447998 0.573181
0.840149 0.443481 0.575256
0.000000 0.335449 0.422791
0.000000 0.354675 0.441132
0.000000 0.387177 0.483551
0.252869 0.445892 0.554352
0.475677 0.508850 0.619324
0.590607 0.523956 0.611145
0.718231 0.542145 0.617371
0.813904 0.556732 0.633392
0.886780 0.549896 0.637329
0.000000 0.393555 0.440125
0.000000 0.412598 0.461456
0.078064 0.450562 0.501221
0.286469 0.491882 0.540863
0.467804 0.544983 0.589569
0.639130 0.639587 0.658997
0.754944 0.661682 0.678955
0.861084 0.665863 0.688110
0.937103 0.669434 0.687042
0.000000 0.455444 0.464569
0.000061 0.473755 0.482330
0.144379 0.510162 0.515259
0.325745 0.549896 0.547333
0.468353 0.573883 0.558502
0.620087 0.658234 0.623657
0.789551 0.756531 0.704285
0.896332 0.778137 0.723175
0.973267 0.786377 0.729187
0.000092 0.509399 0.476929
0.003204 0.528473 0.492462
0.176544 0.565338 0.520203
0.348938 0.601624 0.542053
0.511963 0.660004 0.582825
0.623138 0.699371 0.609619
0.709229 0.719849 0.625061
0.820526 0.778656 0.671570
0.975616 0.868042 0.739838
0.002197 0.561646 0.478699
0.019409 0.580963 0.491913
0.209442 0.625427 0.523987
0.398407 0.682220 0.564453
0.534668 0.735596 0.602081
0.644409 0.772491 0.628540
0.733032 0.787231 0.644958
0.798340 0.792145 0.647797
0.862335 0.811157 0.661713
0.000000 0.170227 0.422089
0.000000 0.172821 0.426971
0.000000 0.187836 0.465881
0.031769 0.163696 0.523376
0.306274 0.189911 0.565735
0.414551 0.197937 0.578979
0.499268 0.187653 0.559052
0.580719 0.161316 0.526031
0.682343 0.176605 0.515869
0.000000 0.213318 0.443420
0.000000 0.216248 0.451202
0.001678 0.243805 0.507172
0.070740 0.237610 0.548615
0.324097 0.248047 0.588135
0.442535 0.263123 0.605591
0.536530 0.262115 0.589996
0.622894 0.254700 0.559509
0.730652 0.262115 0.547333
0.000000 0.258911 0.462494
0.000000 0.264771 0.473785
0.008301 0.300110 0.535004
0.168610 0.323120 0.595337
0.358398 0.326691 0.620636
0.473419 0.338440 0.632690
0.586365 0.345795 0.619598
0.680573 0.345215 0.602020
0.785522 0.352661 0.597351
0.000000 0.311890 0.495483
0.003845 0.323212 0.515686
0.080078 0.367004 0.563354
0.242126 0.409973 0.640869
0.403198 0.420288 0.661438
0.509735 0.421875 0.658081
0.626434 0.433746 0.649628
0.737793 0.445068 0.644775
0.833588 0.453827 0.652435
0.000000 0.349945 0.477417
0.001892 0.370270 0.501434
0.009827 0.399902 0.542145
0.223572 0.455444 0.619843
0.457977 0.522034 0.699585
0.552673 0.520813 0.690063
0.667786 0.534424 0.685883
0.783752 0.546234 0.692078
0.885986 0.562195 0.709290
0.000000 0.394409 0.478699
0.002991 0.412598 0.500916
0.031097 0.447205 0.542175
0.234131 0.492218 0.600983
0.450317 0.561005 0.667725
0.600647 0.628326 0.727905
0.721100 0.650269 0.735046
0.827576 0.668457 0.747559
0.919220 0.683685 0.765137
0.004150 0.457825 0.507629
0.008850 0.475342 0.528320
0.104492 0.509460 0.568390
0.282104 0.551910 0.612244
0.453064 0.585327 0.633606
0.586823 0.656464 0.692108
0.772644 0.766693 0.785645
0.873901 0.787567 0.810333
0.964294 0.793365 0.818939
0.008972 0.515411 0.528717
0.012665 0.534119 0.548645
0.172668 0.570251 0.584869
0.319580 0.611755 0.617706
0.467651 0.635345 0.628296
0.582489 0.680969 0.662170
0.738342 0.773376 0.740936
0.901703 0.872437 0.824799
0.992615 0.892029 0.840637
0.012756 0.570801 0.540924
0.084595 0.591125 0.560852
0.210480 0.627625 0.590424
0.347229 0.665710 0.616913
0.479828 0.695679 0.631500
0.602417 0.748474 0.672668
0.713440 0.781708 0.704559
0.805420 0.814819 0.733643
0.915710 0.883179 0.786926
0.000000 0.188690 0.466492
0.000000 0.192383 0.475281
0.002594 0.211090 0.513885
0.009216 0.205536 0.558746
0.259491 0.206543 0.628540
0.403931 0.229828 0.656891
0.492676 0.228119 0.663971
0.573944 0.211884 0.647003
0.650848 0.185089 0.608856
0.000000 0.230896 0.485107
0.001678 0.233307 0.500824
0.008179 0.251556 0.547760
0.015442 0.260071 0.590881
0.275513 0.261688 0.651184
0.420807 0.279907 0.676392
0.521088 0.287048 0.689087
0.605042 0.278900 0.670929
0.697937 0.269836 0.638275
0.002747 0.275085 0.513153
0.003815 0.278931 0.527924
0.013214 0.308228 0.580719
0.146942 0.341156 0.643890
0.318176 0.342621 0.695099
0.447662 0.347870 0.700958
0.551910 0.357941 0.716003
0.649689 0.359833 0.706573
0.744385 0.354889 0.685394
0.008392 0.323883 0.540833
0.009644 0.328827 0.554901
0.019196 0.366760 0.608734
0.218445 0.414185 0.682404
0.371552 0.433990 0.737122
0.484528 0.432800 0.733704
0.584686 0.435760 0.736664
0.695984 0.445374 0.731293
0.793854 0.446747 0.727966
0.008545 0.365875 0.538574
0.012207 0.380585 0.559174
0.019287 0.411530 0.603302
0.218475 0.464966 0.675507
0.433533 0.532410 0.772614
0.532074 0.532288 0.768585
0.623444 0.529175 0.759460
0.740540 0.539825 0.760925
0.836212 0.546722 0.766754
0.006287 0.399719 0.522369
0.009888 0.414459 0.542084
0.018250 0.446167 0.588562
0.211792 0.493073 0.649170
0.425049 0.571045 0.741699
0.583588 0.636353 0.801880
0.681366 0.644012 0.798889
0.789886 0.655426 0.802338
0.887543 0.668213 0.813660
0.010040 0.455994 0.544159
0.013702 0.472107 0.570343
0.060608 0.502899 0.609741
0.245880 0.548645 0.662354
0.427582 0.595154 0.706573
0.575684 0.671234 0.769470
0.735504 0.753296 0.831085
0.838684 0.773804 0.850464
0.930450 0.788666 0.868103
0.016174 0.514343 0.573700
0.019501 0.533112 0.596832
0.160950 0.569244 0.632050
0.267975 0.609528 0.674286
0.447876 0.640717 0.694885
0.566223 0.686859 0.730743
0.710266 0.770599 0.799622
0.890961 0.876434 0.915924
0.975311 0.897034 0.962982
0.019592 0.574829 0.598511
0.102936 0.597931 0.620392
0.209839 0.632599 0.648163
0.307556 0.670349 0.682190
0.467712 0.693756 0.695984
0.559631 0.709290 0.699524
0.687500 0.783905 0.765564
0.841492 0.874420 0.842834
0.994568 0.999969 0.999939
