Kodak Vision2 500T (5218) - Look.cube
# Created by Benjamin (IWLTBAP) : http://luts.iwltbap.com
# Copyright: (C) Copyright 2010-2017 Triune Films and IWLTBAP SAS
# Cannot be resold, shared or otherwise redistributed
TITLE "Film Print Emulation LUTs Pack (Rec.709, sRGB, DCI-P3)"
LUT_3D_SIZE 9
0.002380 0.001587 0.001587
0.076660 0.008667 0.000793
0.150452 0.013397 0.002350
0.220154 0.015778 0.006287
0.289185 0.019714 0.009460
0.357971 0.021301 0.009460
0.426605 0.022888 0.009460
0.493561 0.026031 0.009460
0.553467 0.027618 0.009460
0.000000 0.070526 0.051666
0.054932 0.081482 0.027588
0.149658 0.092590 0.010254
0.248383 0.100311 0.007874
0.332397 0.100311 0.008667
0.409363 0.092987 0.008667
0.484802 0.082886 0.008667
0.555786 0.075165 0.007904
0.619720 0.071045 0.007904
0.000000 0.128418 0.092987
0.022858 0.143951 0.068939
0.107513 0.166534 0.031555
0.248383 0.191681 0.011047
0.369690 0.203979 0.008667
0.460968 0.200897 0.008667
0.544220 0.187958 0.008667
0.619446 0.168915 0.008667
0.687256 0.148041 0.009460
0.000000 0.177368 0.123352
0.007080 0.191071 0.104553
0.051025 0.216949 0.067322
0.186279 0.256500 0.025238
0.367279 0.292114 0.011047
0.497681 0.304016 0.012604
0.593994 0.298523 0.013397
0.679413 0.281982 0.014984
0.756226 0.257263 0.015778
0.000000 0.223999 0.149139
0.002350 0.235077 0.134521
0.019714 0.258728 0.108643
0.102631 0.300354 0.060486
0.305725 0.356445 0.022888
0.505524 0.392090 0.018127
0.633362 0.396942 0.020508
0.729889 0.387115 0.020508
0.816406 0.370728 0.019714
0.000000 0.273773 0.174225
0.000793 0.283844 0.161469
0.007874 0.305847 0.146973
0.046173 0.343323 0.110077
0.204163 0.405334 0.052368
0.462341 0.470917 0.024445
0.655487 0.497772 0.021301
0.775452 0.495911 0.018158
0.868866 0.485504 0.013428
0.000000 0.334595 0.207428
0.000000 0.344910 0.195770
0.003143 0.367676 0.191284
0.019714 0.405273 0.172180
0.114990 0.467865 0.115356
0.387115 0.558533 0.054932
0.653625 0.614014 0.029968
0.821167 0.622559 0.019714
0.924164 0.610199 0.009460
0.000000 0.422485 0.265381
0.000000 0.437622 0.260345
0.001556 0.468079 0.269745
0.018127 0.515289 0.266937
0.125916 0.596222 0.231964
0.401978 0.697266 0.171234
0.670715 0.757690 0.119080
0.855103 0.773499 0.087402
0.967590 0.756775 0.052979
0.000000 0.544312 0.357269
0.000000 0.573120 0.370270
0.003143 0.616394 0.391266
0.059265 0.686981 0.397644
0.276489 0.792175 0.398163
0.533386 0.858246 0.374939
0.720947 0.894226 0.336121
0.867920 0.915466 0.304169
0.976257 0.919861 0.267517
0.003174 0.007874 0.053650
0.081482 0.011047 0.053650
0.162415 0.013397 0.059265
0.237671 0.016571 0.065063
0.309326 0.020508 0.066193
0.379425 0.022095 0.064514
0.449646 0.025238 0.061646
0.517303 0.027618 0.058655
0.576569 0.029968 0.056824
0.000000 0.074158 0.110077
0.062225 0.082886 0.091309
0.173767 0.097534 0.079102
0.278625 0.107147 0.075653
0.364258 0.106415 0.070007
0.441223 0.097931 0.063385
0.512726 0.086945 0.058655
0.579224 0.079102 0.055573
0.640228 0.075653 0.052979
0.000000 0.139740 0.147247
0.029968 0.153870 0.129974
0.141998 0.183289 0.106049
0.296387 0.212402 0.088287
0.413818 0.221710 0.075653
0.501434 0.213135 0.063385
0.576172 0.193115 0.055573
0.641968 0.168915 0.052338
0.702087 0.147522 0.051025
0.000000 0.197540 0.178467
0.008667 0.210571 0.167725
0.072601 0.241516 0.143402
0.243561 0.288513 0.108978
0.426605 0.321960 0.086517
0.546448 0.325439 0.071045
0.632812 0.309418 0.058655
0.705872 0.282379 0.054291
0.768433 0.248230 0.052338
0.000000 0.251282 0.211853
0.002350 0.262787 0.204926
0.025238 0.287750 0.187744
0.138885 0.335785 0.147522
0.367279 0.394623 0.107880
0.559143 0.422455 0.082886
0.675568 0.417786 0.063385
0.762085 0.399292 0.053650
0.834656 0.373016 0.049652
0.000000 0.305725 0.244354
0.000793 0.317261 0.239105
0.008667 0.338440 0.230255
0.056824 0.378937 0.201080
0.244019 0.448029 0.149384
0.513031 0.510925 0.103760
0.699646 0.529724 0.071045
0.811218 0.521576 0.051025
0.892517 0.503418 0.039429
0.000000 0.371307 0.284210
0.000000 0.385101 0.280792
0.003143 0.405762 0.278900
0.022858 0.443542 0.263947
0.141144 0.514069 0.220154
0.433685 0.605591 0.164856
0.695648 0.653015 0.118744
0.853668 0.656738 0.084717
0.943298 0.637634 0.048981
0.000000 0.466644 0.350067
0.000000 0.488159 0.354736
0.001556 0.511688 0.356445
0.024445 0.554718 0.347809
0.150726 0.637177 0.325104
0.431793 0.730957 0.287354
0.690155 0.784119 0.241669
0.868774 0.799316 0.202820
0.973877 0.784912 0.148315
0.000000 0.594727 0.449005
0.000000 0.624390 0.462280
0.006287 0.651337 0.456940
0.079559 0.719360 0.457947
0.290436 0.810486 0.462006
0.525543 0.864380 0.445862
0.712616 0.899841 0.421661
0.864441 0.922058 0.402954
0.975525 0.929321 0.385284
0.001587 0.014984 0.101868
0.079102 0.014191 0.107513
0.169617 0.013428 0.115356
0.252014 0.015778 0.128418
0.327454 0.020508 0.134491
0.397736 0.022888 0.135071
0.467865 0.026825 0.135071
0.536011 0.029968 0.133301
0.597260 0.032349 0.131500
0.000000 0.077637 0.164856
0.056183 0.083801 0.158966
0.177368 0.097931 0.155396
0.294373 0.110077 0.161194
0.387299 0.112213 0.159210
0.465759 0.104523 0.148865
0.535522 0.093414 0.138885
0.600708 0.085175 0.133301
0.661102 0.080994 0.129669
0.000000 0.148590 0.209473
0.027588 0.160461 0.201874
0.148865 0.191498 0.193726
0.315430 0.225342 0.193726
0.439148 0.237518 0.187134
0.530090 0.227570 0.165344
0.601898 0.202820 0.141998
0.663513 0.173981 0.130585
0.720276 0.150452 0.125916
0.000000 0.212036 0.236053
0.008667 0.224487 0.230255
0.081940 0.257263 0.223969
0.270020 0.309540 0.217834
0.455017 0.344574 0.210388
0.576050 0.345398 0.185852
0.660217 0.322083 0.151001
0.726807 0.285919 0.129333
0.782074 0.242615 0.122375
0.000000 0.269470 0.263641
0.002350 0.281982 0.261932
0.028381 0.309204 0.259155
0.160217 0.361908 0.246216
0.398254 0.421906 0.231445
0.589264 0.447815 0.205505
0.703979 0.438538 0.161682
0.785034 0.411865 0.123688
0.849426 0.374237 0.107513
0.000000 0.327148 0.299133
0.000793 0.341309 0.299988
0.008667 0.365143 0.301361
0.063385 0.408173 0.288391
0.265656 0.480316 0.263367
0.541809 0.541779 0.231110
0.727051 0.558533 0.184357
0.834778 0.546112 0.132111
0.909607 0.518951 0.090027
0.000000 0.395172 0.343536
0.000000 0.414551 0.348206
0.003143 0.438904 0.353943
0.023651 0.476135 0.345398
0.155151 0.548950 0.321960
0.459808 0.638885 0.293243
0.718903 0.682312 0.253845
0.871277 0.685638 0.205902
0.956329 0.664734 0.137421
0.000000 0.491547 0.412140
0.000000 0.519562 0.425140
0.002350 0.545380 0.429565
0.026794 0.585052 0.420410
0.158203 0.664917 0.409698
0.444550 0.753967 0.394287
0.701752 0.802734 0.365723
0.876709 0.818359 0.335449
0.978729 0.809204 0.282654
0.000000 0.616089 0.509064
0.000000 0.647247 0.524750
0.009460 0.673523 0.515778
0.087402 0.740601 0.518768
0.288513 0.821655 0.524200
0.519623 0.871033 0.512909
0.709229 0.905457 0.495819
0.864441 0.927582 0.485779
0.977478 0.935791 0.480194
0.000793 0.019714 0.148865
0.072083 0.016571 0.159698
0.170074 0.012634 0.165802
0.257385 0.013397 0.185852
0.339935 0.018158 0.202820
0.415405 0.022888 0.209473
0.485168 0.027618 0.211853
0.551910 0.031555 0.213318
0.613586 0.033905 0.213867
0.000000 0.079559 0.210022
0.046875 0.083801 0.216400
0.166290 0.093842 0.220673
0.292480 0.104156 0.234894
0.397278 0.110077 0.247437
0.484039 0.108612 0.244965
0.554535 0.099915 0.232941
0.618591 0.091309 0.223633
0.678711 0.086945 0.219604
0.000000 0.151764 0.259735
0.021271 0.162659 0.263092
0.135071 0.190460 0.268341
0.310394 0.225708 0.279968
0.446533 0.243408 0.290955
0.548096 0.239441 0.281586
0.622620 0.214783 0.254883
0.682373 0.182220 0.231445
0.737152 0.156189 0.221191
0.000000 0.218536 0.290955
0.005524 0.230255 0.290314
0.076660 0.261780 0.296265
0.273743 0.317841 0.308594
0.462799 0.357452 0.322083
0.591034 0.362213 0.312866
0.680054 0.337799 0.277435
0.744812 0.294525 0.239105
0.796204 0.244019 0.218536
0.000000 0.278656 0.313324
0.001556 0.291595 0.312622
0.029968 0.319580 0.319794
0.173523 0.377075 0.330872
0.412140 0.439240 0.342896
0.602142 0.467834 0.336304
0.721558 0.460083 0.300110
0.802032 0.428101 0.246521
0.861267 0.380249 0.203796
0.000000 0.338898 0.343536
0.000793 0.355133 0.347076
0.008667 0.381531 0.357147
0.069458 0.429169 0.363464
0.278107 0.503540 0.365631
0.555328 0.564240 0.358643
0.741180 0.583282 0.331421
0.848511 0.570129 0.277710
0.919250 0.535706 0.208160
0.000000 0.409607 0.388672
0.000000 0.432892 0.398773
0.003143 0.461639 0.412292
0.025238 0.502045 0.414978
0.163879 0.576385 0.410461
0.473755 0.661926 0.405182
0.730103 0.702515 0.387665
0.878845 0.707153 0.354431
0.961426 0.687531 0.292358
0.000000 0.506226 0.459076
0.000000 0.537109 0.476715
0.002350 0.566772 0.487274
0.028381 0.609100 0.484955
0.162170 0.687744 0.484802
0.451874 0.771118 0.482697
0.708923 0.815521 0.468201
0.880981 0.830780 0.451813
0.980042 0.826538 0.422546
0.000000 0.625702 0.554108
0.000000 0.656006 0.571014
0.011047 0.684753 0.567444
0.089600 0.754517 0.576447
0.284760 0.831482 0.584808
0.518311 0.878113 0.577393
0.710144 0.911011 0.565308
0.866180 0.932159 0.560089
0.978394 0.941223 0.561890
0.000793 0.025238 0.190887
0.061035 0.019714 0.208160
0.163391 0.014191 0.213318
0.254120 0.011841 0.230255
0.340271 0.015778 0.255188
0.425873 0.022888 0.274170
0.502380 0.029175 0.282379
0.568634 0.033142 0.285034
0.629395 0.036285 0.286987
0.000000 0.080048 0.249756
0.039429 0.083801 0.264496
0.153870 0.090881 0.274841
0.281433 0.094666 0.289154
0.390900 0.099121 0.309540
0.489716 0.102997 0.323425
0.571014 0.102631 0.321747
0.636963 0.097107 0.310394
0.695648 0.092163 0.300720
0.000000 0.151001 0.299988
0.018921 0.162903 0.311432
0.124969 0.187531 0.326691
0.296143 0.216949 0.342377
0.437592 0.233917 0.361420
0.552216 0.237183 0.371124
0.638519 0.220673 0.359436
0.700378 0.189423 0.333282
0.753357 0.161682 0.309540
0.000000 0.219086 0.334717
0.004730 0.231781 0.341309
0.069458 0.261047 0.358337
0.264069 0.315430 0.379120
0.458618 0.356445 0.399811
0.595367 0.367554 0.408936
0.694153 0.349854 0.392426
0.760773 0.305359 0.355438
0.809753 0.249146 0.315643
0.000000 0.282776 0.363007
0.000793 0.296021 0.365845
0.026794 0.322174 0.379974
0.176697 0.381622 0.403625
0.420349 0.447723 0.427399
0.607788 0.480865 0.438385
0.731934 0.478638 0.423126
0.815247 0.446655 0.381805
0.872314 0.391449 0.325348
0.000000 0.345642 0.391632
0.000000 0.363007 0.395172
0.007080 0.389008 0.409027
0.074646 0.440002 0.428589
0.295135 0.519989 0.450592
0.566528 0.581543 0.463440
0.748352 0.603394 0.456329
0.857056 0.592468 0.424561
0.926819 0.555359 0.365234
0.000000 0.419220 0.431152
0.000000 0.444946 0.443176
0.002350 0.475159 0.461578
0.026794 0.518768 0.475800
0.178711 0.599670 0.490662
0.489044 0.681213 0.501801
0.736572 0.718445 0.498352
0.882019 0.724487 0.482605
0.963470 0.706360 0.443634
0.000000 0.518555 0.500854
0.000000 0.550262 0.521271
0.002350 0.581329 0.537048
0.030731 0.626923 0.544220
0.176239 0.710480 0.557434
0.466614 0.788025 0.564240
0.715149 0.826447 0.557404
0.883148 0.840820 0.549438
0.980133 0.838989 0.534515
0.000000 0.637146 0.596527
0.000000 0.664825 0.613007
0.011047 0.693237 0.614319
0.091736 0.764709 0.630463
0.292114 0.843689 0.646729
0.527161 0.888855 0.644897
0.714203 0.919067 0.637573
0.868652 0.938141 0.635071
0.979553 0.946960 0.639221
0.000000 0.029968 0.228424
0.047577 0.023651 0.252808
0.149933 0.019714 0.261353
0.246826 0.014191 0.272247
0.333954 0.014984 0.295166
0.423462 0.022064 0.321533
0.510925 0.030762 0.341431
0.586426 0.036285 0.351105
0.648682 0.038635 0.353729
0.000000 0.078125 0.285797
0.032318 0.080994 0.305847
0.139740 0.086945 0.321960
0.267914 0.087402 0.335449
0.377350 0.086060 0.354645
0.480103 0.089600 0.377075
0.575012 0.096313 0.391968
0.653809 0.099121 0.392334
0.714722 0.095886 0.381348
0.000000 0.147522 0.338013
0.018127 0.159698 0.354523
0.117065 0.181549 0.375397
0.280243 0.204376 0.394287
0.419678 0.214783 0.413147
0.539612 0.217834 0.432098
0.640106 0.209656 0.439056
0.714966 0.188995 0.427399
0.771179 0.167480 0.403290
0.000000 0.215515 0.372650
0.005524 0.229584 0.384949
0.068390 0.257690 0.409180
0.252319 0.306580 0.438049
0.444244 0.341736 0.459808
0.587280 0.354523 0.477631
0.698547 0.346558 0.480530
0.774048 0.310150 0.460541
0.824524 0.258423 0.423615
0.000000 0.281738 0.405365
0.000793 0.296265 0.414642
0.022858 0.321045 0.436829
0.164612 0.378021 0.472473
0.414398 0.444611 0.499481
0.606689 0.480316 0.515961
0.736633 0.486450 0.518555
0.825745 0.461761 0.498230
0.883362 0.407135 0.455139
0.000000 0.348541 0.440948
0.000000 0.367950 0.448364
0.004730 0.392761 0.465851
0.072083 0.442688 0.494568
0.305725 0.527588 0.527710
0.577332 0.591644 0.549927
0.752625 0.617188 0.556976
0.862762 0.611511 0.543427
0.934082 0.577393 0.505554
0.000000 0.424591 0.479004
0.000000 0.452484 0.491608
0.001556 0.482483 0.511719
0.027588 0.526672 0.534088
0.200500 0.614960 0.564575
0.512268 0.695038 0.588135
0.743652 0.731201 0.595734
0.883301 0.739624 0.590546
0.965607 0.725220 0.567261
0.000000 0.527649 0.544250
0.000000 0.559845 0.564514
0.002350 0.591492 0.583923
0.037842 0.641235 0.601471
0.206268 0.730743 0.628113
0.493805 0.803284 0.643829
0.723969 0.836884 0.644165
0.884705 0.850708 0.641815
0.980347 0.850983 0.634766
0.000000 0.650421 0.638397
0.000000 0.675415 0.653442
0.014191 0.705933 0.660706
0.106781 0.782227 0.686035
0.320374 0.859497 0.709198
0.549011 0.902893 0.715149
0.721130 0.929749 0.713257
0.872009 0.946503 0.713013
0.981262 0.954041 0.716797
0.000000 0.033905 0.265106
0.037048 0.026825 0.291992
0.135956 0.024445 0.306702
0.239288 0.019714 0.315674
0.328003 0.016571 0.332764
0.417725 0.020508 0.358063
0.507965 0.029968 0.384308
0.593353 0.038635 0.405365
0.665741 0.042511 0.417145
0.000000 0.075165 0.320038
0.026001 0.076660 0.340576
0.124969 0.080994 0.361115
0.254272 0.079559 0.376404
0.365631 0.074646 0.393219
0.468262 0.074646 0.415802
0.566467 0.081482 0.438690
0.655762 0.090027 0.453674
0.728912 0.095093 0.457245
0.000000 0.141144 0.373901
0.014984 0.151764 0.391968
0.103760 0.169128 0.414978
0.260620 0.186493 0.437134
0.401978 0.191071 0.455658
0.522430 0.187531 0.475098
0.627075 0.178040 0.490479
0.714050 0.168671 0.495178
0.784668 0.167725 0.489716
0.000000 0.211304 0.410797
0.005524 0.224823 0.426514
0.064514 0.249451 0.451874
0.235870 0.291077 0.485168
0.425690 0.320038 0.510498
0.572021 0.328003 0.529877
0.688843 0.320374 0.541534
0.774872 0.293121 0.537750
0.836487 0.262634 0.521027
0.000000 0.277435 0.443329
0.000793 0.292755 0.457764
0.019714 0.315430 0.483307
0.148041 0.366974 0.525757
0.395508 0.431305 0.561066
0.596375 0.465607 0.578247
0.732300 0.475861 0.588989
0.829651 0.460175 0.585815
0.892334 0.415222 0.564301
0.000000 0.348633 0.485291
0.000000 0.369873 0.498169
0.003143 0.393921 0.519440
0.059845 0.439392 0.555267
0.292877 0.524628 0.600189
0.575958 0.590424 0.623657
0.752747 0.618866 0.636078
0.866180 0.619904 0.636322
0.940552 0.593689 0.619019
0.000000 0.428131 0.527832
0.000000 0.457458 0.542786
0.000793 0.487274 0.564789
0.028381 0.530975 0.593506
0.216217 0.622009 0.636536
0.532593 0.700165 0.665741
0.752258 0.737915 0.680084
0.885315 0.750427 0.683960
0.968384 0.742310 0.675171
0.000000 0.533295 0.591064
0.000000 0.564056 0.609375
0.004730 0.597168 0.631744
0.054291 0.653992 0.659943
0.252625 0.746643 0.696533
0.533752 0.811890 0.717285
0.742676 0.844360 0.726685
0.889648 0.860657 0.732239
0.981079 0.864166 0.733246
0.000000 0.661987 0.683105
0.000793 0.683167 0.695557
0.025238 0.721466 0.711426
0.148041 0.806427 0.746094
0.382080 0.876587 0.771332
0.591492 0.915161 0.782898
0.744446 0.940094 0.788605
0.882446 0.955750 0.793030
0.983826 0.962219 0.798340
0.000000 0.035492 0.300507
0.032318 0.028381 0.326813
0.127808 0.027618 0.347504
0.235382 0.023651 0.358551
0.327118 0.019714 0.371216
0.416656 0.020508 0.392609
0.505646 0.028381 0.418793
0.588715 0.036285 0.443329
0.666748 0.042511 0.463959
0.000000 0.071045 0.350464
0.021271 0.070007 0.369690
0.112549 0.073120 0.393219
0.243408 0.072601 0.412811
0.359039 0.066742 0.429382
0.461761 0.063385 0.450073
0.558594 0.065643 0.473267
0.645752 0.070526 0.492828
0.724792 0.081482 0.507263
0.000000 0.131195 0.403992
0.011810 0.138000 0.420746
0.090881 0.149384 0.443390
0.242310 0.161682 0.468781
0.387482 0.160706 0.488647
0.508606 0.149139 0.507385
0.612671 0.135071 0.524750
0.701660 0.130280 0.537445
0.781403 0.147797 0.545868
0.000000 0.205688 0.448792
0.004730 0.216583 0.464478
0.057434 0.234589 0.487274
0.218018 0.267212 0.521271
0.408600 0.288910 0.549622
0.558014 0.288116 0.569916
0.674225 0.272644 0.583344
0.763062 0.250061 0.587860
0.835632 0.243713 0.585938
0.000000 0.274994 0.482971
0.000793 0.288513 0.499542
0.018921 0.307404 0.524506
0.139160 0.351501 0.566895
0.380798 0.410126 0.609314
0.586792 0.441010 0.630951
0.724426 0.448792 0.643921
0.823914 0.434631 0.648438
0.893311 0.397095 0.639648
0.000000 0.349152 0.528259
0.000000 0.368530 0.543091
0.002350 0.389923 0.565460
0.051666 0.429626 0.603271
0.275391 0.512207 0.658752
0.568329 0.579346 0.688080
0.749756 0.607819 0.701599
0.865295 0.612671 0.709930
0.944366 0.590637 0.704407
0.000000 0.435577 0.576294
0.000000 0.461639 0.591187
0.000793 0.489532 0.614502
0.027588 0.530548 0.648102
0.216949 0.619537 0.704956
0.538940 0.697510 0.741882
0.759094 0.736755 0.756042
0.888489 0.753357 0.766418
0.972839 0.750336 0.767731
0.000000 0.542236 0.641296
0.000000 0.568787 0.657837
0.007874 0.603027 0.683716
0.072601 0.663513 0.720581
0.291718 0.754211 0.766235
0.571350 0.814606 0.792908
0.768799 0.848328 0.807373
0.901459 0.869263 0.820984
0.985321 0.876770 0.829224
0.000000 0.670471 0.732666
0.003143 0.688232 0.742737
0.045441 0.739014 0.769287
0.207977 0.828857 0.810486
0.457458 0.889343 0.834595
0.652863 0.923767 0.850342
0.790436 0.948029 0.863739
0.906311 0.964050 0.875580
0.989685 0.971130 0.884399
0.000000 0.036285 0.334381
0.028381 0.028381 0.358246
0.121735 0.028381 0.382935
0.232758 0.026031 0.398773
0.328888 0.022095 0.409210
0.419220 0.022095 0.427094
0.505707 0.026825 0.450165
0.582672 0.032349 0.472565
0.649719 0.035492 0.489532
0.000000 0.067291 0.378113
0.018127 0.064514 0.395599
0.102631 0.066742 0.421417
0.235077 0.067291 0.446838
0.355835 0.063385 0.464630
0.459869 0.058655 0.483429
0.553741 0.054291 0.502899
0.635590 0.051666 0.521759
0.704834 0.056824 0.535645
0.000000 0.116364 0.428131
0.010254 0.118744 0.442169
0.081940 0.125580 0.464172
0.229095 0.132690 0.493225
0.376801 0.126862 0.515076
0.498993 0.111481 0.534668
0.601776 0.094238 0.552002
0.689850 0.090881 0.568298
0.762390 0.110413 0.578918
0.000000 0.194733 0.482483
0.004730 0.200684 0.494568
0.054291 0.211121 0.513611
0.207581 0.232941 0.546631
0.395355 0.242767 0.575836
0.545776 0.229919 0.598358
0.660522 0.206848 0.613281
0.750793 0.195557 0.623962
0.821045 0.205688 0.626892
0.000000 0.273071 0.525238
0.000793 0.282898 0.539978
0.022064 0.296906 0.562073
0.145050 0.332520 0.602600
0.379761 0.377808 0.646393
0.583344 0.400604 0.673523
0.720520 0.403900 0.688660
0.817657 0.392242 0.697083
0.883301 0.358032 0.690826
0.000000 0.349548 0.570679
0.000000 0.364960 0.584900
0.003143 0.383087 0.607819
0.058655 0.420410 0.648743
0.286194 0.498199 0.708801
0.574127 0.560089 0.743408
0.752808 0.586792 0.760437
0.864929 0.594269 0.774048
0.940826 0.571838 0.771423
0.000000 0.444336 0.624756
0.000000 0.463745 0.637390
0.000793 0.487274 0.660797
0.033112 0.527832 0.699829
0.229584 0.615570 0.768311
0.549957 0.690826 0.812103
0.768616 0.730591 0.827881
0.891907 0.751068 0.843903
0.973572 0.753235 0.851807
0.000000 0.554749 0.693115
0.000000 0.576294 0.708649
0.010254 0.607941 0.735962
0.088715 0.670349 0.780701
0.320129 0.757812 0.837799
0.596039 0.814758 0.875000
0.790710 0.851501 0.891113
0.912659 0.876251 0.906494
0.987946 0.888184 0.920074
0.000000 0.670380 0.772766
0.003143 0.689270 0.788147
0.058655 0.747559 0.826111
0.255188 0.842529 0.877258
0.515564 0.898224 0.902649
0.707733 0.930359 0.922546
0.835327 0.954254 0.939636
0.931030 0.970276 0.953339
0.994446 0.978699 0.962952
