Kodak Vision2 500T (5260) - Look.cube
# Created by Benjamin (IWLTBAP) : http://luts.iwltbap.com
# Copyright: (C) Copyright 2010-2017 Triune Films and IWLTBAP SAS
# Cannot be resold, shared or otherwise redistributed
TITLE "Film Print Emulation LUTs Pack (Rec.709, sRGB, DCI-P3)"
LUT_3D_SIZE 9
0.000000 0.000000 0.000000
0.151001 0.038055 0.011658
0.308960 0.054749 0.030975
0.455017 0.061157 0.058655
0.577698 0.074310 0.075592
0.690613 0.082123 0.087494
0.797302 0.092529 0.101105
0.893036 0.108154 0.112457
0.974548 0.124237 0.122253
0.002258 0.040314 0.008667
0.091339 0.087708 0.009491
0.264771 0.107208 0.036621
0.434082 0.122437 0.058960
0.574921 0.141327 0.075134
0.701263 0.155853 0.089111
0.809082 0.170929 0.099884
0.902954 0.186829 0.108154
0.977844 0.199554 0.115723
0.003021 0.098083 0.025635
0.004059 0.127625 0.010376
0.220978 0.203308 0.047180
0.419647 0.220367 0.059357
0.573212 0.239258 0.075775
0.707947 0.259094 0.091766
0.819977 0.274658 0.102600
0.913147 0.286774 0.110565
0.983154 0.301514 0.121704
0.003052 0.161163 0.059875
0.002838 0.159760 0.038849
0.083221 0.291656 0.037964
0.387695 0.346405 0.064331
0.566864 0.361908 0.083984
0.710632 0.382965 0.091583
0.825256 0.397858 0.101562
0.917664 0.406433 0.110229
0.984894 0.423737 0.111725
0.004974 0.237946 0.100769
0.004242 0.232574 0.068848
0.009064 0.340271 0.054657
0.295837 0.460693 0.050964
0.534302 0.488556 0.086853
0.709167 0.503693 0.107208
0.829193 0.516663 0.109955
0.914856 0.527161 0.105957
0.984619 0.533691 0.114014
0.007751 0.340302 0.155884
0.006775 0.336182 0.110107
0.008270 0.401367 0.100891
0.166046 0.555389 0.086060
0.459412 0.616913 0.103241
0.679901 0.634674 0.123444
0.829620 0.640533 0.145355
0.921814 0.645233 0.152191
0.987885 0.644592 0.140778
0.010590 0.422516 0.200958
0.009796 0.427673 0.156158
0.010986 0.479126 0.143127
0.057404 0.636993 0.143280
0.473633 0.711395 0.139282
0.661285 0.740082 0.187012
0.811676 0.752228 0.173645
0.915741 0.756104 0.155060
0.990662 0.758453 0.149597
0.012909 0.480591 0.236603
0.012207 0.490845 0.186768
0.013000 0.531647 0.175140
0.048981 0.669678 0.174866
0.445496 0.757660 0.190582
0.664825 0.806885 0.225555
0.793701 0.826294 0.212189
0.905731 0.836700 0.168060
0.993256 0.844421 0.124237
0.017120 0.578278 0.326843
0.016296 0.585175 0.272491
0.016205 0.606628 0.243683
0.017120 0.662537 0.207458
0.077759 0.764862 0.221649
0.526917 0.831482 0.223358
0.739532 0.877533 0.193604
0.881744 0.899109 0.182190
0.986420 0.912750 0.137665
0.004517 0.005798 0.061829
0.213562 0.047333 0.101532
0.335876 0.051331 0.098877
0.472198 0.056946 0.122528
0.587189 0.073456 0.134705
0.693756 0.087158 0.146149
0.795380 0.093292 0.158234
0.888611 0.098450 0.176575
0.970734 0.121216 0.193970
0.009003 0.075226 0.124817
0.085327 0.089447 0.096344
0.269592 0.116150 0.097168
0.436340 0.135040 0.115051
0.576782 0.150543 0.134033
0.698608 0.165955 0.146057
0.805450 0.173706 0.159729
0.899017 0.188843 0.173615
0.973328 0.208374 0.184540
0.004456 0.143066 0.150391
0.004120 0.144379 0.083954
0.237610 0.212250 0.106720
0.429840 0.228607 0.121338
0.581055 0.244720 0.139496
0.712891 0.261780 0.153229
0.824646 0.270508 0.163177
0.914490 0.284180 0.171234
0.980072 0.296478 0.180115
0.005707 0.224060 0.146301
0.004211 0.195282 0.098877
0.043152 0.294373 0.100128
0.399994 0.347076 0.127533
0.572327 0.359039 0.144531
0.719482 0.373108 0.158203
0.833099 0.384583 0.166534
0.922974 0.394623 0.174713
0.984375 0.403076 0.183655
0.007965 0.307373 0.186188
0.006256 0.277557 0.133484
0.006592 0.338531 0.100616
0.275391 0.459717 0.108032
0.543610 0.481445 0.156494
0.713684 0.493622 0.172180
0.834198 0.503906 0.177673
0.922791 0.514404 0.182678
0.985138 0.514709 0.188629
0.010925 0.395966 0.231537
0.009430 0.385345 0.182465
0.008698 0.405457 0.126465
0.055206 0.545776 0.128265
0.443481 0.613098 0.157593
0.693726 0.625519 0.204285
0.838379 0.630890 0.217682
0.933716 0.635956 0.222900
0.989044 0.632111 0.208649
0.013306 0.469421 0.266785
0.012299 0.468384 0.220215
0.011414 0.478546 0.156982
0.037201 0.619537 0.163910
0.433105 0.710022 0.184875
0.660065 0.742462 0.251526
0.822876 0.753815 0.259735
0.927490 0.758148 0.251404
0.992920 0.755859 0.241791
0.014954 0.513641 0.289642
0.013885 0.518707 0.240662
0.013123 0.532806 0.185699
0.015686 0.635437 0.169373
0.361145 0.754028 0.222473
0.651245 0.810181 0.274872
0.801392 0.830872 0.287201
0.915894 0.841980 0.262787
0.993744 0.847534 0.236328
0.018494 0.593353 0.364929
0.017334 0.595123 0.313080
0.016968 0.605988 0.277222
0.017151 0.648346 0.235291
0.063629 0.757111 0.237579
0.487671 0.828308 0.269012
0.718170 0.879120 0.263306
0.873383 0.903473 0.261871
0.984711 0.914856 0.246643
0.028259 0.017731 0.140808
0.266785 0.038177 0.216217
0.413605 0.048645 0.201569
0.492401 0.057434 0.217377
0.603577 0.071045 0.228180
0.709656 0.081665 0.240021
0.805695 0.098572 0.255127
0.895630 0.109619 0.274963
0.971069 0.126495 0.285126
0.006042 0.123352 0.211975
0.018860 0.074280 0.168396
0.320496 0.112976 0.177277
0.452667 0.128235 0.198700
0.581085 0.142365 0.213287
0.698944 0.154724 0.226318
0.799194 0.169800 0.237976
0.889832 0.183105 0.249908
0.969330 0.210907 0.270233
0.010590 0.188599 0.278564
0.010864 0.160767 0.245789
0.206573 0.207703 0.197021
0.407745 0.234680 0.210358
0.560455 0.257996 0.227142
0.701111 0.277008 0.243866
0.814514 0.289490 0.257202
0.904816 0.296753 0.265961
0.975555 0.304504 0.272430
0.010284 0.260529 0.286804
0.008362 0.241882 0.233337
0.022614 0.297729 0.190033
0.378784 0.356873 0.224182
0.559174 0.372040 0.243256
0.709625 0.387054 0.256805
0.828339 0.397125 0.266907
0.917786 0.402588 0.272888
0.982452 0.408234 0.274078
0.010864 0.343109 0.262726
0.009705 0.333923 0.224823
0.009064 0.354370 0.191101
0.157349 0.457642 0.214478
0.526062 0.489899 0.246552
0.708527 0.498169 0.269531
0.837128 0.502197 0.275024
0.924255 0.511810 0.280212
0.984344 0.509583 0.281128
0.012939 0.426025 0.287811
0.012421 0.429596 0.264679
0.011261 0.433838 0.216339
0.028320 0.529022 0.204193
0.398621 0.614929 0.234192
0.683777 0.626434 0.283539
0.836945 0.627167 0.298950
0.934631 0.632385 0.306885
0.988556 0.621552 0.296387
0.015198 0.495300 0.322906
0.014587 0.501373 0.292938
0.013550 0.506836 0.234467
0.015106 0.590393 0.212646
0.341003 0.705231 0.249054
0.647156 0.748444 0.321106
0.820679 0.755859 0.353851
0.931854 0.758728 0.348755
0.992798 0.747162 0.334259
0.016479 0.535034 0.340363
0.015808 0.541870 0.302246
0.014587 0.552887 0.236755
0.016357 0.625336 0.220428
0.247223 0.751617 0.267029
0.632050 0.813629 0.326752
0.801849 0.836243 0.361816
0.920441 0.847015 0.361511
0.993835 0.849762 0.346985
0.019653 0.606934 0.402130
0.018585 0.605164 0.356476
0.017975 0.613342 0.322174
0.018066 0.642822 0.287262
0.051178 0.750214 0.286224
0.445312 0.825531 0.325195
0.707581 0.879669 0.330017
0.869873 0.906952 0.348389
0.985779 0.917236 0.348633
0.025696 0.073090 0.230988
0.232971 0.035492 0.315033
0.466766 0.048340 0.289978
0.542572 0.060760 0.301544
0.622955 0.064972 0.320831
0.721375 0.076447 0.339783
0.816193 0.093719 0.353363
0.904327 0.106995 0.374084
0.973419 0.134186 0.385468
0.008972 0.160828 0.287079
0.017914 0.085999 0.226562
0.256226 0.098633 0.307281
0.492615 0.126709 0.280853
0.604462 0.141541 0.305450
0.714508 0.151459 0.322418
0.812012 0.165253 0.332275
0.893982 0.182343 0.347137
0.967041 0.207153 0.359650
0.012512 0.221588 0.347168
0.011505 0.185974 0.309509
0.015259 0.175568 0.317078
0.430908 0.228821 0.288269
0.574402 0.248627 0.308960
0.701569 0.263092 0.326935
0.811310 0.274750 0.338623
0.896759 0.287750 0.351562
0.970428 0.314667 0.369385
0.013306 0.283600 0.367889
0.015015 0.275970 0.367889
0.020172 0.284119 0.363037
0.338684 0.349518 0.318390
0.535614 0.371918 0.336914
0.690460 0.396271 0.353851
0.817719 0.411224 0.368652
0.906860 0.417572 0.378052
0.976562 0.419525 0.377289
0.014099 0.353302 0.367157
0.014099 0.367493 0.357391
0.013092 0.378296 0.293793
0.042114 0.451385 0.320312
0.505646 0.498474 0.353729
0.697876 0.511200 0.381836
0.829132 0.517853 0.390472
0.917694 0.522827 0.396271
0.984314 0.516174 0.387177
0.014832 0.441010 0.347778
0.014771 0.457458 0.334747
0.013977 0.460602 0.301056
0.021545 0.525848 0.304413
0.303436 0.612640 0.349274
0.667969 0.636810 0.391388
0.829346 0.635651 0.414886
0.928406 0.637329 0.415680
0.987274 0.621155 0.402374
0.016632 0.512146 0.365112
0.016479 0.525391 0.354858
0.015808 0.531006 0.311707
0.016937 0.589417 0.300598
0.065430 0.694580 0.349579
0.621033 0.754761 0.408112
0.815643 0.760406 0.446167
0.929596 0.762115 0.455963
0.992279 0.744476 0.437347
0.017914 0.553650 0.381226
0.017426 0.562225 0.355560
0.016663 0.569733 0.306671
0.017578 0.625000 0.285950
0.066406 0.745453 0.342834
0.603577 0.817657 0.409393
0.801575 0.843109 0.440216
0.920746 0.852753 0.464905
0.993530 0.852203 0.459595
0.020691 0.618347 0.432434
0.019562 0.615906 0.390656
0.018921 0.620239 0.360809
0.018951 0.645172 0.331024
0.037781 0.740509 0.337769
0.381073 0.823547 0.392395
0.701294 0.880951 0.401093
0.873566 0.912720 0.440704
0.986389 0.919678 0.451294
0.021118 0.089813 0.284851
0.232727 0.037323 0.358307
0.476746 0.046692 0.338318
0.564880 0.058289 0.365143
0.636047 0.063141 0.390228
0.723541 0.072113 0.409119
0.809113 0.083466 0.425507
0.902435 0.104034 0.455322
0.979614 0.138794 0.477234
0.011047 0.188965 0.335785
0.016968 0.099792 0.289948
0.191467 0.086945 0.357849
0.475708 0.111267 0.380981
0.627289 0.131500 0.386932
0.735260 0.143036 0.408630
0.825470 0.160156 0.427979
0.906799 0.181610 0.443359
0.970886 0.206268 0.446777
0.013672 0.243378 0.391113
0.012360 0.210876 0.365326
0.011505 0.168335 0.352295
0.340454 0.210114 0.417908
0.598541 0.241333 0.384521
0.723114 0.262848 0.408325
0.823914 0.271942 0.429504
0.906036 0.282257 0.442535
0.970642 0.300507 0.444946
0.015747 0.297150 0.423737
0.017883 0.297119 0.434235
0.018616 0.276459 0.417999
0.167267 0.314178 0.444214
0.550385 0.363373 0.409271
0.700958 0.382477 0.425110
0.816803 0.395996 0.443481
0.904541 0.405060 0.455658
0.971985 0.423920 0.464996
0.016266 0.362244 0.433289
0.017334 0.386322 0.450592
0.019684 0.379700 0.443268
0.041718 0.431488 0.469604
0.466919 0.488220 0.441162
0.672729 0.506317 0.462189
0.813934 0.528290 0.478302
0.907959 0.534485 0.487610
0.980499 0.524872 0.481628
0.017303 0.447449 0.424347
0.017822 0.477417 0.423187
0.016785 0.481873 0.396210
0.025848 0.533966 0.404694
0.111938 0.602814 0.444305
0.659515 0.644226 0.489532
0.827393 0.646729 0.514923
0.926331 0.645538 0.517487
0.985840 0.627899 0.508972
0.018158 0.527466 0.413239
0.018341 0.546753 0.405548
0.018219 0.556854 0.389038
0.021942 0.603943 0.389771
0.048553 0.685181 0.435059
0.572754 0.755951 0.499786
0.811707 0.766846 0.538605
0.926697 0.768005 0.553314
0.991608 0.748566 0.539032
0.019135 0.569916 0.416199
0.019104 0.582062 0.404572
0.018524 0.589905 0.371399
0.019104 0.631378 0.357086
0.049927 0.733765 0.409515
0.550171 0.816559 0.489044
0.794800 0.852386 0.524078
0.920441 0.858856 0.556732
0.992706 0.857330 0.562469
0.021667 0.628143 0.460632
0.020813 0.627472 0.427704
0.019867 0.626587 0.390747
0.019928 0.647949 0.373016
0.024414 0.722809 0.369843
0.309235 0.819885 0.451202
0.688568 0.881378 0.476105
0.874786 0.915680 0.520386
0.987518 0.922241 0.542603
0.017090 0.101105 0.326111
0.245850 0.041351 0.400116
0.464569 0.044769 0.410492
0.571198 0.057556 0.414337
0.644928 0.063568 0.452881
0.721344 0.071381 0.481415
0.803619 0.084808 0.502899
0.888153 0.096863 0.520660
0.980865 0.126495 0.556763
0.013214 0.218475 0.384521
0.020386 0.110168 0.355988
0.148621 0.076141 0.406891
0.418640 0.095184 0.454498
0.609497 0.110718 0.478912
0.743927 0.131592 0.496246
0.835480 0.149994 0.508575
0.918518 0.172363 0.534454
0.978973 0.205170 0.541748
0.015259 0.266998 0.427734
0.014465 0.237061 0.413361
0.013824 0.177002 0.411072
0.248627 0.187195 0.463440
0.532043 0.215790 0.498138
0.741669 0.250305 0.486755
0.843018 0.264008 0.507965
0.917603 0.281891 0.527405
0.976471 0.297668 0.533447
0.017334 0.317657 0.471985
0.017548 0.315247 0.476776
0.016602 0.283417 0.456299
0.023560 0.275085 0.479828
0.454559 0.334534 0.531830
0.728363 0.372314 0.497803
0.837128 0.388489 0.516693
0.915192 0.397247 0.534912
0.975830 0.406860 0.539398
0.018768 0.371216 0.498413
0.021301 0.390900 0.524414
0.024506 0.389557 0.534882
0.028900 0.400604 0.549866
0.336517 0.449493 0.565491
0.699036 0.496948 0.527710
0.821472 0.507996 0.539093
0.902527 0.516571 0.551971
0.972992 0.520355 0.556580
0.019958 0.454346 0.502472
0.021057 0.488647 0.520203
0.022339 0.505646 0.525757
0.029724 0.527496 0.535919
0.096375 0.593231 0.576965
0.624634 0.645660 0.576691
0.808868 0.652283 0.598663
0.909668 0.654907 0.604279
0.978607 0.641754 0.593109
0.021118 0.542816 0.492676
0.021545 0.569946 0.499207
0.021576 0.587494 0.487915
0.026825 0.615814 0.490112
0.037659 0.676788 0.523529
0.461853 0.747803 0.588257
0.809601 0.777832 0.625580
0.923706 0.777466 0.640411
0.991730 0.756866 0.628906
0.021332 0.590546 0.479797
0.021484 0.606628 0.468781
0.021301 0.618561 0.454163
0.021667 0.645996 0.444611
0.033173 0.721100 0.480865
0.431061 0.808136 0.578888
0.775238 0.859833 0.608276
0.920227 0.867462 0.650177
0.991608 0.865875 0.654449
0.023132 0.641724 0.504425
0.022369 0.643372 0.477753
0.021576 0.641510 0.443481
0.021301 0.654419 0.419983
0.023132 0.718170 0.433685
0.165436 0.813873 0.518799
0.659851 0.881073 0.549316
0.871613 0.921448 0.600281
0.988220 0.926849 0.625885
0.019836 0.093170 0.357391
0.280701 0.046051 0.437408
0.480652 0.048309 0.446594
0.589142 0.058380 0.438110
0.647644 0.063080 0.488251
0.723389 0.073059 0.536652
0.796600 0.086548 0.572906
0.876160 0.098480 0.603210
0.974792 0.123962 0.630096
0.015076 0.246185 0.426941
0.029022 0.104065 0.387970
0.150726 0.071503 0.452423
0.390076 0.085083 0.489838
0.570953 0.096771 0.537170
0.730713 0.113159 0.572662
0.833984 0.132416 0.595154
0.915649 0.162018 0.615051
0.980469 0.202393 0.619263
0.016907 0.289795 0.465271
0.016052 0.249176 0.451660
0.015717 0.175568 0.458618
0.171814 0.159729 0.486908
0.462494 0.193024 0.543579
0.706635 0.222534 0.572052
0.843842 0.247498 0.587524
0.924530 0.271851 0.602478
0.982025 0.295166 0.613190
0.018768 0.336487 0.505859
0.019012 0.331940 0.513550
0.017883 0.290680 0.490387
0.018372 0.242157 0.507355
0.369385 0.294891 0.566498
0.666473 0.331635 0.589996
0.847931 0.362915 0.582886
0.929901 0.384735 0.605164
0.980103 0.406860 0.611053
0.020721 0.384003 0.543793
0.021332 0.393890 0.559021
0.021088 0.381714 0.555695
0.020966 0.366852 0.553131
0.195953 0.404236 0.594971
0.628235 0.452789 0.619873
0.844543 0.482513 0.598053
0.922119 0.506317 0.620361
0.977631 0.508789 0.622345
0.022491 0.454254 0.570404
0.023499 0.477783 0.589813
0.026428 0.495239 0.609711
0.031830 0.499481 0.631653
0.064697 0.552399 0.675781
0.546326 0.602844 0.682556
0.832764 0.634308 0.650787
0.916046 0.635193 0.656067
0.971497 0.620758 0.644684
0.023834 0.548401 0.573303
0.024872 0.577606 0.587128
0.025696 0.601227 0.599945
0.031464 0.623932 0.616302
0.048523 0.678955 0.657623
0.438873 0.743347 0.702454
0.791168 0.788879 0.713348
0.915985 0.786560 0.725189
0.980530 0.763611 0.710236
0.024841 0.610382 0.569855
0.025360 0.631287 0.577515
0.025604 0.648376 0.579193
0.025177 0.661194 0.559204
0.036469 0.721161 0.590698
0.287323 0.794220 0.654602
0.705658 0.856049 0.700256
0.920593 0.879242 0.734772
0.990936 0.878418 0.744019
0.025665 0.657898 0.575775
0.025116 0.665253 0.555878
0.024384 0.666107 0.527832
0.023560 0.667633 0.499084
0.026886 0.716400 0.511658
0.064880 0.799927 0.581360
0.578766 0.871368 0.631561
0.863037 0.922699 0.670074
0.987183 0.929535 0.707092
0.014862 0.144257 0.405762
0.335785 0.050415 0.476440
0.523193 0.057770 0.478485
0.617554 0.060089 0.479614
0.668121 0.066284 0.510559
0.724915 0.075592 0.565735
0.791077 0.087738 0.613434
0.862488 0.099701 0.657288
0.964050 0.124054 0.701599
0.016449 0.268982 0.455566
0.035614 0.082306 0.411743
0.216827 0.075958 0.498291
0.422119 0.078766 0.520905
0.566956 0.093597 0.556976
0.714264 0.108185 0.612488
0.825745 0.122772 0.648285
0.906342 0.153229 0.679688
0.974396 0.200226 0.704590
0.018372 0.313934 0.498444
0.017181 0.257141 0.478607
0.018402 0.155670 0.480530
0.195740 0.149017 0.518188
0.431824 0.173950 0.561676
0.662445 0.204132 0.610657
0.826965 0.229889 0.641815
0.916107 0.254578 0.670288
0.977753 0.293060 0.694885
0.020172 0.355194 0.537018
0.019501 0.335266 0.525024
0.019043 0.280151 0.519958
0.019104 0.216248 0.531372
0.314636 0.253937 0.574646
0.606750 0.292664 0.623932
0.822815 0.326843 0.643097
0.923401 0.356354 0.668762
0.981689 0.397797 0.685547
0.022003 0.399048 0.571991
0.021942 0.392456 0.573669
0.021423 0.370575 0.564148
0.021118 0.341156 0.560547
0.092865 0.341400 0.598145
0.553436 0.398834 0.651672
0.809509 0.431519 0.650238
0.923157 0.465881 0.665222
0.984619 0.498322 0.689728
0.024384 0.458344 0.615540
0.024780 0.465942 0.624634
0.025085 0.466980 0.630920
0.024963 0.455444 0.631500
0.029999 0.472656 0.659485
0.441498 0.532440 0.692200
0.787994 0.571259 0.684723
0.934296 0.594360 0.692474
0.984802 0.618835 0.712494
0.025970 0.542969 0.634644
0.026672 0.557953 0.646545
0.027405 0.576782 0.660370
0.031738 0.594025 0.683136
0.043152 0.630920 0.724976
0.395996 0.695343 0.780548
0.738861 0.752991 0.769958
0.928558 0.769562 0.771484
0.978943 0.752472 0.760742
0.027374 0.613556 0.643616
0.028351 0.632446 0.660645
0.029175 0.650818 0.675171
0.040222 0.688263 0.704926
0.054077 0.725220 0.728333
0.327820 0.785614 0.766541
0.639801 0.849487 0.792480
0.910156 0.893066 0.812622
0.991577 0.893463 0.825226
0.028717 0.664093 0.654907
0.028992 0.676941 0.657715
0.028992 0.685638 0.653381
0.028839 0.691864 0.645081
0.040405 0.733124 0.664795
0.049957 0.780334 0.670502
0.424866 0.846252 0.705963
0.824280 0.915863 0.735901
0.990021 0.938263 0.783234
0.014404 0.189850 0.423584
0.327179 0.049866 0.488953
0.535645 0.058838 0.488068
0.635712 0.061615 0.487274
0.694458 0.068146 0.481628
0.740265 0.077271 0.557739
0.792908 0.088318 0.622559
0.868225 0.101898 0.685852
0.972534 0.147766 0.763611
0.017517 0.294586 0.482819
0.027985 0.136139 0.469025
0.209747 0.090851 0.517639
0.454163 0.089935 0.542542
0.607239 0.092255 0.557617
0.734833 0.104248 0.617615
0.829346 0.136963 0.659027
0.903656 0.178284 0.702881
0.968536 0.224335 0.747894
0.019623 0.340149 0.524414
0.018005 0.292755 0.493347
0.023865 0.162323 0.504822
0.220184 0.151154 0.539276
0.455109 0.160553 0.558624
0.665192 0.184906 0.612549
0.818604 0.223694 0.659943
0.909393 0.262238 0.702820
0.971710 0.307892 0.745392
0.021332 0.381073 0.560211
0.020294 0.349426 0.540131
0.019165 0.279022 0.523834
0.029053 0.194946 0.540863
0.307526 0.216858 0.564514
0.586456 0.248993 0.618469
0.802368 0.299652 0.664429
0.913849 0.346069 0.705200
0.974884 0.397552 0.743134
0.023254 0.423462 0.598328
0.022461 0.399750 0.583069
0.021118 0.362976 0.558533
0.020752 0.303619 0.558319
0.022064 0.251373 0.557220
0.505005 0.327393 0.638916
0.777222 0.384186 0.674194
0.912903 0.435852 0.701477
0.978912 0.486145 0.743896
0.025238 0.476288 0.633606
0.024811 0.460266 0.626495
0.024323 0.441925 0.621094
0.023438 0.410553 0.604370
0.023010 0.383240 0.599213
0.334991 0.429138 0.666412
0.736328 0.493591 0.708344
0.912292 0.541046 0.711151
0.984955 0.591003 0.753998
0.026672 0.541016 0.650818
0.026825 0.531036 0.657593
0.027161 0.525635 0.666107
0.027405 0.520294 0.674286
0.027985 0.514862 0.679504
0.060516 0.580994 0.746765
0.655365 0.651947 0.763489
0.909363 0.683990 0.752045
0.987061 0.728210 0.793121
0.028381 0.605072 0.673920
0.028809 0.611938 0.683105
0.029388 0.621582 0.694305
0.031097 0.634308 0.707428
0.042084 0.665955 0.738281
0.062378 0.715881 0.791870
0.549622 0.785034 0.846985
0.862030 0.854218 0.837646
0.990967 0.872589 0.860962
0.030304 0.653961 0.705078
0.030823 0.664429 0.713257
0.036804 0.684570 0.730255
0.043335 0.701508 0.743896
0.050171 0.715637 0.754578
0.079163 0.762207 0.790833
0.356262 0.809601 0.824188
0.665070 0.884430 0.868195
0.992554 0.968842 0.889526
