Kodak Vision 800T (5289) - Look.cube
# Created by Benjamin (IWLTBAP) : http://luts.iwltbap.com
# Copyright: (C) Copyright 2010-2017 Triune Films and IWLTBAP SAS
# Cannot be resold, shared or otherwise redistributed
TITLE "Film Print Emulation LUTs Pack (Rec.709, sRGB, DCI-P3)"
LUT_3D_SIZE 9
0.000000 0.000000 0.000000
0.102692 0.022186 0.044037
0.204529 0.030243 0.054474
0.310883 0.022858 0.075409
0.420258 0.030670 0.108917
0.530914 0.039154 0.142273
0.651794 0.047943 0.176086
0.778259 0.057404 0.208557
0.892883 0.112335 0.241455
0.021545 0.095490 0.060944
0.092896 0.104034 0.069855
0.198669 0.114655 0.080139
0.329773 0.096649 0.091095
0.454254 0.069275 0.113312
0.569611 0.060394 0.143311
0.683350 0.085907 0.177124
0.799561 0.138214 0.213318
0.912415 0.192902 0.250641
0.011780 0.182739 0.093353
0.043854 0.195740 0.099762
0.183624 0.204468 0.114044
0.314911 0.211853 0.119293
0.448425 0.210266 0.136078
0.578217 0.209167 0.158051
0.699799 0.222504 0.188843
0.816711 0.252289 0.225433
0.926788 0.293335 0.263519
0.007843 0.282715 0.143219
0.038910 0.293457 0.145477
0.154449 0.308563 0.147034
0.296661 0.317902 0.160309
0.435455 0.330841 0.169220
0.579865 0.339417 0.190369
0.713806 0.350830 0.213226
0.842468 0.373932 0.247528
0.946503 0.412628 0.286316
0.011871 0.391815 0.192566
0.032288 0.398621 0.198425
0.118835 0.418427 0.185486
0.292114 0.431946 0.198029
0.428802 0.443237 0.210968
0.571320 0.462006 0.229126
0.716858 0.483276 0.248260
0.847290 0.508026 0.279877
0.951324 0.534515 0.313812
0.019318 0.503784 0.231964
0.029572 0.509460 0.238281
0.082489 0.531097 0.224030
0.304230 0.549072 0.234131
0.443817 0.563232 0.251740
0.580200 0.580902 0.273071
0.719666 0.603333 0.297760
0.843689 0.622711 0.311249
0.938110 0.644440 0.349030
0.028046 0.616882 0.275116
0.031494 0.621521 0.279297
0.069305 0.641541 0.269501
0.325897 0.667725 0.286743
0.476837 0.682587 0.300140
0.606628 0.694824 0.317413
0.724823 0.707214 0.343018
0.831482 0.720367 0.372986
0.919373 0.735626 0.385040
0.037048 0.726318 0.308441
0.040741 0.732025 0.309174
0.098511 0.745087 0.312531
0.357635 0.766052 0.348755
0.510864 0.780701 0.366455
0.632141 0.787170 0.372284
0.738129 0.791809 0.378113
0.827545 0.798584 0.400543
0.904877 0.806610 0.433350
0.119965 0.821259 0.359070
0.140411 0.826477 0.362305
0.199066 0.835022 0.367096
0.408264 0.845032 0.382874
0.547852 0.855988 0.407349
0.654907 0.859802 0.421936
0.745514 0.861420 0.431122
0.829834 0.864410 0.442902
0.893707 0.867950 0.458588
0.007507 0.015198 0.088593
0.061981 0.026398 0.145355
0.211121 0.024902 0.124512
0.318024 0.023376 0.117554
0.424622 0.031403 0.148773
0.537933 0.039948 0.177856
0.657471 0.048828 0.209625
0.786804 0.058502 0.240601
0.899384 0.120850 0.272583
0.012207 0.095764 0.124237
0.093842 0.103119 0.134949
0.211121 0.111816 0.118896
0.329407 0.108093 0.143188
0.457031 0.079498 0.162842
0.574615 0.071869 0.187195
0.689789 0.093353 0.218231
0.807037 0.153717 0.253143
0.919312 0.209015 0.289917
0.013123 0.185883 0.125214
0.087982 0.194214 0.138062
0.192749 0.204163 0.156586
0.317810 0.213715 0.165894
0.454620 0.213043 0.183014
0.584259 0.213074 0.202515
0.706604 0.227142 0.229645
0.828400 0.263214 0.268158
0.939453 0.309998 0.307678
0.007904 0.285950 0.175354
0.041290 0.294312 0.183136
0.169037 0.309174 0.193726
0.303131 0.319519 0.210266
0.442169 0.336517 0.217346
0.585083 0.344635 0.234253
0.724762 0.356659 0.256744
0.851166 0.377289 0.290710
0.953125 0.419525 0.331299
0.011475 0.394897 0.226379
0.035187 0.399109 0.233704
0.136078 0.419739 0.234497
0.298706 0.434143 0.247589
0.435730 0.449005 0.264191
0.580353 0.469513 0.276337
0.728790 0.487610 0.299408
0.854797 0.511353 0.328796
0.957916 0.536041 0.362457
0.017944 0.505981 0.269012
0.030792 0.509613 0.275909
0.093689 0.528717 0.269775
0.314484 0.551056 0.284912
0.452789 0.567841 0.302826
0.585052 0.585175 0.323883
0.723145 0.607086 0.346436
0.846008 0.626526 0.362610
0.940247 0.648071 0.395752
0.027344 0.618591 0.303833
0.031372 0.622742 0.310577
0.083679 0.642059 0.305481
0.331909 0.666229 0.332367
0.486664 0.686371 0.351135
0.609283 0.697418 0.369781
0.722809 0.707672 0.392365
0.830017 0.722046 0.418945
0.920776 0.737885 0.429474
0.037262 0.728790 0.341644
0.040985 0.732758 0.348083
0.121613 0.746704 0.356232
0.356476 0.763489 0.391632
0.513092 0.781250 0.416199
0.635437 0.788269 0.419067
0.738678 0.792175 0.423737
0.826477 0.798187 0.446045
0.904877 0.807343 0.478943
0.133209 0.824493 0.398895
0.152863 0.829193 0.406036
0.224945 0.837189 0.410431
0.415222 0.844604 0.425659
0.546509 0.855194 0.452393
0.656860 0.860870 0.469604
0.747681 0.862457 0.476166
0.829773 0.864258 0.485046
0.893921 0.868378 0.501801
0.013550 0.034241 0.151947
0.039703 0.050842 0.220093
0.172089 0.042725 0.256500
0.312927 0.030609 0.239777
0.436920 0.033264 0.213165
0.549652 0.041382 0.242035
0.670502 0.049957 0.269928
0.797424 0.059662 0.297333
0.908142 0.126160 0.328735
0.014038 0.106964 0.176514
0.040436 0.115326 0.239441
0.184753 0.116364 0.250153
0.326263 0.114777 0.242371
0.450562 0.120941 0.227203
0.572327 0.114380 0.257050
0.697876 0.116974 0.280609
0.818420 0.158173 0.310547
0.929016 0.215302 0.349335
0.011536 0.185333 0.225616
0.054718 0.195862 0.250000
0.209320 0.208557 0.238129
0.329468 0.217346 0.228058
0.457153 0.222443 0.254150
0.590973 0.225342 0.275848
0.719177 0.239502 0.299591
0.840973 0.278778 0.337402
0.948120 0.326202 0.375031
0.008301 0.290649 0.222473
0.068726 0.299377 0.233063
0.203125 0.311676 0.252869
0.316193 0.325378 0.278351
0.452850 0.342194 0.285187
0.595551 0.353668 0.303558
0.735168 0.363678 0.325012
0.863373 0.387512 0.356934
0.962646 0.430847 0.397522
0.012024 0.399933 0.277679
0.038055 0.405701 0.283417
0.168793 0.421967 0.298798
0.318878 0.441040 0.319336
0.449554 0.456787 0.337463
0.589569 0.478729 0.345764
0.739563 0.494904 0.366516
0.866333 0.516815 0.393646
0.965576 0.539581 0.426178
0.017487 0.514465 0.325623
0.029083 0.515137 0.330292
0.124481 0.531555 0.335999
0.329895 0.554047 0.358948
0.466949 0.574707 0.378876
0.593658 0.590118 0.396454
0.729462 0.612335 0.410614
0.854034 0.629944 0.431000
0.944855 0.652313 0.459015
0.025940 0.626770 0.363159
0.030334 0.629150 0.368469
0.131226 0.644897 0.373657
0.343781 0.666656 0.401733
0.497101 0.689575 0.420959
0.613861 0.699768 0.437653
0.724213 0.709503 0.457855
0.830963 0.725555 0.479187
0.922119 0.740540 0.486816
0.036560 0.733795 0.392456
0.039764 0.737946 0.401245
0.175201 0.750610 0.419952
0.372009 0.764343 0.448212
0.517303 0.779846 0.473053
0.641663 0.789703 0.477386
0.739441 0.793335 0.484283
0.825439 0.799438 0.505798
0.903778 0.809723 0.537201
0.148102 0.828186 0.447327
0.167023 0.832886 0.457092
0.266418 0.839264 0.470306
0.429413 0.846069 0.486328
0.546661 0.854218 0.510681
0.658264 0.861664 0.529663
0.749939 0.863434 0.531677
0.829926 0.864807 0.538849
0.894287 0.869019 0.555878
0.016632 0.057098 0.218658
0.040344 0.071106 0.273895
0.093353 0.065735 0.381409
0.297241 0.046631 0.373871
0.427429 0.048584 0.364777
0.559662 0.050720 0.354828
0.680389 0.090576 0.347656
0.802704 0.120575 0.380463
0.915863 0.159851 0.405609
0.014740 0.118774 0.259186
0.042358 0.130676 0.316803
0.148926 0.131195 0.374969
0.304016 0.135437 0.368530
0.439758 0.143097 0.363831
0.576874 0.148804 0.356842
0.694794 0.182953 0.366730
0.822754 0.201416 0.397003
0.936340 0.236572 0.426819
0.013611 0.197357 0.294373
0.043243 0.212341 0.332947
0.161652 0.222046 0.376343
0.314911 0.224976 0.361328
0.455444 0.235046 0.360535
0.585327 0.252197 0.357330
0.714752 0.273651 0.388153
0.844086 0.296631 0.417511
0.952881 0.333649 0.446777
0.005463 0.293488 0.345795
0.044067 0.303253 0.365326
0.203217 0.315826 0.370483
0.343689 0.336151 0.361450
0.464508 0.351807 0.361816
0.600830 0.363892 0.389862
0.745239 0.376862 0.415344
0.873962 0.403961 0.440948
0.972839 0.445190 0.475311
0.010956 0.405762 0.336517
0.053589 0.414429 0.344482
0.215302 0.428589 0.362793
0.348938 0.451080 0.396240
0.466949 0.466766 0.420074
0.606506 0.485840 0.425354
0.752045 0.501740 0.449158
0.874969 0.523834 0.468231
0.972717 0.547028 0.495514
0.016510 0.520569 0.390503
0.032532 0.526154 0.396881
0.172363 0.541077 0.408417
0.354340 0.562012 0.436401
0.488068 0.584930 0.459869
0.608307 0.598633 0.476807
0.737061 0.617310 0.479370
0.858673 0.635315 0.499969
0.949005 0.655823 0.523438
0.024841 0.637756 0.433258
0.029663 0.640625 0.438873
0.158813 0.655151 0.449066
0.364807 0.671539 0.473206
0.506714 0.692230 0.497314
0.624084 0.705750 0.516785
0.729126 0.712280 0.529755
0.832916 0.728943 0.542480
0.927948 0.743408 0.551880
0.034973 0.744171 0.467957
0.039001 0.748047 0.475616
0.198639 0.757202 0.493774
0.394012 0.767670 0.520782
0.527100 0.781250 0.542786
0.648193 0.791901 0.548004
0.742798 0.795776 0.555481
0.825836 0.800262 0.571777
0.904022 0.812439 0.598633
0.170929 0.835480 0.513214
0.184021 0.837952 0.519135
0.290833 0.843384 0.534424
0.448303 0.848511 0.554962
0.558105 0.854614 0.573029
0.665131 0.862061 0.589844
0.753845 0.864929 0.593323
0.829407 0.866089 0.598938
0.894226 0.870178 0.613678
0.020203 0.083832 0.301941
0.041107 0.092560 0.352325
0.068787 0.092926 0.478577
0.285645 0.079498 0.496063
0.428314 0.074280 0.490723
0.551239 0.093170 0.485901
0.682648 0.118591 0.477173
0.813751 0.147156 0.480255
0.912750 0.215820 0.489197
0.020905 0.137207 0.346008
0.045593 0.150330 0.401672
0.078369 0.153656 0.486511
0.295319 0.161133 0.495239
0.442871 0.164825 0.492889
0.568115 0.181915 0.489655
0.701904 0.205902 0.488556
0.832092 0.233521 0.488922
0.925568 0.280151 0.512756
0.018646 0.214539 0.378113
0.045410 0.228729 0.433868
0.116302 0.239136 0.498352
0.319885 0.245392 0.487885
0.451843 0.258118 0.485931
0.587158 0.279633 0.491882
0.722290 0.300568 0.496338
0.843719 0.331635 0.508545
0.941467 0.367737 0.537231
0.009003 0.306854 0.432037
0.044098 0.324097 0.462189
0.126556 0.343323 0.500519
0.327942 0.350769 0.497375
0.462646 0.360901 0.485535
0.606812 0.380554 0.491028
0.740997 0.402252 0.501648
0.861511 0.429413 0.533020
0.960022 0.465546 0.563354
0.008057 0.412384 0.463715
0.037292 0.422699 0.480621
0.226837 0.436707 0.491699
0.363708 0.455994 0.498596
0.495728 0.478729 0.490784
0.616943 0.496307 0.508057
0.756744 0.513306 0.537872
0.877350 0.535004 0.561066
0.972412 0.560333 0.582428
0.045685 0.527527 0.458008
0.073090 0.534943 0.466827
0.239319 0.551270 0.481079
0.382629 0.573273 0.510742
0.510101 0.595276 0.542145
0.622009 0.608551 0.560425
0.750183 0.623718 0.561859
0.862823 0.640686 0.585785
0.951202 0.661652 0.599213
0.023590 0.643768 0.507721
0.028870 0.650635 0.515350
0.219513 0.666931 0.530670
0.391083 0.682587 0.551849
0.524384 0.697510 0.578156
0.636841 0.711792 0.594482
0.737549 0.718658 0.606079
0.838257 0.732422 0.604675
0.930756 0.746857 0.616882
0.039032 0.750793 0.545776
0.049530 0.758240 0.557159
0.227875 0.767212 0.574127
0.411224 0.774261 0.592163
0.540527 0.783142 0.611115
0.654816 0.793488 0.621124
0.748230 0.799286 0.627533
0.826965 0.802643 0.640106
0.906769 0.814758 0.656097
0.193481 0.840668 0.588074
0.208527 0.844360 0.594604
0.312500 0.848511 0.606964
0.458099 0.851898 0.622498
0.571625 0.855682 0.639893
0.670258 0.862122 0.656830
0.757904 0.867035 0.661621
0.830536 0.868011 0.663422
0.893524 0.871338 0.675018
0.025177 0.107117 0.394073
0.042999 0.115082 0.442474
0.068726 0.117065 0.563690
0.268829 0.111664 0.604828
0.435242 0.115540 0.610107
0.572235 0.119415 0.605438
0.687561 0.148590 0.599854
0.807678 0.183167 0.598114
0.915649 0.231750 0.607117
0.025055 0.158630 0.436432
0.047607 0.171478 0.493500
0.073914 0.173676 0.588409
0.292786 0.184448 0.608032
0.456421 0.195984 0.614990
0.588287 0.209625 0.615082
0.705750 0.229279 0.611267
0.827789 0.261780 0.615356
0.926636 0.302887 0.625702
0.022766 0.234161 0.482178
0.049805 0.249237 0.538208
0.078278 0.264465 0.614441
0.322327 0.273010 0.605377
0.466064 0.289429 0.614746
0.601501 0.304932 0.617126
0.725586 0.329132 0.618073
0.840210 0.357727 0.626404
0.937469 0.396179 0.641846
0.014313 0.328522 0.515015
0.048187 0.349030 0.551422
0.085083 0.367188 0.627991
0.347839 0.378357 0.622131
0.485321 0.387543 0.610382
0.611633 0.404449 0.612335
0.736633 0.429962 0.624146
0.854675 0.455902 0.634613
0.945648 0.489349 0.648590
0.005920 0.430664 0.570618
0.037323 0.446960 0.592560
0.197876 0.466980 0.617920
0.354004 0.482758 0.622894
0.491394 0.492676 0.622223
0.616821 0.505524 0.613129
0.754913 0.527466 0.624664
0.866760 0.552490 0.641754
0.955048 0.575897 0.665009
0.011230 0.536804 0.584290
0.031982 0.548462 0.595764
0.268219 0.563904 0.609528
0.404480 0.580261 0.621521
0.524475 0.599426 0.630096
0.640900 0.618134 0.624023
0.753632 0.632874 0.643738
0.864319 0.647827 0.667450
0.949402 0.668915 0.686890
0.066681 0.654907 0.592957
0.081512 0.661987 0.600739
0.280640 0.675659 0.613464
0.421173 0.690125 0.623718
0.540863 0.704742 0.649689
0.648987 0.717651 0.671082
0.744141 0.725739 0.682831
0.843536 0.736908 0.683624
0.929962 0.749115 0.702118
0.088470 0.758484 0.624908
0.116516 0.765259 0.634674
0.279327 0.773468 0.648773
0.437744 0.781067 0.664551
0.558105 0.788025 0.680298
0.664124 0.795990 0.695709
0.753754 0.803619 0.702423
0.828308 0.806641 0.713623
0.908508 0.816498 0.713287
0.212769 0.843719 0.660492
0.229919 0.848633 0.668823
0.341614 0.853180 0.680603
0.473053 0.855896 0.693268
0.580170 0.857971 0.705597
0.678314 0.862244 0.720886
0.761841 0.868195 0.726654
0.833344 0.870209 0.725830
0.892029 0.872498 0.735992
0.028748 0.132812 0.496124
0.045441 0.137634 0.542328
0.071655 0.137726 0.644745
0.259796 0.140411 0.699921
0.437256 0.149475 0.714233
0.582336 0.159241 0.719543
0.707489 0.178528 0.718323
0.812469 0.206421 0.711761
0.911499 0.248047 0.714294
0.029053 0.182281 0.536102
0.052277 0.191742 0.591583
0.075653 0.194855 0.684601
0.288818 0.207458 0.707855
0.465546 0.225525 0.725281
0.606812 0.240906 0.730499
0.728668 0.257782 0.726654
0.832397 0.281006 0.726501
0.923462 0.320282 0.733582
0.026886 0.258942 0.588837
0.052887 0.273712 0.641724
0.098572 0.289886 0.721924
0.331390 0.298492 0.716644
0.483154 0.315826 0.726746
0.620575 0.334473 0.731842
0.741241 0.352600 0.732544
0.844788 0.376526 0.736725
0.932129 0.415253 0.748230
0.020905 0.354218 0.615112
0.051208 0.373444 0.673218
0.102844 0.392517 0.758148
0.362305 0.406494 0.743347
0.505920 0.417206 0.725983
0.631165 0.430725 0.728638
0.750549 0.451050 0.736572
0.853516 0.478394 0.744476
0.934631 0.506073 0.752167
0.008270 0.451630 0.663177
0.043823 0.473206 0.697449
0.135315 0.495789 0.740967
0.365417 0.508850 0.749268
0.521210 0.519043 0.739502
0.638245 0.530151 0.728729
0.753845 0.547729 0.732300
0.856628 0.571686 0.744812
0.939270 0.594543 0.755005
0.008118 0.557983 0.698914
0.029724 0.574097 0.718872
0.271729 0.592133 0.733093
0.415314 0.607758 0.736938
0.528107 0.620453 0.739380
0.642059 0.628571 0.737885
0.749390 0.639069 0.730591
0.857788 0.657562 0.741669
0.940979 0.678101 0.752899
0.078217 0.664795 0.705811
0.116272 0.672974 0.713074
0.313477 0.686951 0.723114
0.443604 0.697845 0.730835
0.555939 0.709167 0.740479
0.657776 0.720001 0.743713
0.755280 0.732025 0.737610
0.843964 0.742340 0.750671
0.929749 0.752136 0.766388
0.196777 0.763336 0.710907
0.213379 0.769440 0.717621
0.338043 0.776917 0.724030
0.472290 0.784180 0.731720
0.574188 0.791626 0.738831
0.673889 0.799591 0.756073
0.758057 0.806885 0.768341
0.831482 0.810455 0.775421
0.908539 0.818512 0.776154
0.240082 0.847290 0.731873
0.256897 0.851685 0.737976
0.368805 0.855225 0.746277
0.495422 0.857910 0.755737
0.598022 0.860626 0.765259
0.688812 0.864380 0.777313
0.766266 0.869232 0.787170
0.835419 0.872467 0.786194
0.890320 0.874237 0.793518
0.032196 0.157715 0.606476
0.050079 0.160522 0.649902
0.073273 0.157867 0.740173
0.255890 0.163300 0.787415
0.449066 0.176422 0.806152
0.588470 0.192749 0.816162
0.717621 0.208527 0.817322
0.825104 0.233124 0.814423
0.910736 0.270477 0.814484
0.033051 0.206207 0.645111
0.055298 0.216064 0.702484
0.078278 0.217743 0.788849
0.295685 0.228271 0.798676
0.474060 0.248657 0.815094
0.614319 0.265167 0.825531
0.738159 0.283661 0.826477
0.840271 0.307098 0.826202
0.920929 0.340607 0.828796
0.029572 0.285828 0.700745
0.055115 0.301331 0.763306
0.127136 0.315277 0.812988
0.355347 0.321472 0.811157
0.496582 0.336121 0.820618
0.634369 0.358337 0.828186
0.755157 0.378082 0.831024
0.857330 0.401245 0.832275
0.931946 0.430450 0.837860
0.026001 0.382233 0.743256
0.055328 0.399323 0.798615
0.140381 0.417694 0.860382
0.387573 0.431091 0.840607
0.525299 0.439636 0.824127
0.648010 0.452606 0.827515
0.764496 0.473114 0.831635
0.861145 0.492523 0.831055
0.936981 0.516846 0.838135
0.008514 0.478088 0.754272
0.050537 0.501892 0.794495
0.139160 0.521820 0.846344
0.404938 0.532410 0.856018
0.549225 0.545654 0.842529
0.662506 0.555847 0.826813
0.767181 0.567139 0.826691
0.860718 0.583405 0.830627
0.934448 0.608917 0.836609
0.007355 0.577667 0.793304
0.055023 0.598022 0.822327
0.288513 0.616730 0.835602
0.420227 0.631500 0.843262
0.545135 0.642517 0.844849
0.667084 0.649567 0.834473
0.763000 0.657562 0.822479
0.850677 0.669983 0.821411
0.931122 0.689697 0.827698
0.047882 0.683350 0.811523
0.145111 0.694458 0.817383
0.330597 0.706970 0.826691
0.460541 0.717987 0.830872
0.569855 0.726929 0.828979
0.666962 0.735077 0.827698
0.758057 0.739685 0.825470
0.839569 0.746429 0.817444
0.924652 0.758118 0.823425
0.198608 0.769165 0.801971
0.220093 0.776550 0.806854
0.367798 0.783356 0.810760
0.492188 0.789642 0.813721
0.592499 0.795288 0.818604
0.683899 0.801727 0.823944
0.764008 0.807404 0.824860
0.836823 0.813568 0.820160
0.906464 0.821289 0.828156
0.285828 0.848175 0.805817
0.301270 0.852539 0.810242
0.409058 0.855774 0.813782
0.520386 0.859711 0.816406
0.616272 0.862457 0.817932
0.695496 0.867035 0.825775
0.770294 0.870514 0.834656
0.836182 0.873657 0.839996
0.888550 0.875763 0.845001
0.036133 0.181213 0.724640
0.053040 0.182678 0.763397
0.076569 0.177094 0.845490
0.274353 0.183594 0.866882
0.462433 0.201416 0.886444
0.600098 0.219269 0.894714
0.728668 0.232880 0.893951
0.835480 0.256439 0.898865
0.912476 0.292023 0.902222
0.034271 0.230286 0.766754
0.054688 0.239319 0.826721
0.081573 0.241150 0.875061
0.321075 0.247467 0.878815
0.486816 0.266296 0.892578
0.625732 0.283661 0.900024
0.744904 0.304993 0.906494
0.849640 0.328461 0.908142
0.920624 0.361023 0.910217
0.033752 0.312012 0.818481
0.058380 0.325134 0.881775
0.223419 0.337646 0.892090
0.391266 0.345123 0.894257
0.514771 0.353790 0.897522
0.645081 0.376251 0.907471
0.764709 0.398407 0.914307
0.863678 0.424164 0.913879
0.930756 0.449066 0.916595
0.030243 0.409607 0.855530
0.059906 0.427551 0.917511
0.259949 0.441223 0.927979
0.432465 0.455536 0.913940
0.548676 0.457275 0.906860
0.661133 0.468140 0.908905
0.775269 0.492218 0.909851
0.872375 0.512909 0.911865
0.935699 0.533020 0.916870
0.017487 0.507874 0.850189
0.058258 0.526001 0.909149
0.249908 0.539490 0.945770
0.437012 0.552979 0.949982
0.575256 0.567627 0.927063
0.681885 0.574860 0.905945
0.782898 0.584015 0.906219
0.871002 0.597717 0.907532
0.934631 0.617584 0.903137
0.006866 0.598907 0.883545
0.086792 0.619690 0.912598
0.309509 0.636780 0.920166
0.440704 0.652100 0.928986
0.579437 0.659576 0.930511
0.692474 0.668701 0.915039
0.779327 0.676453 0.901184
0.859070 0.684998 0.895447
0.927429 0.697418 0.893921
0.078369 0.699310 0.895569
0.188934 0.709259 0.900604
0.357941 0.722015 0.909210
0.480530 0.733582 0.913452
0.583344 0.741547 0.911407
0.683411 0.748413 0.909882
0.774048 0.753448 0.899811
0.846497 0.757812 0.889008
0.915436 0.762634 0.886658
0.218811 0.781128 0.885895
0.242188 0.789490 0.891449
0.394012 0.795471 0.894531
0.510132 0.801361 0.895111
0.608765 0.808044 0.894745
0.695343 0.813538 0.892639
0.767487 0.816925 0.893250
0.840515 0.818390 0.889618
0.902954 0.822052 0.882233
0.294952 0.850403 0.876221
0.317291 0.854858 0.879303
0.433136 0.858582 0.881500
0.536346 0.861603 0.882538
0.625946 0.864655 0.883728
0.704803 0.866852 0.885681
0.774536 0.870178 0.887360
0.840637 0.872864 0.884979
0.891632 0.875885 0.883972
