Kodak Vision2 50D (5201) - Only color.cube
# Created by Benjamin (IWLTBAP) : http://luts.iwltbap.com
# Copyright: (C) Copyright 2010-2017 Triune Films and IWLTBAP SAS
# Cannot be resold, shared or otherwise redistributed
TITLE "Film Print Emulation LUTs Pack (Rec.709, sRGB, DCI-P3)"
LUT_3D_SIZE 33
0.001129 0.003265 0.007050
0.001099 0.003418 0.010895
0.025452 0.003632 0.008118
0.063019 0.003204 0.006592
0.090118 0.002838 0.006439
0.114044 0.002472 0.006348
0.133881 0.002350 0.006287
0.162903 0.002289 0.006165
0.193542 0.002625 0.006012
0.206146 0.002625 0.006012
0.232727 0.003418 0.005920
0.242188 0.002899 0.005920
0.265808 0.002380 0.005859
0.276794 0.001984 0.005859
0.296112 0.004028 0.005829
0.310822 0.005646 0.005798
0.324188 0.006592 0.005798
0.341339 0.005676 0.005798
0.351532 0.005737 0.005829
0.370422 0.005737 0.005798
0.379700 0.005798 0.005859
0.397705 0.004059 0.005829
0.407776 0.005829 0.005890
0.427856 0.007660 0.005859
0.440582 0.008667 0.005890
0.457794 0.009583 0.005920
0.479034 0.011902 0.005920
0.494446 0.012939 0.005951
0.513428 0.012848 0.005981
0.532776 0.013153 0.006012
0.552673 0.014343 0.006073
0.571808 0.021606 0.006104
0.587372 0.029205 0.006134
0.000885 0.016785 0.014618
0.002014 0.021057 0.022675
0.037384 0.030426 0.018036
0.067230 0.030640 0.009094
0.095673 0.023132 0.006348
0.121399 0.017487 0.006256
0.142242 0.018341 0.006195
0.166229 0.022217 0.006104
0.198364 0.028473 0.005951
0.217163 0.022430 0.005951
0.239441 0.024109 0.005890
0.262115 0.018555 0.005859
0.276672 0.017548 0.005859
0.298431 0.017578 0.005829
0.312073 0.015961 0.005859
0.332245 0.015015 0.005798
0.343719 0.014587 0.005829
0.363464 0.014648 0.005829
0.374634 0.015289 0.005890
0.394684 0.014496 0.005859
0.402924 0.012695 0.005890
0.424561 0.012634 0.005859
0.435577 0.013153 0.005920
0.456818 0.013580 0.005920
0.474792 0.014130 0.005951
0.490509 0.015106 0.006012
0.512085 0.015076 0.006012
0.531799 0.014374 0.006042
0.550690 0.017181 0.006073
0.570129 0.024750 0.006104
0.584747 0.032776 0.006165
0.603333 0.034912 0.006195
0.620789 0.040802 0.006226
0.012451 0.045471 0.043335
0.015991 0.057526 0.045715
0.041290 0.064362 0.045563
0.069000 0.065277 0.021942
0.096466 0.061798 0.006134
0.123322 0.061859 0.006042
0.152466 0.061890 0.005951
0.174561 0.061157 0.005920
0.200775 0.058411 0.005859
0.230865 0.055206 0.005798
0.251526 0.055389 0.005798
0.274933 0.049377 0.005768
0.294281 0.045685 0.005768
0.311676 0.041016 0.005798
0.336151 0.038025 0.005768
0.349182 0.035492 0.005829
0.370636 0.034760 0.005798
0.386200 0.035034 0.005829
0.399963 0.034271 0.005890
0.419922 0.029846 0.005859
0.431396 0.022400 0.005951
0.454926 0.024048 0.005920
0.467651 0.025757 0.005951
0.486725 0.031311 0.005981
0.510864 0.030151 0.005981
0.528778 0.027527 0.006012
0.547394 0.027649 0.006042
0.564819 0.032837 0.006104
0.582123 0.034515 0.006165
0.602448 0.039551 0.006195
0.617401 0.045929 0.006226
0.629242 0.052368 0.006287
0.643524 0.058563 0.006348
0.037964 0.069702 0.063538
0.040710 0.076416 0.062225
0.051208 0.084930 0.057007
0.074890 0.092346 0.043549
0.097473 0.086060 0.009399
0.123779 0.086212 0.005981
0.158630 0.086304 0.005890
0.186218 0.083130 0.005829
0.204712 0.078125 0.005829
0.237579 0.074799 0.005768
0.265778 0.077454 0.005737
0.281830 0.073364 0.005798
0.309143 0.068237 0.005737
0.328033 0.066193 0.005768
0.345734 0.065033 0.005798
0.370605 0.063904 0.005798
0.389038 0.062592 0.005829
0.403748 0.060760 0.005890
0.427826 0.053925 0.005890
0.448914 0.047821 0.005920
0.463959 0.042816 0.005981
0.484222 0.041626 0.005981
0.505371 0.041656 0.005981
0.523041 0.044250 0.006042
0.538940 0.041840 0.006104
0.559113 0.041901 0.006134
0.580261 0.043213 0.006165
0.599609 0.049744 0.006165
0.613312 0.055664 0.006226
0.628082 0.060638 0.006287
0.641388 0.062378 0.006378
0.652100 0.063507 0.006531
0.664886 0.066681 0.006683
0.052094 0.098358 0.086761
0.059357 0.101288 0.078156
0.068542 0.105927 0.063354
0.093994 0.112274 0.045288
0.109344 0.109192 0.026672
0.127563 0.107513 0.011322
0.160370 0.107605 0.007477
0.193939 0.105804 0.005768
0.214081 0.103088 0.005798
0.240448 0.100281 0.005768
0.273773 0.101135 0.005737
0.295502 0.098816 0.005737
0.313782 0.097046 0.005768
0.341705 0.096436 0.005768
0.367004 0.094574 0.005768
0.386017 0.090088 0.005829
0.404938 0.086639 0.005890
0.428680 0.081818 0.005920
0.454224 0.073181 0.005951
0.475464 0.066559 0.006012
0.493011 0.064697 0.006042
0.512756 0.064056 0.006073
0.532471 0.063263 0.006073
0.555634 0.063141 0.006134
0.578400 0.062683 0.006165
0.595306 0.062775 0.006195
0.609497 0.063171 0.006287
0.627686 0.064758 0.006348
0.639862 0.068024 0.006439
0.648651 0.071320 0.006561
0.661285 0.077576 0.006683
0.678467 0.083649 0.006805
0.700500 0.088715 0.006897
0.068146 0.129852 0.088531
0.070679 0.132721 0.086182
0.087067 0.133850 0.065765
0.098969 0.136597 0.052490
0.122894 0.137268 0.044006
0.146271 0.136597 0.036102
0.165039 0.136353 0.025360
0.197845 0.135712 0.012146
0.220612 0.134247 0.005737
0.246490 0.133148 0.005737
0.276001 0.132599 0.005737
0.307190 0.131683 0.005707
0.326447 0.130341 0.005737
0.349457 0.129303 0.005798
0.374939 0.123260 0.005859
0.399780 0.114746 0.005920
0.427734 0.108795 0.005951
0.453644 0.103180 0.006012
0.479553 0.098236 0.006073
0.505219 0.095947 0.006073
0.523895 0.095245 0.006104
0.543060 0.094788 0.006165
0.565613 0.091461 0.006195
0.586945 0.088501 0.006256
0.604645 0.087158 0.006317
0.626404 0.088531 0.006348
0.639191 0.090393 0.006470
0.649384 0.092316 0.006592
0.660950 0.093414 0.006744
0.677399 0.093964 0.006866
0.699097 0.094757 0.006989
0.718872 0.096436 0.007141
0.742889 0.098145 0.007294
0.082672 0.147400 0.085602
0.089661 0.160553 0.087555
0.096344 0.167236 0.083649
0.112732 0.168274 0.065002
0.127960 0.169067 0.057648
0.158722 0.169464 0.046936
0.181488 0.169128 0.043884
0.200287 0.168640 0.037170
0.228546 0.167877 0.017944
0.251190 0.166962 0.009094
0.280548 0.165283 0.005707
0.310272 0.160797 0.005737
0.339966 0.158051 0.005768
0.366699 0.157318 0.005829
0.391907 0.151855 0.005920
0.418182 0.141510 0.006012
0.444244 0.135590 0.006073
0.470978 0.132233 0.006134
0.504150 0.130829 0.006134
0.530090 0.129883 0.006195
0.554352 0.128143 0.006256
0.578949 0.125153 0.006317
0.601929 0.119965 0.006409
0.623352 0.114960 0.006470
0.635315 0.110321 0.006592
0.648407 0.113861 0.006744
0.662109 0.117859 0.006897
0.678558 0.121460 0.007050
0.700714 0.123505 0.007141
0.721130 0.124420 0.007233
0.749268 0.126312 0.007416
0.772217 0.127686 0.007629
0.789429 0.128052 0.007843
0.095154 0.173798 0.088165
0.096680 0.191101 0.097260
0.109467 0.200714 0.095001
0.122284 0.203522 0.088074
0.143250 0.205078 0.080505
0.165833 0.205780 0.064240
0.197540 0.205688 0.056671
0.215363 0.205627 0.045135
0.237366 0.204987 0.041901
0.262787 0.203033 0.030762
0.286804 0.196960 0.016693
0.313904 0.190002 0.006836
0.343353 0.184631 0.005890
0.372101 0.185211 0.005951
0.399353 0.180573 0.006042
0.428436 0.171692 0.006134
0.457062 0.167236 0.006195
0.486633 0.165894 0.006226
0.521454 0.164490 0.006287
0.554993 0.161194 0.006378
0.582581 0.156311 0.006531
0.607086 0.152740 0.006653
0.630219 0.150879 0.006775
0.645233 0.145935 0.006958
0.659729 0.141449 0.007111
0.677551 0.144562 0.007263
0.700165 0.147156 0.007385
0.726685 0.149719 0.007507
0.757263 0.151245 0.007690
0.781616 0.152283 0.007935
0.799255 0.153717 0.008148
0.814545 0.156342 0.008331
0.824799 0.157532 0.008484
0.102417 0.207123 0.105988
0.109924 0.218323 0.115356
0.121429 0.228699 0.115906
0.136536 0.233063 0.110229
0.158844 0.235718 0.095245
0.188538 0.238770 0.086090
0.203491 0.238586 0.068604
0.234528 0.238770 0.060486
0.255035 0.238617 0.050812
0.274994 0.235626 0.043335
0.302490 0.229126 0.038605
0.322815 0.220886 0.023682
0.350342 0.214539 0.015533
0.380524 0.211639 0.008942
0.411682 0.209686 0.006165
0.443451 0.206177 0.006226
0.475555 0.203796 0.006256
0.508118 0.200287 0.006317
0.536072 0.197296 0.006500
0.578766 0.192505 0.006683
0.610779 0.185760 0.006897
0.635803 0.182251 0.007080
0.655579 0.181580 0.007324
0.673035 0.177673 0.007507
0.691956 0.174622 0.007629
0.710815 0.175415 0.007782
0.741425 0.177795 0.007965
0.776581 0.179443 0.008240
0.804840 0.180756 0.008514
0.819336 0.181671 0.008759
0.829193 0.181702 0.008911
0.837921 0.181763 0.011566
0.846619 0.181763 0.020325
0.119812 0.242462 0.116455
0.122314 0.246277 0.121002
0.135651 0.250427 0.125366
0.159241 0.254211 0.117767
0.183990 0.254364 0.111969
0.199493 0.254913 0.094696
0.225037 0.256073 0.086029
0.241608 0.257385 0.074036
0.272614 0.258423 0.062775
0.297729 0.258484 0.057068
0.314636 0.255615 0.044373
0.339935 0.250671 0.041626
0.365265 0.246429 0.037628
0.392242 0.244629 0.025421
0.424133 0.243652 0.014343
0.455719 0.242889 0.007904
0.488068 0.239349 0.006470
0.521606 0.229919 0.006561
0.554779 0.223328 0.006775
0.598389 0.220184 0.007050
0.629913 0.215149 0.007324
0.655212 0.210815 0.007629
0.677094 0.209290 0.007904
0.702698 0.206848 0.008026
0.731262 0.205719 0.008209
0.757294 0.205109 0.008362
0.780884 0.204895 0.008606
0.811279 0.205841 0.008972
0.826935 0.206543 0.009247
0.838898 0.206085 0.012024
0.847778 0.205200 0.017883
0.856049 0.204742 0.026825
0.865204 0.204498 0.035767
0.137207 0.262360 0.125946
0.152710 0.275879 0.134552
0.158813 0.283295 0.141785
0.190674 0.284332 0.129211
0.200317 0.284210 0.115875
0.222504 0.283875 0.107910
0.237762 0.284271 0.093323
0.265747 0.284607 0.086945
0.282043 0.285004 0.084473
0.308807 0.285095 0.072174
0.338226 0.284729 0.060150
0.359436 0.283813 0.050232
0.375061 0.282471 0.043549
0.399597 0.279358 0.041565
0.428589 0.271423 0.036621
0.463348 0.266876 0.024292
0.508301 0.262299 0.013275
0.535797 0.253479 0.008881
0.576813 0.247772 0.007141
0.611908 0.245392 0.007446
0.642853 0.243561 0.007690
0.665771 0.242676 0.008026
0.698914 0.241730 0.008240
0.731476 0.240753 0.008453
0.761292 0.240112 0.008698
0.784790 0.239380 0.008942
0.808929 0.238708 0.009186
0.827850 0.239014 0.012115
0.842590 0.239105 0.018158
0.853088 0.238770 0.024261
0.862457 0.238098 0.032196
0.872192 0.238068 0.036896
0.882050 0.237915 0.038849
0.163544 0.286926 0.138794
0.178558 0.298981 0.144714
0.193573 0.313049 0.147217
0.209167 0.319153 0.140961
0.231689 0.317719 0.122772
0.240112 0.317078 0.114807
0.264221 0.316864 0.109833
0.276794 0.316803 0.100677
0.305023 0.315735 0.090546
0.323456 0.315948 0.085297
0.347473 0.316681 0.075531
0.373138 0.316742 0.061890
0.397736 0.314789 0.059448
0.424957 0.307739 0.053040
0.450195 0.298920 0.043610
0.479309 0.289154 0.040161
0.512604 0.284546 0.031036
0.553650 0.282379 0.023102
0.594971 0.281158 0.017761
0.627502 0.279907 0.015381
0.650970 0.275177 0.010437
0.676239 0.267456 0.008392
0.710236 0.263916 0.008698
0.759460 0.261841 0.011505
0.786469 0.260895 0.011932
0.811401 0.259583 0.015015
0.826447 0.257538 0.015350
0.843170 0.256012 0.021576
0.856262 0.255524 0.030121
0.865906 0.255829 0.036957
0.876740 0.255890 0.038574
0.888031 0.256500 0.041107
0.898438 0.256561 0.048248
0.197571 0.321198 0.145325
0.202881 0.324432 0.147369
0.219940 0.334351 0.148376
0.236176 0.343475 0.147736
0.256348 0.339172 0.136383
0.271484 0.335541 0.123016
0.281464 0.333801 0.115631
0.304901 0.331818 0.112854
0.316376 0.329590 0.104095
0.339874 0.329803 0.093750
0.367645 0.332916 0.086548
0.394684 0.334595 0.084076
0.423248 0.334656 0.078613
0.447449 0.331177 0.066254
0.470093 0.325928 0.059753
0.498535 0.321411 0.050903
0.526001 0.318542 0.040710
0.563385 0.315186 0.039337
0.605469 0.311310 0.037750
0.641388 0.306519 0.032837
0.662231 0.298431 0.028259
0.692596 0.289581 0.025787
0.732666 0.284332 0.023285
0.783203 0.283691 0.023926
0.813232 0.283661 0.029846
0.829071 0.283234 0.032410
0.843536 0.281525 0.034485
0.857208 0.280334 0.036926
0.869110 0.279968 0.038483
0.879059 0.280029 0.041107
0.891296 0.280518 0.049561
0.903595 0.280884 0.056122
0.914825 0.280945 0.059174
0.231384 0.347290 0.147247
0.236450 0.356812 0.148224
0.247620 0.359650 0.152618
0.266510 0.369202 0.163239
0.276489 0.361969 0.147797
0.297546 0.359375 0.143280
0.308380 0.358856 0.130676
0.326263 0.358337 0.117920
0.340179 0.357849 0.113861
0.363739 0.357788 0.110931
0.384460 0.358276 0.103638
0.411224 0.358673 0.096558
0.436371 0.358673 0.090271
0.462372 0.358215 0.084198
0.496429 0.357635 0.079529
0.526764 0.355865 0.063354
0.550415 0.347961 0.054596
0.578461 0.340515 0.047455
0.620331 0.334076 0.042877
0.647827 0.326965 0.039612
0.676697 0.321930 0.039001
0.711334 0.319672 0.038818
0.760895 0.318054 0.037689
0.802765 0.316406 0.036865
0.825897 0.316437 0.037964
0.842957 0.316559 0.038422
0.857056 0.315277 0.038910
0.869385 0.311523 0.041107
0.880219 0.309296 0.047028
0.891052 0.311401 0.055511
0.904602 0.313385 0.060791
0.919098 0.314606 0.076477
0.932434 0.315002 0.081482
0.255737 0.366760 0.148804
0.268616 0.380096 0.153412
0.272430 0.390411 0.163910
0.282196 0.394409 0.176666
0.306000 0.394379 0.167725
0.317230 0.391632 0.149170
0.337738 0.390686 0.145386
0.348846 0.389435 0.136353
0.367676 0.388428 0.124115
0.386047 0.388458 0.116638
0.406250 0.389313 0.113434
0.429138 0.389923 0.111511
0.455078 0.389343 0.107941
0.481720 0.387482 0.096832
0.514709 0.388062 0.088928
0.551422 0.383057 0.082855
0.580017 0.373688 0.067719
0.601532 0.364746 0.058655
0.627411 0.358856 0.055725
0.657684 0.356415 0.047882
0.693939 0.354248 0.044220
0.735718 0.350159 0.044250
0.784027 0.344971 0.043121
0.816376 0.339905 0.042084
0.835480 0.337006 0.042145
0.852173 0.336700 0.044556
0.868195 0.335449 0.047119
0.881714 0.331573 0.053986
0.891846 0.329285 0.057465
0.902222 0.331726 0.067230
0.917267 0.336212 0.081451
0.934265 0.338043 0.093018
0.948120 0.339050 0.105865
0.274323 0.392487 0.156372
0.284271 0.401428 0.165131
0.297546 0.415619 0.176270
0.306274 0.423187 0.181335
0.321259 0.425201 0.181458
0.338837 0.421570 0.166992
0.357330 0.417786 0.150116
0.369354 0.415283 0.145935
0.391357 0.413483 0.142914
0.408081 0.413147 0.136108
0.427765 0.414520 0.127655
0.453796 0.416016 0.119751
0.480286 0.413696 0.113373
0.506897 0.409454 0.110657
0.531097 0.408844 0.105560
0.575623 0.402435 0.094666
0.604645 0.397217 0.083099
0.626373 0.391235 0.073364
0.642395 0.389435 0.062592
0.667786 0.386719 0.058228
0.703461 0.380249 0.056915
0.758759 0.371948 0.056244
0.801331 0.366791 0.056152
0.826233 0.362610 0.054810
0.844452 0.359741 0.055542
0.859863 0.357941 0.056396
0.875946 0.356689 0.056824
0.891479 0.355774 0.061829
0.903015 0.355225 0.074768
0.913391 0.355927 0.081390
0.930145 0.357666 0.098999
0.947571 0.360260 0.109589
0.960846 0.361755 0.112579
0.303619 0.421844 0.169220
0.306854 0.425049 0.177307
0.311707 0.437134 0.181061
0.325378 0.450653 0.186218
0.337585 0.454071 0.194458
0.357056 0.447876 0.180237
0.369385 0.438629 0.168304
0.392578 0.434448 0.155548
0.409058 0.433167 0.147949
0.427002 0.434082 0.145599
0.453186 0.436646 0.144165
0.478394 0.437195 0.138916
0.504150 0.434418 0.125427
0.527618 0.429840 0.116241
0.554993 0.426788 0.112366
0.597748 0.425171 0.110046
0.626465 0.422699 0.095795
0.643616 0.420715 0.083313
0.662170 0.417755 0.081573
0.684418 0.412903 0.077301
0.718140 0.406555 0.069244
0.769501 0.399689 0.067017
0.813049 0.393341 0.064850
0.835236 0.390686 0.062775
0.853027 0.389160 0.063873
0.867950 0.388336 0.068390
0.882416 0.387299 0.071747
0.897675 0.386017 0.079132
0.911285 0.385590 0.082184
0.925415 0.386719 0.093140
0.943329 0.387360 0.109344
0.959412 0.388092 0.121704
0.971375 0.389191 0.129547
0.320282 0.444641 0.178955
0.329041 0.452057 0.181000
0.337402 0.457062 0.185730
0.342072 0.471680 0.196198
0.356110 0.481476 0.206146
0.371674 0.477142 0.191650
0.392273 0.460938 0.180054
0.408447 0.456451 0.174225
0.426270 0.455353 0.163116
0.451752 0.455170 0.153931
0.474243 0.455261 0.147583
0.498962 0.456207 0.145203
0.523315 0.455322 0.142670
0.550262 0.453308 0.136078
0.580658 0.452362 0.127747
0.620850 0.451813 0.115295
0.642365 0.450958 0.109863
0.662170 0.448425 0.103180
0.690338 0.443634 0.099396
0.718781 0.439148 0.091858
0.746765 0.433533 0.083313
0.783112 0.427582 0.081055
0.820374 0.423004 0.081024
0.843933 0.420532 0.080750
0.861176 0.419708 0.080505
0.876343 0.418182 0.080872
0.889679 0.414886 0.082153
0.903778 0.411194 0.087280
0.918762 0.409515 0.094055
0.935547 0.411896 0.105316
0.953186 0.414612 0.113983
0.967957 0.417175 0.133667
0.977905 0.418518 0.140503
0.339325 0.463348 0.181274
0.344788 0.475403 0.185211
0.358215 0.482208 0.194916
0.366730 0.489594 0.205444
0.373138 0.503967 0.211121
0.394623 0.506836 0.210388
0.413086 0.487274 0.190491
0.426575 0.482544 0.180695
0.450562 0.481079 0.176971
0.469635 0.480133 0.168396
0.491608 0.480194 0.159760
0.515991 0.480835 0.153687
0.541687 0.480499 0.146606
0.575012 0.480164 0.144592
0.602692 0.480194 0.142914
0.634644 0.480225 0.134705
0.656830 0.479187 0.119873
0.682098 0.474915 0.114014
0.719299 0.469421 0.111572
0.755371 0.466644 0.109924
0.781769 0.461578 0.105225
0.807800 0.453979 0.096344
0.827484 0.450592 0.093872
0.849854 0.449646 0.096497
0.869141 0.448700 0.098236
0.885132 0.445953 0.096619
0.899658 0.440094 0.098328
0.913422 0.434998 0.102173
0.930481 0.433014 0.106384
0.946472 0.434174 0.109436
0.960815 0.436829 0.120605
0.973389 0.440521 0.137573
0.982269 0.444885 0.141724
0.365509 0.484467 0.187225
0.367676 0.493866 0.194031
0.376556 0.506683 0.204407
0.389648 0.511017 0.210754
0.394958 0.521790 0.213379
0.410339 0.530701 0.218842
0.430878 0.513824 0.208344
0.452118 0.508942 0.192932
0.468628 0.503815 0.181000
0.486298 0.500214 0.178497
0.510406 0.500549 0.175323
0.531769 0.501801 0.170959
0.561462 0.499939 0.161224
0.594879 0.499176 0.154480
0.623810 0.503479 0.149384
0.646973 0.506714 0.144928
0.673096 0.503632 0.142059
0.701752 0.495636 0.134949
0.750519 0.494080 0.131500
0.783691 0.493195 0.125275
0.810089 0.487061 0.115967
0.825378 0.480743 0.110931
0.840240 0.478638 0.109741
0.855835 0.476837 0.109100
0.874634 0.477112 0.109436
0.894409 0.476105 0.110046
0.911102 0.468109 0.109314
0.927826 0.461761 0.109802
0.943115 0.459198 0.111725
0.957306 0.459259 0.119385
0.968445 0.460754 0.132751
0.978149 0.463287 0.140869
0.985596 0.466797 0.144043
0.387512 0.509857 0.198425
0.393341 0.514923 0.204987
0.397705 0.527527 0.210785
0.409637 0.533539 0.213318
0.421021 0.540344 0.222504
0.424408 0.550629 0.233765
0.452118 0.538025 0.215271
0.473633 0.532257 0.208801
0.488190 0.526154 0.196747
0.508392 0.522064 0.186554
0.528748 0.521118 0.181122
0.552277 0.519165 0.178955
0.580109 0.516296 0.176270
0.611389 0.515015 0.171570
0.639252 0.523346 0.168213
0.660675 0.529938 0.164490
0.689697 0.524841 0.153473
0.728058 0.515778 0.144653
0.776489 0.519165 0.143188
0.811035 0.520935 0.142487
0.828339 0.513214 0.140686
0.841766 0.507385 0.135132
0.853790 0.504272 0.128174
0.866791 0.501221 0.123016
0.882111 0.500793 0.120483
0.899536 0.500916 0.123810
0.919861 0.496796 0.129089
0.938812 0.487823 0.127258
0.952271 0.484650 0.131042
0.964844 0.483032 0.138367
0.974945 0.483551 0.141754
0.982880 0.485077 0.148865
0.989014 0.487030 0.160980
0.407166 0.532898 0.208313
0.416412 0.536865 0.210815
0.423431 0.548065 0.213837
0.427765 0.553528 0.222839
0.439667 0.564545 0.233368
0.449829 0.573792 0.240387
0.469177 0.571472 0.236420
0.489044 0.553223 0.214874
0.508667 0.551147 0.210083
0.527802 0.548248 0.206390
0.550568 0.543518 0.198212
0.575500 0.537628 0.186981
0.600403 0.535217 0.180359
0.627533 0.535492 0.178528
0.651611 0.541718 0.177917
0.674866 0.548401 0.177124
0.707916 0.546112 0.173523
0.757385 0.539001 0.165253
0.799805 0.541901 0.163361
0.825684 0.545135 0.162476
0.844177 0.540405 0.157257
0.857330 0.532043 0.148590
0.867310 0.529449 0.142792
0.879211 0.526367 0.141327
0.892639 0.524628 0.140564
0.906158 0.522491 0.140198
0.923462 0.518433 0.140747
0.943665 0.513550 0.141663
0.958466 0.509216 0.142090
0.970551 0.507599 0.145844
0.979950 0.507324 0.157257
0.986969 0.507660 0.169159
0.991913 0.508514 0.175049
0.425995 0.553009 0.211426
0.433563 0.561890 0.214905
0.446167 0.573517 0.224365
0.451935 0.580200 0.234253
0.457916 0.592926 0.240326
0.469757 0.597321 0.242401
0.480499 0.600006 0.243958
0.507660 0.589081 0.232758
0.527557 0.580811 0.218781
0.549133 0.575012 0.211426
0.573547 0.571594 0.209167
0.597229 0.562561 0.202789
0.622711 0.556763 0.193085
0.640717 0.554138 0.186188
0.662628 0.558533 0.183807
0.696198 0.567566 0.181824
0.736084 0.571655 0.178314
0.782227 0.569916 0.176910
0.815521 0.571075 0.176605
0.837189 0.571533 0.176300
0.855988 0.570099 0.175476
0.870514 0.562256 0.173126
0.881012 0.552124 0.166321
0.891693 0.549713 0.156494
0.903748 0.547485 0.150238
0.916504 0.544128 0.147461
0.929871 0.538483 0.145416
0.947327 0.533752 0.147980
0.963409 0.531616 0.155182
0.975342 0.530884 0.165680
0.983673 0.531464 0.175079
0.989532 0.533356 0.179382
0.993530 0.536713 0.191864
0.451660 0.579285 0.217377
0.455780 0.592346 0.225220
0.468079 0.597168 0.234680
0.477295 0.604675 0.240479
0.480530 0.613922 0.242615
0.491058 0.617615 0.250763
0.502747 0.626526 0.262054
0.526947 0.615417 0.240967
0.549561 0.608704 0.232147
0.573212 0.599365 0.220306
0.594971 0.595886 0.212982
0.618042 0.593384 0.209534
0.637421 0.587616 0.206726
0.654694 0.581024 0.200378
0.675690 0.580475 0.196075
0.712189 0.589203 0.193695
0.761261 0.594543 0.188629
0.804077 0.594788 0.185333
0.825623 0.594849 0.183838
0.845734 0.594666 0.182037
0.864258 0.593964 0.179626
0.879791 0.591858 0.177582
0.892578 0.586548 0.176300
0.903839 0.578918 0.175018
0.915436 0.572632 0.170685
0.928864 0.570465 0.165161
0.941101 0.566772 0.164703
0.951965 0.559875 0.166626
0.966095 0.558197 0.174194
0.977936 0.559906 0.177979
0.985535 0.564850 0.193604
0.990784 0.569702 0.205658
0.994476 0.573364 0.209076
0.477570 0.603760 0.225525
0.481049 0.613068 0.234070
0.491089 0.616638 0.240143
0.501007 0.623962 0.242401
0.505493 0.632416 0.250946
0.510864 0.635803 0.262146
0.520630 0.644836 0.270081
0.544739 0.637390 0.255463
0.572754 0.630859 0.240051
0.593994 0.619537 0.232849
0.614838 0.614990 0.223694
0.630493 0.613739 0.216980
0.647949 0.610718 0.210541
0.670135 0.604401 0.208466
0.698242 0.603241 0.206268
0.736786 0.608124 0.203796
0.782379 0.612396 0.199860
0.813263 0.613159 0.197784
0.833832 0.613403 0.196594
0.853302 0.613281 0.193695
0.871765 0.612823 0.191010
0.887268 0.611908 0.188995
0.901215 0.611206 0.188354
0.913208 0.610260 0.187683
0.924866 0.606567 0.185028
0.937500 0.600616 0.182495
0.949585 0.596558 0.181305
0.959991 0.596313 0.185120
0.968903 0.595245 0.192657
0.978790 0.596161 0.205200
0.986450 0.599762 0.210938
0.991577 0.606567 0.228455
0.995056 0.611603 0.237457
0.503448 0.622528 0.232361
0.506714 0.631531 0.239288
0.512604 0.635223 0.241608
0.519287 0.641479 0.248535
0.525208 0.651642 0.259399
0.528656 0.656403 0.268372
0.536499 0.666901 0.272156
0.551910 0.669281 0.272278
0.588715 0.651306 0.246246
0.611450 0.637024 0.239563
0.627197 0.633392 0.235565
0.641083 0.631561 0.229553
0.658539 0.629852 0.221832
0.685181 0.626343 0.213531
0.722351 0.627411 0.209473
0.761017 0.627014 0.208099
0.803101 0.628418 0.206909
0.821930 0.631012 0.206726
0.839600 0.631805 0.206818
0.858246 0.631958 0.206512
0.875824 0.632019 0.206421
0.890503 0.632324 0.206787
0.904602 0.632721 0.207336
0.917786 0.634613 0.208862
0.929932 0.636627 0.211975
0.941284 0.635864 0.214905
0.951294 0.633759 0.216614
0.962311 0.632874 0.219177
0.972260 0.632263 0.223328
0.979797 0.631226 0.230286
0.987030 0.630676 0.237427
0.992004 0.632202 0.248352
0.995361 0.640747 0.266296
0.523407 0.639587 0.237335
0.526947 0.649567 0.240479
0.529846 0.655640 0.244415
0.533752 0.661957 0.255310
0.539642 0.674896 0.266632
0.547668 0.679596 0.271698
0.536926 0.689148 0.278290
0.522552 0.695953 0.296814
0.596771 0.678162 0.270264
0.621521 0.664459 0.253418
0.638397 0.655579 0.243225
0.652344 0.653992 0.240265
0.670197 0.652924 0.239044
0.697571 0.651459 0.235962
0.731995 0.652344 0.230316
0.777069 0.650940 0.224426
0.808472 0.652679 0.220367
0.825531 0.653931 0.221985
0.840057 0.654572 0.227112
0.856384 0.656342 0.232056
0.872040 0.660339 0.235962
