Kodak Vision2 500T (5260) - Only color.cube
# Created by Benjamin (IWLTBAP) : http://luts.iwltbap.com
# Copyright: (C) Copyright 2010-2017 Triune Films and IWLTBAP SAS
# Cannot be resold, shared or otherwise redistributed
TITLE "Film Print Emulation LUTs Pack (Rec.709, sRGB, DCI-P3)"
LUT_3D_SIZE 33
0.000000 0.000000 0.000000
0.044678 0.001495 0.002441
0.114838 0.011627 0.004883
0.161224 0.040039 0.010742
0.195343 0.059662 0.022400
0.233612 0.068878 0.027130
0.278351 0.072449 0.037903
0.315521 0.075409 0.047211
0.351410 0.079651 0.048889
0.385284 0.087341 0.042297
0.420990 0.091644 0.051270
0.454834 0.092926 0.063507
0.490204 0.087341 0.079254
0.520508 0.087799 0.087585
0.546661 0.090820 0.091217
0.571045 0.097839 0.096191
0.595886 0.104065 0.099823
0.619843 0.108521 0.104004
0.642487 0.111023 0.106995
0.665649 0.112793 0.111176
0.686554 0.114532 0.114563
0.708008 0.116913 0.119354
0.731995 0.119293 0.123901
0.755493 0.122925 0.128296
0.780334 0.128357 0.131500
0.807159 0.132996 0.134857
0.834564 0.137787 0.137878
0.861053 0.143280 0.141357
0.889130 0.148346 0.144989
0.920807 0.151642 0.147797
0.953827 0.155914 0.149872
0.987976 0.161438 0.152618
1.000000 0.168335 0.156769
0.000549 0.002197 0.000000
0.033630 0.030151 0.002502
0.094208 0.038574 0.006073
0.141876 0.049164 0.008484
0.180939 0.067261 0.017365
0.215729 0.077820 0.024353
0.261017 0.082886 0.032623
0.301392 0.087311 0.045563
0.338470 0.092041 0.050476
0.371857 0.100952 0.047272
0.411469 0.106659 0.049683
0.447021 0.109924 0.062897
0.482697 0.106659 0.076874
0.516937 0.106293 0.087555
0.544373 0.111023 0.090820
0.569733 0.117981 0.095062
0.595306 0.125244 0.099091
0.620300 0.129333 0.102936
0.644501 0.132111 0.106964
0.667694 0.134552 0.111145
0.689667 0.136322 0.115448
0.711700 0.138672 0.119598
0.735779 0.142456 0.123871
0.759399 0.146118 0.128265
0.784546 0.151398 0.131714
0.811310 0.155701 0.134827
0.838287 0.160950 0.137115
0.865692 0.165283 0.140076
0.893707 0.170044 0.142273
0.924835 0.173737 0.144409
0.957672 0.176178 0.146301
0.990204 0.181030 0.148163
1.000000 0.187805 0.151917
0.003265 0.030121 0.002350
0.012054 0.040100 0.003571
0.069305 0.062195 0.006104
0.121246 0.069977 0.009613
0.165131 0.080170 0.017365
0.200043 0.090790 0.025269
0.243073 0.096588 0.031738
0.289795 0.101715 0.044739
0.325958 0.107727 0.048859
0.362427 0.115570 0.049713
0.400696 0.123901 0.048096
0.439209 0.125519 0.062286
0.476379 0.124573 0.076385
0.512360 0.125549 0.086700
0.540802 0.131836 0.089996
0.567413 0.137848 0.093903
0.594269 0.145050 0.098358
0.620148 0.149780 0.102570
0.645447 0.153320 0.106262
0.669312 0.156250 0.110809
0.691315 0.159149 0.114502
0.714355 0.161987 0.119568
0.739227 0.166321 0.123840
0.762299 0.170074 0.127686
0.787903 0.174744 0.130890
0.814392 0.179352 0.132965
0.841492 0.183685 0.136047
0.868530 0.187744 0.138794
0.896759 0.192413 0.140991
0.928284 0.196350 0.142426
0.959747 0.199524 0.143341
0.990997 0.203094 0.145721
1.000000 0.207367 0.149109
0.005402 0.044617 0.009216
0.003754 0.048370 0.008087
0.040985 0.076050 0.006042
0.103760 0.091278 0.008514
0.149261 0.099823 0.013092
0.186951 0.108093 0.034363
0.229919 0.113464 0.042206
0.279846 0.118958 0.048859
0.318146 0.125519 0.052032
0.355591 0.133606 0.052032
0.393524 0.143585 0.048096
0.434326 0.144440 0.062897
0.471527 0.146423 0.074890
0.509033 0.147583 0.087097
0.537750 0.153870 0.090759
0.565704 0.159698 0.094269
0.593811 0.166351 0.099060
0.620331 0.170807 0.102539
0.646057 0.174744 0.107239
0.670624 0.177887 0.111420
0.693146 0.180542 0.115417
0.716675 0.183899 0.119843
0.741394 0.188629 0.123810
0.764679 0.191895 0.127380
0.790527 0.195831 0.130585
0.817352 0.200165 0.133209
0.844513 0.204407 0.135498
0.870667 0.209198 0.137238
0.899292 0.213684 0.139954
0.931458 0.218262 0.141907
0.963104 0.221893 0.143799
0.992279 0.224487 0.145203
1.000000 0.228638 0.148132
0.004242 0.062714 0.016998
0.005341 0.063934 0.014832
0.010651 0.083893 0.008240
0.076416 0.108185 0.010773
0.131470 0.121979 0.018463
0.176208 0.129913 0.031677
0.217285 0.136597 0.047211
0.268982 0.140991 0.052765
0.310150 0.146942 0.054962
0.349701 0.154846 0.052795
0.386932 0.163727 0.052032
0.430176 0.164490 0.065857
0.469513 0.166046 0.079651
0.506683 0.169556 0.087494
0.535950 0.176880 0.091553
0.564392 0.182434 0.095001
0.593658 0.188110 0.099030
0.620819 0.193024 0.103546
0.646759 0.197144 0.107544
0.671997 0.200562 0.112000
0.694855 0.203674 0.116577
0.718842 0.207214 0.120392
0.743622 0.211945 0.124603
0.766937 0.215729 0.127625
0.793152 0.220062 0.129761
0.820160 0.224091 0.132904
0.847473 0.228180 0.134674
0.874084 0.232178 0.137451
0.901917 0.236938 0.139679
0.934174 0.241028 0.141876
0.966064 0.244659 0.144012
0.993744 0.246857 0.146149
1.000000 0.250153 0.148834
0.005280 0.078369 0.021179
0.005859 0.077911 0.018097
0.005859 0.089996 0.014923
0.037079 0.118713 0.010681
0.110657 0.141296 0.022430
0.161255 0.152924 0.037018
0.205322 0.161346 0.048859
0.256744 0.166443 0.055695
0.302734 0.171417 0.058441
0.343018 0.178680 0.055695
0.381683 0.186279 0.054962
0.425812 0.188904 0.065826
0.466034 0.190338 0.080078
0.504303 0.194092 0.087463
0.534515 0.200012 0.091919
0.563477 0.205383 0.095337
0.593231 0.210815 0.099335
0.621155 0.215881 0.104553
0.647705 0.220215 0.108826
0.673218 0.224243 0.112579
0.696564 0.227753 0.117432
0.721313 0.231781 0.121796
0.745941 0.236572 0.124847
0.769440 0.240509 0.127594
0.796356 0.244354 0.130798
0.823608 0.248077 0.133392
0.850494 0.251770 0.135437
0.876740 0.256195 0.137177
0.904907 0.260681 0.139404
0.937531 0.264801 0.143066
0.969818 0.268372 0.145447
0.994843 0.271027 0.148041
1.000000 0.274841 0.149994
0.006378 0.096649 0.026001
0.006378 0.093781 0.020233
0.006958 0.099030 0.021240
0.011261 0.126526 0.012848
0.071594 0.154602 0.022430
0.139069 0.174530 0.037903
0.191284 0.186371 0.052002
0.244537 0.193817 0.059082
0.293793 0.198395 0.060394
0.335724 0.203796 0.058411
0.376892 0.209503 0.058380
0.422028 0.212738 0.067505
0.462646 0.215759 0.079590
0.501495 0.220123 0.087860
0.532959 0.225739 0.092651
0.562592 0.230988 0.095673
0.593109 0.236206 0.099670
0.621399 0.241394 0.104492
0.648132 0.246246 0.109100
0.674103 0.250305 0.113495
0.697998 0.253937 0.118286
0.723358 0.257812 0.122040
0.748169 0.262299 0.125366
0.772400 0.266083 0.128082
0.799377 0.269958 0.130737
0.827057 0.273376 0.133087
0.853363 0.277039 0.134888
0.879974 0.280853 0.137909
0.908997 0.284912 0.140869
0.941559 0.289215 0.144012
0.973572 0.292877 0.147095
0.996094 0.296661 0.150146
1.000000 0.300140 0.152313
0.005188 0.115234 0.036011
0.005219 0.112457 0.026978
0.005219 0.115234 0.027893
0.005188 0.136017 0.019287
0.026886 0.164429 0.017303
0.103394 0.189850 0.035278
0.171478 0.208862 0.051208
0.226471 0.220245 0.063507
0.283905 0.227631 0.063477
0.328430 0.232086 0.061005
0.373474 0.235107 0.064636
0.418945 0.239502 0.070221
0.459930 0.242737 0.080475
0.498596 0.248077 0.087402
0.531036 0.252930 0.092987
0.561859 0.257690 0.096771
0.592712 0.262787 0.100006
0.621857 0.267792 0.105133
0.649384 0.272766 0.110352
0.675110 0.277649 0.114685
0.699158 0.281586 0.118835
0.725128 0.285492 0.123413
0.750244 0.289795 0.126709
0.775055 0.293732 0.128876
0.802551 0.297485 0.131500
0.830383 0.300598 0.134094
0.856750 0.303528 0.136108
0.883240 0.306946 0.138611
0.912933 0.310120 0.142303
0.944946 0.313904 0.145416
0.977112 0.317474 0.148712
0.997467 0.320618 0.151764
1.000000 0.324066 0.154602
0.005676 0.135406 0.042114
0.006287 0.129944 0.033386
0.005707 0.132080 0.030670
0.006836 0.143280 0.028870
0.007996 0.172089 0.019348
0.046844 0.200500 0.029877
0.132843 0.227936 0.051971
0.205994 0.243622 0.063507
0.268524 0.253784 0.065857
0.321503 0.260437 0.064056
0.367981 0.263794 0.066925
0.414856 0.266785 0.073303
0.455688 0.271149 0.079987
0.494751 0.276215 0.086121
0.528778 0.280792 0.091400
0.559937 0.285461 0.095978
0.592255 0.290222 0.099945
0.622040 0.295319 0.105103
0.649994 0.300293 0.109985
0.676300 0.305176 0.114960
0.700195 0.309631 0.119690
0.726532 0.313171 0.123932
0.752289 0.316772 0.128052
0.777649 0.320435 0.130981
0.805328 0.323761 0.133057
0.833191 0.326202 0.134583
0.859344 0.328491 0.137115
0.886047 0.331238 0.139832
0.916046 0.334442 0.142517
0.947968 0.337830 0.145874
0.980347 0.341095 0.149384
0.998383 0.343781 0.152649
1.000000 0.347504 0.155975
0.005646 0.154266 0.050446
0.006226 0.148865 0.042145
0.005676 0.150238 0.038696
0.004547 0.153992 0.037811
0.004517 0.179749 0.024231
0.019562 0.208801 0.028931
0.069397 0.242035 0.048859
0.177246 0.266052 0.057709
0.245483 0.278778 0.063477
0.308624 0.286591 0.064056
0.362091 0.292511 0.068573
0.409271 0.296326 0.074768
0.450989 0.300476 0.081329
0.490540 0.305359 0.084808
0.525665 0.309448 0.090179
0.557892 0.313446 0.095581
0.591309 0.317444 0.100616
0.621765 0.322205 0.105408
0.650055 0.326843 0.110901
0.676666 0.331299 0.116730
0.700958 0.335663 0.121094
0.727509 0.339752 0.126434
0.753662 0.342896 0.129913
0.779633 0.346344 0.132263
0.807953 0.349213 0.134064
0.835632 0.351593 0.135834
0.861816 0.353851 0.137848
0.888763 0.356659 0.140045
0.918762 0.359436 0.143219
0.950623 0.362701 0.146088
0.983368 0.365875 0.149139
0.998962 0.369446 0.153107
1.000000 0.373535 0.156189
0.005005 0.172333 0.061157
0.005035 0.167389 0.052795
0.004486 0.167145 0.044678
0.005066 0.170868 0.043823
0.005005 0.186523 0.039581
0.007263 0.218445 0.033417
0.031189 0.252747 0.049652
0.119843 0.283966 0.054932
0.216125 0.303772 0.059692
0.291962 0.313934 0.064606
0.350128 0.320862 0.069641
0.401825 0.325958 0.078094
0.445892 0.329712 0.083069
0.487183 0.333435 0.084778
0.523346 0.336975 0.089752
0.555725 0.340485 0.095551
0.589813 0.343964 0.101654
0.621826 0.347992 0.108673
0.650757 0.352753 0.114288
0.677185 0.358459 0.117889
0.701813 0.363525 0.121643
0.728516 0.367950 0.125549
0.754211 0.371918 0.129608
0.780945 0.374969 0.131714
0.809692 0.377594 0.134277
0.837585 0.380005 0.136322
0.863953 0.382477 0.138306
0.890900 0.385345 0.140259
0.920502 0.388184 0.142212
0.952332 0.391174 0.145081
0.984344 0.394562 0.148621
0.999481 0.398956 0.150055
1.000000 0.403351 0.152954
0.006073 0.189575 0.070007
0.005554 0.183960 0.060516
0.005005 0.181610 0.052795
0.005554 0.184662 0.051239
0.004974 0.194824 0.049652
0.005463 0.226685 0.040436
0.022369 0.261475 0.051239
0.049683 0.297394 0.057098
0.180786 0.323639 0.057007
0.267487 0.338165 0.062164
0.332031 0.346832 0.072754
0.387299 0.353577 0.078552
0.439606 0.358734 0.085205
0.483215 0.362610 0.088928
0.521301 0.365784 0.093262
0.553986 0.369568 0.099182
0.588531 0.373199 0.106384
0.621124 0.377319 0.113068
0.650635 0.382202 0.117004
0.677612 0.387909 0.119324
0.702576 0.393311 0.121033
0.729309 0.398254 0.121857
0.754974 0.401947 0.125458
0.781738 0.405151 0.129547
0.810883 0.407440 0.133209
0.839203 0.409546 0.136017
0.865173 0.412109 0.137756
0.892273 0.414062 0.140228
0.921875 0.416565 0.141418
0.951935 0.419800 0.143341
0.982819 0.423279 0.145966
0.999695 0.427338 0.146942
1.000000 0.432495 0.147766
0.005463 0.208801 0.080902
0.005493 0.202026 0.070557
0.005524 0.197998 0.059845
0.004944 0.200897 0.057129
0.005493 0.207245 0.057129
0.006012 0.234161 0.052765
0.008362 0.269440 0.051208
0.036804 0.308136 0.061066
0.121704 0.338593 0.056335
0.227905 0.361359 0.058990
0.308105 0.374115 0.070129
0.366608 0.382385 0.080841
0.424988 0.388428 0.085632
0.477203 0.392670 0.092865
0.518127 0.396088 0.098083
0.552124 0.399048 0.103363
0.586945 0.402863 0.109955
0.619598 0.407196 0.116425
0.649078 0.412323 0.118469
0.677002 0.417450 0.119293
0.702393 0.422516 0.119263
0.729828 0.426849 0.118896
0.755249 0.430634 0.122620
0.782135 0.434021 0.126221
0.811279 0.436493 0.131592
0.839264 0.438507 0.133911
0.865448 0.440613 0.136963
0.892700 0.442505 0.139191
0.922577 0.444580 0.141907
0.950775 0.448334 0.142334
0.979218 0.452393 0.143036
0.999146 0.456360 0.143036
1.000000 0.461517 0.143890
0.006561 0.228699 0.093506
0.006012 0.220947 0.081360
0.006012 0.217438 0.069458
0.006012 0.218658 0.064240
0.006012 0.224335 0.066010
0.005981 0.244263 0.063599
0.007111 0.278839 0.057770
0.028168 0.316071 0.062317
0.056427 0.351562 0.061707
0.186798 0.380219 0.055573
0.280518 0.398682 0.067413
0.348022 0.408875 0.078522
0.404327 0.415955 0.086029
0.461029 0.422089 0.091675
0.513275 0.425323 0.102661
0.548889 0.429047 0.109314
0.585144 0.432281 0.114899
0.618317 0.436798 0.119934
0.647858 0.441925 0.121063
0.675995 0.447174 0.121002
0.701874 0.451935 0.120667
0.729889 0.456177 0.120331
0.755981 0.459686 0.122314
0.782959 0.462921 0.126465
0.812103 0.465454 0.130493
0.839874 0.468079 0.133362
0.866150 0.470032 0.136169
0.891815 0.472565 0.137909
0.921478 0.474640 0.140869
0.949493 0.478333 0.141083
0.977661 0.482361 0.141510
0.999634 0.485657 0.140045
1.000000 0.490265 0.140656
0.007111 0.248779 0.105774
0.007141 0.240967 0.092346
0.005981 0.237518 0.080414
0.005981 0.238220 0.074158
0.007141 0.243042 0.072083
0.006531 0.255707 0.073090
0.007690 0.287170 0.070435
0.012299 0.323792 0.063568
0.040588 0.363220 0.068756
0.123169 0.395874 0.059021
0.246399 0.419739 0.064545
0.320526 0.434875 0.076630
0.382324 0.443298 0.085602
0.441528 0.450012 0.090088
0.497345 0.455444 0.100189
0.545319 0.458221 0.113068
0.581024 0.463196 0.119965
0.616180 0.467041 0.120789
0.646729 0.471924 0.122467
0.675201 0.477142 0.124115
0.701721 0.482086 0.124908
0.730499 0.486176 0.127075
0.756989 0.489532 0.127289
0.784515 0.492493 0.128326
0.813965 0.495178 0.130981
0.841278 0.497955 0.132538
0.867126 0.500092 0.135345
0.892487 0.502808 0.137360
0.920044 0.505280 0.138824
0.947845 0.508423 0.139038
0.976074 0.511658 0.139984
0.999207 0.514435 0.138763
1.000000 0.517456 0.138611
0.008942 0.267639 0.117218
0.007721 0.260895 0.106110
0.007721 0.257050 0.093109
0.007111 0.257507 0.085724
0.007721 0.262268 0.081299
0.007690 0.270233 0.083954
0.008911 0.296814 0.078949
0.010193 0.333557 0.068787
0.033295 0.373627 0.070374
0.067810 0.409729 0.068146
0.201721 0.438232 0.065125
0.295410 0.458527 0.067902
0.360168 0.471375 0.076569
0.421509 0.478882 0.088043
0.478149 0.485077 0.092773
0.529022 0.490204 0.107300
0.578125 0.493439 0.123077
0.611908 0.499115 0.122742
0.644501 0.502899 0.123260
0.674530 0.507019 0.129028
0.701721 0.511200 0.131927
0.731140 0.514923 0.134216
0.757538 0.518158 0.135712
0.785522 0.520905 0.135193
0.814911 0.523651 0.134369
0.841431 0.526489 0.133026
0.866455 0.528748 0.134033
0.891388 0.531494 0.134491
0.918304 0.533722 0.136017
0.946136 0.536072 0.136475
0.974030 0.538544 0.136932
0.998932 0.540314 0.138977
1.000000 0.542236 0.139832
0.010254 0.288635 0.131592
0.008942 0.284027 0.120758
0.008301 0.279816 0.106781
0.008301 0.279053 0.097992
0.008301 0.283203 0.091888
0.008270 0.290619 0.094604
0.009552 0.308685 0.092621
0.010864 0.344055 0.086914
0.020050 0.382599 0.074493
0.047821 0.424225 0.074463
0.139496 0.456818 0.073792
0.261963 0.481598 0.066803
0.339478 0.498413 0.069458
0.397736 0.509247 0.073547
0.457672 0.515259 0.085876
0.511169 0.520630 0.095734
0.559326 0.525757 0.113617
0.608765 0.528412 0.126373
0.640045 0.533875 0.124634
0.672852 0.536530 0.130341
0.701294 0.539520 0.138336
0.731018 0.542786 0.142761
0.758148 0.545685 0.144897
0.786255 0.548370 0.144409
0.815796 0.550690 0.141663
0.841827 0.553131 0.139404
0.866211 0.555511 0.136322
0.891205 0.557770 0.135254
0.918610 0.559326 0.136475
0.946625 0.561035 0.137207
0.975708 0.562439 0.139191
0.999420 0.563843 0.142181
1.000000 0.564667 0.146423
0.011597 0.313171 0.147583
0.010925 0.308502 0.137299
0.010254 0.303802 0.123322
0.009552 0.303497 0.110352
0.009552 0.305847 0.105377
0.009552 0.314026 0.105011
0.010193 0.325317 0.106018
0.012238 0.357849 0.100098
0.013611 0.396393 0.082520
0.040527 0.439026 0.081085
0.067291 0.475952 0.088776
0.211884 0.503510 0.077606
0.314575 0.523407 0.067291
0.376953 0.536621 0.070465
0.433380 0.545441 0.075928
0.487427 0.550446 0.091095
0.539246 0.554810 0.105530
0.590790 0.558746 0.121826
0.639954 0.559479 0.135101
0.669220 0.564209 0.135803
0.700714 0.566437 0.144012
0.730957 0.569061 0.151550
0.758179 0.571869 0.154541
0.786499 0.574280 0.155396
0.815002 0.576782 0.153992
0.841522 0.578857 0.151428
0.866425 0.580963 0.148346
0.892365 0.582611 0.144470
0.921112 0.583496 0.142975
0.950226 0.584381 0.144379
0.979401 0.585175 0.146759
1.000000 0.585907 0.151764
1.000000 0.586151 0.154419
0.012970 0.336884 0.165161
0.012970 0.331085 0.152252
0.011597 0.327087 0.136505
0.010895 0.326324 0.126678
0.010895 0.329346 0.118958
0.010895 0.337494 0.117126
0.012268 0.347076 0.121552
0.013641 0.373596 0.119171
0.015015 0.408508 0.103546
0.029541 0.450470 0.090485
0.058411 0.493774 0.098785
0.140808 0.523224 0.091461
0.293335 0.544250 0.074585
0.360931 0.559174 0.073517
0.416748 0.569946 0.084564
0.467041 0.576782 0.092651
0.519775 0.581329 0.110413
0.572083 0.585358 0.123260
0.620819 0.588379 0.135590
0.670410 0.588257 0.146667
0.697052 0.592682 0.148315
0.729736 0.594666 0.156616
0.758423 0.596802 0.162811
0.786530 0.599213 0.165405
0.815552 0.601349 0.165802
0.842438 0.603210 0.164703
0.868286 0.604797 0.164001
0.895447 0.606293 0.163757
0.925201 0.606537 0.162170
0.955170 0.606689 0.161255
0.984802 0.606995 0.161896
1.000000 0.607544 0.164185
1.000000 0.607086 0.165588
0.015076 0.360748 0.182037
0.014374 0.354401 0.169006
0.013672 0.351532 0.151306
0.012970 0.351318 0.140503
0.012939 0.353882 0.130981
0.012939 0.361206 0.129089
0.013641 0.371704 0.133331
0.015045 0.390381 0.133575
0.016418 0.424011 0.120300
0.018555 0.463287 0.097046
0.052094 0.511017 0.101654
0.087097 0.541870 0.102966
0.263885 0.563141 0.091675
0.347504 0.579498 0.092743
0.401154 0.591858 0.105957
0.453949 0.600769 0.115448
0.503967 0.606445 0.118378
0.551575 0.610931 0.130676
0.602905 0.614502 0.134827
0.648712 0.616852 0.145264
0.698456 0.616180 0.156647
0.726135 0.620026 0.158417
0.755707 0.621857 0.165009
0.786499 0.623230 0.172577
0.816162 0.625092 0.175842
0.843658 0.626709 0.176422
0.870483 0.627930 0.178772
0.898315 0.629120 0.179535
0.927643 0.629333 0.180298
0.958374 0.629425 0.179077
0.989471 0.630005 0.176239
1.000000 0.630402 0.175934
1.000000 0.629181 0.171936
0.017181 0.382874 0.195923
0.016479 0.378296 0.187622
0.015076 0.375977 0.171936
0.015045 0.377228 0.155426
0.014343 0.378967 0.142944
0.014343 0.384735 0.139740
0.015045 0.393402 0.142670
0.016449 0.407349 0.141937
0.017853 0.439606 0.131683
0.019989 0.481842 0.106842
0.047180 0.529236 0.110016
0.075623 0.559784 0.114044
0.208557 0.581757 0.112610
0.328247 0.599274 0.115234
0.386871 0.612122 0.122559
0.442352 0.622406 0.130768
0.494476 0.630219 0.133606
0.539215 0.635742 0.133575
0.583984 0.640259 0.143127
0.632751 0.643311 0.148346
0.678528 0.644989 0.158234
0.723572 0.644989 0.170563
0.753052 0.647552 0.169281
0.782166 0.649384 0.174835
0.816345 0.649719 0.183746
0.844788 0.651031 0.187164
0.871613 0.652130 0.188995
0.899384 0.652954 0.190643
0.928772 0.653473 0.190979
0.957672 0.653687 0.190399
0.988770 0.654205 0.187378
1.000000 0.654907 0.184235
1.000000 0.653107 0.178650
0.018646 0.402130 0.208649
0.017914 0.401245 0.200897
0.017181 0.398895 0.189117
0.016479 0.399567 0.172729
0.016479 0.400635 0.159882
0.016449 0.407166 0.149139
0.017151 0.415375 0.152161
0.017883 0.428040 0.157166
0.019287 0.457489 0.145996
0.021423 0.500977 0.125336
0.042267 0.547729 0.128296
0.071899 0.577850 0.127655
0.148254 0.599945 0.133148
0.304901 0.617615 0.136871
0.374634 0.631775 0.138855
0.433899 0.643402 0.141541
0.490143 0.652985 0.143433
0.541473 0.658966 0.145599
0.583710 0.663208 0.150299
0.623291 0.667328 0.165344
0.667450 0.669769 0.170837
0.708679 0.671356 0.177734
0.748596 0.671600 0.185516
0.782074 0.672607 0.185486
0.812225 0.674072 0.188110
0.843536 0.674652 0.194916
0.871185 0.675140 0.197052
0.898315 0.676086 0.197723
0.926575 0.676880 0.196808
0.954346 0.677521 0.195526
0.981964 0.678528 0.192932
0.998718 0.679108 0.189484
1.000000 0.677002 0.182983
0.020081 0.422943 0.222717
0.020081 0.421753 0.214752
0.019348 0.421936 0.201599
0.019318 0.421814 0.189087
0.017883 0.423798 0.171265
0.017883 0.429138 0.159393
0.018585 0.437134 0.161163
0.019287 0.451080 0.166351
0.020721 0.476746 0.155304
0.022888 0.520050 0.145935
0.037842 0.563202 0.148468
0.069153 0.594482 0.143402
0.112213 0.616943 0.153473
0.280853 0.635376 0.153320
0.364227 0.650909 0.152344
0.433899 0.662354 0.155029
0.497894 0.672119 0.157928
0.548706 0.680420 0.163879
0.589874 0.685181 0.170288
0.623627 0.688721 0.180817
0.660522 0.692505 0.194550
0.702057 0.694427 0.195404
0.739777 0.695648 0.198395
0.775940 0.696167 0.197845
0.812256 0.696686 0.194214
0.839233 0.698700 0.193817
0.866974 0.699188 0.195801
0.895721 0.699341 0.198975
0.924469 0.699829 0.197876
0.951996 0.700958 0.196930
0.978973 0.702454 0.194580
0.998108 0.703461 0.191498
1.000000 0.701233 0.184692
0.022247 0.442261 0.234253
0.021515 0.442078 0.228699
0.021515 0.442932 0.215881
0.020782 0.444397 0.201385
0.020050 0.445221 0.181763
0.020050 0.448975 0.174347
0.020050 0.458710 0.169556
0.020752 0.474213 0.173492
0.022186 0.495331 0.170990
0.024353 0.536102 0.166260
0.034515 0.576172 0.163849
0.066925 0.608887 0.160309
0.090576 0.632416 0.169769
0.235229 0.651978 0.169647
0.360626 0.667328 0.169800
0.440857 0.679443 0.164398
0.503021 0.690247 0.165680
0.553284 0.699921 0.174469
0.594849 0.705597 0.190033
0.628174 0.708557 0.200134
0.660126 0.712006 0.212341
0.695435 0.715485 0.215576
0.731934 0.717499 0.210114
0.766937 0.718536 0.207062
0.804657 0.718994 0.204620
0.841858 0.719086 0.198486
0.864624 0.721619 0.194702
0.891876 0.722229 0.194855
0.921906 0.722565 0.196442
0.951202 0.723083 0.196594
0.977783 0.724640 0.195099
0.997681 0.726044 0.192780
1.000000 0.725128 0.186798
0.022949 0.460114 0.244995
0.022949 0.461426 0.240326
0.022217 0.463715 0.229156
0.022217 0.464447 0.211273
0.021484 0.465149 0.196045
0.021484 0.470673 0.182343
0.022186 0.480835 0.176147
0.022186 0.496094 0.181305
0.023621 0.516602 0.182098
0.025055 0.550262 0.183441
0.030182 0.585876 0.172791
0.064636 0.622345 0.177429
0.089691 0.647125 0.181946
0.208405 0.666565 0.185730
0.364502 0.682220 0.181793
0.446045 0.695496 0.172882
0.507904 0.706696 0.177338
0.556976 0.716675 0.196106
0.600067 0.724670 0.215027
0.633545 0.728577 0.224335
0.663879 0.731049 0.229034
0.695892 0.735199 0.232727
0.727661 0.738495 0.228973
0.761200 0.740417 0.220917
0.796234 0.741882 0.214325
0.830719 0.742645 0.208496
0.868347 0.741882 0.203186
0.891327 0.744293 0.196472
0.920135 0.745270 0.194092
0.948944 0.746094 0.193878
0.977936 0.746948 0.194366
0.997925 0.748047 0.192413
1.000000 0.747650 0.188354
0.023682 0.476471 0.255371
0.023682 0.478546 0.249695
0.023682 0.481079 0.237732
0.022949 0.482635 0.224701
0.022949 0.484589 0.203796
0.022186 0.489807 0.188263
0.022919 0.499023 0.182495
0.023651 0.513611 0.187317
0.024353 0.533417 0.192139
0.025787 0.560852 0.190094
0.026520 0.593811 0.178680
0.062286 0.632599 0.189270
0.088776 0.658478 0.192932
0.212250 0.678314 0.197723
0.364777 0.694702 0.192413
0.447968 0.708282 0.189392
0.511047 0.720154 0.193420
0.558990 0.731171 0.214081
0.602722 0.740448 0.233276
0.638062 0.745758 0.242188
0.668457 0.748657 0.242889
0.697937 0.752350 0.241852
0.726013 0.756439 0.244781
0.756836 0.759430 0.234863
0.790894 0.761139 0.226776
0.824860 0.762360 0.219574
0.857758 0.763123 0.213440
0.891449 0.763519 0.206055
0.921234 0.765289 0.196075
0.949799 0.766693 0.190918
0.978638 0.767822 0.187531
0.998657 0.768616 0.186066
1.000000 0.768524 0.183960
0.025146 0.491455 0.263824
0.025146 0.495056 0.259552
0.024384 0.497742 0.246765
0.024384 0.498260 0.232117
0.023651 0.501190 0.211395
0.023651 0.506439 0.194366
0.023651 0.514954 0.188812
0.024353 0.528137 0.196503
0.025085 0.545868 0.200592
0.025818 0.567505 0.203186
0.027252 0.600708 0.185516
0.058655 0.640076 0.199463
0.086884 0.666351 0.202057
0.193695 0.686646 0.209656
0.354095 0.703339 0.205170
0.443115 0.718018 0.203766
0.509430 0.731567 0.206451
0.557922 0.743164 0.227142
0.601746 0.752991 0.245331
0.639587 0.760895 0.254974
0.671356 0.765717 0.254944
