Kodak Vision3 50D (5203) - Only color.cube
# Created by Benjamin (IWLTBAP) : http://luts.iwltbap.com
# Copyright: (C) Copyright 2010-2017 Triune Films and IWLTBAP SAS
# Cannot be resold, shared or otherwise redistributed
TITLE "Film Print Emulation LUTs Pack (Rec.709, sRGB, DCI-P3)"
LUT_3D_SIZE 9
0.001587 0.000000 0.000000
0.185028 0.000000 0.000000
0.289185 0.000000 0.000000
0.401031 0.000488 0.000427
0.526276 0.000000 0.000000
0.633301 0.000000 0.000000
0.736298 0.000793 0.000000
0.834717 0.004181 0.000000
0.992157 0.000946 0.000000
0.018707 0.100586 0.052826
0.158112 0.129913 0.036682
0.289581 0.159973 0.000305
0.400391 0.160187 0.000000
0.525909 0.159576 0.000000
0.633942 0.159332 0.000000
0.736572 0.160767 0.000000
0.834747 0.160187 0.000000
0.991119 0.160004 0.000000
0.067535 0.205841 0.080292
0.150085 0.221008 0.081818
0.263580 0.255096 0.065033
0.399506 0.290466 0.000000
0.525452 0.290497 0.000000
0.634674 0.291260 0.000000
0.736450 0.291077 0.000000
0.834656 0.290771 0.000000
0.990234 0.290466 0.000000
0.087006 0.306976 0.127106
0.190063 0.317017 0.141602
0.271210 0.333862 0.147888
0.369904 0.368408 0.075134
0.522644 0.402344 0.028168
0.634644 0.405457 0.000000
0.735992 0.405151 0.000000
0.834351 0.404633 0.000000
0.989441 0.405121 0.000275
0.102539 0.402130 0.178711
0.228271 0.415253 0.197357
0.309357 0.437988 0.201508
0.380157 0.449524 0.209198
0.489594 0.485016 0.113403
0.624451 0.517822 0.057892
0.735382 0.526855 0.000000
0.834778 0.527374 0.000000
0.988617 0.528137 0.000549
0.164703 0.511597 0.246246
0.254578 0.520355 0.246002
0.332916 0.539642 0.249786
0.420532 0.557068 0.253326
0.498840 0.561432 0.243134
0.595245 0.591339 0.143250
0.722198 0.624969 0.068726
0.835358 0.641144 0.008636
0.987854 0.641083 0.000793
0.163422 0.606506 0.296936
0.271027 0.610809 0.292114
0.361908 0.625580 0.292633
0.461365 0.644318 0.292786
0.538300 0.656311 0.299103
0.605499 0.657990 0.251282
0.700378 0.690460 0.164337
0.818939 0.721527 0.078766
0.986877 0.738586 0.047516
0.192017 0.697021 0.336365
0.301086 0.699829 0.332611
0.389984 0.709747 0.329376
0.499054 0.726715 0.329742
0.578979 0.738983 0.331390
0.648071 0.746307 0.334991
0.709290 0.753937 0.258881
0.801331 0.784729 0.178253
0.979370 0.818390 0.112244
0.222992 0.784790 0.374329
0.333832 0.785156 0.369232
0.426849 0.791260 0.363861
0.530823 0.807159 0.362122
0.622650 0.820038 0.360291
0.685913 0.828705 0.365479
0.744812 0.835327 0.345795
0.812958 0.851318 0.266693
0.939301 0.886810 0.201843
0.000977 0.015991 0.079254
0.146820 0.027374 0.105316
0.289398 0.000000 0.140808
0.400940 0.000732 0.141907
0.526337 0.000000 0.141083
0.633972 0.000000 0.140350
0.736694 0.000000 0.141449
0.835114 0.001068 0.141327
0.991241 0.000000 0.140839
0.006958 0.110168 0.098358
0.144928 0.123016 0.106506
0.289886 0.160156 0.141266
0.400208 0.160370 0.141418
0.526001 0.159760 0.141052
0.634399 0.159515 0.140320
0.737030 0.160461 0.141388
0.835266 0.160126 0.141296
0.990173 0.159698 0.140808
0.010559 0.214874 0.147125
0.176483 0.231598 0.151428
0.273712 0.264282 0.137909
0.399384 0.290710 0.140900
0.525513 0.290741 0.140289
0.635040 0.291504 0.141418
0.736755 0.291321 0.141327
0.835052 0.290894 0.140076
0.989319 0.290588 0.140045
0.000000 0.311035 0.187714
0.198730 0.331909 0.199402
0.288483 0.349823 0.199280
0.379730 0.377625 0.168488
0.523956 0.404053 0.145416
0.634979 0.405731 0.140869
0.736145 0.405457 0.140076
0.834717 0.404938 0.139038
0.988556 0.405426 0.139496
0.000000 0.403534 0.238586
0.218475 0.431671 0.248291
0.315460 0.449341 0.245850
0.394165 0.467133 0.249146
0.503204 0.498962 0.199127
0.627991 0.521912 0.159729
0.735657 0.527100 0.139465
0.835175 0.527649 0.139374
0.987701 0.528412 0.140533
0.000000 0.509033 0.289490
0.222717 0.535736 0.297058
0.328644 0.548401 0.293579
0.434753 0.573242 0.293915
0.517273 0.584534 0.284515
0.609497 0.607483 0.224762
0.727539 0.632690 0.180542
0.835663 0.641418 0.142029
0.986938 0.641357 0.140442
0.000000 0.600830 0.334320
0.234589 0.628174 0.336914
0.348419 0.638916 0.333160
0.461182 0.660461 0.331848
0.556030 0.680145 0.334167
0.628326 0.688171 0.299561
0.714142 0.709137 0.243256
0.824280 0.731445 0.196564
0.986145 0.741150 0.156158
0.000000 0.693359 0.365448
0.256012 0.718262 0.375488
0.375214 0.725555 0.371796
0.493225 0.740936 0.368073
0.592834 0.760681 0.364563
0.664978 0.773010 0.367798
0.729431 0.783875 0.313873
0.813202 0.803802 0.259644
0.985046 0.829407 0.218445
0.000000 0.779144 0.403992
0.284760 0.806244 0.415375
0.408569 0.812286 0.410980
0.526306 0.821960 0.404510
0.627472 0.840027 0.397736
0.696228 0.852264 0.397644
0.764893 0.865417 0.387299
0.833069 0.886475 0.325195
0.967712 0.920929 0.283081
0.000275 0.046906 0.174683
0.046722 0.060394 0.234009
0.230652 0.081848 0.223145
0.374847 0.047058 0.250427
0.526062 0.000000 0.279572
0.633972 0.000000 0.279266
0.736755 0.000000 0.280273
0.835449 0.000000 0.279999
0.990326 0.000000 0.279785
0.000000 0.124695 0.202911
0.062683 0.133911 0.255341
0.252869 0.132019 0.211884
0.379547 0.154053 0.251343
0.525787 0.159698 0.279755
0.634491 0.159485 0.279724
0.737000 0.160919 0.280609
0.835480 0.159332 0.280029
0.989258 0.158661 0.279938
0.000000 0.209351 0.214081
0.126862 0.226898 0.219269
0.273254 0.249939 0.227051
0.397369 0.277924 0.260468
0.525421 0.290894 0.279694
0.635132 0.291504 0.280243
0.736694 0.291351 0.280243
0.835327 0.290741 0.279816
0.988373 0.290192 0.279602
0.000000 0.315887 0.256470
0.144409 0.331329 0.257690
0.279938 0.358398 0.278076
0.384216 0.384949 0.271912
0.524597 0.405121 0.279724
0.635101 0.405792 0.280273
0.736237 0.405396 0.279877
0.834839 0.404999 0.279449
0.987579 0.405396 0.279785
0.000000 0.408356 0.303864
0.146362 0.429413 0.302124
0.290344 0.461456 0.321960
0.400330 0.482208 0.316681
0.507080 0.508209 0.296234
0.629822 0.525452 0.284332
0.735565 0.527191 0.279175
0.835266 0.527649 0.279602
0.986755 0.528412 0.280365
0.000000 0.505676 0.346191
0.134613 0.532288 0.342926
0.294312 0.560974 0.358490
0.417999 0.578735 0.355286
0.521179 0.594269 0.346680
0.614777 0.619110 0.315887
0.730438 0.638489 0.295990
0.835693 0.641479 0.280762
0.985962 0.641418 0.280121
0.000000 0.596069 0.385895
0.101959 0.624908 0.377014
0.306824 0.654724 0.395691
0.435059 0.670746 0.393768
0.560394 0.693481 0.392578
0.635620 0.704956 0.368927
0.718964 0.721893 0.330505
0.828094 0.738373 0.305206
0.985229 0.742981 0.286743
0.000000 0.686798 0.422058
0.000000 0.716278 0.414551
0.323700 0.743713 0.437714
0.459259 0.754395 0.435364
0.584656 0.773438 0.431122
0.671844 0.787170 0.429291
0.739502 0.799713 0.379883
0.821564 0.819305 0.339447
0.984375 0.836731 0.319672
0.000000 0.774384 0.460175
0.177948 0.801422 0.459259
0.362213 0.831116 0.478271
0.503815 0.839264 0.476532
0.613434 0.851868 0.471924
0.702423 0.870331 0.468353
0.775055 0.893494 0.464600
0.847290 0.924225 0.395294
0.983063 0.944977 0.357330
0.000000 0.063263 0.259460
0.000000 0.073456 0.295044
0.200562 0.089111 0.295135
0.291870 0.106079 0.298340
0.427887 0.087585 0.332611
0.591156 0.056732 0.367676
0.736603 0.006653 0.395111
0.835266 0.000000 0.394806
0.989532 0.000000 0.394470
0.000000 0.144745 0.273499
0.000000 0.148621 0.342773
0.211823 0.152252 0.316284
0.312958 0.149261 0.311371
0.445435 0.158905 0.328308
0.597595 0.164886 0.370789
0.736725 0.161102 0.395233
0.835419 0.159546 0.394806
0.988495 0.157074 0.394592
0.000000 0.226074 0.303040
0.000000 0.239532 0.335541
0.220917 0.256409 0.359222
0.347809 0.262451 0.324036
0.470490 0.284973 0.351379
0.612946 0.295074 0.383270
0.736572 0.291168 0.395172
0.835205 0.290710 0.394775
0.987579 0.289886 0.394379
0.000000 0.311401 0.316284
0.000000 0.323242 0.327271
0.238007 0.351318 0.340912
0.373810 0.384491 0.366943
0.512909 0.404999 0.389801
0.634155 0.410248 0.396515
0.736237 0.405396 0.394806
0.834808 0.404907 0.394287
0.986816 0.405396 0.394775
0.000000 0.407379 0.355438
0.000000 0.421936 0.363098
0.229858 0.461151 0.381195
0.380524 0.492645 0.403442
0.503510 0.514893 0.395752
0.627502 0.529022 0.397186
0.735565 0.527222 0.394196
0.835297 0.527679 0.394775
0.985962 0.528381 0.395325
0.000000 0.508270 0.401398
0.000000 0.524780 0.409180
0.202240 0.560913 0.415497
0.380554 0.589813 0.439972
0.517639 0.608093 0.440887
0.615723 0.629578 0.417725
0.731262 0.644440 0.408508
0.835693 0.641571 0.394958
0.985199 0.641418 0.394684
0.000000 0.598297 0.447083
0.000000 0.618683 0.454315
0.197479 0.654480 0.454193
0.396637 0.684723 0.480286
0.535645 0.699890 0.480438
0.636810 0.716034 0.468964
0.721375 0.731567 0.435425
0.830841 0.744629 0.416077
0.984436 0.744202 0.400116
0.000000 0.687042 0.485382
0.000000 0.709045 0.490448
0.181641 0.739868 0.485931
0.415985 0.768738 0.511688
0.553528 0.780304 0.511353
0.671478 0.799103 0.510345
0.743774 0.815857 0.484375
0.826050 0.829407 0.447113
0.983551 0.843872 0.429871
0.000000 0.770264 0.518829
0.000000 0.794159 0.522858
0.277740 0.825623 0.523834
0.450836 0.857208 0.543182
0.587219 0.867218 0.543884
0.695343 0.888397 0.543091
0.781891 0.920990 0.542511
0.856628 0.948547 0.494354
0.982483 0.964478 0.461121
0.000000 0.089325 0.320892
0.000000 0.091339 0.351257
0.121979 0.102936 0.377899
0.278351 0.115021 0.364075
0.354950 0.127960 0.363159
0.467010 0.123901 0.392883
0.634888 0.092773 0.446838
0.782715 0.067535 0.487274
0.988739 0.000000 0.515015
0.000000 0.163849 0.337799
0.000000 0.165283 0.396606
0.027252 0.156982 0.433167
0.290161 0.166656 0.381927
0.376892 0.163177 0.377563
0.492676 0.158142 0.405792
0.648254 0.159363 0.454773
0.790131 0.172974 0.491821
0.987671 0.158875 0.514984
0.000000 0.240509 0.376190
0.000000 0.254608 0.405304
0.124451 0.267151 0.484253
0.305664 0.272797 0.421814
0.406647 0.277313 0.410645
0.531433 0.287506 0.435028
0.668915 0.304565 0.473175
0.803497 0.299103 0.500641
0.986786 0.290222 0.514709
0.000000 0.325806 0.400757
0.000000 0.342224 0.431824
0.167206 0.363983 0.481628
0.319672 0.381622 0.489044
0.458832 0.396545 0.460175
0.568329 0.419617 0.477020
0.696564 0.424316 0.502014
0.817047 0.414459 0.510529
0.985992 0.405487 0.515381
0.000000 0.413330 0.416046
0.000000 0.429169 0.431824
0.186096 0.452820 0.453278
0.300995 0.476562 0.471710
0.472778 0.525513 0.499298
0.622375 0.546844 0.524933
0.736786 0.549835 0.527679
0.839142 0.540771 0.521454
0.985138 0.528290 0.515747
0.000000 0.524658 0.460175
0.000000 0.539429 0.471832
0.000000 0.558685 0.482361
0.301849 0.591858 0.507568
0.491241 0.623413 0.527191
0.617218 0.644531 0.527130
0.732147 0.655060 0.529480
0.838348 0.651306 0.520477
0.984375 0.641418 0.515106
0.000000 0.619415 0.510437
0.000000 0.633728 0.518677
0.000000 0.654449 0.524933
0.305450 0.685638 0.539948
0.509613 0.714172 0.562225
0.637573 0.731384 0.561920
0.727875 0.742981 0.539795
0.835358 0.749603 0.529510
0.983612 0.745331 0.518616
0.000000 0.701385 0.546173
0.000000 0.715179 0.552399
0.000000 0.735931 0.558502
0.327759 0.766266 0.566193
0.524109 0.794861 0.589752
0.655212 0.810089 0.590820
0.750397 0.830505 0.574615
0.834351 0.841583 0.548828
0.982727 0.850494 0.539673
0.000000 0.778839 0.574036
0.000000 0.792694 0.580536
0.000000 0.816864 0.584320
0.377899 0.850616 0.595978
0.544891 0.894196 0.615814
0.676208 0.911102 0.616333
0.786987 0.939117 0.615082
0.864899 0.962860 0.577881
0.981750 0.977692 0.552765
0.000000 0.119690 0.380066
0.000000 0.115875 0.404663
0.000000 0.121429 0.460175
0.252289 0.126007 0.432495
0.347626 0.136688 0.432495
0.415894 0.148346 0.426849
0.503571 0.154602 0.446899
0.659241 0.135651 0.518982
0.818176 0.103394 0.566071
0.000000 0.186951 0.404541
0.000000 0.186951 0.466461
0.000000 0.163574 0.505066
0.257538 0.183746 0.459564
0.355621 0.180359 0.450378
0.431885 0.174072 0.445221
0.519928 0.183777 0.466614
0.677612 0.187561 0.531250
0.836853 0.177673 0.572418
0.000000 0.263550 0.448059
0.000000 0.276764 0.484375
0.000000 0.280884 0.571991
0.233887 0.286041 0.526764
0.378296 0.287415 0.493500
0.472717 0.288635 0.484222
0.557373 0.306427 0.500763
0.717987 0.309357 0.555176
0.867157 0.304321 0.582855
0.000000 0.347870 0.490051
0.000000 0.363922 0.523468
0.000000 0.377563 0.577087
0.242035 0.389038 0.600922
0.403076 0.399597 0.541779
0.528992 0.407013 0.531464
0.628998 0.423401 0.548706
0.755432 0.430603 0.579041
0.910675 0.417480 0.602112
0.000000 0.421356 0.502228
0.000000 0.437317 0.521820
0.067719 0.459747 0.558899
0.271667 0.479980 0.578918
0.429291 0.511719 0.605865
0.574188 0.542084 0.570190
0.676025 0.566071 0.597687
0.794464 0.566589 0.617767
0.953278 0.547119 0.619293
0.000000 0.541443 0.535553
0.000000 0.558258 0.551147
0.115143 0.577087 0.565643
0.290619 0.593018 0.579712
0.422333 0.620667 0.584473
0.594208 0.660797 0.619232
0.745331 0.679962 0.647400
0.856049 0.675293 0.646362
0.982117 0.664520 0.642609
0.000000 0.638489 0.564850
0.000000 0.653778 0.575928
0.000000 0.671082 0.586823
0.208252 0.688690 0.598877
0.431915 0.714417 0.624573
0.617920 0.743896 0.644012
0.734406 0.761230 0.636017
0.846466 0.766602 0.639771
0.982666 0.761414 0.639008
0.000000 0.722443 0.608490
0.000000 0.732422 0.612213
0.000000 0.748474 0.617676
0.183746 0.767059 0.623169
0.457855 0.795776 0.647217
0.631683 0.826965 0.668182
0.759674 0.847046 0.659180
0.844208 0.853271 0.643097
0.981964 0.856934 0.642548
0.000000 0.790436 0.628296
0.000000 0.804413 0.633057
0.000000 0.823364 0.639343
0.205933 0.846008 0.645294
0.507050 0.881775 0.670227
0.645172 0.926514 0.683533
0.780090 0.949707 0.684906
0.868500 0.976318 0.658173
0.981079 0.984222 0.642212
0.000000 0.143555 0.447449
0.000000 0.138428 0.477142
0.000000 0.139801 0.511169
0.215363 0.137909 0.501312
0.317596 0.146057 0.497437
0.399506 0.154724 0.494202
0.468475 0.164581 0.489594
0.532135 0.182037 0.502258
0.680786 0.174255 0.576111
0.000000 0.210510 0.479980
0.000000 0.209991 0.528290
0.000000 0.182587 0.552673
0.207611 0.200592 0.533569
0.321716 0.197327 0.521942
0.410309 0.189362 0.510986
0.490417 0.190765 0.504608
0.550964 0.207184 0.517792
0.707611 0.212891 0.590698
0.000000 0.285126 0.515106
0.000000 0.298431 0.556427
0.000000 0.299438 0.640045
0.000000 0.289185 0.644226
0.335022 0.301636 0.569458
0.440826 0.301758 0.556732
0.526611 0.297363 0.545105
0.603149 0.317322 0.560608
0.756653 0.309387 0.619446
0.000000 0.366638 0.569366
0.000000 0.383270 0.600922
0.000000 0.400238 0.645935
0.166229 0.403809 0.692535
0.305878 0.398376 0.664459
0.481873 0.413361 0.603394
0.577057 0.413361 0.592285
0.659271 0.433258 0.605927
0.806244 0.421936 0.648132
0.000000 0.460022 0.596527
0.000000 0.475128 0.614716
0.000000 0.496094 0.652924
0.252686 0.515533 0.681915
0.353943 0.526398 0.727600
0.496674 0.530182 0.686340
0.639130 0.545746 0.639374
0.733215 0.566742 0.655640
0.850555 0.557922 0.680939
0.000000 0.546692 0.613098
0.000000 0.564819 0.629333
0.005829 0.582123 0.648743
0.283081 0.594788 0.660858
0.397461 0.608307 0.678436
0.572144 0.635284 0.704407
0.698914 0.670868 0.697754
0.791595 0.692474 0.713043
0.910828 0.683167 0.723114
0.000000 0.655273 0.644409
0.000000 0.669922 0.656036
0.184296 0.683167 0.665253
0.283264 0.697540 0.674683
0.424591 0.713043 0.690308
0.571716 0.738617 0.701050
0.734528 0.774811 0.739532
0.869141 0.791046 0.767975
0.957184 0.788116 0.771790
0.000000 0.735870 0.655457
0.000000 0.746490 0.662964
0.000000 0.760834 0.671692
0.153351 0.780396 0.683807
0.374329 0.796387 0.703125
0.585632 0.824188 0.734894
0.744476 0.859741 0.764679
0.866272 0.879700 0.760681
0.980927 0.876160 0.768433
0.000000 0.807312 0.684998
0.000000 0.819855 0.690674
0.000000 0.837769 0.697540
0.134460 0.857117 0.706726
0.382721 0.879059 0.725128
0.606537 0.912506 0.747772
0.740173 0.951874 0.768311
0.871674 0.991577 0.755280
0.980316 0.996124 0.735718
0.000000 0.166260 0.511993
0.000000 0.163849 0.526123
0.000000 0.162140 0.550049
0.000000 0.154694 0.590027
0.280060 0.158295 0.565674
0.374573 0.166351 0.563080
0.455658 0.174194 0.557861
0.517914 0.181366 0.548859
0.571869 0.198303 0.561401
0.000000 0.233246 0.554138
0.000000 0.232422 0.598114
0.000000 0.202972 0.605499
0.000000 0.201416 0.626862
0.279846 0.218018 0.594482
0.376740 0.213501 0.581757
0.456543 0.205872 0.569550
0.527802 0.205109 0.560883
0.593262 0.222839 0.577515
0.000000 0.309265 0.592834
0.000000 0.323730 0.643494
0.000000 0.320190 0.718811
0.000000 0.294342 0.732452
0.236145 0.315552 0.662537
0.391937 0.316101 0.632416
0.497009 0.311676 0.615387
0.564545 0.300018 0.599426
0.643799 0.310303 0.617065
0.000000 0.389038 0.642670
0.000000 0.405060 0.672577
0.000000 0.419495 0.718628
0.000000 0.421204 0.794708
0.199646 0.402405 0.783295
0.371490 0.417206 0.703613
0.533813 0.420135 0.666748
0.627167 0.413849 0.651550
0.704193 0.426849 0.665741
0.000000 0.482697 0.678162
0.000000 0.505127 0.704407
0.000000 0.523712 0.747192
0.210968 0.537445 0.778381
0.313446 0.546417 0.828735
0.400421 0.529694 0.816498
0.560364 0.547760 0.729523
0.686096 0.544373 0.704834
0.763123 0.561218 0.717621
0.000000 0.574768 0.700531
0.000000 0.589355 0.716705
0.076263 0.608154 0.742615
0.259033 0.625610 0.767365
0.385559 0.642517 0.793182
0.520355 0.660309 0.853424
0.630188 0.662567 0.813263
0.752411 0.675964 0.760345
0.833160 0.687408 0.778381
0.000000 0.662872 0.718781
0.000000 0.680206 0.735413
0.179596 0.692871 0.750641
0.305908 0.706055 0.767761
0.423096 0.715729 0.784149
0.550446 0.726837 0.801086
0.721832 0.762878 0.825623
0.809174 0.782532 0.810486
0.920929 0.797668 0.823578
0.000000 0.744843 0.733063
0.131439 0.754669 0.742126
0.224762 0.767761 0.754242
0.305939 0.785980 0.769073
0.454468 0.802948 0.789246
0.580536 0.821960 0.806274
0.717987 0.856201 0.820770
0.879883 0.894348 0.852478
0.979919 0.895782 0.893616
0.000000 0.817688 0.730835
0.000000 0.832428 0.743683
0.089325 0.849487 0.758545
0.234863 0.867157 0.775421
0.392029 0.887726 0.793182
0.551056 0.906097 0.811127
0.714111 0.938232 0.838196
0.847656 0.983124 0.864716
0.979584 0.982208 0.853973
0.000000 0.201019 0.619202
0.000000 0.193878 0.606598
0.000000 0.189209 0.618958
0.000000 0.181793 0.662659
0.224976 0.180511 0.649872
0.337280 0.184509 0.644379
0.422180 0.190552 0.639679
0.500702 0.194824 0.626984
0.553955 0.197693 0.607727
0.000000 0.257263 0.637054
0.000000 0.252533 0.681274
0.000000 0.224365 0.680542
0.000000 0.217316 0.689697
0.202240 0.225922 0.679413
0.330231 0.221008 0.665863
0.417847 0.218658 0.652557
0.509369 0.221924 0.641205
0.569794 0.223907 0.623566
0.000000 0.335510 0.683594
0.000000 0.346710 0.716797
0.000000 0.347076 0.775330
0.000000 0.316864 0.786346
0.000000 0.317352 0.792511
0.317444 0.327667 0.719269
0.437347 0.321442 0.697266
0.532654 0.314972 0.680176
0.602844 0.294281 0.657440
0.000000 0.410034 0.711761
0.000000 0.425629 0.743011
0.000000 0.440765 0.783630
0.000000 0.449799 0.830994
0.196106 0.425262 0.829132
0.237732 0.420807 0.830566
0.426636 0.432251 0.758942
0.575897 0.427460 0.732574
0.657684 0.408081 0.708679
0.000000 0.503052 0.755280
0.000000 0.519684 0.781128
0.000000 0.539917 0.819580
0.163513 0.561157 0.854675
0.370300 0.573669 0.867645
0.413452 0.552551 0.866821
0.480530 0.553802 0.864838
0.640839 0.562347 0.781860
0.723694 0.544312 0.763977
0.000000 0.596375 0.782837
0.000000 0.615753 0.806641
0.119049 0.632629 0.830566
0.254578 0.653625 0.864624
0.401886 0.671906 0.890198
0.547119 0.679779 0.908203
0.623138 0.675507 0.902222
0.702515 0.684326 0.846008
0.793396 0.678802 0.810333
0.000000 0.678894 0.799042
0.000000 0.693024 0.813538
0.190643 0.708130 0.831177
0.299500 0.724487 0.857391
0.432678 0.736145 0.877106
0.562561 0.748993 0.910919
0.721649 0.778931 0.943909
0.796234 0.789185 0.900696
0.869537 0.792725 0.876556
0.000000 0.752075 0.808807
0.141815 0.765411 0.820496
0.229950 0.778717 0.837646
0.343353 0.797119 0.859772
0.476593 0.812683 0.879272
0.596008 0.827026 0.902832
0.706909 0.852997 0.960693
0.864532 0.885437 0.972229
0.979309 0.899261 0.971069
0.177094 0.823151 0.812866
0.200806 0.836243 0.824066
0.273193 0.854462 0.845825
0.335571 0.871277 0.864227
0.499451 0.888641 0.882355
0.615234 0.905334 0.902008
0.718048 0.927338 0.933380
0.852417 0.964203 0.966553
0.978760 0.993439 0.970215
