Kodak Vision 500T (5279) - Look.cube
# Created by Benjamin (IWLTBAP) : http://luts.iwltbap.com
# Copyright: (C) Copyright 2010-2017 Triune Films and IWLTBAP SAS
# Cannot be resold, shared or otherwise redistributed
TITLE "Film Print Emulation LUTs Pack (Rec.709, sRGB, DCI-P3)"
LUT_3D_SIZE 5
0.002136 0.000000 0.000000
0.151184 0.028351 0.022247
0.346222 0.047974 0.047577
0.596313 0.061371 0.079926
0.839020 0.103699 0.117096
0.003815 0.134094 0.023529
0.143219 0.153259 0.040405
0.382111 0.181915 0.073303
0.645355 0.223541 0.108124
0.890076 0.293121 0.155426
0.002625 0.316559 0.072937
0.043915 0.334961 0.085144
0.387421 0.382233 0.101654
0.693054 0.453827 0.150970
0.936676 0.528931 0.224426
0.003815 0.541229 0.135468
0.030975 0.555817 0.140900
0.374878 0.620697 0.180725
0.724060 0.680695 0.229614
0.947998 0.739471 0.296234
0.011108 0.761719 0.257233
0.039368 0.774597 0.265625
0.376617 0.824463 0.333069
0.742218 0.856384 0.342560
0.948578 0.885498 0.378693
0.004852 0.012360 0.102814
0.146362 0.031769 0.169006
0.370941 0.052521 0.171753
0.616425 0.069824 0.213135
0.858734 0.121796 0.263245
0.001343 0.145630 0.164337
0.151367 0.162231 0.194733
0.396576 0.190918 0.209534
0.660187 0.240875 0.255859
0.910797 0.321136 0.323730
0.003204 0.334198 0.199463
0.032349 0.352081 0.216034
0.407867 0.412292 0.270081
0.717529 0.473236 0.333008
0.945312 0.537933 0.397705
0.004242 0.563110 0.272064
0.029114 0.570953 0.279633
0.385376 0.639709 0.357941
0.721771 0.692261 0.400543
0.944977 0.749207 0.469452
0.012207 0.778107 0.365143
0.038818 0.789795 0.381989
0.294067 0.823578 0.441162
0.742615 0.863922 0.483002
0.947662 0.891724 0.532837
0.000824 0.028168 0.260040
0.057007 0.040039 0.363617
0.387817 0.057556 0.375488
0.666229 0.085571 0.384857
0.895874 0.146027 0.439575
0.001923 0.155548 0.353760
0.039246 0.174103 0.403381
0.417664 0.206787 0.408905
0.712830 0.263123 0.436279
0.925598 0.341461 0.496643
0.004425 0.364807 0.380371
0.033997 0.390930 0.404846
0.438293 0.433014 0.457947
0.737122 0.488892 0.503754
0.943787 0.554291 0.558472
0.005798 0.592773 0.449738
0.031982 0.609528 0.465851
0.372864 0.660736 0.517029
0.735901 0.712067 0.572601
0.945068 0.760773 0.625397
0.015106 0.810089 0.533051
0.040497 0.820068 0.549866
0.177429 0.836670 0.584656
0.737183 0.875092 0.637848
0.947205 0.897522 0.670898
0.000641 0.032166 0.463593
0.050171 0.039276 0.537506
0.384094 0.063202 0.598175
0.713928 0.093719 0.596954
0.918243 0.161713 0.612549
0.004761 0.174530 0.562561
0.042358 0.199646 0.602478
0.429688 0.238556 0.629761
0.750641 0.302063 0.641022
0.941772 0.364410 0.661438
0.006226 0.398041 0.600159
0.046509 0.434845 0.640137
0.419617 0.460754 0.674988
0.759583 0.507904 0.675781
0.953522 0.564453 0.705017
0.008148 0.634857 0.632111
0.036011 0.655121 0.648682
0.350494 0.694672 0.688873
0.751831 0.723236 0.717499
0.949677 0.763947 0.755280
0.017151 0.830872 0.688782
0.042511 0.840363 0.700562
0.184906 0.856415 0.726837
0.741516 0.881989 0.769928
0.948730 0.902100 0.791779
0.002045 0.036713 0.684265
0.038544 0.041473 0.723389
0.433380 0.079102 0.762451
0.722168 0.113251 0.781067
0.931824 0.193451 0.787170
0.008636 0.202789 0.761993
0.083374 0.231049 0.783142
0.471283 0.259430 0.790283
0.760254 0.328156 0.808289
0.948273 0.395142 0.815643
0.010010 0.438843 0.792999
0.068787 0.477997 0.815948
0.479492 0.499451 0.830505
0.767975 0.528107 0.826447
0.954041 0.583771 0.839478
0.012756 0.680267 0.805206
0.048309 0.702209 0.819794
0.438843 0.725098 0.843903
0.757874 0.733002 0.854004
0.952240 0.765198 0.857849
0.019379 0.861725 0.832886
0.050995 0.870392 0.841339
0.386353 0.879974 0.846954
0.761078 0.887512 0.865417
0.950195 0.902008 0.879242
